BBLuts/BB_106_0380_LUT.cube
TITLE "Generated by Resolve"
LUT_3D_SIZE 9
0.0249027 0.0265354 0.0293431
0.0249027 0.0265354 0.0293431
0.194858 0.0281987 0.0305028
0.430396 0.0230716 0.0249027
0.71545 0.0143893 0.0153964
0.862547 0.0243381 0.0244144
0.832929 0.58854 0.198169
0.802701 0.826688 0.541924
0.791012 0.898604 0.816022
0.0196994 0.0829938 0.0296178
0.0188144 0.09308 0.0297398
0.199649 0.0756542 0.0296941
0.44213 0.0226596 0.0244602
0.71722 0.0144198 0.0154269
0.862547 0.0243381 0.0244144
0.83061 0.610651 0.187289
0.802457 0.829328 0.540108
0.790982 0.898894 0.815885
0.00448615 0.231907 0.0294347
0.00402838 0.235508 0.0293431
0.152956 0.235065 0.0292058
0.435492 0.209277 0.0239719
0.714183 0.0899519 0.0148013
0.854322 0.263386 0.043595
0.827314 0.64065 0.168887
0.802136 0.833143 0.537377
0.790951 0.899321 0.815702
0 0.496376 0.018204
0 0.497581 0.0181888
0 0.498192 0.0181888
0.356863 0.502922 0.0261234
0.697963 0.496117 0.0316777
0.835142 0.562814 0.0481422
0.819532 0.712459 0.0429236
0.801282 0.84361 0.528969
0.790829 0.900633 0.815091
0 0.779202 0.0358282
0 0.77911 0.0358129
0 0.778775 0.0357366
0 0.776593 0.0352789
0.633585 0.770169 0.0330205
0.79556 0.778286 0.0404212
0.809491 0.815656 0.0412757
0.799252 0.866117 0.527825
0.790509 0.904341 0.813169
0 0.917586 0.0718242
0 0.916991 0.0716869
0 0.916075 0.0714733
0 0.913176 0.0707713
0.613718 0.895476 0.0457771
0.758175 0.888441 0.0426032
0.802228 0.88925 0.166659
0.795743 0.897215 0.569757
0.789776 0.912734 0.808606
0.55346 0.94139 0.321187
0.563897 0.940871 0.320974
0.579019 0.939818 0.321202
0.615656 0.937133 0.322164
0.679591 0.93286 0.331228
0.747204 0.928542 0.367834
0.792203 0.924697 0.474144
0.791104 0.922118 0.674159
0.78851 0.924392 0.824826
0.724453 0.931441 0.737209
0.725216 0.931441 0.737301
0.72636 0.931441 0.737453
0.729763 0.931441 0.737926
0.738949 0.931456 0.739452
0.757565 0.931472 0.744289
0.781079 0.93138 0.758602
0.787961 0.930999 0.796582
0.787442 0.93077 0.859937
0.770047 0.93077 0.879408
0.770138 0.93077 0.879423
0.77026 0.93077 0.879438
0.770672 0.93077 0.879484
0.771893 0.93077 0.879637
0.775189 0.930785 0.880079
0.781857 0.930816 0.881529
0.787305 0.93077 0.885771
0.787259 0.930785 0.897719
0.0243229 0.0261387 0.0832685
0.0243229 0.0261387 0.0835279
0.194324 0.0281987 0.0857862
0.430915 0.0229191 0.0818952
0.714916 0.0142824 0.0779736
0.862058 0.0247349 0.123888
0.833295 0.583993 0.264897
0.802304 0.825742 0.573068
0.790997 0.898512 0.819394
0.0215763 0.0594339 0.0746624
0.0611276 0.0711223 0.0731823
0.211673 0.0282139 0.0771038
0.436805 0.0227207 0.0696269
0.715892 0.014313 0.0465858
0.86215 0.024567 0.0974899
0.8309 0.607355 0.253513
0.80206 0.828412 0.571527
0.790967 0.898802 0.819257
0.00563058 0.222965 0.0296635
0.00523384 0.226062 0.0296025
0.170764 0.225834 0.0293584
0.433951 0.199435 0.0237583
0.717861 0.014435 0.0154269
0.854765 0.247089 0.0420996
0.827543 0.63798 0.234806
0.801724 0.832242 0.569223
0.790921 0.899245 0.819089
0 0.491768 0.0182498
0 0.492912 0.0182345
0 0.493355 0.0182345
0.368917 0.497704 0.0260929
0.69778 0.491783 0.0317235
0.835386 0.559823 0.0481575
0.819226 0.71104 0.159457
0.800839 0.842786 0.562219
0.790814 0.900557 0.818509
0 0.77818 0.0356146
0 0.778058 0.035584
0 0.777707 0.0355077
0 0.775494 0.0350347
0.635721 0.769207 0.0329595
0.795666 0.777646 0.0404212
0.809522 0.81532 0.0412757
0.799054 0.865797 0.541527
0.790478 0.904265 0.816678
0 0.917403 0.0717784
0 0.916793 0.0716411
0 0.915877 0.0714122
0 0.912993 0.0707256
0.615076 0.895308 0.0456855
0.758373 0.888334 0.0425879
0.802228 0.889204 0.166033
0.795743 0.897185 0.569604
0.789746 0.912703 0.810971
0.555047 0.941314 0.320897
0.565423 0.94081 0.320699
0.580362 0.939696 0.320943
0.616587 0.937057 0.321965
0.680018 0.932815 0.33109
0.747311 0.928527 0.367727
0.792233 0.924681 0.474128
0.791104 0.922118 0.674098
0.78851 0.924376 0.824811
0.724575 0.931441 0.737194
0.725322 0.931441 0.737301
0.726467 0.931441 0.737438
0.72987 0.931441 0.737911
0.739025 0.931456 0.739437
0.75761 0.931472 0.744289
0.781094 0.93138 0.758587
0.787961 0.930999 0.796582
0.787442 0.93077 0.859922
0.770077 0.93077 0.879408
0.770153 0.93077 0.879423
0.770291 0.93077 0.879438
0.770687 0.93077 0.879484
0.771893 0.93077 0.879622
0.775189 0.930785 0.880079
0.781857 0.930816 0.881514
0.787305 0.93077 0.885771
0.787259 0.930785 0.897719
0.0241703 0.0267185 0.216068
0.0241703 0.0267185 0.216266
0.174273 0.028275 0.217044
0.441611 0.0224308 0.208591
0.714168 0.0144656 0.207996
0.861585 0.025391 0.249546
0.833738 0.575113 0.363973
0.801785 0.824338 0.612451
0.790951 0.89839 0.824186
0.0241855 0.0267185 0.211872
0.0241855 0.0267185 0.212238
0.199466 0.0283665 0.212741
0.440131 0.0224918 0.204547
0.715892 0.0145113 0.203387
0.861616 0.0253758 0.241749
0.831235 0.601038 0.356237
0.801541 0.827039 0.611185
0.790936 0.89868 0.824063
0.00750744 0.198657 0.200397
0.00724804 0.200931 0.200031
0.162509 0.195514 0.195789
0.419974 0.174319 0.193637
0.71487 0.0144808 0.191562
0.855665 0.20148 0.2392
0.827771 0.632288 0.343999
0.80119 0.83093 0.609277
0.79089 0.899107 0.823896
0 0.479057 0.106035
0 0.480446 0.107149
0 0.481086 0.108598
0.370306 0.485298 0.118761
0.695018 0.479912 0.129519
0.836118 0.550958 0.180652
0.818982 0.70724 0.304112
0.800259 0.841581 0.60354
0.790768 0.90042 0.823346
0 0.776211 0.0351873
0 0.776089 0.035172
0 0.775738 0.0350958
0 0.773495 0.0346227
0.637659 0.767376 0.0328222
0.795697 0.776257 0.0404212
0.808484 0.813931 0.180987
0.798398 0.86482 0.586892
0.790448 0.904158 0.821637
0 0.917113 0.0717021
0 0.916503 0.0715648
0 0.915572 0.0713359
0.0717479 0.912291 0.0696727
0.617136 0.895033 0.0455482
0.758679 0.888197 0.0425879
0.802243 0.889097 0.165042
0.795743 0.897124 0.569329
0.7897 0.912612 0.816373
0.557412 0.941192 0.320439
0.567742 0.940703 0.320256
0.582406 0.939544 0.320546
0.61799 0.93695 0.32166
0.680644 0.932769 0.330877
0.747494 0.928496 0.367544
0.792264 0.924666 0.474083
0.791104 0.922103 0.674006
0.78851 0.924392 0.824796
0.724743 0.931441 0.737163
0.725505 0.931441 0.737255
0.726635 0.931441 0.737423
0.730022 0.931441 0.737896
0.739147 0.931456 0.739406
0.757671 0.931456 0.744244
0.781125 0.93138 0.758572
0.787961 0.930999 0.796582
0.787442 0.93077 0.859907
0.770092 0.93077 0.879423
0.770184 0.93077 0.879423
0.770306 0.93077 0.879438
0.770703 0.93077 0.879484
0.771908 0.93077 0.879622
0.775204 0.930785 0.880079
0.781872 0.930816 0.881514
0.787305 0.93077 0.885771
0.787259 0.930785 0.897719
0.021912 0.02533 0.466926
0.021912 0.02533 0.467094
0.021912 0.02533 0.467201
0.415244 0.0210269 0.461891
0.725139 0.0133516 0.460182
0.860059 0.0246128 0.492699
0.835279 0.542107 0.577325
0.800732 0.820279 0.693339
0.790875 0.897993 0.837308
0.0219425 0.0253605 0.464454
0.0219425 0.0253605 0.464698
0.0906844 0.0257115 0.464668
0.431357 0.0204623 0.458808
0.723659 0.0133059 0.457359
0.860075 0.0246281 0.489464
0.832441 0.575341 0.573663
0.800443 0.823087 0.692561
0.79086 0.898283 0.837201
0.0150149 0.0914321 0.459617
0.0144198 0.0973068 0.459831
0.113771 0.0921492 0.459266
0.437736 0.0202945 0.45449
0.719478 0.0131838 0.453025
0.860121 0.0246586 0.483772
0.828534 0.612039 0.567498
0.800061 0.827146 0.691447
0.790814 0.898726 0.837064
0 0.430625 0.428946
0 0.432547 0.429267
0 0.433799 0.429969
0.363043 0.438224 0.437644
0.685863 0.433234 0.446097
0.838071 0.5149 0.480858
0.818433 0.693278 0.546822
0.799008 0.838224 0.688075
0.790692 0.900053 0.836606
0 0.768246 0.34229
0 0.7682 0.343069
0 0.767926 0.344182
0 0.76585 0.347234
0.633478 0.759121 0.354055
0.792081 0.768521 0.39527
0.805264 0.807752 0.495995
0.796902 0.862196 0.678798
0.790356 0.903822 0.835172
0 0.916259 0.0715038
0 0.915663 0.0713664
0 0.914733 0.0711376
0.0977493 0.911559 0.0695811
0.617761 0.894286 0.0454566
0.756924 0.886641 0.194751
0.799435 0.886412 0.403037
0.794034 0.895415 0.654948
0.789593 0.912352 0.830808
0.564843 0.940856 0.319036
0.57499 0.940063 0.319295
0.588617 0.93904 0.319341
0.622293 0.936614 0.320684
0.682628 0.932601 0.330175
0.748043 0.92842 0.36701
0.792386 0.92462 0.473991
0.791104 0.922087 0.673732
0.78851 0.924361 0.824704
0.725292 0.931441 0.737087
0.72604 0.931456 0.737194
0.727169 0.931441 0.737331
0.73051 0.931441 0.737804
0.739528 0.931456 0.73933
0.75787 0.931472 0.744183
0.781186 0.93138 0.758511
0.787961 0.930999 0.796567
0.787442 0.93077 0.859892
0.770153 0.93077 0.879408
0.77023 0.93077 0.879408
0.770367 0.93077 0.879423
0.770764 0.93077 0.879469
0.771969 0.93077 0.879606
0.77525 0.930785 0.880064
0.781888 0.930816 0.881514
0.787305 0.93077 0.885756
0.787259 0.930785 0.897719
0.0183108 0.0226139 0.767971
0.0183108 0.0226139 0.768032
0.0183108 0.0226139 0.768139
0.247807 0.0223545 0.767147
0.714595 0.0112459 0.760021
0.858747 0.0246738 0.769818
0.848295 0.363455 0.796506
0.80029 0.809094 0.812406
0.790784 0.896864 0.865568
0.0183108 0.0226139 0.767452
0.0183108 0.0226139 0.767529
0.0183108 0.0226139 0.76762
0.276417 0.0218204 0.766262
0.718624 0.011429 0.759579
0.858747 0.0246586 0.769268
0.843259 0.436423 0.795666
0.799924 0.81236 0.811948
0.790753 0.897169 0.865492
0.0183108 0.0226139 0.76669
0.0183108 0.0226139 0.766751
0.0183108 0.0226139 0.766857
0.314046 0.0208591 0.764858
0.720943 0.0115358 0.758785
0.858747 0.0246433 0.768383
0.836744 0.517845 0.793439
0.799405 0.817029 0.811307
0.790707 0.897627 0.8654
0 0.24155 0.762234
0 0.244587 0.762249
0 0.248356 0.762264
0.305669 0.242283 0.7626
0.715175 0.104082 0.756039
0.852003 0.287358 0.775982
0.823255 0.643427 0.785367
0.798062 0.829709 0.809445
0.790585 0.899016 0.865095
0 0.733394 0.743496
0 0.733639 0.743618
0 0.733684 0.743755
0 0.732296 0.743923
0.619974 0.72604 0.743145
0.785534 0.740871 0.750332
0.802869 0.791302 0.764767
0.795087 0.856641 0.804929
0.790234 0.902922 0.864164
0 0.911131 0.726452
0 0.910567 0.726528
0 0.909667 0.726665
0 0.906828 0.727031
0.588464 0.886 0.713054
0.743404 0.877379 0.719158
0.793805 0.879133 0.74406
0.791867 0.891875 0.795132
0.789425 0.911711 0.861448
0.557137 0.936614 0.628168
0.566934 0.935851 0.627863
0.580591 0.934798 0.627543
0.614343 0.932326 0.627405
0.675013 0.928237 0.630793
0.74081 0.924147 0.647456
0.785946 0.920989 0.688853
0.789548 0.920256 0.769909
0.788327 0.924025 0.853758
0.727016 0.931456 0.736812
0.727733 0.931456 0.736919
0.728801 0.931456 0.737057
0.732021 0.931456 0.737545
0.740703 0.931456 0.739086
0.758511 0.931472 0.743954
0.781384 0.931395 0.758297
0.787961 0.930999 0.796536
0.787442 0.93077 0.859785
0.770352 0.93077 0.879377
0.770428 0.93077 0.879393
0.77055 0.93077 0.879408
0.770962 0.93077 0.879454
0.772137 0.93077 0.879591
0.775387 0.930785 0.880049
0.781964 0.930816 0.881498
0.787305 0.93077 0.88574
0.787259 0.930785 0.897704
0.0190433 0.0243687 0.907317
0.0190433 0.0243687 0.907317
0.0190585 0.0243687 0.907332
0.0190585 0.0243687 0.907362
0.626993 0.0129091 0.898604
0.859602 0.0287785 0.90312
0.859617 0.0287938 0.903746
0.805951 0.762356 0.899748
0.790906 0.893385 0.903014
0.0190433 0.0243687 0.907256
0.0190433 0.0243687 0.907271
0.0190433 0.0243687 0.907271
0.0190433 0.0243687 0.907301
0.633417 0.0128328 0.898451
0.859602 0.0287785 0.903044
0.859617 0.0287938 0.9037
0.805051 0.768704 0.899062
0.790875 0.893736 0.902968
0.0190585 0.0243687 0.907179
0.0190585 0.0243687 0.907179
0.0190433 0.0243687 0.907195
0.0190433 0.0243687 0.907225
0.642832 0.0127718 0.898253
0.859602 0.0287633 0.902968
0.859602 0.0287938 0.903624
0.803845 0.777462 0.898146
0.790814 0.89427 0.902907
0.0190433 0.0243534 0.906935
0.0190433 0.0243534 0.90695
0.0190433 0.0243534 0.90695
0.0190433 0.0243534 0.906813
0.665492 0.0128328 0.89781
0.859602 0.0287633 0.902693
0.859586 0.0287327 0.902083
0.801022 0.799374 0.895964
0.790677 0.895857 0.902724
0 0.550973 0.901244
0 0.552361 0.901244
0 0.554467 0.901213
0 0.558312 0.900862
0.623362 0.554269 0.902235
0.831113 0.59057 0.908827
0.812467 0.718166 0.898177
0.796384 0.840497 0.892164
0.790265 0.900298 0.902205
0 0.901961 0.902586
0 0.901579 0.902525
0 0.900893 0.902419
0 0.898177 0.901961
0.523644 0.878569 0.887404
0.734325 0.866316 0.881392
0.792844 0.87039 0.882643
0.791592 0.886763 0.887556
0.789364 0.910079 0.900801
0.451759 0.937957 0.88069
0.475059 0.936706 0.879698
0.504204 0.934981 0.878386
0.562921 0.930877 0.875456
0.646571 0.924849 0.87216
0.72604 0.920165 0.871839
0.776532 0.917723 0.874571
0.788678 0.918517 0.881895
0.788144 0.923339 0.897719
0.72134 0.930602 0.844343
0.722057 0.930602 0.844373
0.72314 0.930602 0.844419
0.72639 0.930617 0.844587
0.735164 0.930632 0.845121
0.753201 0.930709 0.84683
0.776577 0.9308 0.85211
0.787411 0.93077 0.865782
0.787289 0.93077 0.889815
0.770962 0.93077 0.879301
0.771038 0.93077 0.879316
0.77116 0.93077 0.879332
0.771542 0.93077 0.879377
0.772686 0.93077 0.879515
0.775814 0.930785 0.879973
0.782193 0.930816 0.881422
0.787305 0.93077 0.885679
0.787259 0.930785 0.897688
0.0193637 0.0249485 0.942153
0.0193637 0.0249485 0.942153
0.0193637 0.0249485 0.942153
0.0193637 0.0249485 0.942153
0.0193637 0.0249485 0.942153
0.853056 0.0296941 0.945251
0.860014 0.0304112 0.945602
0.860014 0.0304112 0.945602
0.792187 0.877958 0.934432
0.0193637 0.0249485 0.942153
0.0193637 0.0249485 0.942153
0.0193637 0.0249485 0.942153
0.0193637 0.0249485 0.942153
0.0193637 0.0249485 0.942153
0.853956 0.0298009 0.945312
0.860014 0.0304112 0.945602
0.860014 0.0304112 0.945602
0.792126 0.878584 0.934386
0.0193637 0.0249485 0.942153
0.0193637 0.0249485 0.942153
0.0193637 0.0249485 0.942153
0.0193637 0.0249485 0.942153
0.0193637 0.0249485 0.942153
0.855299 0.0299687 0.945388
0.860014 0.0304112 0.945602
0.860014 0.0304112 0.945602
0.792035 0.87953 0.934325
0.0193637 0.0249485 0.942153
0.0193637 0.0249485 0.942153
0.0193637 0.0249485 0.942153
0.0193637 0.0249485 0.942153
0.0193637 0.0249485 0.942153
0.859373 0.0304723 0.945632
0.860014 0.0304112 0.945602
0.860014 0.0304112 0.945602
0.791775 0.882338 0.934112
0.0193637 0.0249485 0.942153
0.0193637 0.0249485 0.942153
0.0193637 0.0249485 0.942153
0.0193637 0.0249485 0.942153
0.226596 0.0248264 0.941863
0.860014 0.0304112 0.945602
0.860014 0.0304112 0.945602
0.822599 0.655024 0.953552
0.791089 0.889738 0.933547
0 0.814847 0.952468
0 0.815091 0.952483
0 0.815488 0.952499
0 0.816663 0.95256
0 0.813107 0.951293
0.745892 0.796246 0.938369
0.798718 0.817517 0.935897
0.793561 0.863783 0.932952
0.789761 0.904219 0.932418
0 0.952117 0.953887
0 0.952117 0.953841
0 0.951797 0.953948
0 0.949401 0.953628
0.570413 0.925917 0.932784
0.71133 0.916625 0.928435
0.773129 0.913802 0.928298
0.788739 0.915465 0.92874
0.788159 0.921569 0.930724
0.703609 0.930571 0.924361
0.704585 0.930571 0.924346
0.706035 0.930571 0.924346
0.710338 0.930571 0.924315
0.721767 0.930571 0.924254
0.74406 0.930663 0.924254
0.771008 0.9308 0.924544
0.787137 0.9308 0.925566
0.787121 0.9308 0.928466
0.768887 0.930785 0.914412
0.768963 0.930785 0.914427
0.769085 0.930785 0.914427
0.769467 0.930785 0.914458
0.770611 0.930785 0.914504
0.773724 0.9308 0.914702
0.780133 0.930831 0.915312
0.787167 0.9308 0.917128
0.787152 0.9308 0.922164
0.00805676 0.122347 0.941344
0.00805676 0.122362 0.941344
0.00805676 0.122362 0.941344
0.00805676 0.122362 0.941344
0.0080415 0.122393 0.941344
0.0080415 0.122499 0.941344
0.860014 0.0304112 0.945602
0.8533 0.304952 0.958846
0.813642 0.71162 0.951461
0.00805676 0.122332 0.941344
0.00805676 0.122332 0.941344
0.00805676 0.122347 0.941344
0.00805676 0.122347 0.941344
0.0080415 0.122377 0.941344
0.0080415 0.122499 0.941344
0.860014 0.0304112 0.945602
0.853284 0.305318 0.958862
0.813657 0.711604 0.951461
0.00805676 0.122316 0.941344
0.00805676 0.122316 0.941344
0.00805676 0.122316 0.941344
0.00805676 0.122332 0.941344
0.00805676 0.122362 0.941344
0.0080415 0.122469 0.941344
0.860014 0.0304112 0.945602
0.853269 0.305867 0.958877
0.813657 0.711574 0.951461
0.00805676 0.122225 0.941344
0.00805676 0.122225 0.941344
0.00805676 0.122225 0.941344
0.00805676 0.12224 0.941344
0.00805676 0.122286 0.941344
0.0080415 0.122377 0.941344
0.860014 0.0304112 0.945602
0.853193 0.307576 0.958923
0.813672 0.711498 0.951461
0.00808728 0.121965 0.941344
0.00808728 0.121965 0.941344
0.00808728 0.121996 0.941344
0.00808728 0.121996 0.941344
0.00808728 0.122026 0.941344
0.00807202 0.122133 0.941344
0.860014 0.0304112 0.945602
0.853056 0.310704 0.959014
0.813703 0.711208 0.951476
0.00816358 0.121157 0.941329
0.00816358 0.121157 0.941329
0.00816358 0.121157 0.941329
0.00816358 0.121172 0.941329
0.00816358 0.121187 0.941329
0.684047 0.0143435 0.937804
0.860014 0.0304112 0.945602
0.852827 0.315801 0.959167
0.795666 0.84477 0.945617
0 0.927398 0.968368
0 0.927428 0.968368
0 0.927459 0.968368
0 0.927581 0.968383
0 0.927962 0.968414
0.622889 0.89482 0.947387
0.777462 0.888395 0.945602
0.790417 0.895964 0.945525
0.788861 0.912932 0.945602
0.606622 0.932342 0.947723
0.6112 0.932174 0.94754
0.617746 0.93196 0.947295
0.635523 0.931441 0.946715
0.673152 0.930739 0.945861
0.723369 0.930556 0.945464
0.765484 0.930755 0.945495
0.787259 0.93109 0.945739
0.787259 0.93109 0.945739
0.762768 0.930755 0.944198
0.762875 0.930755 0.944198
0.763043 0.930755 0.944198
0.763531 0.93077 0.944198
0.765026 0.93077 0.944198
0.768994 0.9308 0.944183
0.776867 0.930831 0.944198
0.785901 0.930877 0.944259
0.787045 0.930816 0.944503
0 0.365042 0.943725
0 0.365042 0.943725
0 0.365042 0.943725
0 0.365042 0.943725
0 0.365057 0.943709
0 0.365087 0.943709
0 0.365225 0.943725
0.845228 0.43859 0.960525
0.808423 0.745281 0.949233
0 0.365011 0.943725
0 0.365011 0.943725
0 0.365011 0.943725
0 0.365042 0.943725
0 0.365042 0.943725
0 0.365072 0.943709
0 0.365194 0.943709
0.845212 0.438788 0.960525
0.808423 0.745296 0.949233
0 0.365011 0.943725
0 0.365011 0.943725
0 0.365011 0.943725
0 0.365011 0.943725
0 0.365042 0.943725
0 0.365072 0.943709
0 0.365194 0.943709
0.845197 0.439094 0.960525
0.808423 0.745342 0.949233
0 0.364981 0.943709
0 0.364981 0.943709
0 0.364981 0.943709
0 0.364996 0.943725
0 0.364996 0.943725
0 0.365042 0.943725
0 0.365164 0.943709
0.845121 0.44004 0.960525
0.808392 0.745464 0.949218
0 0.364889 0.943725
0 0.364889 0.943725
0 0.364889 0.943725
0 0.364889 0.943725
0 0.364904 0.943725
0 0.364935 0.943709
0 0.365072 0.943709
0.844892 0.443061 0.96051
0.808331 0.745846 0.949203
0 0.364569 0.943709
0 0.364569 0.943709
0 0.364584 0.943709
0 0.364584 0.943709
0 0.364584 0.943709
0 0.36463 0.943709
0 0.362188 0.943709
0.84416 0.452628 0.960479
0.80824 0.746532 0.949157
0 0.363561 0.943709
0 0.363561 0.943709
0 0.363561 0.943709
0 0.363577 0.943709
0 0.363577 0.943709
0 0.363622 0.943709
0.860014 0.0304112 0.945602
0.842405 0.474998 0.960342
0.808057 0.747707 0.949096
0 0.952178 0.96968
0 0.952178 0.96968
0 0.952178 0.96968
0 0.952178 0.96968
0 0.952178 0.96968
0 0.952178 0.96968
0.736049 0.924193 0.945678
0.788006 0.922179 0.945632
0.787762 0.924895 0.945632
0.733089 0.930587 0.945449
0.733471 0.930587 0.945449
0.734035 0.930587 0.945449
0.735759 0.930602 0.945449
0.740719 0.930617 0.945464
0.7523 0.930678 0.945464
0.769741 0.930785 0.945495
0.784009 0.930846 0.94551
0.787259 0.93109 0.945739
