BBLuts/BB_106_0450_LUT.cube
TITLE "Generated by Resolve"
LUT_3D_SIZE 5
0 0 0
0.208988 0 0
0.84535 0.38645 0.381399
1 0.563638 0.581781
0.911879 0.884428 0.448859
0 0.217533 0
0.165179 0.221241 0
0.845853 0.41944 0.38468
1 0.606928 0.571923
0.924468 0.890166 0.421744
0 0.826566 0
0 0.823911 0
0.770459 0.816999 0
0.919921 0.867231 0.205264
0.964828 0.921569 0
0 0.993118 0
0 0.990494 0
0.726986 0.971618 0
0.963226 0.967254 0
0.977172 0.972045 0
0.88191 0.990036 0.0619211
0.874052 0.992477 0.074464
0.910155 0.990799 0.0647593
0.961761 0.984512 0.533043
0.982528 0.982513 0.730648
0 0 0.203098
0.229526 0 0.20116
0.855573 0.387793 0.417548
1 0.558404 0.593301
0.903655 0.884062 0.533761
0 0.185885 0.165927
0.190784 0.189532 0.169986
0.842084 0.405493 0.4009
1 0.598215 0.584451
0.911788 0.891127 0.523903
0 0.822232 0
0 0.819547 0
0.772885 0.813504 0
0.912535 0.866941 0.263966
0.963378 0.92047 0.241047
0 0.992584 0
0 0.990021 0
0.734997 0.971237 0
0.963439 0.967178 0
0.977157 0.971984 0
0.882658 0.990036 0.0619059
0.887327 0.990097 0.0620432
0.910964 0.990723 0.0643931
0.961868 0.984527 0.532799
0.982513 0.982513 0.730617
0.592935 0.53904 0.809033
0.593118 0.539223 0.809201
0.894423 0.570184 0.81384
1 0.626184 0.831571
0.997116 0.838163 0.832639
0.591012 0.537087 0.807431
0.590875 0.536965 0.80734
0.900969 0.570718 0.812772
1 0.627939 0.827298
0.996277 0.849805 0.829282
0.0669871 0.792538 0.753872
0.0668803 0.791363 0.754116
0.776654 0.775296 0.753994
0.995987 0.813764 0.778958
0.946563 0.915633 0.777905
0 0.992981 0.205051
0 0.990387 0.208209
0.698466 0.969909 0.209308
0.956909 0.956527 0.589532
0.976349 0.962005 0.761685
0.887617 0.990097 0.0617838
0.891936 0.990143 0.0619211
0.915343 0.990478 0.0628672
0.962661 0.984588 0.53077
0.982513 0.982513 0.730449
0.792691 0.746303 0.979278
0.792691 0.746303 0.979278
0.81651 0.746166 0.978805
1 0.758206 0.979446
1 0.770352 0.971542
0.792691 0.746303 0.979278
0.792691 0.746303 0.979278
0.822431 0.745983 0.978546
1 0.75816 0.979385
1 0.779904 0.968963
0.79089 0.746166 0.977752
0.790829 0.746181 0.977691
0.848676 0.745129 0.975753
1 0.758907 0.974548
1 0.864805 0.953048
0 0.995377 0.951522
0 0.992493 0.951354
0.702419 0.961028 0.935714
0.952529 0.951431 0.931823
0.984848 0.961089 0.925917
0.879515 0.983215 0.915953
0.88394 0.983215 0.916014
0.908141 0.983291 0.916426
0.958099 0.983719 0.918303
0.988998 0.985611 0.923201
0.79263 0.746761 0.979263
0.79263 0.746761 0.979263
0.79263 0.746761 0.979263
1 0.762478 0.984268
1 0.765133 0.984283
0.79263 0.746761 0.979263
0.79263 0.746761 0.979263
0.79263 0.746761 0.979263
1 0.762554 0.984283
1 0.765133 0.984283
0.79263 0.746761 0.979263
0.79263 0.746761 0.979263
0.79263 0.746761 0.979263
1 0.763088 0.98439
1 0.765179 0.984283
0.780789 0.790692 0.977813
0.780713 0.790814 0.977813
0.780148 0.791669 0.977783
0.998962 0.79855 0.981826
1 0.858381 0.979248
0.727321 0.989273 0.972671
0.754528 0.988479 0.971939
0.846738 0.986999 0.970733
0.947692 0.987182 0.971389
0.990662 0.989548 0.969223
