BBLuts/BB_103_0500_LUT.cube
TITLE "Generated by Resolve"
LUT_3D_SIZE 9
0 0 0
0.0324865 0 0
0.167285 0 0
0.390066 0 0
0.704707 0 0
0.880247 0 0
0.8822 0.544533 0.0466773
0.858885 0.845136 0.287694
0.847517 0.940749 0.62359
0 0.0513161 0
0.0143435 0.0552682 0
0.167605 0.0368658 0
0.397208 0 0
0.706004 0 0
0.885557 0.0226596 0
0.879911 0.567498 0.0386206
0.858747 0.846998 0.286763
0.847501 0.940902 0.623484
0 0.184726 0
0 0.186221 0
0.113024 0.186358 0
0.401404 0.161578 0
0.714794 0.0938888 0
0.894392 0.250919 0
0.875486 0.604547 0.0176394
0.858457 0.851026 0.284855
0.847471 0.941238 0.623285
0 0.442176 0
0 0.443076 0
0 0.443961 0
0.314183 0.456168 0
0.701595 0.451606 0
0.877379 0.522316 0
0.86569 0.696559 0
0.857481 0.864469 0.283894
0.847379 0.942748 0.622324
0 0.772503 0
0 0.772473 0
0 0.771847 0
0 0.774243 0
0.61677 0.772732 0
0.827405 0.782162 0
0.855177 0.82472 0
0.855146 0.895582 0.293904
0.847044 0.947906 0.61886
0 0.939818 0
0 0.939818 0
0 0.939803 0
0 0.937133 0
0.583612 0.925444 0
0.78146 0.916976 0
0.850553 0.921569 0.0263523
0.851575 0.93904 0.33695
0.846052 0.960281 0.623163
0.487709 0.994995 0.137331
0.487709 0.994995 0.137331
0.487694 0.994995 0.137331
0.487663 0.994995 0.137331
0.656718 0.985565 0.144991
0.773999 0.979324 0.178225
0.841337 0.975967 0.267018
0.847379 0.974456 0.454093
0.844434 0.977523 0.653223
0.742016 0.989181 0.532448
0.742016 0.989181 0.532448
0.742016 0.989181 0.532448
0.742016 0.989181 0.532448
0.742 0.989181 0.532448
0.787152 0.989517 0.540917
0.829343 0.98967 0.56321
0.843626 0.989136 0.617426
0.842863 0.988556 0.709484
0.811337 0.98822 0.73959
0.811337 0.98822 0.73959
0.811337 0.98822 0.73959
0.811337 0.98822 0.73959
0.811337 0.98822 0.73959
0.811337 0.98822 0.73959
0.828702 0.988403 0.74258
0.842618 0.988434 0.750042
0.842512 0.988388 0.768231
0 0 0.0317845
0.0180362 0 0.0312352
0.166949 0 0.0278477
0.390341 0 0.0174716
0.706111 0 0.00378424
0.882231 0 0.00813306
0.883711 0.542626 0.0768292
0.858885 0.845106 0.287709
0.847501 0.940749 0.62359
0 0.0340276 0.0278325
0.0220035 0.0369421 0.0265049
0.168856 0.0145876 0.0243381
0.392844 0 0.0121309
0.705638 0 0
0.886168 0.00709544 0.000518807
0.881407 0.566033 0.0669566
0.858763 0.846983 0.286763
0.847501 0.940902 0.623484
0 0.175998 0.000442512
0 0.177554 0.00047303
0.122713 0.177523 0
0.398352 0.152148 0
0.711101 0.0759289 0
0.894926 0.238544 0
0.877195 0.604013 0.0462043
0.858457 0.851026 0.284855
0.847471 0.941238 0.623285
0 0.437003 0
0 0.437873 0
0 0.438544 0
0.323476 0.450584 0
0.701396 0.446769 0
0.877577 0.518761 0
0.86595 0.695583 0.000259403
0.857481 0.864439 0.283894
0.847379 0.942748 0.622324
0 0.770947 0
0 0.770916 0
0 0.770321 0
0 0.773068 0
0.618936 0.771527 0
0.827619 0.78143 0
0.855161 0.824353 0
0.855146 0.895567 0.293889
0.847044 0.947906 0.61886
0 0.939437 0
0 0.939467 0
0 0.939513 0
0 0.936812 0
0.585321 0.9252 0
0.781659 0.916854 0
0.850553 0.921492 0.0262913
0.851575 0.93904 0.33695
0.846052 0.960281 0.623163
0.490852 0.994812 0.137072
0.490852 0.994812 0.137072
0.490852 0.994812 0.137072
0.490822 0.994812 0.137087
0.657496 0.985504 0.144839
0.774197 0.979309 0.178119
0.841367 0.975952 0.266987
0.847379 0.974456 0.454093
0.844434 0.977523 0.653223
0.742184 0.989181 0.532433
0.742184 0.989181 0.532433
0.742184 0.989181 0.532433
0.742184 0.989181 0.532433
0.742168 0.989181 0.532448
0.787213 0.989517 0.540887
0.829358 0.98967 0.56318
0.843626 0.989136 0.617426
0.842863 0.988556 0.709484
0.811353 0.98822 0.73959
0.811353 0.98822 0.73959
0.811353 0.98822 0.73959
0.811353 0.98822 0.73959
0.811353 0.98822 0.73959
0.811353 0.98822 0.73959
0.828702 0.988403 0.74258
0.842618 0.988434 0.750042
0.842512 0.988388 0.768231
0 0 0.130159
0 0 0.130327
0.139574 0 0.12575
0.402441 0 0.109087
0.7084 0 0.0954147
0.884932 0 0.110384
0.887297 0.532341 0.19176
0.858595 0.843671 0.335393
0.847501 0.940749 0.62359
0 0 0.128588
0 0 0.128756
0.15523 0 0.123262
0.40061 0 0.106889
0.708522 0 0.0924544
0.887785 0 0.11043
0.885222 0.557244 0.186694
0.858457 0.845579 0.334524
0.847501 0.940902 0.623484
0 0.15021 0.115816
0 0.152255 0.115846
0.113146 0.14995 0.11397
0.387717 0.125154 0.107301
0.710307 0.0343023 0.093431
0.901244 0.199634 0.127596
0.881544 0.597772 0.177035
0.858167 0.849668 0.332616
0.847471 0.941238 0.623285
0 0.426291 0.0487526
0 0.427482 0.0489662
0 0.428321 0.0496681
0.324834 0.440024 0.0592966
0.701686 0.436912 0.0626383
0.883726 0.511513 0.0852216
0.871565 0.695628 0.142962
0.857206 0.863355 0.325689
0.847379 0.942748 0.622324
0 0.767391 0
0 0.767376 0
0 0.766766 0
0 0.769512 0
0.619944 0.768124 0
0.827817 0.778973 0
0.858427 0.826474 0.0496223
0.855039 0.89514 0.309331
0.847044 0.947906 0.61886
0 0.938888 0
0 0.938888 0
0 0.938888 0
0 0.937041 0
0.588678 0.924773 0
0.782177 0.916564 0
0.850568 0.921309 0.0261234
0.851575 0.938949 0.336645
0.846052 0.960281 0.623163
0.495857 0.994492 0.1364
0.495857 0.994492 0.1364
0.495857 0.994492 0.1364
0.496086 0.994476 0.136629
0.658717 0.985397 0.144549
0.774502 0.979248 0.17789
0.841413 0.975906 0.266819
0.847379 0.974441 0.453986
0.844434 0.977523 0.653223
0.742504 0.989181 0.532387
0.742504 0.989181 0.532387
0.742504 0.989181 0.532387
0.742504 0.989181 0.532387
0.742504 0.989181 0.532387
0.787335 0.989517 0.540841
0.829404 0.98967 0.563149
0.843626 0.989136 0.617411
0.842863 0.988556 0.709484
0.811383 0.98822 0.73959
0.811383 0.98822 0.73959
0.811383 0.98822 0.73959
0.811383 0.98822 0.73959
0.811383 0.98822 0.73959
0.811383 0.98822 0.73959
0.828717 0.988403 0.742565
0.842618 0.988434 0.750042
0.842512 0.988388 0.768231
0 0 0.353445
0 0 0.353582
0.00456245 0 0.353445
0.36286 0 0.336965
0.724025 0 0.319402
0.884459 0 0.335012
0.891615 0.484169 0.413886
0.857237 0.836606 0.493523
0.847288 0.940093 0.64831
0 0 0.352102
0 0 0.352255
0.0271153 0 0.351354
0.375418 0 0.334493
0.723018 0 0.317891
0.884382 0 0.332662
0.889403 0.515206 0.411261
0.857084 0.838651 0.492958
0.847272 0.940246 0.648234
0 0.0421302 0.348516
0 0.0437781 0.348669
0.0256199 0.0433661 0.348013
0.38143 0 0.332021
0.717983 0 0.314549
0.891844 0.0302129 0.341436
0.88542 0.563363 0.405936
0.856748 0.843 0.491691
0.847242 0.940597 0.648066
0 0.376242 0.315709
0 0.377127 0.31577
0 0.379263 0.316396
0.304097 0.390616 0.327367
0.694209 0.385809 0.33106
0.889815 0.467018 0.353033
0.874067 0.675929 0.38703
0.85568 0.857435 0.487083
0.84715 0.942107 0.647318
0 0.764111 0.245884
0 0.764172 0.245869
0 0.763928 0.246769
0 0.765042 0.253697
0.618784 0.764126 0.266789
0.830854 0.77554 0.293324
0.860182 0.82237 0.347677
0.853346 0.890959 0.473671
0.846784 0.947295 0.644495
0 0.944137 0.114733
0 0.944137 0.114733
0 0.944137 0.114733
0 0.941527 0.118791
0.586877 0.92903 0.122652
0.785016 0.920806 0.173892
0.852567 0.922942 0.281682
0.850462 0.937026 0.439597
0.84593 0.959991 0.636667
0.511177 0.993515 0.134859
0.511177 0.993515 0.134859
0.511177 0.993515 0.134859
0.511177 0.993515 0.134859
0.662211 0.985092 0.143511
0.775464 0.97911 0.177218
0.841581 0.975784 0.267781
0.847395 0.974365 0.453513
0.844434 0.977493 0.653071
0.743633 0.989197 0.53225
0.743633 0.989197 0.53225
0.743633 0.989197 0.53225
0.743633 0.989197 0.53225
0.743618 0.989197 0.53225
0.787732 0.989532 0.540673
0.829526 0.989685 0.562997
0.843626 0.989151 0.617288
0.842863 0.988556 0.709422
0.811505 0.98822 0.739574
0.811505 0.98822 0.739574
0.811505 0.98822 0.739574
0.811505 0.98822 0.739574
0.811505 0.98822 0.739574
0.811505 0.98822 0.739574
0.828763 0.988403 0.74255
0.842618 0.988434 0.750027
0.842512 0.988388 0.768231
0 0 0.650446
0 0 0.650446
0 0 0.650752
0.111711 0 0.647364
0.689799 0 0.615763
0.882368 0 0.620691
0.903243 0.227741 0.668818
0.856703 0.816602 0.675883
0.84683 0.937392 0.723644
0 0 0.650339
0 0 0.650339
0 0 0.650431
0.125597 0 0.64654
0.693584 0 0.615274
0.882368 0 0.620325
0.901854 0.293187 0.670741
0.856458 0.819226 0.675532
0.846815 0.937575 0.723598
0 0 0.649332
0 0 0.649332
0 0 0.649424
0.164691 0 0.644007
0.699214 0 0.614221
0.882383 0 0.619196
0.896361 0.402289 0.670375
0.856001 0.824506 0.674815
0.846784 0.937926 0.723507
0 0.15697 0.645212
0 0.15697 0.645212
0 0.160006 0.645243
0.152895 0.155764 0.646281
0.706645 0.0888991 0.630442
0.901762 0.193011 0.649973
0.881498 0.594186 0.661204
0.854505 0.842084 0.672358
0.846677 0.939529 0.72311
0 0.714336 0.608713
0 0.714336 0.608713
0 0.714473 0.608774
0 0.713741 0.609491
0.589715 0.717433 0.618677
0.825147 0.735332 0.625177
0.858839 0.79762 0.635737
0.851453 0.881285 0.666102
0.846296 0.944976 0.72163
0 0.940063 0.5897
0 0.940063 0.5897
0 0.940108 0.589685
0 0.936461 0.590082
0.538537 0.923171 0.587213
0.77055 0.912001 0.592111
0.847471 0.914839 0.61297
0.847852 0.931472 0.653651
0.84535 0.958236 0.717098
0.476951 0.991547 0.519234
0.476951 0.991547 0.519234
0.476951 0.991547 0.519234
0.476951 0.991547 0.519234
0.641505 0.981353 0.518532
0.76376 0.974868 0.530648
0.832502 0.971313 0.563165
0.845197 0.971267 0.625238
0.844068 0.976699 0.704631
0.746975 0.989227 0.531456
0.746975 0.989227 0.531456
0.746975 0.989227 0.531456
0.746975 0.989227 0.531456
0.746975 0.989227 0.531456
0.788891 0.989548 0.540032
0.829908 0.989685 0.562539
0.84361 0.989136 0.618677
0.842863 0.988556 0.709239
0.811948 0.98822 0.739513
0.811948 0.98822 0.739513
0.811948 0.988235 0.739513
0.811948 0.988235 0.739513
0.811948 0.988235 0.739513
0.811933 0.98822 0.739513
0.828916 0.988403 0.742489
0.842618 0.988434 0.749981
0.842527 0.988388 0.7682
0 0 0.804761
0 0 0.804761
0 0 0.804761
0 0 0.804791
0.478706 0 0.780011
0.878874 0 0.770001
0.882826 0 0.770397
0.866423 0.720821 0.795697
0.846876 0.930465 0.790112
0 0 0.804761
0 0 0.804761
0 0 0.804761
0 0 0.804791
0.478279 0 0.780026
0.878874 0 0.770001
0.882826 0 0.770306
0.865522 0.728283 0.794903
0.84686 0.930678 0.790082
0 0 0.8047
0 0 0.8047
0 0 0.8047
0 0 0.804715
0.491691 0 0.77908
0.879164 0 0.769879
0.882826 0 0.770077
0.86392 0.741802 0.793484
0.84683 0.931136 0.790021
0 0 0.804288
0 0 0.804288
0 0 0.804288
0 0 0.804318
0.555779 0 0.774685
0.879957 0 0.769512
0.892714 0.0351415 0.784726
0.859464 0.781567 0.789319
0.846693 0.933059 0.789807
0 0.422324 0.792706
0 0.422324 0.792706
0 0.422324 0.792706
0 0.426184 0.792554
0.532982 0.433936 0.799908
0.878279 0.475273 0.806683
0.872801 0.669245 0.794873
0.852872 0.852232 0.782528
0.846235 0.939574 0.788998
0 0.923751 0.780575
0 0.923751 0.780575
0 0.923751 0.780575
0 0.923369 0.780514
0.327749 0.914092 0.780468
0.755337 0.894423 0.76994
0.842649 0.900465 0.771313
0.847547 0.92253 0.775433
0.845151 0.954864 0.786816
0.281102 0.995117 0.769589
0.281147 0.995117 0.769589
0.281682 0.995102 0.769558
0.281682 0.995102 0.769558
0.563119 0.980224 0.759457
0.742992 0.970443 0.757595
0.821454 0.967224 0.76083
0.844282 0.968399 0.768048
0.843702 0.975143 0.782376
0.731823 0.987366 0.732128
0.731823 0.987366 0.732128
0.731823 0.987366 0.732128
0.731823 0.987366 0.732128
0.731823 0.987366 0.732128
0.775433 0.987808 0.733913
0.820005 0.988327 0.738994
0.842237 0.98851 0.750973
0.842496 0.988373 0.772412
0.813275 0.988251 0.739361
0.813275 0.988251 0.739361
0.813275 0.988251 0.739361
0.813275 0.988251 0.739361
0.813275 0.988251 0.739361
0.813275 0.988251 0.739361
0.829374 0.988418 0.742306
0.842618 0.988434 0.749828
0.842512 0.988388 0.768704
0 0 0.844953
0 0 0.844953
0 0 0.844953
0 0 0.844953
0 0 0.844953
0.800931 0 0.818555
0.882887 0 0.821134
0.886152 0 0.826352
0.84889 0.897932 0.836774
0 0 0.844953
0 0 0.844953
0 0 0.844953
0 0 0.844953
0 0 0.844953
0.800916 0 0.818555
0.882887 0 0.821134
0.88658 0 0.82707
0.848859 0.898482 0.836728
0 0 0.844953
0 0 0.844953
0 0 0.844953
0 0 0.844953
0 0 0.844953
0.800916 0 0.818555
0.882887 0 0.821134
0.88719 0 0.827649
0.848768 0.899657 0.836637
0 0 0.844953
0 0 0.844953
0 0 0.844953
0 0 0.844953
0 0 0.844953
0.807309 0 0.818738
0.882887 0 0.821134
0.888457 0 0.829587
0.848447 0.904097 0.836301
0 0 0.844953
0 0 0.844953
0 0 0.844953
0 0 0.844953
0 0 0.844953
0.838422 0 0.819745
0.882887 0 0.821134
0.898177 0.395407 0.865125
0.847471 0.917662 0.835218
0 0.719905 0.838437
0 0.719905 0.838437
0 0.719905 0.838437
0 0.719905 0.838437
0 0.722911 0.838407
0.756756 0.72546 0.845167
0.858595 0.777752 0.84213
0.850477 0.877287 0.835599
0.84564 0.943511 0.833051
0 0.995727 0.843778
0 0.995727 0.843778
0 0.995727 0.843778
0 0.995727 0.843778
0 0.994537 0.843854
0.699489 0.964843 0.827817
0.815274 0.96022 0.827955
0.843976 0.962798 0.828519
0.843641 0.971695 0.830228
0.701488 0.986862 0.822171
0.701488 0.986862 0.822171
0.701488 0.986862 0.822171
0.701488 0.986862 0.822171
0.701488 0.986862 0.822171
0.75198 0.987243 0.822171
0.811399 0.987976 0.822782
0.841047 0.988312 0.824109
0.842191 0.98822 0.827039
0.807248 0.987961 0.812909
0.807248 0.987961 0.812909
0.807248 0.987961 0.812909
0.807248 0.987961 0.812909
0.807248 0.987961 0.812909
0.807248 0.987961 0.812909
0.823758 0.988159 0.813642
0.840284 0.988327 0.815641
0.842237 0.988251 0.820218
0 0.0386053 0.846815
0 0.0386053 0.846815
0 0.0386053 0.846815
0 0.0386053 0.846815
0 0.0386053 0.846815
0 0.0386816 0.846815
0.881575 0 0.821195
0.890013 0.00854505 0.83299
0.879255 0.6177 0.865263
0 0.0386053 0.846815
0 0.0386053 0.846815
0 0.0386053 0.846815
0 0.0386053 0.846815
0 0.0386053 0.846815
0 0.0386816 0.846815
0.881575 0 0.821195
0.890013 0.00854505 0.83299
0.879255 0.617685 0.865278
0 0.0386053 0.846815
0 0.0386053 0.846815
0 0.0386053 0.846815
0 0.0386053 0.846815
0 0.0386053 0.846815
0 0.0386816 0.846815
0.881575 0 0.821195
0.890013 0.00854505 0.83299
0.879271 0.617639 0.865263
0 0.0386053 0.846815
0 0.0386053 0.846815
0 0.0386053 0.846815
0 0.0386053 0.846815
0 0.0386053 0.846815
0 0.0386816 0.846815
0.881575 0 0.821195
0.890013 0.00854505 0.83299
0.879286 0.617517 0.865278
0 0.0384375 0.846815
0 0.0384375 0.846815
0 0.0384375 0.846815
0 0.0384375 0.846815
0 0.0384375 0.846815
0 0.0385138 0.846815
0.881682 0 0.82121
0.890257 0.0109255 0.833448
0.879347 0.617014 0.865309
0 0.037232 0.846784
0 0.037232 0.846784
0 0.037232 0.846784
0 0.037232 0.846784
0 0.037232 0.846784
0 0.0322576 0.846647
0.882887 0 0.821134
0.893782 0.0438697 0.839689
0.858946 0.782452 0.854917
0 0.902541 0.860319
0 0.902541 0.860319
0 0.902541 0.860319
0 0.902541 0.860319
0 0.902541 0.860319
0 0.904524 0.862501
0.818448 0.873426 0.852384
0.84744 0.915755 0.851957
0.844709 0.954009 0.851743
0.35877 0.995346 0.86038
0.35877 0.995346 0.86038
0.35877 0.995346 0.86038
0.35877 0.995346 0.86038
0.35877 0.995346 0.86038
0.436271 0.992859 0.85745
0.795132 0.987411 0.850172
0.838987 0.986587 0.850431
0.842374 0.987076 0.850492
0.796124 0.987671 0.848096
0.796124 0.987671 0.848096
0.796124 0.987671 0.848096
0.796124 0.987671 0.848096
0.796124 0.987671 0.848096
0.796124 0.987671 0.848096
0.814969 0.987915 0.848203
0.83682 0.988174 0.848386
0.842039 0.988144 0.849073
0 0.222446 0.849363
0 0.222446 0.849363
0 0.222446 0.849363
0 0.222446 0.849363
0 0.222446 0.849363
0 0.222446 0.849363
0 0.222538 0.849363
0.898238 0.091249 0.84799
0.874647 0.654215 0.862852
0 0.222446 0.849363
0 0.222446 0.849363
0 0.222446 0.849363
0 0.222446 0.849363
0 0.222446 0.849363
0 0.222446 0.849363
0 0.222538 0.849363
0.898238 0.091249 0.84799
0.874647 0.654215 0.862852
0 0.222446 0.849363
0 0.222446 0.849363
0 0.222446 0.849363
0 0.222446 0.849363
0 0.222446 0.849363
0 0.222446 0.849363
0 0.222538 0.849363
0.898238 0.091249 0.84799
0.874647 0.654215 0.862852
0 0.222446 0.849363
0 0.222446 0.849363
0 0.222446 0.849363
0 0.222446 0.849363
0 0.222446 0.849363
0 0.222446 0.849363
0 0.222538 0.849363
0.898238 0.091249 0.84799
0.874647 0.654215 0.862852
0 0.222446 0.849363
0 0.222446 0.849363
0 0.222446 0.849363
0 0.222446 0.849363
0 0.222446 0.849363
0 0.222446 0.849363
0 0.222538 0.849363
0.898238 0.0911879 0.84799
0.874647 0.654215 0.862852
0 0.222309 0.849363
0 0.222309 0.849363
0 0.222309 0.849363
0 0.222309 0.849363
0 0.222309 0.849363
0 0.222309 0.849363
0 0.22237 0.849363
0.899626 0.108614 0.850767
0.874403 0.656092 0.86273
0 0.221195 0.849378
0 0.221195 0.849378
0 0.221195 0.849378
0 0.221195 0.849378
0 0.221195 0.849378
0 0.221195 0.849378
0.041062 0.207996 0.851942
0.904097 0.200549 0.862318
0.874052 0.658824 0.862547
0 0.993942 0.864775
0 0.993942 0.864775
0 0.993942 0.864775
0 0.993942 0.864775
0 0.993942 0.864775
0 0.993942 0.864775
0.0639963 0.996521 0.867384
0.8374 0.971481 0.851698
0.843122 0.976226 0.851606
0.747417 0.98703 0.85069
0.747417 0.98703 0.85069
0.747417 0.98703 0.85069
0.747417 0.98703 0.85069
0.747417 0.98703 0.85069
0.747417 0.98703 0.85069
0.755398 0.987121 0.850736
0.832013 0.988083 0.85127
0.842344 0.98851 0.851637
