BBLuts/BB_106_0060_LUT.cube
TITLE "Generated by Resolve"
LUT_3D_SIZE 9
0.0184176 0.0175479 0.0163119
0.0184176 0.0175479 0.0163119
0.179187 0.0174716 0.0160067
0.381903 0.0178683 0.0154726
0.701488 0.0184634 0.0146487
0.923247 0.0187839 0.0140993
0.916472 0.475914 0.125444
0.920226 0.778759 0.379004
0.923186 0.889418 0.656138
0.0176089 0.0657511 0.0158083
0.0177462 0.0743725 0.0157626
0.188434 0.0582132 0.015671
0.391608 0.0178683 0.0154574
0.704082 0.0184482 0.0146334
0.923354 0.0187686 0.0140993
0.916014 0.502403 0.11722
0.920027 0.782605 0.377615
0.92314 0.88986 0.655955
0.0162509 0.196231 0.0145876
0.0146029 0.200137 0.014374
0.158633 0.197436 0.0145418
0.400092 0.179492 0.0139773
0.707149 0.0822156 0.013962
0.920226 0.210208 0.0120699
0.915373 0.538003 0.103395
0.916335 0.789334 0.37409
0.923903 0.890227 0.656184
0.0134127 0.411414 0.0124971
0.00936904 0.414191 0.0120546
0.0117189 0.413626 0.0122988
0.35285 0.411185 0.0117647
0.708812 0.402609 0.0106203
0.916548 0.45127 0.00952163
0.914351 0.624155 0.00773632
0.916732 0.804181 0.368338
0.921813 0.892943 0.654124
0.0081178 0.713832 0.00941482
0.00314336 0.715816 0.00888075
0.00227359 0.715801 0.00880446
0.00588998 0.711696 0.00920119
0.64567 0.70399 0.00755322
0.886076 0.709239 0.00682078
0.913207 0.758831 0.00640879
0.916777 0.836652 0.367437
0.922332 0.898253 0.652018
0.00759899 0.884871 0.00791943
0.00326543 0.885924 0.00747692
0.00047303 0.885893 0.007187
0.00241093 0.881315 0.00743114
0.626352 0.872084 0.00607309
0.841337 0.863294 0.00560006
0.915862 0.864683 0.103456
0.91986 0.882582 0.399512
0.921111 0.911147 0.645548
0.560983 0.936034 0.217884
0.568734 0.938674 0.216403
0.584436 0.939895 0.215946
0.635157 0.937667 0.218875
0.73109 0.932387 0.228504
0.83856 0.92665 0.255314
0.914336 0.922606 0.330419
0.924453 0.92076 0.494652
0.927825 0.926574 0.669932
0.816373 0.938689 0.561028
0.809171 0.941924 0.556573
0.80914 0.942626 0.555749
0.815381 0.942336 0.556695
0.833326 0.941131 0.560113
0.865583 0.940337 0.566659
0.90457 0.940093 0.583291
0.92694 0.936187 0.634409
0.925673 0.936996 0.714366
0.90396 0.934951 0.744076
0.902052 0.935729 0.742702
0.901869 0.935882 0.742443
0.896239 0.938262 0.738247
0.900542 0.937377 0.740032
0.907973 0.936568 0.742077
0.919173 0.9364 0.744305
0.936614 0.933013 0.756191
0.930251 0.93547 0.768002
0.0185855 0.0176547 0.0582742
0.0185855 0.0176547 0.0586099
0.179202 0.0175479 0.0597086
0.382895 0.0179904 0.0589914
0.701869 0.0185702 0.0610819
0.924269 0.0189364 0.0891127
0.918059 0.47068 0.176669
0.921431 0.777615 0.403204
0.926787 0.887999 0.662623
0.0183261 0.0455177 0.0510109
0.0556954 0.0554055 0.0496681
0.195132 0.0175479 0.0526436
0.388251 0.0178836 0.0498054
0.704631 0.018265 0.0376593
0.927214 0.0184787 0.0692607
0.923583 0.495979 0.170031
0.928649 0.778851 0.405264
0.931548 0.886656 0.665431
0.0166323 0.188296 0.0146944
0.0153658 0.191577 0.0145266
0.174105 0.189548 0.0145571
0.398505 0.171176 0.0140841
0.705852 0.0183566 0.0146639
0.922133 0.197009 0.012314
0.919036 0.533578 0.155291
0.92108 0.786999 0.400046
0.927398 0.888838 0.662608
0.0149538 0.407004 0.0126955
0.0110018 0.409674 0.0122683
0.0124208 0.409415 0.0124056
0.362768 0.40679 0.0118105
0.708202 0.399084 0.0106661
0.916655 0.448402 0.00956741
0.915068 0.62237 0.0981003
0.917815 0.803281 0.393164
0.922835 0.892485 0.659037
0.0093843 0.712077 0.00955215
0.00395209 0.714244 0.00898756
0.00225834 0.714549 0.00880446
0.0056611 0.710491 0.00918593
0.648661 0.702693 0.00756847
0.887022 0.708095 0.00691234
0.914611 0.7579 0.00653086
0.919188 0.835584 0.378119
0.923354 0.89781 0.657038
0.00825513 0.884352 0.00801099
0.00354009 0.885542 0.00750744
0.000686656 0.885542 0.00721752
0.00247196 0.881056 0.00743114
0.628199 0.871885 0.00607309
0.841871 0.863081 0.00563058
0.916304 0.864424 0.103029
0.919875 0.882521 0.399374
0.921508 0.910964 0.648722
0.562692 0.936233 0.217609
0.571176 0.938537 0.216403
0.587045 0.939513 0.216068
0.636545 0.93756 0.218784
0.731746 0.932342 0.228397
0.838743 0.926635 0.255222
0.914626 0.922499 0.330495
0.924559 0.920699 0.494636
0.928206 0.926421 0.670146
0.816754 0.938613 0.56112
0.809979 0.94168 0.556909
0.809445 0.94258 0.555795
0.815763 0.942245 0.556802
0.833478 0.941115 0.560113
0.865644 0.940337 0.566644
0.904784 0.940017 0.583383
0.927565 0.935958 0.63476
0.92578 0.936965 0.714443
0.904021 0.934936 0.744091
0.902358 0.935622 0.742885
0.902434 0.935668 0.742809
0.896513 0.93817 0.73843
0.900572 0.937362 0.740047
0.907988 0.936568 0.742077
0.919356 0.936324 0.744427
0.937224 0.932784 0.756603
0.930282 0.93547 0.768017
0.019028 0.0179294 0.162997
0.019028 0.0179751 0.16199
0.160143 0.0179599 0.163333
0.392844 0.0182498 0.158968
0.70219 0.0188754 0.161532
0.924681 0.0192264 0.18529
0.918898 0.461753 0.248539
0.92314 0.775845 0.436149
0.927306 0.887663 0.669017
0.0190127 0.0179141 0.160098
0.019028 0.0179446 0.15938
0.184207 0.0178683 0.161059
0.392645 0.0180819 0.156817
0.706371 0.018616 0.15903
0.927672 0.0187839 0.180987
0.924193 0.488106 0.245487
0.930358 0.777142 0.438529
0.932067 0.88632 0.67187
0.0175174 0.167483 0.149081
0.0161898 0.170108 0.147402
0.161837 0.164843 0.144839
0.388403 0.149035 0.148577
0.703792 0.0187381 0.149432
0.923369 0.159808 0.167727
0.920027 0.526726 0.235996
0.92282 0.785367 0.433341
0.928634 0.888243 0.66949
0.0155642 0.396643 0.0795148
0.0114748 0.399527 0.0791638
0.0107729 0.40032 0.0801099
0.363516 0.396246 0.0829938
0.704005 0.389258 0.085481
0.917311 0.439261 0.11194
0.915694 0.617975 0.208499
0.918914 0.802075 0.426703
0.924376 0.891783 0.666102
0.00970474 0.709651 0.00961318
0.00396735 0.711925 0.00900282
0.00192264 0.712367 0.0087892
0.00724804 0.707485 0.0093843
0.652399 0.699916 0.00770581
0.887022 0.706218 0.00694286
0.915267 0.756924 0.116258
0.919951 0.834897 0.413428
0.92491 0.897124 0.664256
0.00900282 0.88365 0.00808728
0.00373846 0.885084 0.0075227
0.000610361 0.885191 0.00720226
0.109255 0.880873 0.00715648
0.631189 0.871489 0.00608835
0.842573 0.862776 0.00564584
0.916487 0.86421 0.102281
0.920363 0.882261 0.399374
0.922866 0.910384 0.656306
0.565744 0.936355 0.21735
0.573617 0.938781 0.216037
0.590097 0.939269 0.215991
0.638407 0.937484 0.218601
0.732876 0.932204 0.228305
0.839017 0.926589 0.255116
0.915251 0.922271 0.330694
0.924758 0.920607 0.494636
0.928405 0.926345 0.670222
0.817426 0.938476 0.561303
0.81088 0.941436 0.557214
0.810239 0.942382 0.556054
0.816129 0.942199 0.556832
0.833722 0.9411 0.560098
0.865751 0.940337 0.566613
0.905394 0.939803 0.583673
0.928771 0.935515 0.635462
0.926055 0.936858 0.714595
0.90425 0.934859 0.744228
0.895537 0.938231 0.738247
0.904555 0.934874 0.744228
0.897078 0.937957 0.738796
0.900633 0.937346 0.740063
0.908019 0.936568 0.742077
0.919921 0.93611 0.744793
0.93843 0.932326 0.757427
0.927916 0.936355 0.766384
0.019791 0.0184024 0.343145
0.019791 0.0185245 0.340078
0.019791 0.0185245 0.340063
0.373297 0.0188907 0.338216
0.721126 0.0194553 0.338796
0.92549 0.0197299 0.35462
0.92221 0.430076 0.399023
0.929061 0.769909 0.518563
0.928771 0.886671 0.686793
0.019791 0.0184176 0.3411
0.019791 0.0184634 0.340032
0.0834211 0.0185245 0.339391
0.387549 0.0187076 0.338582
0.72076 0.0191501 0.33901
0.928435 0.0192721 0.355169
0.926772 0.460395 0.398978
0.936339 0.771328 0.521691
0.933379 0.88539 0.689647
0.0193027 0.0752728 0.338552
0.0186465 0.080827 0.335271
0.11075 0.076524 0.333959
0.392142 0.0188144 0.334432
0.71368 0.0193027 0.334936
0.926314 0.0195773 0.349386
0.921996 0.503426 0.392203
0.929946 0.779416 0.516991
0.932067 0.886534 0.688594
0.0174716 0.359609 0.317891
0.0132753 0.363088 0.313848
0.0120241 0.36463 0.313069
0.352148 0.361303 0.31548
0.690303 0.353353 0.317357
0.918975 0.406485 0.329091
0.917494 0.602441 0.3776
0.924849 0.797208 0.510597
0.929061 0.889632 0.686061
0.0128786 0.698619 0.244495
0.0027924 0.702922 0.240482
0.00308232 0.70248 0.241428
0.00486763 0.69929 0.244602
0.649729 0.690196 0.251331
0.886458 0.698192 0.275013
0.917082 0.752163 0.345937
0.924239 0.831891 0.500145
0.929763 0.894972 0.684611
0.0115053 0.881498 0.00836194
0.00326543 0.884184 0.00749218
0.000534066 0.884123 0.00720226
0.132326 0.880232 0.00700389
0.635004 0.869291 0.00639353
0.843885 0.861616 0.126009
0.917906 0.863584 0.280858
0.923339 0.880796 0.473289
0.927855 0.908309 0.677699
0.578744 0.935256 0.217624
0.581552 0.938949 0.215061
0.596994 0.939467 0.215015
0.64448 0.937133 0.218128
0.736233 0.931838 0.227955
0.84123 0.925963 0.255161
0.917556 0.920974 0.331395
0.92578 0.92018 0.494804
0.932021 0.924956 0.672343
0.820996 0.937438 0.562661
0.810925 0.941741 0.55668
0.810056 0.942763 0.555413
0.816617 0.942306 0.556588
0.83444 0.941054 0.560082
0.866575 0.940154 0.566796
0.909072 0.93846 0.585565
0.931945 0.93431 0.637293
0.928069 0.936095 0.715877
0.905577 0.934386 0.745052
0.895964 0.938094 0.73846
0.895994 0.93817 0.738354
0.89688 0.938079 0.738567
0.900832 0.937316 0.740124
0.90837 0.936446 0.74226
0.923674 0.934707 0.747295
0.941588 0.931121 0.759564
0.931121 0.935149 0.768597
0.0209506 0.019089 0.615961
0.0209506 0.0193332 0.609644
0.0209506 0.0194247 0.607263
0.233982 0.0196536 0.606561
0.710475 0.0202029 0.602686
0.927794 0.0203098 0.607507
0.929839 0.284077 0.624964
0.940185 0.752056 0.662852
0.933623 0.883421 0.727199
0.0209354 0.0190585 0.616358
0.0209506 0.0192264 0.61178
0.0209506 0.0193179 0.609735
0.259846 0.0194553 0.609583
0.71873 0.0196994 0.607202
0.930907 0.0197452 0.611719
0.934035 0.340093 0.627497
0.9467 0.75436 0.666712
0.935576 0.883146 0.72842
0.0209354 0.0190433 0.615671
0.0209354 0.0193027 0.608988
0.0209506 0.0193942 0.60676
0.291707 0.0196689 0.605295
0.720638 0.0199893 0.603372
0.929061 0.0200809 0.607843
0.930556 0.405768 0.621881
0.943404 0.762249 0.663676
0.93753 0.883101 0.72961
0.0202487 0.208484 0.610101
0.0174716 0.212634 0.601267
0.0166476 0.216266 0.59881
0.295293 0.208591 0.597696
0.719203 0.0948196 0.598779
0.927291 0.225605 0.600671
0.927871 0.540246 0.613077
0.940261 0.781674 0.659281
0.936843 0.88542 0.728725
0.0177768 0.657359 0.577737
0.00799573 0.662058 0.568627
0.00579843 0.663111 0.566705
0.00657664 0.661143 0.567712
0.637842 0.651072 0.571176
0.890578 0.66302 0.578836
0.930953 0.72961 0.598825
0.941619 0.820127 0.654307
0.938201 0.890715 0.728328
0.0184176 0.877028 0.537057
0.00622568 0.881621 0.529091
0.00294499 0.88188 0.527108
0.00343328 0.877882 0.528161
0.606058 0.867613 0.53051
0.843595 0.855283 0.544427
0.928374 0.857191 0.573693
0.941085 0.87245 0.64123
0.936843 0.904265 0.723644
0.581125 0.932509 0.448295
0.579065 0.938201 0.441123
0.593713 0.93904 0.43975
0.641199 0.936706 0.441917
0.73225 0.931685 0.448035
0.845441 0.922698 0.467735
0.92578 0.916121 0.514916
0.943023 0.913497 0.611322
0.942016 0.920516 0.716579
0.829801 0.935119 0.565637
0.815137 0.941161 0.557198
0.813153 0.94258 0.555383
0.819593 0.942092 0.556603
0.836698 0.940917 0.559991
0.871214 0.938781 0.56846
0.921263 0.93402 0.591791
0.945571 0.929213 0.645151
0.93698 0.932738 0.721523
0.91075 0.93254 0.748287
0.897124 0.937774 0.738994
0.895537 0.93846 0.737804
0.897154 0.938079 0.738537
0.901442 0.937179 0.740322
0.908919 0.936324 0.742458
0.931121 0.931945 0.752209
0.948714 0.928435 0.764355
0.935042 0.933669 0.771313
0.0216983 0.01944 0.796994
0.0216983 0.0198825 0.785504
0.0216983 0.0200198 0.781674
0.0216983 0.0200198 0.781781
0.593851 0.0206149 0.776928
0.928054 0.0209201 0.7729
0.93283 0.0199741 0.783337
0.948653 0.683986 0.783673
0.940978 0.8757 0.783062
0.0216983 0.019379 0.798245
0.0216983 0.0196994 0.790066
0.0216983 0.0198367 0.786526
0.0216983 0.0198215 0.786725
0.603601 0.0202182 0.782025
0.931823 0.0201724 0.780392
0.934417 0.0196536 0.78645
0.950179 0.692119 0.784298
0.941283 0.876097 0.78323
0.0216983 0.0194095 0.797345
0.0216983 0.0198215 0.786526
0.0216983 0.0199588 0.783322
0.0216983 0.0199588 0.783368
0.614878 0.0204318 0.779202
0.931197 0.0202945 0.779019
0.932906 0.0199588 0.783307
0.940917 0.707546 0.775845
0.939544 0.877546 0.781888
0.0216983 0.0193484 0.798779
0.0216983 0.0198215 0.786313
0.0216983 0.0199741 0.782391
0.0216983 0.0199741 0.782208
0.643854 0.0205997 0.776669
0.932082 0.0201267 0.780438
0.933562 0.0198215 0.78262
0.939635 0.738781 0.77261
0.938033 0.880461 0.780514
0.0204013 0.452964 0.782315
0.0135195 0.45771 0.769497
0.0112764 0.460746 0.765377
0.0112154 0.464332 0.764843
0.617472 0.453819 0.761746
0.928542 0.474281 0.766323
0.936675 0.629602 0.768643
0.944366 0.796506 0.771527
0.938476 0.886915 0.780026
0.0204929 0.864103 0.753796
0.00816358 0.869139 0.742306
0.00451667 0.869871 0.738827
0.00476081 0.866117 0.73875
0.524681 0.855268 0.737209
0.830716 0.84123 0.743175
0.945769 0.83946 0.759258
0.949462 0.862608 0.768154
0.939178 0.901183 0.778454
0.476768 0.930999 0.737804
0.481971 0.937453 0.725017
0.507485 0.938323 0.721996
0.578454 0.935714 0.72285
0.696178 0.930449 0.724224
0.820539 0.923598 0.726619
0.929976 0.908492 0.749569
0.955962 0.907271 0.76405
0.947646 0.917601 0.779934
0.825711 0.934493 0.698085
0.807446 0.942016 0.685389
0.804181 0.943938 0.6822
0.8094 0.943923 0.682445
0.823392 0.943938 0.683085
0.856275 0.942458 0.6878
0.920272 0.932509 0.711574
0.95787 0.924895 0.743221
0.941619 0.931136 0.765103
0.91722 0.930465 0.751904
0.899809 0.937133 0.740032
0.897932 0.937926 0.738659
0.899321 0.937621 0.739239
0.902892 0.936965 0.740612
0.908797 0.936629 0.741802
0.928939 0.932891 0.750408
0.963043 0.923018 0.773999
0.942351 0.930892 0.776349
0.0218967 0.0195163 0.84358
0.0218967 0.0200198 0.830304
0.0218967 0.0201724 0.826505
0.0218967 0.0201877 0.8262
0.0218967 0.0201724 0.826398
0.916915 0.0213169 0.825101
0.928313 0.021088 0.827634
0.935241 0.0196689 0.842557
0.941268 0.852781 0.826413
0.0218967 0.0195163 0.843442
0.0218967 0.0200198 0.830533
0.0218967 0.0201724 0.826505
0.0218967 0.0201877 0.8262
0.0218967 0.0201724 0.826688
0.919036 0.0211643 0.826749
0.929931 0.0207523 0.831113
0.935714 0.0195773 0.84358
0.941436 0.853666 0.826459
0.0218967 0.0196536 0.839872
0.0218967 0.0200046 0.830823
0.0218967 0.0201724 0.82652
0.0218967 0.0201877 0.826215
0.0218967 0.0201419 0.827268
0.922499 0.0208743 0.829816
0.930175 0.0207065 0.831647
0.932067 0.020325 0.835706
0.934646 0.857603 0.821118
0.0218967 0.0195773 0.84181
0.0218967 0.0200046 0.830976
0.0218967 0.0201724 0.82652
0.0218967 0.0201877 0.8262
0.0218967 0.0201877 0.82623
0.927596 0.0211185 0.82739
0.930861 0.0205692 0.833143
0.932586 0.0202182 0.836835
0.928954 0.863905 0.816419
0.0218967 0.0196841 0.839384
0.0218967 0.0199741 0.831479
0.0218967 0.0201724 0.826535
0.0218967 0.0201877 0.8262
0.214908 0.0204166 0.825757
0.927703 0.02121 0.826337
0.933089 0.0201114 0.837903
0.932677 0.551217 0.83331
0.930007 0.87454 0.816403
0.0140993 0.753857 0.825742
0.00328069 0.759121 0.813001
0.0030518 0.759701 0.812711
0.00297551 0.761212 0.812573
0.00326543 0.756664 0.811643
0.830716 0.743038 0.811963
0.939086 0.765087 0.826841
0.944717 0.830427 0.827329
0.931868 0.895384 0.816098
0.0133669 0.9364 0.810605
0.00158694 0.941924 0.799069
0 0.943069 0.795926
0 0.939666 0.795682
0.581079 0.932143 0.793805
0.784878 0.92343 0.79295
0.898848 0.912596 0.804395
0.94728 0.906218 0.822385
0.935897 0.919554 0.816571
0.795773 0.935866 0.803571
0.78027 0.942565 0.790677
0.778302 0.944228 0.787457
0.785061 0.944244 0.787442
0.803143 0.944259 0.787381
0.838727 0.944305 0.78732
0.887388 0.942229 0.791592
0.947707 0.929 0.81825
0.938186 0.932631 0.815305
0.903792 0.934585 0.792401
0.883101 0.942535 0.777462
0.878614 0.94432 0.774105
0.87921 0.94432 0.774136
0.881117 0.944289 0.774258
0.886625 0.944091 0.774884
0.911955 0.938369 0.78645
0.949554 0.928267 0.808011
0.943038 0.930755 0.810224
0.0213169 0.104585 0.839246
0.0201572 0.105577 0.827604
0.0199435 0.105776 0.825422
0.0199283 0.105776 0.825315
0.0199435 0.105806 0.825467
0.0199741 0.105867 0.825772
0.926833 0.0213931 0.824445
0.924269 0.236545 0.824186
0.928191 0.623835 0.830793
0.0212558 0.104631 0.838651
0.0202335 0.105501 0.828321
0.0199435 0.105745 0.825452
0.0199283 0.10576 0.825315
0.0199283 0.105791 0.825315
0.0199435 0.105882 0.825467
0.927321 0.0212863 0.825467
0.92462 0.236713 0.824704
0.931044 0.622797 0.833524
0.0205844 0.10518 0.831876
0.0202792 0.10544 0.82887
0.0199435 0.105714 0.825513
0.0199283 0.105745 0.825315
0.0199283 0.105776 0.825315
0.0200198 0.105791 0.8262
0.927642 0.0212253 0.826169
0.923995 0.237339 0.823774
0.920943 0.626322 0.82388
0.0205844 0.105104 0.831815
0.020325 0.105318 0.829313
0.0199588 0.105638 0.825605
0.0199283 0.105684 0.825315
0.0199283 0.105714 0.825315
0.0200809 0.105669 0.826902
0.929351 0.0208743 0.829877
0.924926 0.238407 0.825177
0.916106 0.627894 0.819287
0.0201724 0.105241 0.827619
0.0201877 0.105226 0.827787
0.0199741 0.105409 0.82565
0.0199435 0.10544 0.82533
0.0199435 0.105486 0.82533
0.0199283 0.105577 0.82533
0.926955 0.0213626 0.824704
0.927062 0.240223 0.828382
0.917311 0.627115 0.820432
0.0201877 0.104509 0.82768
0.0200504 0.104631 0.826246
0.0199741 0.104692 0.825559
0.0199588 0.104723 0.82533
0.0199588 0.104753 0.82533
0.667506 0.0210422 0.824689
0.928908 0.0209659 0.828931
0.93051 0.243153 0.833494
0.916884 0.813199 0.821195
0.0041352 0.905913 0.821927
0 0.908003 0.81738
0 0.908293 0.816876
0 0.908461 0.816861
0 0.908995 0.816861
0.650263 0.888182 0.815564
0.892058 0.878752 0.81886
0.937102 0.881239 0.837049
0.920287 0.912795 0.824079
0.642588 0.93962 0.824109
0.638697 0.943816 0.815671
0.647013 0.944152 0.814969
0.672236 0.944183 0.814908
0.727779 0.944259 0.814771
0.806012 0.94435 0.814588
0.873411 0.944396 0.814511
0.909087 0.943771 0.815717
0.917159 0.940703 0.821744
0.886656 0.937621 0.826474
0.870665 0.943816 0.814282
0.869337 0.944427 0.813092
0.87013 0.944427 0.813077
0.872511 0.944427 0.813077
0.878889 0.944427 0.813062
0.8916 0.944396 0.813138
0.917906 0.939864 0.822095
0.933883 0.934356 0.83331
0.0177005 0.306447 0.830793
0.0155642 0.307668 0.824292
0.0152438 0.307851 0.823346
0.0152285 0.307866 0.823255
0.0152132 0.307881 0.823255
0.0152285 0.307912 0.823255
0.0153048 0.307958 0.823514
0.9234 0.341863 0.824277
0.92578 0.668956 0.82855
0.0156405 0.307622 0.824506
0.0154116 0.307744 0.823835
0.0152438 0.307836 0.823346
0.0152285 0.307866 0.823255
0.0152132 0.307866 0.823255
0.0153811 0.30782 0.823728
0.0153811 0.307897 0.823758
0.921767 0.34255 0.822171
0.91632 0.672358 0.819883
0.0171969 0.306722 0.829252
0.0159304 0.307454 0.825376
0.0152438 0.307836 0.823316
0.0152285 0.307851 0.823255
0.0152285 0.307866 0.823255
0.0152132 0.307897 0.823255
0.0153964 0.307881 0.823789
0.921828 0.342763 0.822263
0.916716 0.672267 0.820249
0.0162814 0.307225 0.826474
0.0157778 0.307515 0.824933
0.0152743 0.307805 0.823407
0.0152285 0.307836 0.823255
0.0152285 0.307836 0.823255
0.0152132 0.307866 0.823255
0.0152438 0.307958 0.823316
0.92166 0.343557 0.822049
0.916732 0.672435 0.820264
0.0159915 0.307317 0.825574
0.0154269 0.307637 0.823865
0.0152438 0.307744 0.823285
0.0152285 0.307759 0.823255
0.0152285 0.307759 0.823255
0.0152285 0.30779 0.823255
0.0173953 0.306661 0.829816
0.924376 0.345052 0.825574
0.916732 0.672953 0.820264
0.0160067 0.307073 0.825605
0.01561 0.307286 0.824414
0.0153048 0.307469 0.823468
0.0152285 0.307515 0.823255
0.0152285 0.307515 0.823255
0.0152285 0.307546 0.823255
0.0152743 0.305653 0.82327
0.922286 0.35317 0.82298
0.917372 0.673655 0.820859
0.0161746 0.306188 0.826093
0.0155642 0.306538 0.824231
0.015259 0.306706 0.823301
0.0152438 0.306722 0.823255
0.0152438 0.306737 0.823255
0.0152438 0.306767 0.823255
0.926665 0.0214237 0.824063
0.920226 0.370901 0.820615
0.916442 0.675547 0.82002
0.00444038 0.940734 0.822278
0 0.943145 0.817166
0 0.943465 0.816495
0 0.943465 0.816495
0 0.943465 0.816495
0 0.943465 0.816495
0.825116 0.93492 0.814649
0.938048 0.919753 0.83743
0.929213 0.92755 0.830762
0.823819 0.943465 0.816358
0.823117 0.943969 0.815351
0.822995 0.944381 0.814557
0.825757 0.944381 0.814542
0.833661 0.944381 0.814527
0.852216 0.944411 0.814481
0.880095 0.944442 0.814404
0.902815 0.944472 0.814359
0.91223 0.94258 0.818067
