BBLuts/BB_103_0370_LUT.cube
TITLE "Generated by Resolve"
LUT_3D_SIZE 5
0.0303502 0.0330358 0.0176394
0.257038 0.0317235 0.0153964
0.765011 0.00259403 0
0.881514 0.634104 0.154391
0.849577 0.954498 0.707118
0.00598154 0.293965 0.0148318
0.20705 0.296788 0.0132906
0.762509 0.122484 0
0.876478 0.690288 0.113832
0.849515 0.955489 0.706645
0 0.83299 0.0103609
0 0.832624 0.0103151
0.685618 0.828428 0.0127718
0.858869 0.870909 0.0203403
0.849088 0.961913 0.703075
0.584176 1 0.238773
0.616983 0.998825 0.238239
0.732647 0.991501 0.251423
0.84799 0.985061 0.420935
0.847181 0.984558 0.71989
0.824903 0.992294 0.779858
0.825193 0.992294 0.779904
0.827344 0.992309 0.780163
0.839033 0.992432 0.782544
0.845716 0.99237 0.800168
0.0320592 0.0353399 0.204532
0.233753 0.0345769 0.202625
0.767819 0.00662242 0.181201
0.883803 0.623178 0.342702
0.849454 0.954116 0.718822
0.0130922 0.254704 0.185046
0.221393 0.249622 0.178927
0.768383 0.00645457 0.163745
0.879072 0.683589 0.320592
0.849393 0.955123 0.718395
0 0.829938 0.00993362
0 0.829541 0.00987259
0.689479 0.825574 0.0126345
0.860517 0.871504 0.111482
0.848951 0.961578 0.715297
0.589593 1 0.237675
0.62121 0.998489 0.237293
0.733837 0.991394 0.250935
0.848051 0.985031 0.420874
0.847196 0.984543 0.719829
0.824933 0.992294 0.779858
0.825238 0.992294 0.779904
0.827375 0.992309 0.780163
0.839048 0.992432 0.782528
0.845716 0.99237 0.800168
0.0216678 0.0256199 0.693431
0.0216678 0.0256199 0.693584
0.769345 0.00077821 0.678676
0.902892 0.285771 0.708736
0.849104 0.951843 0.76994
0.0216983 0.0256504 0.69218
0.0216983 0.0256504 0.692348
0.775448 0.000976577 0.677394
0.887312 0.567544 0.709224
0.849027 0.952926 0.769726
0 0.794293 0.660136
0 0.794598 0.660365
0.678492 0.790875 0.661494
0.858625 0.851102 0.6804
0.848539 0.959777 0.768139
0.588327 0.997009 0.567163
0.618814 0.994873 0.566384
0.728573 0.987686 0.567956
0.841993 0.981155 0.612207
0.84686 0.983917 0.756512
0.825284 0.992294 0.779828
0.825574 0.992294 0.779858
0.82768 0.992325 0.780118
0.83917 0.992432 0.782498
0.845716 0.99237 0.800168
0.0205234 0.024918 0.861295
0.0205234 0.024918 0.861295
0.0205234 0.024918 0.861295
0.910918 0.0192874 0.856672
0.85037 0.927382 0.843809
0.0205234 0.024918 0.861295
0.0205234 0.024918 0.861295
0.0205234 0.024918 0.861295
0.910918 0.0192874 0.856672
0.850187 0.929717 0.84361
0.0205234 0.024918 0.861295
0.0205234 0.024918 0.861295
0.433997 0.0188754 0.856565
0.910918 0.0192874 0.856672
0.849149 0.943709 0.842451
0 1 0.856275
0 1 0.856123
0.625193 0.984115 0.840253
0.829541 0.973037 0.836545
0.846494 0.980835 0.838865
0.823102 0.992111 0.823316
0.823392 0.992111 0.823331
0.825437 0.992142 0.823423
0.836759 0.992264 0.824231
0.845533 0.992279 0.830457
0 0.396796 0.860029
0 0.396796 0.860029
0 0.396826 0.860029
0 0.39704 0.860029
0.867018 0.775525 0.863249
0 0.39678 0.860029
0 0.39678 0.860029
0 0.396796 0.860029
0 0.397009 0.860029
0.867002 0.775616 0.863249
0 0.396612 0.860029
0 0.396612 0.860029
0 0.396643 0.860029
0.466728 0.377997 0.86099
0.866911 0.776303 0.863188
0 0.394995 0.860044
0 0.394995 0.860044
0 0.39501 0.860044
0.910918 0.0192874 0.856672
0.866606 0.778531 0.86302
0.782925 0.991501 0.854887
0.784253 0.991516 0.854887
0.792966 0.991608 0.854932
0.825925 0.991989 0.855131
0.845579 0.992432 0.855467
