BBLuts/BB_102_0220_LUT.cube
TITLE "Generated by Resolve"
LUT_3D_SIZE 33
0 0 0
0 0 0
0 0 0
0 0 0
0 0 0
0 0 0
0.0572061 0 0
0.10367 0 0
0.151583 0 0
0.210666 0 0
0.281102 0 0
0.358389 0 0
0.441688 0 0
0.53048 0 0
0.615702 0 0
0.698116 0 0
0.778485 0 0
0.854093 0 0
0.920913 0 0
0.973053 0 0
0.982681 0 0
0.982681 0 0
1 0.119326 0
1 0.366262 0.0468757
1 0.520272 0.0927443
1 0.628367 0.146258
1 0.716243 0.213977
1 0.786389 0.316411
1 0.836149 0.430686
1 0.872831 0.534829
1 0.90013 0.620768
1 0.920302 0.696056
1 0.93666 0.757626
0 0 0
0 0 0
0 0 0
0 0 0
0 0 0
0.00680552 0 0
0.0615396 0 0
0.107271 0 0
0.157565 0 0
0.218219 0 0
0.288579 0 0
0.364797 0 0
0.445319 0 0
0.532692 0 0
0.617273 0 0
0.699046 0 0
0.77911 0 0
0.854322 0 0
0.920821 0 0
0.972702 0 0
0.982681 0 0
0.982681 0 0
1 0.165576 0
1 0.384771 0.0406195
1 0.529885 0.0894331
1 0.633555 0.143999
1 0.719768 0.211673
1 0.788403 0.315084
1 0.837232 0.430198
1 0.873899 0.534173
1 0.900465 0.620615
1 0.920516 0.695949
1 0.936767 0.757565
0 0 0
0 0 0
0 0 0
0 0 0
0 0 0
0.0142977 0 0
0.0631113 0 0
0.110918 0 0
0.163851 0 0
0.224903 0 0
0.294209 0 0
0.368353 0 0
0.448508 0 0
0.535027 0 0
0.618738 0 0
0.700053 0 0
0.779614 0 0
0.854536 0 0
0.920729 0 0
0.972351 0 0
0.982681 0 0
0.982681 0 0
1 0.204089 0
1 0.401221 0.0340581
1 0.539055 0.0862287
1 0.638773 0.14229
1 0.723232 0.209552
1 0.79028 0.313848
1 0.838285 0.429618
1 0.874495 0.533837
1 0.900801 0.620432
1 0.920714 0.695842
1 0.936889 0.757504
0 0 0
0 0 0
0 0 0
0 0 0
0 0 0
0.0202335 0 0
0.0638437 0 0
0.111254 0 0
0.164965 0 0
0.227619 0 0
0.297963 0 0
0.371405 0 0
0.451606 0 0
0.537285 0 0
0.620371 0 0
0.701091 0 0
0.780194 0 0
0.854765 0 0
0.920592 0 0
0.971954 0 0
0.982681 0 0
0.982681 0 0
1 0.237919 0
1 0.416663 0.0262455
1 0.547768 0.082826
1 0.643748 0.13991
1 0.72639 0.20824
1 0.792065 0.312322
1 0.839323 0.428916
1 0.87509 0.533501
1 0.901122 0.620279
1 0.920913 0.69575
1 0.937011 0.757458
0 0.000427253 0
0 0.00367742 0
0 0.00689708 0
0 0.00999466 0
0 0.0111086 0
0.013611 0.0105135 0
0.0611429 0.00788891 0
0.110643 0.00187686 0
0.165805 0 0
0.228641 0 0
0.300099 0 0
0.374273 0 0
0.454414 0 0
0.539712 0 0
0.622019 0 0
0.702144 0 0
0.780804 0 0
0.854978 0 0
0.920455 0 0
0.971557 0 0
0.982681 0 0
0.989715 0 0
1 0.267964 0
1 0.431586 0.0173648
1 0.5561 0.0789807
1 0.648615 0.137499
1 0.729702 0.207019
1 0.793973 0.31107
1 0.840208 0.428077
1 0.875685 0.533165
1 0.901457 0.620096
1 0.921111 0.695644
1 0.937133 0.757397
0 0.0363165 0
0 0.0386816 0
0 0.0412146 0
0 0.0432898 0
0 0.0442817 0
0 0.0445106 0
0.0542306 0.0436713 0
0.107027 0.041001 0
0.164965 0.035172 0
0.232166 0.0233768 0
0.304021 0.000885023 0
0.376822 0 0
0.457465 0 0
0.54229 0 0
0.623713 0 0
0.703304 0 0
0.78143 0 0
0.855207 0 0
0.920302 0 0
0.971115 0 0
0.982681 0 0
1 0.0778973 0
1 0.295552 0
1 0.446418 0.00561532
1 0.564462 0.0750744
1 0.653742 0.135363
1 0.732845 0.205737
1 0.79585 0.310094
1 0.841245 0.427558
1 0.876295 0.53283
1 0.901793 0.619928
1 0.921324 0.695537
1 0.93727 0.757336
0 0.0741283 0
0 0.0763561 0
0 0.0782025 0
0 0.079469 0
0 0.0802777 0
0 0.0805524 0
0.0376593 0.0806439 0
0.0989853 0.0795605 0
0.161089 0.0764172 0
0.2318 0.0696422 0
0.306142 0.057084 0
0.384588 0.0370947 0
0.465263 0.000564584 0
0.545388 0 0
0.625956 0 0
0.704677 0 0
0.782254 0 0
0.855497 0 0
0.920089 0 0
0.97052 0 0
0.982681 0 0
1 0.148806 0
1 0.327596 0
1 0.464286 0
1 0.574777 0.0697032
1 0.659998 0.132555
1 0.737026 0.204349
1 0.798306 0.308339
1 0.842588 0.426749
1 0.877073 0.532387
1 0.902235 0.619699
1 0.921599 0.695384
1 0.937423 0.757259
0 0.117494 0
0 0.119387 0
0 0.120867 0
0 0.121843 0
0 0.12256 0
0 0.122942 0
0 0.123262 0
0.0814679 0.1234 0
0.151827 0.121904 0
0.226444 0.116991 0
0.304952 0.107973 0
0.388098 0.0945296 0
0.47274 0.0749371 0
0.556252 0.0441444 0
0.632731 0 0
0.706706 0 0
0.783368 0 0
0.855879 0 0
0.919783 0 0
0.96968 0 0
0.995377 0.0235599 0
1 0.21735 0
1 0.364553 0
1 0.48571 0
1 0.587701 0.0622263
1 0.66807 0.128695
1 0.742229 0.202167
1 0.801221 0.305989
1 0.844358 0.42562
1 0.878096 0.531792
1 0.9028 0.61941
1 0.92195 0.695201
1 0.937636 0.757153
0 0.169726 0
0 0.171084 0
0 0.171862 0
0 0.172702 0
0 0.173281 0
0 0.173709 0
0 0.173968 0
0.0376135 0.175006 0
0.130663 0.173999 0
0.212711 0.170657 0
0.298421 0.164294 0
0.388388 0.154391 0
0.478645 0.140063 0
0.565087 0.120546 0
0.643198 0.0947127 0
0.719692 0.0594797 0
0.793011 0.00860609 0
0.856382 0 0
0.91931 0 0
0.981781 0.0311437 0
1 0.159884 0
1 0.286778 0
1 0.405325 0
1 0.511177 0
1 0.602029 0.0509346
1 0.67837 0.123629
1 0.748837 0.199954
1 0.805234 0.302983
1 0.846632 0.42417
1 0.879408 0.531182
1 0.903548 0.619013
1 0.922423 0.694957
1 0.937911 0.757015
0 0.230411 0
0 0.2309 0
0 0.231388 0
0 0.231769 0
0 0.232029 0
0 0.23209 0
0 0.231952 0
0 0.231525 0
0.0863203 0.233448 0
0.187564 0.23238 0
0.283482 0.228885 0
0.382208 0.221637 0
0.480461 0.210651 0
0.572412 0.19585 0
0.652277 0.179507 0
0.73022 0.161212 0
0.805936 0.143618 0
0.878157 0.130327 0
0.941741 0.138949 0
0.995682 0.186328 0
1 0.263798 0
1 0.357107 0
1 0.451514 0
1 0.54081 0
1 0.619348 0.033463
1 0.691173 0.116457
1 0.75729 0.197086
1 0.810025 0.29929
1 0.849317 0.422263
1 0.881102 0.530221
1 0.904524 0.618494
1 0.923018 0.694621
1 0.938277 0.756832
0 0.296605 0
0 0.297093 0
0 0.297581 0
0 0.297948 0
0 0.298222 0
0 0.298375 0
0 0.298451 0
0 0.298314 0
0 0.297795 0
0.140185 0.302312 0
0.255009 0.301564 0
0.365682 0.297307 0
0.475288 0.289799 0
0.575875 0.279942 0
0.659724 0.269062 0
0.739513 0.259007 0
0.815396 0.252094 0
0.887907 0.25153 0
0.950256 0.265629 0
1 0.302708 0
1 0.359335 0
1 0.426551 0
1 0.501595 0
1 0.574456 0
1 0.640665 0
1 0.707057 0.107134
1 0.7673 0.193103
1 0.816144 0.294316
1 0.85301 0.419837
1 0.883268 0.528908
1 0.905776 0.617807
1 0.923812 0.694209
1 0.93875 0.756603
0 0.374762 0
0 0.375265 0
0 0.375692 0
0 0.376043 0
0 0.376318 0
0 0.376532 0
0 0.376699 0
0 0.376761 0
0 0.376593 0
0 0.378515 0
0.2009 0.384207 0
0.333883 0.383459 0
0.458503 0.379431 0
0.571389 0.373465 0
0.661341 0.366583 0
0.745022 0.360754 0
0.821927 0.359304 0
0.892989 0.363775 0
0.952834 0.379385 0
1 0.406882 0
1 0.446723 0
1 0.497276 0
1 0.552987 0
1 0.609339 0
1 0.666087 0
1 0.726055 0.0952621
1 0.779583 0.189044
1 0.823468 0.293614
1 0.85745 0.416342
1 0.886 0.527153
1 0.907393 0.616907
1 0.924834 0.693645
1 0.939361 0.756298
0 0.462684 0
0 0.463096 0
0 0.463462 0
0 0.463752 0
0 0.463981 0
0 0.464195 0
0 0.464378 0
0 0.464546 0
0 0.464698 0
0 0.46479 0
0.0684367 0.470954 0
0.274586 0.476356 0
0.426474 0.475624 0
0.555779 0.472038 0
0.654597 0.467567 0
0.743786 0.463706 0
0.823728 0.463096 0
0.894347 0.467658 0
0.952117 0.479927 0
0.997848 0.500603 0
1 0.529015 0
1 0.563958 0
1 0.603998 0
1 0.647608 0
1 0.696406 0
1 0.747906 0.0795453
1 0.79382 0.183917
1 0.832013 0.292943
1 0.863096 0.412436
1 0.889418 0.524895
1 0.909453 0.615717
1 0.926131 0.692897
1 0.940154 0.755871
0 0.553948 0
0 0.554238 0
0 0.554498 0
0 0.554711 0
0 0.554894 0
0 0.555062 0
0 0.55523 0
0 0.555398 0
0 0.55552 0
0 0.55555 0
0 0.555398 0
0.154345 0.563867 0
0.373068 0.566018 0
0.527993 0.563653 0
0.639109 0.560449 0
0.735378 0.55729 0
0.821149 0.556558 0
0.894102 0.55967 0
0.950484 0.568353 0
0.994217 0.582925 0
1 0.60177 0
1 0.624628 0
1 0.654398 0
1 0.690196 0
1 0.730419 0
1 0.771847 0.0595407
1 0.809842 0.179232
1 0.842054 0.292729
1 0.870085 0.408011
1 0.893568 0.522148
1 0.912032 0.614343
1 0.927794 0.69192
1 0.941176 0.755337
0 0.63415 0
0 0.634302 0
0 0.634424 0
0 0.634531 0
0 0.634607 0
0 0.634684 0
0 0.63476 0
0 0.634821 0
0 0.634836 0
0 0.634775 0
0 0.634562 0
0 0.634073 0
0.276829 0.642664 0
0.484215 0.641749 0
0.615198 0.639521 0
0.719326 0.637125 0
0.812024 0.635889 0
0.888716 0.637476 0
0.945678 0.643015 0
0.988022 0.652583 0
1 0.666529 0
1 0.684489 0
1 0.707729 0
1 0.735302 0
1 0.765438 0
1 0.797238 0.0336461
1 0.827253 0.175097
1 0.853758 0.293339
1 0.878294 0.40943
1 0.898543 0.518334
1 0.915251 0.612314
1 0.92987 0.690745
1 0.942473 0.75462
0 0.710338 0
0 0.710399 0
0 0.71043 0
0 0.71046 0
0 0.710475 0
0 0.710491 0
0 0.710491 0
0 0.710475 0
0 0.71043 0
0 0.710292 0
0 0.710048 0
0 0.709514 0
0.0475013 0.712459 0
0.415854 0.717876 0
0.584863 0.715679 0
0.697017 0.712932 0
0.796796 0.711101 0
0.877607 0.711437 0
0.93637 0.714626 0
0.979141 0.721172 0
1 0.730877 0
1 0.743908 0
1 0.759793 0
1 0.778759 0
1 0.799924 0
1 0.82269 0
1 0.845411 0.173129
1 0.866667 0.295018
1 0.887129 0.412192
1 0.904295 0.514717
1 0.919173 0.609705
1 0.932433 0.689097
1 0.94406 0.753841
0 0.784222 0
0 0.784207 0
0 0.784192 0
0 0.784161 0
0 0.784146 0
0 0.7841 0
0 0.784024 0
0 0.783932 0
0 0.783749 0
0 0.783475 0
0 0.783017 0
0 0.782284 0
0 0.781186 0
0.317128 0.7897 0
0.544335 0.787533 0
0.672541 0.784024 0
0.778363 0.780865 0
0.862104 0.779461 0
0.923812 0.780316 0
0.968307 0.783261 0
1 0.788495 0
1 0.796185 0
1 0.805951 0
1 0.817899 0
1 0.831647 0
1 0.846799 0
1 0.864088 0.174426
1 0.881392 0.299702
1 0.896819 0.416342
1 0.910826 0.517922
1 0.923827 0.606531
1 0.935561 0.68687
1 0.946059 0.752605
0 0.84567 0
0 0.845594 0
0 0.845518 0
0 0.845441 0
0 0.84535 0
0 0.845243 0
0 0.845106 0
0 0.844938 0
0 0.844663 0
0 0.844282 0
0 0.843656 0
0 0.842741 0
0 0.841627 0
0.200473 0.847257 0
0.509636 0.846021 0
0.653559 0.841367 0
0.763424 0.836591 0
0.84828 0.833799 0
0.911131 0.832731 0
0.957321 0.833204 0
0.992233 0.83505 0
1 0.838804 0
1 0.84416 0
1 0.851209 0
1 0.860075 0
1 0.870558 0
1 0.883711 0.181781
1 0.895598 0.30779
1 0.90695 0.422889
1 0.918227 0.522728
1 0.929168 0.60647
1 0.939239 0.684138
1 0.948516 0.750973
0 0.892241 0
0 0.892134 0
0 0.892012 0
0 0.89189 0
0 0.891768 0
0 0.891615 0
0 0.891432 0
0 0.891173 0
0 0.890806 0
0 0.890288 0
0 0.889555 0
0 0.888563 0
0 0.887388 0
0.141863 0.8907 0
0.498711 0.889891 0
0.646738 0.884352 0
0.755917 0.878828 0
0.839048 0.874922 0
0.900618 0.87248 0
0.94754 0.871473 0
0.983291 0.871687 0
1 0.873243 0
1 0.876326 0
1 0.880369 0
1 0.885939 0
1 0.893385 0.0317388
1 0.901366 0.197498
1 0.909285 0.321096
1 0.917556 0.432227
1 0.926299 0.529213
1 0.935073 0.610437
1 0.94345 0.681575
1 0.951431 0.748837
0 0.927504 0
0 0.927337 0
0 0.927214 0
0 0.927077 0
0 0.926955 0
0 0.926818 0
0 0.926635 0
0 0.926345 0
0 0.925917 0
0 0.925353 0
0 0.924605 0
0 0.923583 0
0 0.922255 0
0.23621 0.926543 0
0.519066 0.922667 0
0.654765 0.916793 0
0.756817 0.910903 0
0.83476 0.90663 0
0.893416 0.903944 0
0.939055 0.902449 0
0.974655 0.901701 0
1 0.901747 0
1 0.902953 0
1 0.904875 0
1 0.907851 0
1 0.912352 0.0874189
1 0.917266 0.22385
1 0.922545 0.340795
1 0.928374 0.445441
1 0.934783 0.538109
1 0.941436 0.616053
1 0.948043 0.685618
1 0.954818 0.746181
0.00148013 0.953185 0
0.00143435 0.953002 0
0.00137331 0.952834 0
0.00132753 0.952651 0
0.0012665 0.952468 0
0.00122072 0.952285 0
0.00114443 0.952041 0
0.00103761 0.951705 0
0.0009308 0.951293 0
0.000762951 0.950713 0
0.000534066 0.949966 0
0.000411994 0.949081 0
0.000137331 0.94786 0
0.388266 0.951247 0
0.56939 0.945739 0
0.67892 0.939773 0
0.7673 0.934173 0
0.836835 0.930175 0
0.890944 0.92752 0
0.933989 0.925505 0
0.96849 0.924666 0
0.995636 0.924025 0
1 0.923934 0
1 0.92459 0
1 0.926101 0
1 0.929 0.145602
1 0.931914 0.26096
1 0.935149 0.367849
1 0.938949 0.463584
1 0.943297 0.550134
1 0.947997 0.623728
1 0.953079 0.69102
1 0.958572 0.748684
0.00619516 0.972366 0
0.00621042 0.972229 0
0.00622568 0.972076 0
0.00619516 0.971908 0
0.00614939 0.971725 0
0.00610361 0.971542 0
0.00605783 0.971298 0
0.00598154 0.970962 0
0.00588998 0.97055 0
0.00576791 0.970001 0
0.00556954 0.969284 0
0.00531014 0.968353 0
0.364065 0.971679 0
0.525917 0.967254 0
0.630076 0.962066 0
0.713878 0.956649 0
0.785702 0.952071 0
0.844266 0.948699 0
0.892653 0.94641 0
0.932296 0.944488 0
0.96408 0.943114 0
0.990265 0.942138 0
1 0.941543 0
1 0.941451 0
1 0.942397 0.0926528
1 0.943496 0.209781
1 0.944839 0.308888
1 0.946532 0.401724
1 0.948714 0.487556
1 0.951461 0.565927
1 0.954681 0.633829
1 0.958389 0.698054
1 0.962615 0.752911
0.00941482 0.987366 0
0.0093843 0.987198 0
0.00933852 0.98703 0
0.00927749 0.98645 0
0.00923171 0.986282 0
0.00920119 0.986099 0
0.0091249 0.98587 0
0.00906386 0.98558 0
0.00895705 0.985183 0
0.2477 0.989273 0
0.376089 0.98819 0
0.477424 0.985092 0
0.561761 0.981231 0
0.630716 0.977386 0
0.694881 0.973205 0
0.755276 0.969131 0
0.81004 0.966064 0
0.856672 0.963317 0
0.898131 0.961028 0
0.933165 0.959228 0
0.96199 0.957824 0
0.986694 0.95668 0
1 0.955825 0
1 0.955703 0.078233
1 0.955535 0.187015
1 0.955505 0.27863
1 0.955749 0.364324
1 0.956436 0.441917
1 0.957595 0.516548
1 0.959213 0.58613
1 0.961242 0.647196
1 0.963745 0.70721
1 0.966827 0.758297
0.403571 1 0
0.422522 0.99939 0
0.44065 0.998932 0
0.457862 0.998459 0
0.473823 0.997803 0
0.489357 0.99733 0
0.50692 0.996689 0
0.527611 0.995727 0
0.551904 0.994629 0
0.579858 0.993362 0
0.608576 0.991684 0
0.640909 0.989609 0
0.67715 0.986816 0
0.716381 0.98378 0
0.757687 0.981369 0
0.798321 0.978714 0
0.836683 0.976364 0
0.873243 0.974166 0
0.907149 0.972335 0
0.936797 0.970748 0
0.962692 0.969741 0.0300145
0.985641 0.968719 0.089662
1 0.967773 0.139162
1 0.966934 0.204318
1 0.966125 0.276707
1 0.965469 0.35024
1 0.965072 0.420844
1 0.965087 0.487724
1 0.965499 0.550362
1 0.966247 0.608515
1 0.967361 0.664225
1 0.968917 0.718624
1 0.971008 0.765209
0.656596 0.999313 0.181201
0.661448 0.998978 0.181125
0.666331 0.998627 0.181003
0.670954 0.998322 0.180957
0.675471 0.998016 0.180911
0.680064 0.997696 0.18088
0.685863 0.997299 0.180804
0.693309 0.99678 0.180728
0.702617 0.996155 0.180697
0.71426 0.995346 0.180697
0.728618 0.994324 0.180758
0.745724 0.993149 0.181064
0.765667 0.991791 0.181643
0.788296 0.990265 0.182803
0.812634 0.988281 0.185138
0.838544 0.986648 0.188708
0.865507 0.984619 0.193805
0.893355 0.982956 0.200916
0.919463 0.981445 0.210956
0.943297 0.980087 0.224125
0.965286 0.978805 0.240803
0.985458 0.977584 0.261921
1 0.976471 0.287663
1 0.975433 0.318975
1 0.974411 0.366781
1 0.973465 0.421561
1 0.972763 0.478523
1 0.972335 0.534096
1 0.972152 0.587762
1 0.97232 0.635493
1 0.972778 0.685191
1 0.973678 0.732464
1 0.975036 0.773648
0.774777 0.994705 0.345617
0.777005 0.994629 0.345647
0.779217 0.994553 0.345708
0.781445 0.994461 0.345724
0.783536 0.9944 0.3458
0.785748 0.994324 0.345815
0.788586 0.994202 0.345876
0.792096 0.994095 0.345998
0.796628 0.993957 0.346151
0.80238 0.993774 0.346349
0.809583 0.993545 0.346578
0.818372 0.993317 0.34699
0.829313 0.992996 0.347646
0.8421 0.992706 0.348791
0.857176 0.992187 0.350332
0.874678 0.991089 0.352544
0.893111 0.989975 0.355795
0.912367 0.988449 0.360052
0.931563 0.98732 0.365896
0.950332 0.986191 0.373754
0.96875 0.984649 0.383978
0.986114 0.98352 0.396307
1 0.982452 0.411978
1 0.98146 0.431373
1 0.980514 0.455222
1 0.979583 0.492622
1 0.978775 0.535729
1 0.978088 0.581003
1 0.9776 0.623163
1 0.977386 0.666468
1 0.977493 0.709148
1 0.977966 0.74876
1 0.978805 0.783856
0.847211 0.991257 0.474372
0.848386 0.991226 0.474418
0.849531 0.991196 0.474495
0.850675 0.991165 0.47454
0.85182 0.991135 0.474601
0.852979 0.991104 0.474678
0.854322 0.991104 0.4748
0.856245 0.991058 0.474907
0.858732 0.990997 0.475059
0.86183 0.990951 0.475303
0.865797 0.99089 0.475639
0.870817 0.990799 0.476051
0.877775 0.990616 0.476524
0.885435 0.990494 0.477333
0.894591 0.990372 0.478416
0.905226 0.990265 0.479667
0.917159 0.990143 0.481712
0.930053 0.990036 0.484443
0.943999 0.989944 0.487846
0.958694 0.989837 0.492607
0.973602 0.988983 0.498589
0.988037 0.988052 0.506416
1 0.987121 0.516426
1 0.986221 0.528893
1 0.984955 0.544488
1 0.984161 0.563409
1 0.983368 0.592645
1 0.982605 0.624887
1 0.981994 0.661189
1 0.981628 0.698878
1 0.981521 0.734478
1 0.981704 0.766796
1 0.982162 0.795483
0.897505 0.988678 0.577829
0.898116 0.988678 0.577874
0.898711 0.988663 0.577935
0.899306 0.988663 0.577981
0.899901 0.988647 0.578027
0.900511 0.988647 0.578088
0.901289 0.988632 0.578164
0.902296 0.988617 0.578256
0.903639 0.988617 0.578393
