BBLuts/BB_103_0510_LUT.cube
TITLE "Generated by Resolve"
LUT_3D_SIZE 33
0 0 0
0 0 0
0 0 0
0 0 0
0.0238804 0 0
0.0618753 0 0
0.0914321 0 0
0.121889 0 0
0.158694 0 0
0.203723 0 0
0.255985 0 0
0.314931 0 0
0.383337 0 0
0.46041 0 0
0.542245 0 0
0.617304 0 0
0.686809 0 0
0.750317 0 0
0.804883 0 0
0.839307 0 0
0.848188 0 0
0.854749 0.0226749 0
0.861051 0.255055 0
0.853574 0.41088 0.00515755
0.847242 0.537804 0.0397345
0.840024 0.63856 0.0763867
0.833829 0.716854 0.12372
0.829358 0.775876 0.191287
0.825803 0.818341 0.280842
0.822675 0.850034 0.37293
0.819837 0.873396 0.463081
0.817319 0.891752 0.541115
0.815396 0.906294 0.605737
0 0 0
0 0 0
0 0 0
0 0 0
0.0282292 0 0
0.0629892 0 0
0.0928969 0 0
0.124865 0 0
0.161975 0 0
0.20647 0 0
0.257603 0 0
0.316335 0 0
0.384878 0 0
0.461967 0 0
0.543282 0 0
0.617777 0 0
0.687053 0 0
0.750393 0 0
0.8047 0 0
0.839078 0 0
0.84947 0 0
0.857511 0.0663615 0
0.859953 0.277836 0
0.852415 0.421592 0
0.846647 0.544015 0.0377508
0.839673 0.641733 0.0753338
0.833661 0.718608 0.123308
0.829282 0.77673 0.19118
0.825772 0.818784 0.280613
0.82266 0.850278 0.372778
0.819821 0.873533 0.463004
0.817319 0.891829 0.541054
0.815381 0.906325 0.605722
0 0 0
0 0 0
0 0 0
0 0 0
0.0304875 0 0
0.0608682 0 0
0.091249 0 0
0.124575 0 0
0.163058 0 0
0.208164 0 0
0.259327 0 0
0.318044 0 0
0.386526 0 0
0.463478 0 0
0.544366 0 0
0.618448 0 0
0.687404 0 0
0.750454 0 0
0.804501 0 0
0.838834 0 0
0.850904 0 0
0.860166 0.119905 0
0.858854 0.296681 0
0.851408 0.430854 0
0.846113 0.549493 0.0360113
0.839368 0.644663 0.0743572
0.833509 0.720226 0.122942
0.829221 0.777554 0.191058
0.825742 0.819226 0.280369
0.822644 0.850507 0.372625
0.819821 0.873655 0.462913
0.817304 0.89189 0.541024
0.815381 0.906371 0.605707
0 0.014435 0
0 0.0162203 0
0 0.0180362 0
0 0.019028 0
0.0184329 0.0178225 0
0.0531167 0.0159609 0
0.0855268 0.0123293 0
0.121126 0.00433356 0
0.162493 0 0
0.209415 0 0
0.261295 0 0
0.320027 0 0
0.388312 0 0
0.465064 0 0
0.545525 0 0
0.619181 0 0
0.68777 0 0
0.75053 0 0
0.804273 0 0
0.838575 0 0
0.851774 0 0
0.861204 0.156283 0
0.857862 0.31339 0
0.850736 0.44036 0
0.845563 0.555016 0.0339361
0.839063 0.647547 0.0733501
0.833371 0.721767 0.122591
0.829145 0.778363 0.190936
0.825711 0.819654 0.280125
0.822629 0.850736 0.372488
0.819806 0.873762 0.462852
0.817304 0.891951 0.540978
0.815381 0.906401 0.605676
0 0.0419013 0
0 0.0438087 0
0 0.0454108 0
0 0.0461891 0
0.00564584 0.0459144 0
0.0430152 0.04477 0
0.0785992 0.0424048 0
0.116213 0.0374609 0
0.159243 0.0273442 0
0.208042 0.0144045 0
0.261997 0 0
0.322072 0 0
0.390555 0 0
0.46714 0 0
0.546807 0 0
0.619791 0 0
0.687999 0 0
0.750484 0 0
0.804028 0 0
0.839063 0 0
0.853193 0.0120241 0
0.86154 0.184894 0
0.856962 0.328176 0
0.850172 0.449042 0
0.845014 0.560296 0.0318456
0.838727 0.650538 0.0722057
0.833204 0.72343 0.12221
0.829084 0.779126 0.190845
0.825681 0.820066 0.279911
0.822629 0.850965 0.372351
0.819806 0.873899 0.46276
0.817304 0.892027 0.540932
0.815381 0.906447 0.605661
0 0.0679332 0
0 0.0695964 0
0 0.0706951 0
0 0.0713054 0
0 0.0717021 0
0.0231785 0.0710155 0
0.0679484 0.0698863 0
0.109407 0.0674449 0
0.154559 0.0626841 0
0.205234 0.0538186 0
0.260884 0.0370489 0
0.322866 0.0165255 0
0.392721 0 0
0.469688 0 0
0.548775 0 0
0.620859 0 0
0.688411 0 0
0.750439 0 0
0.803571 0 0
0.839872 0 0
0.855817 0.0530861 0
0.861769 0.213413 0
0.855985 0.343923 0
0.849546 0.458595 0
0.844419 0.565896 0.0296025
0.838376 0.65391 0.0709087
0.833036 0.725338 0.121767
0.829007 0.780118 0.190723
0.82565 0.820539 0.279637
0.822599 0.851209 0.372183
0.819791 0.874037 0.462669
0.817288 0.892088 0.540887
0.815381 0.906477 0.605631
0 0.0977188 0
0 0.09897 0
0 0.0998398 0
0 0.100359 0
0 0.10074 0
0 0.100893 0
0.0486763 0.100389 0
0.097612 0.0991073 0
0.146654 0.0961624 0
0.199939 0.0902724 0
0.258442 0.0808576 0
0.323033 0.0664988 0
0.3944 0.0427405 0
0.472511 0.0115816 0
0.551171 0 0
0.622538 0 0
0.689616 0 0
0.75079 0 0
0.804211 0 0
0.842237 0.00103761 0
0.8589 0.112078 0
0.861051 0.246448 0
0.854734 0.363561 0
0.848646 0.471199 0
0.84358 0.573343 0.0257267
0.837903 0.658198 0.069276
0.832807 0.727886 0.121202
0.828885 0.781491 0.190585
0.825605 0.821286 0.279255
0.822583 0.85156 0.371969
0.819791 0.874235 0.462547
0.817288 0.89221 0.540825
0.815366 0.906538 0.6056
0 0.133211 0
0 0.134066 0
0 0.134752 0
0 0.135195 0
0 0.135637 0
0 0.136049 0
0.0168917 0.136202 0
0.0753338 0.135714 0
0.131853 0.133715 0
0.189746 0.129473 0
0.252811 0.122637 0
0.321767 0.11281 0
0.395972 0.0988632 0
0.475746 0.0775921 0
0.554391 0.0492103 0
0.625238 0.0209201 0
0.691966 0 0
0.752392 0 0
0.806485 0 0
0.846036 0.0735637 0
0.860471 0.176425 0
0.859495 0.284138 0
0.853147 0.38819 0
0.847395 0.48777 0
0.842374 0.583215 0.0196841
0.837263 0.664073 0.0669261
0.832502 0.731243 0.120439
0.828748 0.783337 0.190372
0.825513 0.822339 0.278721
0.822538 0.85211 0.371633
0.81976 0.87451 0.462379
0.817273 0.892363 0.540734
0.815366 0.906615 0.605539
0 0.175082 0
0 0.175677 0
0 0.176074 0
0 0.176364 0
0 0.176562 0
0 0.176638 0
0 0.177096 0
0.032929 0.177249 0
0.10454 0.176837 0
0.171801 0.174426 0
0.241291 0.169589 0
0.316167 0.162066 0
0.395468 0.151873 0
0.478416 0.139116 0
0.5579 0.12372 0
0.628473 0.105653 0
0.695918 0.0836805 0
0.757351 0.0734722 0
0.811154 0.10042 0
0.848371 0.162387 0
0.860121 0.241062 0
0.857008 0.327398 0
0.851286 0.417609 0
0.845747 0.508339 0
0.840726 0.596033 0.0114748
0.836393 0.672007 0.0636606
0.832074 0.735851 0.119417
0.82855 0.785794 0.190127
0.825422 0.823758 0.277989
0.822492 0.852918 0.371145
0.81973 0.874937 0.462089
0.817258 0.892576 0.540597
0.815351 0.906752 0.605463
0 0.223636 0
0 0.224033 0
0 0.224323 0
0 0.224659 0
0 0.224811 0
0 0.224857 0
0 0.224826 0
0 0.225544 0
0.0501259 0.226795 0
0.139025 0.227054 0
0.220569 0.224369 0
0.303243 0.219028 0
0.38999 0.21146 0
0.478111 0.202487 0
0.559701 0.192996 0
0.63035 0.18468 0
0.698009 0.179934 0
0.759411 0.184085 0
0.811399 0.205341 0
0.846235 0.24741 0
0.857084 0.306035 0
0.853895 0.376669 0
0.849119 0.453147 0
0.84361 0.533486 0
0.838529 0.611994 0.00163272
0.835294 0.682292 0.059678
0.831525 0.741985 0.118059
0.82829 0.789136 0.189807
0.825284 0.82565 0.277028
0.822416 0.854002 0.370504
0.819699 0.875563 0.461662
0.817243 0.892927 0.540352
0.815351 0.90692 0.605371
0 0.281636 0
0 0.281971 0
0 0.282277 0
0 0.282582 0
0 0.282887 0
0 0.28307 0
0 0.283131 0
0 0.283055 0
0 0.285359 0
0.0828717 0.28809 0
0.183124 0.288624 0
0.279149 0.285969 0
0.376059 0.281193 0
0.47126 0.275395 0
0.556954 0.269505 0
0.629084 0.26566 0
0.696498 0.266178 0
0.756451 0.274174 0
0.806348 0.293843 0
0.840238 0.327337 0
0.852674 0.373938 0
0.850507 0.430137 0
0.846296 0.495537 0
0.841077 0.563668 0
0.836301 0.631113 0
0.833967 0.695079 0.0551308
0.830839 0.749859 0.116365
0.827939 0.793622 0.189563
0.825101 0.828229 0.276371
0.822324 0.855421 0.36965
0.819638 0.876417 0.461082
0.817212 0.893431 0.540017
0.815335 0.907195 0.605203
0 0.352453 0
0 0.352758 0
0 0.353063 0
0 0.353292 0
0 0.353597 0
0 0.353811 0
0 0.354086 0
0 0.354208 0
0 0.355245 0
0.00918593 0.359121 0
0.118776 0.363699 0
0.237049 0.364569 0
0.350072 0.362264 0
0.454292 0.358816 0
0.546822 0.354971 0
0.622568 0.352972 0
0.690776 0.355016 0
0.749538 0.363394 0
0.797833 0.380606 0
0.832517 0.407263 0
0.848112 0.443046 0
0.846769 0.488838 0
0.842817 0.541909 0
0.838132 0.59826 0
0.834043 0.654246 0
0.832364 0.710628 0.0491798
0.830014 0.759533 0.114366
0.827497 0.799359 0.189471
0.824842 0.831678 0.276463
0.822187 0.857359 0.368566
0.819577 0.877546 0.460334
0.817166 0.894118 0.539559
0.815305 0.907591 0.604929
0 0.43476 0
0 0.435004 0
0 0.435248 0
0 0.435462 0
0 0.43566 0
0 0.435843 0
0 0.436133 0
0 0.436347 0
0 0.436561 0
0 0.438682 0
0.0322576 0.444266 0
0.168139 0.449302 0
0.306981 0.449195 0
0.425757 0.446983 0
0.527855 0.443992 0
0.61001 0.442405 0
0.681529 0.444358 0
0.740978 0.451545 0
0.788403 0.465522 0
0.824002 0.487144 0
0.842664 0.515633 0
0.841856 0.550393 0
0.838727 0.591363 0
0.834852 0.635126 0
0.831479 0.681193 0
0.830518 0.728923 0.0415198
0.829023 0.771237 0.111986
0.826947 0.806516 0.189578
0.824506 0.836103 0.277028
0.822019 0.859968 0.367208
0.819471 0.879103 0.459312
0.817105 0.895018 0.538964
0.815259 0.908141 0.604593
0 0.523796 0
0 0.523949 0
0 0.524132 0
0 0.524269 0
0 0.524407 0
0 0.524544 0
0 0.524681 0
0 0.524819 0
0 0.524971 0
0 0.525048 0
0 0.527932 0
0.0664073 0.53431 0
0.237171 0.537362 0
0.383154 0.536263 0
0.499672 0.534234 0
0.591073 0.532815 0
0.667689 0.534112 0
0.729305 0.539406 0
0.776654 0.549599 0
0.812558 0.565164 0
0.83418 0.585855 0
0.836423 0.611658 0
0.834348 0.640574 0
0.831342 0.673991 0
0.828809 0.710613 0
0.828473 0.749203 0.0320134
0.827939 0.784802 0.109636
0.826291 0.81529 0.18999
0.824094 0.841596 0.278035
0.821775 0.863279 0.36643
0.819333 0.881178 0.457969
0.817029 0.896254 0.53814
0.815213 0.908858 0.60412
0 0.608026 0
0 0.608072 0
0 0.608164 0
0 0.60824 0
0 0.608301 0
0 0.608362 0
0 0.608423 0
0 0.608438 0
0 0.608392 0
0 0.608331 0
0 0.607996 0
0 0.61268 0
0.137133 0.618173 0
0.324224 0.618967 0
0.462745 0.617899 0
0.565972 0.616556 0
0.648417 0.616892 0
0.713344 0.620081 0
0.76202 0.626413 0
0.798306 0.636255 0
0.822385 0.650141 0
0.830762 0.667781 0
0.82974 0.689204 0
0.82797 0.713787 0
0.8262 0.740963 0
0.826276 0.770672 0.0198215
0.82678 0.799924 0.107759
0.825544 0.82562 0.191211
0.823606 0.848234 0.279744
0.821469 0.867399 0.367315
0.81915 0.883879 0.456779
0.816922 0.897932 0.537026
0.815152 0.909819 0.603479
0 0.682582 0
0 0.682582 0
0 0.682612 0
0 0.682628 0
0 0.682643 0
0 0.682643 0
0 0.682612 0
0 0.682551 0
0 0.682414 0
0 0.682139 0
0 0.681651 0
0 0.682536 0
0.0406958 0.68838 0
0.246677 0.692027 0
0.417563 0.691127 0
0.537224 0.689219 0
0.625559 0.688334 0
0.694179 0.689647 0
0.745022 0.693431 0
0.782528 0.699763 0
0.809583 0.708873 0
0.824231 0.72076 0
0.825849 0.735134 0
0.82501 0.751858 0
0.823804 0.770718 0
0.824018 0.792432 0.00714122
0.825589 0.816342 0.107149
0.824704 0.837247 0.193835
0.823026 0.856001 0.282628
0.821073 0.872465 0.369558
0.818921 0.887236 0.456336
0.816785 0.900084 0.535729
0.815061 0.911147 0.602579
0 0.750912 0
0 0.750912 0
0 0.750896 0
0 0.750896 0
0 0.750881 0
0 0.750835 0
0 0.750729 0
0 0.750576 0
0 0.750301 0
0 0.749874 0
0 0.749218 0
0 0.748226 0
0 0.752712 0
0.168505 0.757534 0
0.367773 0.756619 0
0.507881 0.753719 0
0.60267 0.751247 0
0.674403 0.750668 0
0.727489 0.751934 0
0.766888 0.754955 0
0.796323 0.759869 0
0.815381 0.766781 0
0.8224 0.775601 0
0.822324 0.786343 0
0.821851 0.798932 0
0.822385 0.814603 0.00488289
0.824414 0.833478 0.10988
0.823804 0.849775 0.198489
0.82237 0.864698 0.287129
0.8206 0.878523 0.373037
0.818601 0.891325 0.457572
0.816602 0.902739 0.534401
0.814954 0.912871 0.601419
0 0.806043 0
0 0.806043 0
0 0.806043 0
0 0.806043 0
0 0.806027 0
0 0.805982 0
0 0.805859 0
0 0.805615 0
0 0.805203 0
0 0.804623 0
0 0.8038 0
0 0.802625 0
0 0.804685 0
0.109377 0.809293 0
0.326955 0.80856 0
0.484352 0.804685 0
0.584451 0.800885 0
0.657649 0.798886 0
0.711925 0.798459 0
0.752804 0.799268 0
0.783581 0.801373 0
0.805722 0.804929 0
0.818494 0.809949 0
0.820233 0.816526 0
0.820386 0.82504 0
0.821729 0.836973 0.0200351
0.823346 0.850553 0.11812
0.822889 0.862623 0.205859
0.821637 0.874144 0.293629
0.82005 0.885405 0.37821
0.818189 0.896147 0.460945
0.816358 0.905959 0.534661
0.814817 0.915007 0.600031
0 0.848478 0
0 0.848478 0
0 0.848478 0
0 0.848478 0
0 0.848478 0
0 0.848478 0
0 0.848417 0
0 0.848203 0
0 0.847745 0
0 0.846998 0
0 0.846021 0
0 0.84477 0
0 0.845624 0
0.0850996 0.849607 0
0.308522 0.848554 0
0.471885 0.843915 0
0.572824 0.839338 0
0.645228 0.836439 0
0.699168 0.835004 0
0.740429 0.834562 0
0.772045 0.83505 0
0.796078 0.836576 0
0.81239 0.8392 0
0.818158 0.842985 0
0.819196 0.84863 0
0.821317 0.857786 0.0452583
0.822339 0.867018 0.132448
0.821958 0.875563 0.21706
0.820844 0.884215 0.302617
0.819409 0.893004 0.385351
0.817716 0.90161 0.465995
0.816037 0.909773 0.537682
0.814618 0.917632 0.599725
0 0.880766 0
0 0.880766 0
0 0.880766 0
0 0.880766 0
0 0.880766 0
0 0.880766 0
0 0.880766 0
0 0.880705 0
0 0.880415 0
0 0.879637 0
0 0.878538 0
0 0.877195 0
0 0.877302 0
0.0889143 0.881209 0
0.321492 0.879057 0
0.472801 0.87393 0
0.568582 0.869062 0
0.637675 0.865736 0
0.689891 0.863737 0
0.730404 0.862623 0
0.76202 0.862196 0
0.78674 0.86244 0
0.805417 0.863462 0
0.815915 0.865385 0
0.817945 0.869261 0
0.820768 0.876249 0.0714275
0.821408 0.882383 0.152667
0.820981 0.88835 0.233249
0.819989 0.894514 0.314504
0.818708 0.90103 0.394903
0.817166 0.907576 0.472816
0.815641 0.914122 0.542138
0.814359 0.920729 0.601846
0 0.904646 0
0 0.904646 0
0 0.904646 0
0 0.904646 0
0 0.904646 0
0 0.904646 0
0 0.904646 0
0 0.904646 0
0 0.904631 0
0 0.904189 0
0 0.903136 0
0 0.901808 0
0 0.902251 0
0.127672 0.905608 0
0.359335 0.901625 0
0.487434 0.8963 0
0.572183 0.891539 0
0.635462 0.888258 0
0.684504 0.886076 0
0.723278 0.884627 0
0.754055 0.883726 0
0.778744 0.883299 0
0.798688 0.883436 0
0.81268 0.88455 0
0.817761 0.888121 0.0200198
0.820203 0.892821 0.104234
0.820462 0.896651 0.179858
0.819974 0.900481 0.255039
0.819089 0.904646 0.330892
0.817945 0.909133 0.407462
0.816571 0.913893 0.481773
0.815198 0.918914 0.548012
0.814054 0.924239 0.605356
0 0.922774 0
0 0.922774 0
0 0.922774 0
0 0.922774 0
0 0.922774 0
0 0.922774 0
0 0.922774 0
0 0.922774 0
0 0.922774 0
0 0.922774 0
0 0.922225 0
0 0.921035 0
0.0232547 0.923858 0
0.23949 0.92369 0
0.409949 0.918486 0
0.511589 0.91339 0
0.582406 0.909148 0
0.638086 0.906126 0
0.682658 0.90399 0
0.718822 0.902464 0
0.748104 0.901366 0
0.772137 0.900633 0
0.792233 0.900542 0
0.808499 0.902358 0.0130617
0.817807 0.905226 0.0781415
0.819272 0.907423 0.147295
0.819486 0.909361 0.214343
0.818967 0.911559 0.283177
0.818173 0.914153 0.352224
0.817136 0.917098 0.423941
0.815915 0.920363 0.493446
0.81471 0.92401 0.555596
0.813718 0.928084 0.610086
0 0.939818 0
0 0.939818 0
0 0.939818 0
0 0.939818 0
0 0.939818 0
0 0.939818 0
0 0.939818 0
0 0.939818 0
0 0.939818 0
0 0.939818 0
0 0.939818 0
0 0.939193 0
0.145632 0.940658 0
0.351019 0.935637 0
0.462745 0.930816 0
0.539178 0.92636 0
0.59765 0.92285 0
0.645029 0.920241 0
0.684443 0.918273 0
0.717372 0.916945 0
0.744961 0.916304 0
0.768429 0.91603 0.00158694
0.788586 0.916396 0.0194705
0.805508 0.917891 0.0728313
0.816571 0.918898 0.134264
0.818402 0.919615 0.194293
0.818479 0.920348 0.255009
0.817945 0.921416 0.316625
0.817227 0.922881 0.37969
0.816281 0.924636 0.444541
0.815198 0.926726 0.507881
0.814176 0.929168 0.565209
0.813336 0.932113 0.616083
0.277104 0.952255 0.0141299
0.277089 0.952255 0.0141299
0.277089 0.952255 0.0141299
0.277089 0.952255 0.0141299
0.277089 0.952255 0.0141299
0.277089 0.952255 0.0141299
0.277089 0.952255 0.0141299
0.277089 0.952255 0.0141299
0.277073 0.952255 0.0141299
0.277073 0.952255 0.0141299
0.277058 0.952255 0.0141299
0.277028 0.952255 0.0141299
0.334188 0.950347 0.0131533
0.432471 0.946365 0.0115206
0.513298 0.941588 0.0102083
0.570642 0.938003 0.0096437
0.617517 0.935271 0.00975052
0.656947 0.933165 0.0104372
0.690959 0.931517 0.0116732
0.720348 0.930587 0.0212711
0.745846 0.930495 0.0483864
0.767865 0.930388 0.0798352
0.786526 0.930175 0.110323
0.802014 0.930022 0.148287
0.813672 0.929885 0.194308
0.817182 0.929763 0.245579
0.817441 0.929732 0.300099
0.816922 0.930037 0.354406
0.816236 0.930632 0.412116
0.815396 0.931472 0.46949
0.814481 0.932616 0.524987
0.813642 0.934157 0.577371
0.812955 0.936141 0.623514
0.483482 0.955901 0.129992
0.483482 0.955901 0.129992
0.483482 0.955901 0.129992
0.483482 0.955901 0.129992
0.483482 0.955901 0.129992
0.483467 0.955901 0.129992
0.483467 0.955901 0.129992
0.483467 0.955901 0.129992
0.483467 0.955901 0.129992
0.483467 0.955901 0.129992
0.483452 0.955901 0.129992
0.483452 0.955901 0.129992
0.483436 0.955901 0.129992
0.509194 0.954437 0.13019
0.55613 0.951629 0.131243
0.601968 0.949187 0.133761
0.639796 0.94725 0.137606
0.672282 0.945174 0.142962
0.700847 0.943771 0.150134
0.725719 0.94258 0.159319
0.747662 0.941558 0.170901
0.767132 0.940627 0.185504
0.784009 0.939834 0.203677
0.798337 0.939132 0.226993
0.809659 0.938537 0.26009
0.815732 0.937987 0.301869
0.816403 0.937499 0.347127
0.815885 0.937285 0.39736
0.815244 0.93724 0.448081
0.814511 0.937438 0.498665
0.813764 0.937926 0.546105
0.813092 0.938796 0.591959
0.812558 0.940093 0.632868
0.583474 0.954406 0.242008
0.583474 0.954406 0.242008
0.583474 0.954406 0.242008
0.583474 0.954406 0.242008
0.583474 0.954406 0.242008
0.583474 0.954406 0.242008
0.583474 0.954406 0.242008
0.583474 0.954406 0.242008
0.583474 0.954406 0.242008
0.583459 0.954406 0.242008
0.583459 0.954406 0.242008
0.583459 0.954406 0.242008
0.583459 0.954421 0.242008
0.583444 0.954421 0.242008
0.597513 0.954101 0.242542
0.628016 0.953429 0.244587
0.659251 0.95259 0.247562
0.68603 0.951492 0.251499
0.709453 0.9505 0.25658
0.730343 0.949615 0.263188
0.749416 0.94873 0.271519
0.76669 0.947814 0.282032
0.781994 0.946532 0.295277
0.795224 0.945739 0.311192
0.806394 0.945022 0.331655
0.814069 0.944366 0.361273
0.81503 0.943725 0.399847
0.814862 0.943084 0.4421
0.814267 0.942672 0.486381
0.813657 0.942489 0.528481
0.813077 0.94258 0.569909
0.812573 0.943008 0.60882
0.812177 0.943771 0.643809
0.645731 0.952773 0.344244
0.645731 0.952773 0.344244
0.645731 0.952773 0.344244
0.645731 0.952773 0.344244
0.645731 0.952773 0.344244
0.645731 0.952773 0.344244
0.645731 0.952773 0.344244
0.645716 0.952773 0.344244
0.645716 0.952789 0.344244
0.645716 0.952789 0.344244
0.645716 0.952789 0.344244
0.645716 0.952773 0.344244
0.645716 0.952773 0.344244
0.645716 0.952773 0.344244
0.645701 0.952773 0.344244
0.655131 0.952712 0.344945
0.676509 0.952621 0.34699
0.698741 0.952636 0.350027
0.718044 0.952712 0.35378
0.735821 0.952682 0.358801
0.752194 0.952514 0.364889
0.767239 0.951965 0.372595
0.780789 0.951278 0.382315
0.792828 0.950637 0.39443
0.803311 0.950011 0.4094
0.811505 0.949416 0.428367
0.813718 0.948775 0.455283
0.81384 0.947616 0.488869
0.813352 0.947036 0.523964
0.812879 0.94667 0.560113
0.812451 0.946532 0.59501
0.8121 0.946639 0.627268
0.811826 0.94699 0.656306
0.688624 0.951705 0.439902
0.688624 0.951705 0.439902
0.688624 0.951705 0.439902
0.688624 0.951705 0.439902
0.688624 0.951705 0.439902
0.688624 0.951705 0.439902
0.688624 0.951705 0.439902
0.688624 0.951705 0.439902
0.688624 0.951705 0.439902
