BBLuts/BB_103_0060_LUT.cube
TITLE "Generated by Resolve"
LUT_3D_SIZE 33
0.00297551 0.00399786 0.00125124
0.00297551 0.00399786 0.00125124
0.00297551 0.00399786 0.00125124
0.00297551 0.00399786 0.00125124
0.0607614 0.0027924 0
0.114412 0.00265507 0
0.154177 0.002533 0
0.1944 0.00224308 0
0.241794 0.00151064 0
0.297368 1.5259e-05 0
0.360113 0 0
0.427115 0 0
0.502571 0 0
0.57702 0 0
0.644953 0 0
0.714183 0 0
0.779904 0 0
0.839246 0 0
0.889082 0 0
0.919142 0 0
0.924834 0 0
0.922744 0.0573892 0
0.920531 0.287404 0.0391546
0.910887 0.471733 0.0798199
0.902251 0.60061 0.118944
0.895293 0.690394 0.170092
0.887968 0.76849 0.234821
0.88191 0.830121 0.318486
0.87718 0.874434 0.413779
0.873396 0.907362 0.497993
0.870222 0.931594 0.568643
0.867628 0.94995 0.637217
0.865675 0.964858 0.694087
0.00297551 0.00399786 0.00125124
0.00297551 0.00399786 0.00125124
0.00297551 0.00399786 0.00125124
0.0138399 0.00325017 0.000732433
0.0682841 0.00276188 0
0.116747 0.00265507 0
0.157015 0.00251774 0
0.199268 0.00218204 0
0.247456 0.00138857 0
0.30251 0 0
0.363775 0 0
0.429694 0 0
0.504555 0 0
0.578317 0 0
0.645945 0 0
0.714809 0 0
0.780224 0 0
0.839323 0 0
0.888914 0 0
0.918944 0 0
0.924834 0 0
0.922194 0.067689 0
0.918853 0.317296 0.0227054
0.909651 0.486366 0.075227
0.90161 0.60824 0.116228
0.894835 0.694896 0.167575
0.887663 0.771405 0.233112
0.881758 0.831785 0.31754
0.877104 0.875364 0.413275
0.873365 0.907897 0.497765
0.870207 0.931899 0.568505
0.867613 0.950134 0.637125
0.86566 0.964965 0.694041
0.00297551 0.00399786 0.00125124
0.00297551 0.00399786 0.00125124
0.00297551 0.00399786 0.00125124
0.0300145 0.00384527 0.000610361
0.0745098 0.00291447 0
0.115969 0.00265507 0
0.156695 0.00251774 0
0.200717 0.00216678 0
0.250019 0.00132753 0
0.305623 0 0
0.366598 0 0
0.432105 0 0
0.506554 0 0
0.579644 0 0
0.646952 0 0
0.715434 0 0
0.780545 0 0
0.839368 0 0
0.888716 0 0
0.918746 0 0
0.924834 0 0
0.921981 0.0768749 0
0.91754 0.343893 0.0198215
0.908476 0.500099 0.0701762
0.900999 0.615274 0.113451
0.894377 0.69929 0.165042
0.887373 0.774273 0.231495
0.881621 0.833432 0.316594
0.877043 0.876265 0.412787
0.87332 0.908446 0.49752
0.870192 0.932204 0.568368
0.867597 0.950317 0.637034
0.86566 0.965072 0.693996
0 0.0504616 0.0010071
0 0.0530404 0.0010071
0 0.0555123 0.0010071
0.00361639 0.0565347 0.000823987
0.0603494 0.055024 0
0.107012 0.0526741 0
0.149676 0.0476997 0
0.19675 0.0360571 0
0.250324 0.0109712 0
0.307637 0 0
0.368978 0 0
0.434485 0 0
0.508614 0 0
0.581018 0 0
0.648005 0 0
0.716091 0 0
0.78085 0 0
0.839399 0 0
0.888518 0 0
0.918532 0 0
0.924575 0 0
0.921599 0.105562 0
0.916213 0.367742 0.0186923
0.907347 0.512718 0.0644999
0.900435 0.621485 0.110613
0.893935 0.703593 0.162493
0.887098 0.777066 0.229892
0.881483 0.83505 0.315679
0.876982 0.877165 0.412284
0.873289 0.90898 0.497292
0.870176 0.932494 0.5682
0.867582 0.950515 0.636942
0.865644 0.965194 0.693935
0 0.0893873 0.000915541
0 0.0920424 0.000915541
0 0.0941787 0.000900282
0 0.0952163 0.000900282
0.0449683 0.0941634 0
0.0955215 0.0925917 0
0.141543 0.0893721 0
0.190402 0.0823987 0
0.24509 0.0682994 0
0.304509 0.050721 0
0.36968 0.0143435 0
0.436942 0 0
0.510796 0 0
0.582483 0 0
0.649134 0 0
0.716762 0 0
0.78117 0 0
0.839445 0 0
0.888289 0 0
0.918303 0 0
0.923125 0.0290684 0
0.920943 0.188602 0
0.914763 0.390036 0.016846
0.906233 0.524804 0.0575113
0.899886 0.627451 0.107576
0.893477 0.707958 0.159808
0.886824 0.779904 0.228244
0.881346 0.836683 0.314717
0.876905 0.878096 0.41178
0.873259 0.909514 0.497032
0.870146 0.932815 0.568063
0.867582 0.950698 0.636851
0.865644 0.965316 0.693874
0 0.125429 0.000762951
0 0.127626 0.000762951
0 0.129 0.000747692
0 0.129793 0.000747692
0.00358587 0.129732 0.000350958
0.071809 0.128359 0
0.130297 0.126772 0
0.182513 0.123537 0
0.239475 0.117159 0
0.30045 0.105287 0
0.365972 0.0820935 0
0.434791 0.0545968 0
0.511696 0.0121614 0
0.584329 0 0
0.650568 0 0
0.717617 0 0
0.781582 0 0
0.839475 0 0
0.887999 0 0
0.917998 0 0
0.922423 0.0546273 0
0.919966 0.253635 0.00270085
0.912978 0.413672 0.0129091
0.904799 0.538415 0.0446937
0.899184 0.634653 0.1037
0.892912 0.713191 0.156451
0.886488 0.783291 0.226246
0.881178 0.838666 0.313558
0.876829 0.87921 0.411154
0.873213 0.910185 0.496742
0.87013 0.933181 0.56788
0.867567 0.950927 0.636728
0.865629 0.965454 0.693812
0 0.165759 0.00047303
0 0.167315 0.000457771
0 0.168353 0.000442512
0 0.168994 0.000442512
0 0.169345 0.000442512
0.0396887 0.168307 0
0.1084 0.167407 0
0.169833 0.165667 0
0.230854 0.161776 0
0.294606 0.154147 0
0.3626 0.142138 0
0.433188 0.12343 0
0.509392 0.0912947 0
0.581933 0.0491035 0
0.650858 0.00297551 0
0.718791 0 0
0.782116 0 0
0.839521 0 0
0.887602 0 0
0.916472 0.012192 0
0.921401 0.12752 0
0.918395 0.30782 0.00503548
0.910674 0.441382 0.00776684
0.903044 0.554772 0.0285649
0.898268 0.644053 0.0986191
0.892226 0.719829 0.152956
0.886076 0.78761 0.223621
0.880964 0.841184 0.312047
0.876722 0.880644 0.41033
0.873152 0.91104 0.496345
0.8701 0.933684 0.56762
0.867536 0.951232 0.636576
0.865614 0.965637 0.693721
0 0.212802 0
0 0.213809 0
0 0.214664 0
0 0.215259 0
0 0.215641 0
0 0.215671 0
0.0689403 0.214633 0
0.145922 0.21355 0
0.215091 0.210697 0
0.283818 0.205188 0
0.35668 0.196643 0
0.431403 0.184482 0
0.508888 0.167102 0
0.579934 0.139162 0
0.647623 0.100923 0
0.715251 0.0630808 0
0.780621 0.0150149 0
0.839551 0 0
0.885634 0.0133364 0
0.913649 0.1075 0
0.920378 0.232486 0.00161746
0.915892 0.362829 0.00648508
0.908049 0.474754 0.00642405
0.901411 0.574746 0.0226444
0.897093 0.655818 0.0916304
0.89134 0.728206 0.149004
0.885542 0.793042 0.220218
0.880705 0.844388 0.310094
0.876585 0.88249 0.409247
0.873075 0.912154 0.495827
0.870054 0.93431 0.5673
0.867521 0.951644 0.636362
0.865599 0.965881 0.693614
0 0.266239 0
0 0.266819 0
0 0.267323 0
0 0.267659 0
0 0.267826 0
0 0.267857 0
0.000717174 0.267262 0
0.0958724 0.266209 0
0.187472 0.264942 0
0.2654 0.261616 0
0.344961 0.255711 0
0.425956 0.246906 0
0.50779 0.234974 0
0.579522 0.219715 0
0.646784 0.200687 0
0.713359 0.176944 0
0.777081 0.144427 0
0.834424 0.12517 0
0.881651 0.15697 0
0.911498 0.234028 0.0012665
0.917739 0.324544 0.00560006
0.912261 0.418952 0.00679026
0.905089 0.513313 0.00611887
0.89958 0.598383 0.0200046
0.895537 0.670329 0.081239
0.890242 0.738674 0.143938
0.884901 0.799817 0.215808
0.880369 0.848402 0.307576
0.876417 0.884855 0.407858
0.872984 0.913573 0.495155
0.870008 0.935134 0.566888
0.867475 0.952163 0.636103
0.865583 0.966186 0.693462
0 0.325338 0
0 0.32578 0
0 0.326131 0
0 0.32636 0
0 0.326497 0
0 0.326497 0
0 0.326329 0
0.00483711 0.325536 0
0.124407 0.325597 0
0.234684 0.324804 0
0.324285 0.321263 0
0.413596 0.315084 0
0.50277 0.306706 0
0.577874 0.296864 0
0.64625 0.286534 0
0.712306 0.27715 0
0.774868 0.271092 0
0.83122 0.274617 0
0.877592 0.297368 0.00205997
0.906813 0.343114 0.00550851
0.913207 0.405661 0.00682078
0.90782 0.477684 0.00639353
0.902068 0.553979 0.00588998
0.897398 0.623682 0.0149844
0.893462 0.687861 0.062623
0.888884 0.751553 0.137255
0.884123 0.808118 0.210086
0.879973 0.853376 0.304372
0.876219 0.887831 0.406027
0.872862 0.915373 0.494255
0.869932 0.936187 0.566339
0.867445 0.952834 0.635752
0.865553 0.966598 0.693263
0 0.39411 0
0 0.394507 0
0 0.394827 0
0 0.395071 0
0 0.395254 0
0 0.395377 0
0 0.395377 0
0 0.395163 0
0.0425727 0.395132 0
0.173022 0.396719 0
0.289067 0.396139 0
0.390951 0.392859 0
0.490425 0.387655 0
0.571542 0.381476 0
0.642786 0.375433 0
0.70956 0.371771 0
0.771237 0.37261 0
0.825895 0.381323 0.000793469
0.870329 0.402197 0.00393683
0.899214 0.435859 0.0059968
0.907423 0.482856 0.00636301
0.903181 0.538552 0.00595102
0.899001 0.596887 0.00579843
0.894759 0.651102 0.00762951
0.890745 0.708598 0.0361334
0.887282 0.766979 0.129046
0.883223 0.818082 0.205005
0.879499 0.859434 0.300435
0.875959 0.891554 0.403662
0.872709 0.917647 0.493065
0.869856 0.937545 0.565621
0.867384 0.953689 0.635294
0.865522 0.967132 0.693004
0 0.472328 0
0 0.472679 0
0 0.472984 0
0 0.473243 0
0 0.473442 0
0 0.47361 0
0 0.473747 0
0 0.473747 0
0 0.474174 0
0.0788739 0.475975 0
0.22388 0.479011 0
0.353674 0.478538 0
0.467628 0.475776 0
0.557946 0.472099 0
0.633555 0.468345 0
0.702876 0.466911 0
0.764691 0.469749 0
0.817777 0.47892 0.000381476
0.860502 0.496895 0.00311284
0.890257 0.52343 0.00514229
0.901854 0.556893 0.00588998
0.899016 0.596582 0.00579843
0.89572 0.637903 0.0053254
0.891722 0.683162 0.00440986
0.888014 0.733242 0.023209
0.885481 0.784772 0.119142
0.8822 0.829725 0.200778
0.87895 0.866651 0.295369
0.875639 0.896117 0.40061
0.872526 0.92047 0.491508
0.869734 0.939254 0.564691
0.867308 0.954772 0.634699
0.865476 0.967803 0.692668
0 0.559045 0
0 0.559304 0
0 0.559533 0
0 0.559716 0
0 0.559884 0
0 0.560052 0
0 0.560189 0
0 0.560296 0
0 0.560357 0
0 0.561212 0
0.120424 0.56405 0
0.290562 0.566461 0
0.431678 0.565332 0
0.537255 0.563134 0
0.617853 0.560494 0
0.691615 0.559548 0
0.755779 0.56202 0
0.808957 0.569162 0
0.850767 0.581918 0.00254826
0.881834 0.60061 0.00471504
0.896971 0.622782 0.00555428
0.894774 0.64889 0.00514229
0.891875 0.68162 0.00445563
0.888395 0.719417 0.00354009
0.885283 0.761532 0.019791
0.883528 0.804761 0.106859
0.881071 0.843076 0.196841
0.878309 0.875105 0.290913
0.875257 0.902007 0.396674
0.872312 0.923934 0.489433
0.869612 0.941421 0.56347
0.867231 0.956161 0.633921
0.865415 0.968643 0.69221
0 0.636759 0
0 0.636912 0
0 0.637049 0
0 0.637156 0
0 0.637263 0
0 0.637354 0
0 0.63743 0
0 0.637491 0
0 0.637507 0
0 0.637385 0
0 0.638056 0
0.179431 0.64065 0
0.375662 0.640894 0
0.506798 0.639597 0
0.596689 0.637934 0
0.676402 0.637186 0
0.744564 0.638743 0
0.799115 0.643503 0
0.840467 0.652018 0.00164797
0.8719 0.664698 0.00355535
0.889632 0.681422 0.00440986
0.889967 0.702281 0.00395209
0.887556 0.728267 0.00331121
0.884764 0.758358 0.00259403
0.882506 0.791699 0.0157778
0.881498 0.826276 0.0915694
0.879896 0.857816 0.193668
0.877592 0.884855 0.289067
0.87483 0.908568 0.391928
0.872053 0.9281 0.486702
0.869444 0.944091 0.561898
0.867109 0.9579 0.632898
0.865354 0.969726 0.691646
0 0.708782 0
0 0.708873 0
0 0.708934 0
0 0.70898 0
0 0.709026 0
0 0.709056 0
0 0.709072 0
0 0.709056 0
0 0.70898 0
0 0.708797 0
0 0.708385 0
0.0540627 0.709255 0
0.280964 0.711818 0
0.46482 0.710948 0
0.56997 0.709438 0
0.656077 0.708263 0
0.728862 0.708949 0
0.785748 0.71223 0
0.82771 0.718425 0.00030518
0.859083 0.727855 0.00190738
0.879408 0.740475 0.00276188
0.884978 0.756146 0.00263981
0.883253 0.775311 0.00224308
0.881376 0.797467 0.00189212
0.879881 0.822095 0.0109712
0.879454 0.848417 0.0721294
0.878691 0.873533 0.191852
0.876768 0.895827 0.289677
0.874311 0.916075 0.389532
0.871763 0.932967 0.483253
0.869245 0.947356 0.559853
0.866987 0.960052 0.631571
0.865263 0.971084 0.690883
0 0.779553 0
0 0.779568 0
0 0.779568 0
0 0.779568 0
0 0.779553 0
0 0.779538 0
0 0.779477 0
0 0.779385 0
0 0.779232 0
0 0.778927 0
0 0.778424 0
0 0.778302 0
0.168078 0.780484 0
0.408316 0.78056 0
0.539498 0.778729 0
0.63238 0.77673 0
0.709712 0.776165 0
0.768902 0.777691 0
0.812741 0.781399 0
0.844892 0.787366 0.000656138
0.868025 0.795743 0.00151064
0.879316 0.806424 0.00181582
0.879637 0.819165 0.00167849
0.878508 0.834134 0.00158694
0.877485 0.851087 0.00483711
0.877409 0.8701 0.0461128
0.877501 0.889967 0.19202
0.875868 0.908156 0.292256
0.873701 0.924376 0.391089
0.871397 0.938598 0.480339
0.869017 0.951278 0.557214
0.866819 0.962676 0.629847
0.865156 0.972763 0.689891
0 0.843595 0
0 0.843565 0
0 0.843519 0
0 0.843458 0
0 0.843397 0
0 0.84332 0
0 0.843198 0
0 0.843015 0
0 0.842725 0
0 0.842313 0
0 0.841657 0
0 0.840681 0
0.0900282 0.841672 0
0.34023 0.842557 0
0.511543 0.839841 0
0.610208 0.836606 0
0.690974 0.834501 0
0.752117 0.834257 0
0.797574 0.835645 0
0.831189 0.838544 0.00030518
0.856367 0.843107 0.00106813
0.872175 0.849393 0.00149538
0.876875 0.857176 0.00155642
0.876249 0.866667 0.00158694
0.875578 0.877836 0.0021973
0.875746 0.891356 0.0346227
0.87631 0.907118 0.195499
0.874952 0.920684 0.297337
0.873014 0.933257 0.395377
0.870939 0.94493 0.480842
0.868742 0.955871 0.554009
0.866636 0.965789 0.627604
0.865019 0.974807 0.688609
0 0.89514 0.00381476
0 0.895048 0.00381476
0 0.894957 0.0037995
0 0.894865 0.00378424
0 0.894759 0.00376898
0 0.894621 0.00375372
0 0.894438 0.00373846
0 0.894179 0.00370794
0 0.893797 0.00366217
0 0.893248 0.00358587
0 0.89247 0.00349432
0 0.891051 0.00337224
0.049424 0.891051 0.00354009
0.287907 0.891875 0.00480659
0.491112 0.887724 0.00205997
0.595102 0.883436 0
0.676921 0.88014 0
0.738247 0.878599 0
0.784298 0.878416 0
0.819028 0.879286 0.000579843
0.845212 0.881285 0.00117494
0.86392 0.88455 0.00157168
0.873823 0.889052 0.00175479
0.874434 0.895155 0.00173953
0.874235 0.902693 0.00746166
0.874861 0.912581 0.0585184
0.875196 0.92343 0.203998
0.874006 0.933165 0.30547
0.872267 0.94255 0.401999
0.870359 0.951888 0.485084
0.868376 0.960983 0.553506
0.866423 0.96939 0.62475
0.864866 0.977264 0.686931
0 0.934173 0.0090486
0 0.934051 0.00903334
0 0.933928 0.00901808
0 0.933791 0.00900282
0 0.933669 0.00898756
0 0.933486 0.00895705
0 0.933242 0.00892653
0 0.932921 0.00888075
0 0.932464 0.00881971
0 0.931853 0.00872816
0 0.931029 0.00860609
0 0.929931 0.0084535
0.0516518 0.929152 0.00849927
0.285954 0.929122 0.00906386
0.487861 0.924376 0.00518807
0.5897 0.919448 0.00218204
0.668986 0.915511 0.000503548
0.728389 0.913222 0.000183108
0.773587 0.912123 0.000518807
0.808454 0.911864 0.00102235
0.835248 0.912413 0.00144961
0.85565 0.913863 0.00175479
0.86923 0.916243 0.0019379
0.872938 0.919554 0.0019379
0.873198 0.92459 0.0167544
0.874205 0.931701 0.100603
0.874144 0.93872 0.219394
0.873045 0.945373 0.317769
0.871458 0.952224 0.411276
0.869718 0.959381 0.491356
0.867887 0.966537 0.557565
0.866133 0.973434 0.623697
0.864668 0.980163 0.684733
0 0.963729 0.0131685
0 0.963577 0.0131533
0 0.963424 0.013138
0 0.963272 0.0131075
0 0.963104 0.0130922
0 0.962905 0.0130617
0 0.962631 0.0130312
0 0.962264 0.0129702
0 0.961791 0.0129091
0 0.961166 0.0128176
0 0.960327 0.0127108
0 0.959243 0.0125582
0.105013 0.958694 0.012726
0.343252 0.956725 0.0111543
0.504051 0.951568 0.0069276
0.595041 0.946471 0.00360113
0.667704 0.942412 0.00164797
0.723033 0.939803 0.0010071
0.766079 0.938262 0.00108339
0.800015 0.937377 0.00138857
0.826673 0.937087 0.00169375
0.847608 0.937392 0.0019379
0.863386 0.938354 0.00210575
0.871275 0.940047 0.00216678
0.872251 0.943267 0.0251926
0.873411 0.948363 0.141421
0.873106 0.952758 0.242878
0.872038 0.957183 0.335378
0.870588 0.961944 0.423819
0.869017 0.967086 0.499123
0.867353 0.972412 0.563287
0.865766 0.977829 0.626917
0.864454 0.983444 0.683513
0 0.985519 0.0160525
0 0.985336 0.016022
0 0.985183 0.0160067
0 0.985016 0.0159915
0 0.984848 0.0159609
0 0.984634 0.0159457
0 0.98436 0.0158999
0 0.984009 0.0158541
0 0.98352 0.0157931
0 0.98291 0.0157168
0 0.982086 0.01561
0.0205997 0.980911 0.0151522
0.22356 0.980621 0.0152743
0.427787 0.975998 0.0108492
0.53341 0.97113 0.00709544
0.610574 0.9664 0.00401312
0.673182 0.962692 0.00221256
0.722484 0.960143 0.0015259
0.762219 0.95845 0.00146487
0.794263 0.95729 0.00164797
0.819928 0.956588 0.0018616
0.840803 0.956283 0.00205997
0.857755 0.956436 0.0021973
0.868955 0.957458 0.00944533
0.87187 0.95993 0.0621195
0.872526 0.963073 0.186679
0.872007 0.965591 0.275105
0.87097 0.968261 0.35938
0.869673 0.971298 0.440223
0.868269 0.974716 0.508766
0.866758 0.978454 0.571008
0.865309 0.982544 0.63238
0.864149 0.98703 0.685512
0 1 0.0180362
0 1 0.0180209
0 1 0.0180056
0 1 0.0179904
0 1 0.0179599
0 1 0.0179446
0 1 0.0179141
0 1 0.0178683
0.00410468 0.999786 0.0175021
0.0496071 0.999146 0.017258
0.0791791 0.998566 0.017258
0.236606 0.997909 0.0167849
0.410101 0.993774 0.0125734
0.504997 0.9897 0.00918593
0.573007 0.985428 0.00610361
0.633188 0.981552 0.00373846
0.684047 0.9785 0.00236515
0.72607 0.976257 0.00178531
0.761624 0.974609 0.00167849
0.790967 0.973373 0.00180056
0.81503 0.972488 0.00196841
0.835218 0.971893 0.002121
0.852277 0.971893 0.00889601
0.865431 0.973068 0.0528878
0.871672 0.974624 0.151446
0.871519 0.975738 0.237171
0.870863 0.976852 0.314824
0.869871 0.97821 0.390707
0.868727 0.979934 0.460899
0.86746 0.98204 0.521996
0.866102 0.984527 0.581155
0.864836 0.987427 0.63946
0.863813 0.990814 0.689799
0.0648356 1 0.0187228
0.0693523 1 0.0187076
0.0735943 1 0.0187076
0.0775921 1 0.0186923
0.081529 1 0.018677
0.0861067 1 0.018677
0.091722 1 0.0186618
0.0985733 1 0.0186465
0.213046 1 0.0182193
0.324956 1 0.0160067
0.402564 1 0.0135958
0.466407 1 0.0112917
0.519783 1 0.00898756
0.568841 0.998993 0.00666819
0.616098 0.99585 0.00463874
0.659907 0.993042 0.00314336
0.699016 0.990723 0.00225834
0.73344 0.988876 0.0018616
0.764157 0.987396 0.00178531
0.790372 0.98645 0.00668345
0.812757 0.985931 0.0203861
0.832029 0.985458 0.0311742
0.848661 0.985504 0.0611887
0.862257 0.98616 0.14493
0.870161 0.986328 0.222339
0.87039 0.986282 0.292882
0.869642 0.986435 0.35996
0.868742 0.986923 0.426047
0.867735 0.987762 0.486198
0.866606 0.988907 0.539132
0.865415 0.990387 0.594263
0.864317 0.992294 0.648463
0.863447 0.994675 0.695277
0.394369 1 0.0533303
0.407004 1 0.0528572
0.41857 1 0.0524147
0.429252 1 0.0520027
0.439551 1 0.0515908
0.45124 1 0.051133
0.465248 1 0.0505684
0.48188 1 0.0499123
0.500862 1 0.049073
0.520195 1 0.0480964
0.543175 1 0.0469673
0.568994 1 0.0457618
0.597452 1 0.0445563
0.627649 1 0.0435187
0.658442 1 0.0428473
0.688655 1 0.0426795
0.717693 1 0.0431067
0.745007 0.999893 0.0441749
0.770443 0.998688 0.0458839
0.792981 0.997971 0.0653544
0.813107 0.99765 0.112062
0.830823 0.997162 0.150896
0.84596 0.996643 0.189319
0.858518 0.996139 0.237278
0.867353 0.995575 0.292927
0.869123 0.994949 0.349798
0.868406 0.994553 0.40911
0.867597 0.994446 0.463432
0.866712 0.994598 0.512489
0.865721 0.995041 0.560388
0.864698 0.995773 0.610697
0.863798 0.996902 0.659602
0.863081 0.998474 0.702129
0.569467 1 0.208942
0.572992 1 0.208896
0.576455 1 0.208865
0.579843 1 0.208835
0.583261 1 0.208804
0.58735 1 0.208789
0.592538 1 0.208789
0.599084 1 0.208789
0.607202 1 0.20885
0.617166 1 0.209003
0.629129 1 0.209277
0.643153 1 0.209796
0.659266 1 0.210727
0.677134 1 0.212192
0.696422 1 0.214466
0.716793 1 0.217777
0.737774 1 0.222461
0.758465 1 0.228809
0.778515 1 0.237232
0.796857 1 0.248142
0.813931 1 0.262028
0.82948 1 0.279438
0.843107 1 0.300801
0.854765 1 0.326955
0.863798 1 0.364904
0.867811 1 0.410834
0.867185 1 0.456794
0.866468 1 0.501366
0.86566 1 0.542504
0.86482 1 0.58584
0.863996 1 0.630564
0.863279 1 0.673045
0.862699 1 0.710536
0.658076 1 0.339452
0.659739 1 0.339498
0.661372 1 0.339544
0.662989 1 0.33959
0.664637 1 0.339651
0.666606 1 0.339712
0.669139 1 0.339818
0.672358 1 0.33994
0.676432 1 0.340139
0.681483 1 0.340414
0.687739 1 0.340795
0.695338 1 0.341344
0.704494 1 0.342107
0.71548 1 0.343542
0.727764 1 0.345113
0.741375 1 0.347295
0.755917 1 0.350301
0.771145 1 0.354345
0.786114 1 0.359747
0.800916 1 0.366857
0.81532 1 0.376059
0.828763 1 0.38764
0.840879 1 0.40174
0.851621 1 0.41854
0.860655 1 0.439841
0.866102 1 0.469322
0.86598 1 0.503166
0.865354 1 0.537682
0.864652 1 0.575387
0.863951 1 0.614359
0.86331 1 0.652811
0.86276 1 0.688548
0.862333 1 0.720485
0.713756 1 0.448676
0.714611 1 0.448737
0.715465 1 0.448798
0.716304 1 0.448844
0.717174 1 0.44892
0.718227 1 0.448981
0.719585 1 0.449088
0.721325 1 0.44921
0.723552 1 0.449393
0.72639 1 0.449622
0.729961 1 0.449943
0.734371 1 0.450355
0.739788 1 0.450935
0.746288 1 0.451698
0.753918 1 0.452735
0.762936 1 0.454124
0.772595 1 0.455985
0.783001 1 0.458427
0.794217 1 0.461646
0.806134 1 0.466102
0.817838 1 0.471519
0.829099 1 0.478431
0.839628 1 0.487175
0.849256 1 0.497444
0.85774 1 0.50898
0.863813 1 0.524758
0.864775 1 0.548104
0.864271 1 0.577539
0.863706 1 0.610315
0.863157 1 0.643977
0.862684 1 0.676081
0.862303 1 0.705486
0.861997 1 0.731792
0.752026 1 0.531441
0.752499 1 0.531487
0.752956 1 0.531533
0.753414 1 0.531579
0.753872 1 0.531624
0.754452 1 0.53167
0.755199 1 0.531746
0.756146 1 0.531838
0.757397 1 0.531975
