BBLuts/BB_103_0030_LUT.cube
TITLE "Generated by Resolve"
LUT_3D_SIZE 33
0 0 0
0 0 0
0 0 0
0 0 0
0 0 0
0.0371862 0 0
0.0951858 0 0
0.137942 0 0
0.181262 0 0
0.232074 0 0
0.289494 0 0
0.351598 0 0
0.41799 0 0
0.492164 0 0
0.570169 0 0
0.644221 0 0
0.720333 0 0
0.797253 0 0
0.867155 0 0
0.923384 0 0
0.937209 0 0
0.938018 0 0
0.919738 0.252079 0
0.908766 0.428702 0.00823987
0.90071 0.558465 0.0485389
0.894469 0.657542 0.0983444
0.889052 0.741833 0.158602
0.884688 0.809033 0.234638
0.881315 0.859602 0.327779
0.878492 0.89868 0.420691
0.876219 0.927962 0.504814
0.874281 0.951492 0.579049
0.872663 0.969512 0.646494
0 0 0
0 0 0
0 0 0
0 0 0
0 0 0
0.0481117 0 0
0.0988174 0 0
0.140948 0 0
0.186099 0 0
0.237598 0 0
0.295109 0 0
0.355978 0 0
0.419318 0 0
0.493629 0 0
0.57145 0 0
0.644938 0 0
0.720958 0 0
0.797253 0 0
0.867094 0 0
0.923018 0 0
0.937194 0 0
0.936828 0 0
0.9178 0.280125 0
0.907195 0.441474 0
0.90016 0.565209 0.045182
0.894163 0.661433 0.0966506
0.888899 0.743969 0.158038
0.884611 0.810132 0.234546
0.88127 0.860166 0.32752
0.878477 0.898985 0.420539
0.876219 0.928084 0.504753
0.874266 0.951568 0.579004
0.872663 0.969558 0.646479
0 0 0
0 0 0
0 0 0
0 0 0
0 0 0
0.0538491 0 0
0.0993057 0 0
0.143282 0 0
0.190661 0 0
0.241443 0 0
0.297505 0 0
0.356985 0 0
0.421088 0 0
0.49546 0 0
0.572732 0 0
0.645945 0 0
0.721279 0 0
0.797559 0 0
0.866987 0 0
0.922621 0 0
0.937163 0 0
0.932525 0.0614176 0
0.915877 0.307668 0
0.905882 0.453361 0
0.899626 0.571649 0.0421302
0.893889 0.664927 0.09514
0.888747 0.745968 0.157519
0.884535 0.811139 0.234455
0.881224 0.860685 0.327276
0.878447 0.89926 0.420401
0.876204 0.928252 0.504692
0.874266 0.951659 0.578958
0.872663 0.969604 0.646464
0 0 0
0 0 0
0 0 0
0 0 0
0.00151064 0 0
0.0550393 0 0
0.0967575 0 0
0.140642 0 0
0.188922 0 0
0.242405 0 0
0.299748 0 0
0.358831 0 0
0.423255 0 0
0.497307 0 0
0.574029 0 0
0.646677 0 0
0.72192 0 0
0.797803 0 0
0.866865 0 0
0.922225 0 0
0.937118 0 0
0.927657 0.135836 0
0.914351 0.329519 0
0.904875 0.463493 0
0.899168 0.577157 0.0395361
0.893645 0.66807 0.0937819
0.888609 0.747814 0.157031
0.884459 0.812116 0.234348
0.881193 0.861219 0.327031
0.878431 0.89955 0.420249
0.876188 0.928405 0.504616
0.874266 0.95172 0.578927
0.872663 0.96965 0.646433
0 0.037171 0
0 0.0404059 0
0 0.0435492 0
0 0.0466468 0
0 0.0479133 0
0.037705 0.046128 0
0.0852522 0.0434882 0
0.132006 0.0377813 0
0.183383 0.0251621 0
0.242039 0 0
0.300633 0 0
0.360815 0 0
0.425345 0 0
0.499199 0 0
0.575662 0 0
0.64773 0 0
0.72253 0 0
0.798062 0 0
0.866743 0 0
0.921752 0 0
0.937087 0 0
0.924788 0.178408 0
0.913024 0.348394 0
0.904112 0.474205 0
0.898665 0.582971 0.0361639
0.8934 0.67129 0.0922408
0.888472 0.749569 0.156573
0.884398 0.813062 0.234272
0.881148 0.861738 0.326772
0.878416 0.899809 0.420111
0.876188 0.928542 0.504555
0.87425 0.951827 0.578866
0.872648 0.969696 0.646418
0 0.0737316 0
0 0.0763409 0
0 0.079057 0
0 0.081178 0
0 0.0822461 0
0.0123903 0.081529 0
0.0718395 0.0802472 0
0.123033 0.077821 0
0.176623 0.0730602 0
0.235218 0.0637217 0
0.296147 0.045594 0
0.361334 0 0
0.426917 0 0
0.501183 0 0
0.577157 0 0
0.64863 0 0
0.723217 0 0
0.798337 0 0
0.866575 0 0
0.921279 0 0
0.935393 0 0
0.922377 0.213825 0
0.911864 0.364858 0
0.903441 0.483436 0
0.898192 0.588357 0.0329442
0.893126 0.674617 0.0905318
0.888334 0.751537 0.156054
0.884321 0.813977 0.23418
0.881117 0.862257 0.326543
0.878386 0.900099 0.419974
0.876173 0.928695 0.504479
0.87425 0.951904 0.578836
0.872648 0.969741 0.646387
0 0.112306 0
0 0.114519 0
0 0.116686 0
0 0.118013 0
0 0.118959 0
0 0.119265 0
0.0463264 0.118074 0
0.10959 0.116823 0
0.167208 0.11426 0
0.228687 0.109239 0
0.291066 0.100038 0
0.355856 0.0851759 0
0.424216 0.0573434 0
0.502525 0 0
0.578592 0 0
0.649958 0 0
0.723751 0 0
0.798383 0 0
0.866117 0 0
0.920684 0 0
0.931212 0.0660563 0
0.919951 0.248981 0
0.910582 0.382864 0
0.902678 0.494209 0
0.897673 0.594247 0.0294347
0.892821 0.678386 0.0886091
0.888151 0.753887 0.155428
0.88423 0.815274 0.234089
0.881071 0.862837 0.326268
0.87837 0.900404 0.419806
0.876158 0.928862 0.504387
0.874235 0.95198 0.578775
0.872648 0.969787 0.646357
0 0.156329 0
0 0.158267 0
0 0.159686 0
0 0.1608 0
0 0.161456 0
0 0.162051 0
0 0.161913 0
0.0821088 0.160632 0
0.152056 0.159045 0
0.217838 0.155932 0
0.283574 0.149676 0
0.351507 0.140703 0
0.421241 0.127321 0
0.497917 0.104967 0
0.575952 0.0579843 0
0.649958 0 0
0.723674 0 0
0.798688 0 0
0.865843 0 0
0.916442 0.024445 0
0.92549 0.152132 0
0.917128 0.289677 0
0.908995 0.405371 0
0.901656 0.508476 0
0.896864 0.602625 0.0224002
0.892424 0.68336 0.0860456
0.887922 0.757031 0.154604
0.884108 0.817014 0.233982
0.880995 0.863859 0.325841
0.87834 0.900877 0.419577
0.876143 0.929107 0.50428
0.874235 0.952132 0.578698
0.872648 0.969848 0.646326
0 0.207996 0
0 0.209461 0
0 0.210468 0
0 0.211246 0
0 0.211826 0
0 0.212451 0
0 0.212711 0
0.0331884 0.211673 0
0.123217 0.209949 0
0.1991 0.207248 0
0.270848 0.203052 0
0.343801 0.196826 0
0.417456 0.188144 0
0.496086 0.174929 0
0.571878 0.156756 0
0.643412 0.131365 0
0.718212 0.0936751 0
0.796506 0.0184176 0
0.862013 0.0270542 0
0.908568 0.127626 0
0.919829 0.232853 0
0.914 0.334462 0
0.907103 0.432105 0
0.900374 0.526375 0
0.895705 0.613596 0.0117952
0.891844 0.690501 0.0821546
0.887602 0.761196 0.153506
0.883925 0.819394 0.233829
0.880888 0.865232 0.325246
0.878279 0.901656 0.419211
0.876112 0.929473 0.504097
0.87422 0.952331 0.578607
0.872633 0.96997 0.64625
0 0.265507 0
0 0.266163 0
0 0.266575 0
0 0.266911 0
0 0.267399 0
0 0.267475 0
0 0.267414 0
0 0.267079 0
0.0657816 0.265324 0
0.167788 0.263416 0
0.250629 0.260822 0
0.330419 0.256718 0
0.410071 0.250599 0
0.492866 0.241443 0
0.569284 0.230838 0
0.639704 0.218341 0
0.712108 0.205463 0
0.785016 0.195499 0
0.849348 0.203067 0
0.899046 0.241993 0
0.914595 0.306203 0
0.910475 0.384497 0
0.904707 0.465705 0
0.898787 0.548424 0
0.894072 0.626719 0
0.891066 0.699992 0.0768139
0.88716 0.767071 0.15198
0.883696 0.822599 0.233631
0.880751 0.867124 0.324437
0.878202 0.902693 0.418708
0.876066 0.930083 0.503792
0.874189 0.952621 0.578454
0.872618 0.970123 0.646159
0 0.32636 0
0 0.327001 0
0 0.327398 0
0 0.327733 0
0 0.327977 0
0 0.328145 0
0 0.328237 0
0 0.32845 0
0 0.328069 0
0.102052 0.325948 0
0.217502 0.324468 0
0.308446 0.321965 0
0.396338 0.317693 0
0.48571 0.311452 0
0.565423 0.304799 0
0.636667 0.297887 0
0.707866 0.292226 0
0.778775 0.29041 0
0.841413 0.300542 0
0.890196 0.330007 0
0.909346 0.377981 0
0.906737 0.437293 0
0.901839 0.505852 0
0.896834 0.575708 0
0.892042 0.64271 0
0.890059 0.712367 0.0704967
0.88658 0.774823 0.14995
0.883375 0.827008 0.233417
0.880568 0.869612 0.323369
0.878096 0.904128 0.418006
0.876005 0.930907 0.50338
0.874159 0.953094 0.578164
0.872602 0.970352 0.646052
0 0.39646 0
0 0.396735 0
0 0.397101 0
0 0.397681 0
0 0.397925 0
0 0.398093 0
0 0.39826 0
0 0.398352 0
0 0.39826 0
0 0.398047 0
0.148196 0.396139 0
0.271946 0.394995 0
0.373068 0.39292 0
0.471305 0.389349 0
0.557122 0.384665 0
0.631144 0.380423 0
0.703029 0.378592 0
0.772396 0.380331 0
0.832898 0.390936 0
0.880781 0.41326 0
0.904021 0.447929 0
0.902602 0.495186 0
0.898711 0.549523 0
0.894499 0.607889 0
0.890364 0.665049 0
0.888808 0.727718 0.0633707
0.885817 0.784787 0.147402
0.882933 0.832914 0.233234
0.880308 0.873137 0.323018
0.877958 0.90602 0.417105
0.875929 0.932036 0.502815
0.874113 0.953765 0.577768
0.872587 0.970733 0.645823
0 0.474281 0
0 0.474449 0
0 0.474769 0
0 0.475044 0
0 0.475273 0
0 0.475822 0
0 0.476036 0
0 0.476204 0
0 0.476356 0
0 0.476463 0
0.0322576 0.475547 0
0.201968 0.475166 0
0.335576 0.474159 0
0.446204 0.472251 0
0.541405 0.469368 0
0.62031 0.466651 0
0.695399 0.465156 0
0.765057 0.467094 0
0.823819 0.475853 0
0.870283 0.493385 0
0.898482 0.519905 0
0.898329 0.554711 0
0.895308 0.596857 0
0.892027 0.642084 0
0.888395 0.692088 0
0.887205 0.746807 0.0527962
0.884886 0.797055 0.14435
0.882383 0.840482 0.233158
0.879973 0.877806 0.323629
0.87776 0.908675 0.415946
0.875822 0.933547 0.502068
0.874052 0.954681 0.577249
0.872541 0.971267 0.645502
0 0.558267 0
0 0.558328 0
0 0.558556 0
0 0.55877 0
0 0.558938 0
0 0.559106 0
0 0.559274 0
0 0.559472 0
0 0.55993 0
0 0.559991 0
0 0.559915 0
0.0814527 0.558404 0
0.269398 0.557946 0
0.407431 0.556649 0
0.516014 0.554879 0
0.602808 0.552605 0
0.683085 0.551141 0
0.755138 0.551843 0
0.813519 0.55761 0
0.858656 0.570031 0
0.892226 0.588861 0
0.893935 0.614664 0
0.891844 0.644602 0
0.889174 0.681422 0
0.886137 0.723125 0
0.885283 0.768902 0.0396277
0.883772 0.811933 0.140536
0.881697 0.849851 0.233265
0.87953 0.883772 0.324575
0.877516 0.912184 0.414527
0.875669 0.935668 0.50103
0.87396 0.955871 0.576562
0.872496 0.971984 0.64509
0 0.635523 0
0 0.635523 0
0 0.635615 0
0 0.635737 0
0 0.635828 0
0 0.635904 0
0 0.635996 0
0 0.636088 0
0 0.636133 0
0 0.636103 0
0 0.63624 0
0 0.635828 0
0.152209 0.633799 0
0.351263 0.63328 0
0.481544 0.632029 0
0.578592 0.630533 0
0.664927 0.629007 0
0.740658 0.629007 0
0.800702 0.63212 0
0.845518 0.639933 0
0.880323 0.653056 0
0.88922 0.671336 0
0.888167 0.695369 0
0.88603 0.724498 0
0.883635 0.757137 0
0.883024 0.79324 0.0224918
0.88249 0.828931 0.137194
0.880858 0.861433 0.233783
0.878996 0.891096 0.325948
0.87718 0.916655 0.414481
0.875441 0.938888 0.499657
0.873838 0.957565 0.575601
0.872419 0.97293 0.644526
0 0.708598 0
0 0.708598 0
0 0.708598 0
0 0.708675 0
0 0.70869 0
0 0.708736 0
0 0.708751 0
0 0.708766 0
0 0.708751 0
0 0.708644 0
0 0.708385 0
0 0.708171 0
0 0.707164 0
0.251728 0.705074 0
0.435004 0.704448 0
0.547692 0.702907 0
0.640482 0.70132 0
0.720699 0.70045 0
0.783307 0.70222 0
0.829877 0.707469 0
0.864607 0.716747 0
0.883604 0.730343 0
0.884306 0.747494 0
0.882811 0.768322 0
0.881071 0.792035 0
0.880232 0.818631 0.000747692
0.881071 0.847791 0.13431
0.879881 0.874846 0.235721
0.87834 0.899992 0.328038
0.876768 0.922164 0.416449
0.875166 0.942519 0.498878
0.873686 0.959823 0.574304
0.872328 0.974258 0.643702
0 0.780301 0
0 0.780301 0
0 0.780301 0
0 0.780301 0
0 0.780301 0
0 0.780285 0
0 0.78024 0
0 0.780194 0
0 0.780056 0
0 0.779812 0
0 0.779431 0
0 0.778759 0
0 0.777966 0
0.138323 0.775448 0
0.37142 0.774472 0
0.5122 0.773236 0
0.611551 0.771191 0
0.695933 0.76965 0
0.761852 0.769512 0
0.811154 0.771878 0
0.847944 0.776913 0
0.874281 0.785077 0
0.880323 0.796231 0
0.879759 0.809873 0
0.878569 0.825971 0
0.877317 0.844068 0
0.879561 0.868208 0.134203
0.878798 0.889723 0.23949
0.877607 0.91014 0.331685
0.876265 0.92903 0.419181
0.874846 0.94699 0.498985
0.873472 0.962692 0.572946
0.872206 0.976059 0.642588
0 0.841276 0
0 0.841276 0
0 0.841276 0
0 0.841276 0
0 0.841276 0
0 0.84123 0
0 0.841138 0
0 0.841001 0
0 0.840742 0
0 0.84036 0
0 0.839796 0
0 0.838895 0
0 0.837644 0
0.0380255 0.835157 0
0.302541 0.833677 0
0.477897 0.83212 0
0.586206 0.829816 0
0.672862 0.827665 0
0.740475 0.826322 0
0.792142 0.826352 0
0.831464 0.828321 0
0.859709 0.832349 0
0.875929 0.838544 0
0.876997 0.847059 0
0.876234 0.857664 0
0.875944 0.871061 0
0.878096 0.889097 0.14107
0.877684 0.90547 0.246128
0.876799 0.92134 0.337148
0.875654 0.937438 0.423407
0.874434 0.952514 0.501503
0.873228 0.966217 0.571603
0.872038 0.978347 0.641199
0 0.888243 0
0 0.888243 0
0 0.888243 0
0 0.888243 0
0 0.888243 0
0 0.888243 0
0 0.888243 0
0 0.888075 0
0 0.887755 0
0 0.887205 0
0 0.886458 0
0 0.885435 0
0 0.884031 0
0 0.882261 0
0.249027 0.879408 0
0.455787 0.878035 0
0.56907 0.875624 0
0.655695 0.87306 0
0.722896 0.871153 0
0.775433 0.8701 0
0.816358 0.870207 0
0.84622 0.871946 0
0.869001 0.875242 0
0.874205 0.880217 0
0.874067 0.886885 0
0.875624 0.897673 0.0323949
0.876753 0.909651 0.157229
0.87657 0.921218 0.256367
0.875914 0.933486 0.345098
0.874983 0.946456 0.429267
0.873945 0.958907 0.505394
0.872892 0.97052 0.574105
0.871839 0.98117 0.639551
0 0.925002 0
0 0.925002 0
0 0.925002 0
0 0.925002 0
0 0.925002 0
0 0.925002 0
0 0.925002 0
0 0.925002 0
0 0.924834 0
0 0.924224 0
0 0.923262 0
0 0.922087 0
0 0.920653 0
0 0.918853 0
0.253559 0.915999 0
0.450217 0.914412 0
0.561181 0.912139 0
0.644678 0.90956 0
0.709773 0.907317 0
0.761563 0.905715 0
0.802701 0.904891 0
0.833829 0.905013 0
0.85803 0.906279 0
0.871153 0.908721 0
0.872175 0.912383 0
0.874769 0.920684 0.0699779
0.875547 0.928695 0.1794
0.875441 0.937453 0.272099
0.874968 0.946502 0.355993
0.874266 0.956222 0.437354
0.873426 0.965988 0.510613
0.872511 0.97554 0.57818
0.87158 0.984665 0.641215
0 0.95256 0
0 0.95256 0
0 0.95256 0
0 0.95256 0
0 0.95256 0
0 0.95256 0
0 0.95256 0
0 0.95256 0
0 0.95256 0
0 0.952514 0
0 0.951492 0
0 0.950118 0
0 0.948547 0
0 0.946838 0
0.303441 0.944183 0
0.463798 0.942504 0
0.564355 0.940169 0
0.641367 0.937789 0
0.702449 0.935531 0
0.752132 0.933623 0
0.79173 0.932311 0
0.823362 0.93167 0
0.848447 0.931716 0
0.867582 0.932738 0
0.870558 0.934783 0
0.873854 0.941726 0.110872
0.874403 0.947005 0.209247
0.874372 0.952773 0.2934
0.874052 0.959213 0.371832
0.873518 0.966186 0.447959
0.872847 0.973632 0.517723
0.872084 0.981201 0.583612
0.871275 0.988678 0.644526
0 0.973159 0
0 0.973159 0
0 0.973159 0
0 0.973159 0
0 0.973159 0
0 0.973159 0
0 0.973159 0
0 0.973159 0
0 0.973159 0
0 0.973159 0
0 0.973159 0
0 0.971801 0
0 0.970092 0
0.0926375 0.967254 0
0.366857 0.966155 0
0.492256 0.964401 0
0.57612 0.962203 0
0.644205 0.959945 0
0.69984 0.957809 0
0.74641 0.955978 0
0.783963 0.954452 0
0.814771 0.953475 0
0.839811 0.952926 0
0.859632 0.953109 0
0.871244 0.957183 0.070634
0.873106 0.960174 0.167285
0.873426 0.963287 0.246738
0.873411 0.966934 0.320195
0.873167 0.971222 0.392554
0.87277 0.97612 0.462516
0.872236 0.981521 0.52723
0.871611 0.987305 0.590829
0.870924 0.993149 0.649165
0 0.988556 0
0 0.988556 0
0 0.988556 0
0 0.988556 0
0 0.988556 0
0 0.988556 0
0 0.988556 0
0 0.988556 0
0 0.988556 0
0 0.988556 0
0 0.988556 0
0 0.988556 0
0 0.986954 0
0.291524 0.984634 0
0.434546 0.983322 0
0.526177 0.981582 0
0.595163 0.979568 0
0.653086 0.977539 0
0.702266 0.975586 0
0.744366 0.973785 0
0.77911 0.972335 0
0.808652 0.971145 0
0.832975 0.970336 0
0.855238 0.97293 0.0576181
0.870192 0.974472 0.148104
0.872358 0.975784 0.222431
0.872541 0.977432 0.289982
0.872526 0.979599 0.353216
0.872343 0.982345 0.418097
0.872038 0.985687 0.48098
0.871611 0.989471 0.540276
0.871107 0.993561 0.599985
0.870542 0.997925 0.655253
0.254582 0.999115 0
0.254582 0.999115 0
0.254582 0.999115 0
0.254582 0.999115 0
0.254566 0.999115 0
0.254566 0.999115 0
0.254566 0.999115 0
0.254566 0.999115 0
0.254536 0.999115 0
0.25452 0.999115 0
0.25452 0.999115 0
0.25449 0.999115 0
0.254459 0.999115 0
0.392691 0.998154 0
0.496468 0.996628 0
0.562951 0.994919 0
0.618845 0.993164 0
0.66659 0.991379 0
0.709087 0.989639 0
0.746151 0.988006 0
0.77908 0.988418 0.0173648
0.807614 0.988632 0.0699931
0.831357 0.988403 0.113115
0.850828 0.988434 0.164355
0.866758 0.988632 0.220905
0.871336 0.988998 0.27863
0.871748 0.989731 0.335042
0.871717 0.99086 0.392294
0.87158 0.992477 0.448218
0.871336 0.994522 0.503548
0.871015 0.996994 0.556939
0.870604 0.999756 0.612131
0.870146 1 0.662837
0.489662 1 0.142306
0.489662 1 0.142306
0.489662 1 0.142306
0.489662 1 0.142306
0.489662 1 0.142306
0.489662 1 0.142306
0.489662 1 0.142306
0.489662 1 0.142306
0.489662 1 0.142306
0.489647 1 0.142306
0.489647 1 0.142306
0.489647 1 0.142306
0.489632 1 0.142306
0.489616 1 0.142306
0.546014 1 0.145693
0.602731 1 0.150591
0.647562 1 0.156222
0.686992 1 0.16289
0.723049 1 0.171557
0.754604 1 0.182208
0.782391 1 0.195544
0.807385 1 0.212009
0.828794 1 0.232502
0.846906 1 0.256626
0.862104 1 0.292683
0.870085 0.999954 0.335576
0.871046 1 0.383795
0.871 1 0.43331
0.870893 1 0.482139
0.870695 1 0.528817
0.870436 1 0.577783
0.870115 1 0.627008
0.869749 1 0.672709
0.598108 1 0.276936
0.598108 1 0.276936
0.598108 1 0.276936
0.598108 1 0.276936
0.598108 1 0.276936
0.598108 1 0.276936
0.598108 1 0.276936
0.598108 1 0.276936
0.598108 1 0.276936
0.598108 1 0.276936
0.598108 1 0.276936
0.598108 1 0.276936
0.598108 1 0.276936
0.598108 1 0.276936
0.598093 1 0.276936
0.633844 1 0.279469
0.673091 1 0.283177
0.706218 1 0.287449
0.735668 1 0.292576
0.762005 1 0.29929
0.78587 1 0.307149
0.808164 1 0.317205
0.827405 1 0.32987
0.844099 1 0.346151
0.858412 1 0.366094
0.868864 1 0.397024
0.87042 1 0.434699
0.870375 1 0.475624
0.870283 1 0.516762
0.870115 1 0.558709
0.869917 1 0.602197
0.869657 1 0.6448
0.869368 1 0.684504
0.669612 1 0.383917
0.669612 1 0.383917
0.669612 1 0.383917
0.669612 1 0.383917
0.669612 1 0.383917
0.669612 1 0.383917
0.669612 1 0.383917
0.669612 1 0.383917
0.669612 1 0.383917
0.669612 1 0.383917
0.669612 1 0.383917
0.669612 1 0.383917
0.669612 1 0.383917
0.669612 1 0.383917
0.669596 1 0.383917
0.669596 1 0.383917
0.695506 1 0.386114
0.724743 1 0.389364
0.748791 1 0.393072
0.770413 1 0.397498
0.790906 1 0.403189
0.810193 1 0.410285
0.827192 1 0.419211
0.842344 1 0.430365
0.855528 1 0.444495
0.866499 1 0.461418
0.869627 1 0.487404
0.869825 1 0.518288
0.869734 1 0.553323
0.869596 1 0.591257
0.869429 1 0.628885
0.869215 1 0.664912
0.869001 1 0.698299
0.72163 1 0.476524
0.72163 1 0.476524
0.72163 1 0.476524
0.72163 1 0.476524
0.72163 1 0.476524
0.72163 1 0.476524
0.72163 1 0.476524
0.72163 1 0.476524
0.72163 1 0.476524
