BBLuts/BB_102_0610_LUT.cube
TITLE "Generated by Resolve"
LUT_3D_SIZE 9
0 0 0
0 0 0
0.157595 0 0
0.433387 0 0
0.762661 0 0
0.957885 0 0
0.94287 0.554314 0.0704814
0.914336 0.893629 0.37583
0.90103 1 0.710491
0 0.00822461 0
0 0.0190127 0
0.165957 0 0
0.445853 0 0
0.764965 0 0
0.957885 0 0
0.939864 0.592493 0.0593881
0.914 0.89807 0.37319
0.900999 1 0.710246
0 0.180819 0
0 0.184695 0
0.112139 0.183185 0
0.447074 0.150256 0
0.765667 0.0205539 0
0.957977 0.176501 0
0.935439 0.639109 0.037644
0.913481 0.905226 0.368994
0.900938 1 0.709834
0 0.485695 0
0 0.487098 0
0 0.487877 0
0.360586 0.497139 0
0.751186 0.487129 0
0.937682 0.560693 0
0.922942 0.738338 0
0.91223 0.922988 0.356817
0.900771 1 0.708629
0 0.829908 0
0 0.829816 0
0 0.829419 0
0 0.826688 0
0.674342 0.826154 0
0.887022 0.836881 0
0.911116 0.883757 0
0.909606 0.958511 0.360769
0.900359 1 0.704967
0 1 0
0 1 0
0 1 0
0 1 0
0.647684 0.991241 0
0.84065 0.982834 0
0.904707 0.985061 0
0.905806 1 0.409384
0.899428 1 0.70071
0.537194 1 0.142016
0.555444 1 0.141802
0.58175 1 0.141726
0.64268 1 0.143038
0.739147 1 0.154116
0.834943 1 0.195743
0.8981 1 0.312123
0.901259 1 0.528206
0.897749 1 0.727932
0.799969 1 0.602777
0.801236 1 0.60293
0.803265 1 0.603189
0.809064 1 0.603983
0.823835 1 0.606378
0.851942 1 0.613718
0.885664 1 0.634684
0.897093 1 0.689342
0.896132 1 0.781796
0.867185 1 0.810468
0.867338 1 0.810483
0.867597 1 0.810513
0.86836 1 0.810605
0.870542 1 0.81088
0.876036 1 0.811704
0.88658 1 0.81416
0.895857 1 0.820798
0.89575 1 0.838422
0 0 0.00445563
0 0 0.00462348
0.159213 0 0.00135805
0.435309 0 0
0.763729 0 0
0.960449 0 0.00823987
0.944732 0.548867 0.132753
0.914031 0.892332 0.415747
0.900954 1 0.716869
0 0 0
0 0 0
0.178088 0 0
0.441321 0 0
0.764065 0 0
0.959442 0 0
0.941756 0.588556 0.121462
0.91368 0.896819 0.413581
0.900923 1 0.716655
0 0.170993 0
0 0.174258 0
0.132967 0.17293 0
0.445304 0.139254 0
0.764004 0 0
0.958083 0.155337 0
0.937499 0.637232 0.101137
0.913146 0.904005 0.410101
0.900862 1 0.716274
0 0.480278 0
0 0.481621 0
0 0.48217 0
0.373968 0.49099 0
0.751141 0.481849 0
0.937926 0.557061 0
0.925017 0.738399 0.00502022
0.911864 0.921935 0.399863
0.90071 1 0.715114
0 0.828565 0
0 0.828458 0
0 0.828031 0
0 0.825254 0
0.677119 0.824887 0
0.88719 0.836011 0
0.911147 0.883299 0
0.909529 0.958221 0.370626
0.900282 1 0.71165
0 1 0
0 1 0
0 1 0
0 1 0
0.649546 0.991012 0
0.840925 0.982696 0
0.904707 0.98497 0
0.905821 1 0.409155
0.899413 1 0.701305
0.540002 1 0.141634
0.557992 1 0.141466
0.583963 1 0.141421
0.644144 1 0.142779
0.739773 1 0.153948
0.835096 1 0.195605
0.898131 1 0.312108
0.901259 1 0.528145
0.897749 1 0.727886
0.800168 1 0.602747
0.801434 1 0.602914
0.803449 1 0.603159
0.809216 1 0.603952
0.823957 1 0.606348
0.852003 1 0.613703
0.885679 1 0.634653
0.897093 1 0.689326
0.896132 1 0.781781
0.867216 1 0.810468
0.867369 1 0.810483
0.867628 1 0.810513
0.868391 1 0.81059
0.870558 1 0.81088
0.876051 1 0.811704
0.886595 1 0.81416
0.895857 1 0.820798
0.89575 1 0.838422
0 0 0.116899
0 0 0.117098
0.137316 0 0.113283
0.450813 0 0.0982528
0.766491 0 0.0877241
0.962921 0 0.119097
0.94696 0.535698 0.238285
0.913588 0.890211 0.467369
0.900862 1 0.726467
0 0 0.113161
0 0 0.113497
0.166125 0 0.108812
0.448997 0 0.094728
0.768612 0 0.0837415
0.962829 0 0.1122
0.943954 0.57821 0.230823
0.913222 0.894759 0.465629
0.900832 1 0.726253
0 0.146365 0.0995956
0 0.148821 0.0992294
0.127062 0.141192 0.0935988
0.432792 0.114183 0.0888685
0.767193 0 0.0731212
0.96347 0.0927291 0.116075
0.939788 0.630869 0.217868
0.912657 0.902052 0.462821
0.900771 1 0.725902
0 0.468101 0.01561
0 0.469703 0.0163272
0 0.470497 0.0173648
0.379202 0.478965 0.0254673
0.75108 0.470741 0.0326543
0.943206 0.549661 0.0712291
0.929381 0.737499 0.175036
0.91133 0.920226 0.454749
0.900603 1 0.724834
0 0.825788 0
0 0.825666 0
0 0.825238 0
0 0.822431 0
0.679606 0.822263 0
0.887221 0.833951 0
0.913954 0.885069 0.0355688
0.908873 0.956939 0.432792
0.900175 1 0.72166
0 1 0
0 1 0
0 1 0
0 1 0
0.652537 0.990616 0
0.841382 0.982483 0
0.904723 0.984817 0
0.905837 1 0.408804
0.89929 1 0.71223
0.544533 1 0.14107
0.562112 1 0.140917
0.587503 1 0.140902
0.64651 1 0.142382
0.740764 1 0.153674
0.83537 1 0.195392
0.898192 1 0.312078
0.901259 1 0.528008
0.897765 1 0.72784
0.800473 1 0.602701
0.80174 1 0.602869
0.803738 1 0.603113
0.809491 1 0.603906
0.82417 1 0.606317
0.852125 1 0.613657
0.885725 1 0.634623
0.897093 1 0.689326
0.896132 1 0.781765
0.867247 1 0.810468
0.867399 1 0.810468
0.867658 1 0.810513
0.868421 1 0.81059
0.870588 1 0.810864
0.876066 1 0.811688
0.88661 1 0.814145
0.895857 1 0.820798
0.89575 1 0.838422
0 0 0.367453
0 0 0.36762
0 0 0.367712
0.421912 0 0.352041
0.783795 0 0.339208
0.963134 0 0.366949
0.951125 0.481331 0.462913
0.912505 0.883726 0.570336
0.900649 0.999512 0.750393
0 0 0.364965
0 0 0.365194
0.0402838 0 0.36318
0.439643 0 0.348531
0.781964 0 0.336446
0.963149 0 0.363745
0.947188 0.535851 0.459098
0.912093 0.888502 0.569162
0.900618 1 0.750225
0 0.0277256 0.35993
0 0.0337072 0.360067
0.068925 0.0268559 0.357687
0.446998 0 0.343771
0.776333 0 0.332006
0.96318 0 0.357763
0.942443 0.601663 0.452979
0.911498 0.895766 0.5673
0.900557 1 0.74995
0 0.418204 0.320806
0 0.42031 0.32108
0 0.421759 0.321798
0.374624 0.428855 0.330617
0.742962 0.421393 0.33727
0.949416 0.506523 0.370764
0.931243 0.720104 0.431525
0.909972 0.915084 0.562097
0.900389 1 0.749096
0 0.822522 0.224125
0 0.822507 0.224903
0 0.822202 0.226047
0 0.819654 0.22916
0.682246 0.818662 0.245441
0.890883 0.831266 0.285039
0.915328 0.881544 0.37673
0.90724 0.953201 0.548775
0.899931 1 0.746593
0 1 0
0 1 0
0 1 0
0 1 0
0.652461 0.989532 0
0.844358 0.985519 0.0996567
0.908263 0.988327 0.279759
0.904311 1 0.517357
0.899001 1 0.739345
0.557702 1 0.13933
0.57409 1 0.139269
0.597879 1 0.139406
0.653468 1 0.141192
0.74377 1 0.15285
0.836194 1 0.194766
0.898375 1 0.311955
0.901274 1 0.527642
0.897765 1 0.727672
0.801419 1 0.602579
0.80267 1 0.602731
0.804639 1 0.602991
0.810315 1 0.603784
0.824796 1 0.606195
0.852445 1 0.613535
0.885817 1 0.634516
0.897093 1 0.689311
0.896147 1 0.781704
0.867369 1 0.810452
0.867521 1 0.810468
0.867765 1 0.810483
0.868544 1 0.81059
0.870695 1 0.810849
0.876158 1 0.811688
0.886656 1 0.81413
0.895857 1 0.820783
0.89575 1 0.838422
0 0 0.688533
0 0 0.688609
0 0 0.688746
0.232334 0 0.682399
0.768551 0 0.663279
0.961059 0 0.672679
0.964446 0.170367 0.708614
0.912108 0.864515 0.732799
0.900374 0.997269 0.796841
0 0 0.687892
0 0 0.687968
0 0 0.688106
0.264332 0 0.680781
0.773693 0 0.662623
0.961059 0 0.671992
0.960998 0.313039 0.713558
0.911528 0.870329 0.73196
0.900343 0.997833 0.796719
0 0 0.686839
0 0 0.686931
0 0 0.687068
0.307546 0 0.678264
0.776822 0 0.661479
0.961074 0 0.670802
0.952819 0.44979 0.712093
0.910689 0.878996 0.730709
0.900267 0.998749 0.796536
0 0.2047 0.679484
0 0.208087 0.679469
0 0.212451 0.679423
0.306462 0.206149 0.677897
0.775219 0.0755322 0.667231
0.963745 0.232258 0.688884
0.936828 0.652094 0.702235
0.908644 0.901259 0.727413
0.900084 1 0.795972
0 0.779202 0.643534
0 0.779538 0.643687
0 0.779629 0.643854
0 0.777874 0.644144
0.667018 0.777081 0.648447
0.883513 0.795911 0.657664
0.913329 0.859022 0.674037
0.905135 0.94432 0.720088
0.899611 1 0.794369
0 1 0.618509
0 1 0.618631
0 1 0.618814
0 1 0.619379
0.624918 0.987655 0.609598
0.832425 0.977401 0.617395
0.903517 0.979934 0.646281
0.901427 0.996155 0.706004
0.898604 1 0.789975
0.544152 1 0.521065
0.561074 1 0.520638
0.585565 1 0.520119
0.642695 1 0.519554
0.734874 1 0.522469
0.828183 1 0.537865
0.890517 1 0.582025
0.898924 1 0.673106
0.897307 1 0.778408
0.804242 1 0.602182
0.805432 1 0.60235
0.807324 1 0.602594
0.812741 1 0.603387
0.826658 1 0.605814
0.853422 1 0.613169
0.886152 1 0.634195
0.897093 1 0.68925
0.896147 1 0.781552
0.867735 1 0.810407
0.867887 1 0.810422
0.868132 1 0.810452
0.868879 1 0.810544
0.871 1 0.810819
0.876387 1 0.811658
0.886763 1 0.814099
0.895857 1 0.820752
0.89575 1 0.838422
0 0 0.867185
0 0 0.867201
0 0 0.867231
0 0 0.867277
0.662638 0 0.84361
0.961349 0 0.844862
0.961364 0 0.845747
0.921324 0.780819 0.855894
0.900404 0.990829 0.853178
0 0 0.867124
0 0 0.86714
0 0 0.86714
0 0 0.867185
0.670466 0 0.843244
0.961349 0 0.8448
0.961364 0 0.84567
0.919783 0.792905 0.854505
0.900359 0.991501 0.853101
0 0 0.867002
0 0 0.867018
0 0 0.867033
0 0 0.867063
0.682765 0 0.842664
0.961349 0 0.844648
0.961364 0 0.845548
0.917601 0.810498 0.852476
0.900282 0.992569 0.852964
0 0 0.866636
0 0 0.866651
0 0 0.866651
0 0 0.866361
0.709316 0 0.841459
0.961349 0 0.844251
0.961349 0 0.843671
0.912734 0.851881 0.847776
0.900069 0.995651 0.852613
0 0.568185 0.851484
0 0.569757 0.851438
0 0.572274 0.851347
0 0.576196 0.850767
0.664057 0.575906 0.854292
0.938155 0.613657 0.862501
0.923949 0.760418 0.850355
0.906081 0.919753 0.840742
0.899489 1 0.851637
0 0.997391 0.843656
0 0.996933 0.84358
0 0.996048 0.843458
0 0.992569 0.842924
0.54551 0.975784 0.831617
0.820157 0.961669 0.825483
0.898894 0.967346 0.827482
0.900755 0.988251 0.833326
0.89836 1 0.849332
0.382406 1 0.824216
0.42475 1 0.822736
0.476036 1 0.820783
0.568002 1 0.81651
0.696773 1 0.811917
0.809277 1 0.811917
0.87837 1 0.815885
0.89752 1 0.825223
0.89691 1 0.844694
0.793622 1 0.778058
0.794842 1 0.778103
0.796796 1 0.778164
0.802396 1 0.778408
0.816739 1 0.779141
0.844282 1 0.781445
0.878111 1 0.788006
0.895964 1 0.804501
0.895781 1 0.833951
0.868803 1 0.810269
0.86894 1 0.8103
0.869169 1 0.810315
0.869886 1 0.810407
0.871916 1 0.810697
0.877089 1 0.811505
0.887144 1 0.813977
0.895857 1 0.820645
0.89575 1 0.838392
0 0 0.917967
0 0 0.917967
0 0 0.917967
0 0 0.917967
0 0 0.917967
0.945342 0 0.905089
0.961593 0 0.905791
0.961593 0 0.905791
0.902068 0.963699 0.898619
0 0 0.917967
0 0 0.917967
0 0 0.917967
0 0 0.917967
0 0 0.917967
0.946563 0 0.905135
0.961593 0 0.905791
0.961593 0 0.905791
0.901976 0.964935 0.898512
0 0 0.917967
0 0 0.917967
0 0 0.917967
0 0 0.917967
0 0 0.917967
0.948516 0 0.905241
0.961593 0 0.905791
0.961593 0 0.905791
0.901823 0.966888 0.89836
0 0 0.917967
0 0 0.917967
0 0 0.917967
0 0 0.917967
0 0 0.917967
0.954223 0 0.905531
0.961593 0 0.905791
0.961593 0 0.905791
0.901411 0.972412 0.897902
0 0 0.917967
0 0 0.917967
0 0 0.917967
0 0 0.917967
0.323171 0 0.91043
0.961593 0 0.905791
0.961593 0 0.905791
0.937133 0.657313 0.926757
0.900404 0.986068 0.896757
0 0.890227 0.913359
0 0.890532 0.913375
0 0.891051 0.913405
0 0.892592 0.913436
0 0.886976 0.911727
0.830854 0.874266 0.902403
0.907515 0.899184 0.900023
0.902647 0.956405 0.895888
0.89868 1 0.894621
0 1 0.912077
0 1 0.912001
0 1 0.911879
0 1 0.911513
0.5944 1 0.893385
0.789746 1 0.888304
0.873549 1 0.888594
0.897398 1 0.889296
0.896788 1 0.891814
0.767147 1 0.882399
0.768795 1 0.882383
0.77142 1 0.882368
0.778881 1 0.882338
0.797513 1 0.882338
0.831678 1 0.88249
0.870466 1 0.883101
0.895445 1 0.884611
0.895415 1 0.888441
0.864713 1 0.870329
0.864866 1 0.870344
0.86511 1 0.870344
0.865827 1 0.870375
0.867918 1 0.870466
0.873167 1 0.870756
0.883436 1 0.871595
0.895186 1 0.874037
0.895476 1 0.880201
0 0.00263981 0.918166
0 0.00263981 0.918166
0 0.00263981 0.918166
0 0.00265507 0.918166
0 0.00273136 0.918151
0 0.00292973 0.918151
0.961593 0 0.905791
0.961593 0 0.905791
0.930938 0.707515 0.928786
0 0.00259403 0.918166
0 0.00259403 0.918166
0 0.00262455 0.918166
0 0.00263981 0.918166
0 0.00271611 0.918166
0 0.00289921 0.918151
0.961593 0 0.905791
0.961593 0 0.905791
0.930938 0.707485 0.928786
0 0.00254826 0.918166
0 0.00254826 0.918166
0 0.00256352 0.918166
0 0.00257877 0.918166
0 0.00263981 0.918166
0 0.00285344 0.918166
0.961593 0 0.905791
0.961593 0 0.905791
0.930938 0.707439 0.928786
0 0.00239567 0.918166
0 0.00236515 0.918166
0 0.00239567 0.918166
0 0.00241093 0.918166
0 0.00248722 0.918166
0 0 0.918257
0.961593 0 0.905791
0.961593 0 0.905791
0.930968 0.707286 0.928801
0 0.00184634 0.918166
0 0.00184634 0.918166
0 0.00187686 0.918166
0 0.00189212 0.918166
0 0.00195315 0.918166
0.365347 0 0.909148
0.961593 0 0.905791
0.961593 0 0.905791
0.931014 0.706828 0.928832
0 0.000198367 0.918166
0 0.000198367 0.918166
0 0.000198367 0.918166
0 0.000228885 0.918166
0 0.000289921 0.918166
0.784726 0 0.898909
0.961593 0 0.905791
0.963317 0.00030518 0.913039
0.905196 0.922988 0.915999
0 1 0.935393
0 1 0.935393
0 1 0.935393
0 1 0.935409
0 1 0.935439
0.688945 1 0.915938
0.877714 0.993545 0.915053
0.899016 1 0.914977
0.897475 1 0.914839
0.613565 1 0.917082
0.621927 1 0.916716
0.634394 1 0.916182
0.66627 1 0.914992
0.72845 1 0.913375
0.803388 1 0.912749
0.862684 1 0.91284
0.89427 1 0.913268
0.895537 1 0.913405
0.8551 1 0.910704
0.855299 1 0.910704
0.855619 1 0.910704
0.856596 1 0.910719
0.859342 1 0.910719
0.866148 1 0.910765
0.87866 1 0.910842
0.89218 1 0.911025
0.895247 1 0.911437
0 0.276661 0.918624
0 0.276661 0.918624
0 0.276661 0.918624
0 0.276692 0.918624
0 0.276692 0.918624
0 0.276753 0.918624
0 0.27689 0.918624
0.963363 0.291432 0.934371
0.924468 0.756161 0.925155
0 0.276661 0.918624
0 0.276661 0.918624
0 0.276661 0.918624
0 0.276661 0.918624
0 0.276692 0.918624
0 0.276738 0.918624
0 0.27689 0.918624
0.963348 0.291798 0.934386
0.924453 0.756207 0.925155
0 0.276646 0.918624
0 0.276646 0.918624
0 0.276646 0.918624
0 0.276661 0.918624
0 0.276661 0.918624
0 0.276738 0.918624
0 0.27686 0.918624
0.963333 0.292378 0.934401
0.924437 0.756283 0.925155
0 0.276616 0.918624
0 0.276616 0.918624
0 0.276616 0.918624
0 0.276616 0.918624
0 0.276646 0.918624
0 0.276692 0.918624
0 0.276814 0.918624
0.963256 0.294163 0.934462
0.924407 0.756527 0.925124
0 0.276493 0.918624
0 0.276493 0.918624
0 0.276493 0.918624
0 0.276493 0.918624
0 0.276509 0.918624
0 0.276555 0.918624
0.361852 0.259403 0.921172
0.963058 0.299611 0.93463
0.924315 0.757229 0.925078
0 0.276112 0.918639
0 0.276112 0.918639
0 0.276112 0.918639
0 0.276143 0.918639
0 0.276143 0.918639
0 0.276173 0.918624
0.808301 0.0235447 0.908125
0.962386 0.315709 0.935073
0.924178 0.758282 0.925002
0 0.274968 0.918639
0 0.274968 0.918639
0 0.274968 0.918639
0 0.274983 0.918639
0 0.274983 0.918639
0 0.275029 0.918639
0.961593 0 0.905791
0.960906 0.34696 0.935714
0.923919 0.76025 0.924849
0 1 0.936522
0 1 0.936522
0 1 0.936522
0 1 0.936522
0 1 0.936522
0 1 0.936522
0.828168 1 0.914412
0.896117 1 0.914839
0.896178 1 0.914733
0.809644 1 0.913924
0.810346 1 0.913924
0.811475 1 0.913924
0.81474 1 0.913939
0.823392 1 0.913985
0.842008 1 0.914107
0.868574 1 0.914305
0.889738 1 0.914443
0.895521 1 0.914763
