BBLuts/BB_101_0280_LUT.cube
TITLE "Generated by Resolve"
LUT_3D_SIZE 33
0 0 0
0 0 0
0 0 0
0 0 0
0 0 0
0.0378729 0 0
0.0882429 0 0
0.125551 0 0
0.160876 0 0
0.202899 0 0
0.252461 0 0
0.308095 0 0
0.371054 0 0
0.446296 0 0
0.532998 0 0
0.628168 0 0
0.726543 0 0
0.825757 0 0
0.91632 0 0
0.987533 0 0
1 0 0
1 0 0
1 0.157778 0.0488899
1 0.322835 0.0847944
1 0.444434 0.124071
1 0.553689 0.17052
1 0.655116 0.22742
1 0.739239 0.309804
1 0.802533 0.403586
1 0.851453 0.498436
1 0.887968 0.593057
1 0.916426 0.684169
1 0.938781 0.759823
0 0 0
0 0 0
0 0 0
0 0 0
0 0 0
0.0480354 0 0
0.0906233 0 0
0.126696 0 0
0.163653 0 0
0.206363 0 0
0.255802 0 0
0.310735 0 0
0.37229 0 0
0.445289 0 0
0.531411 0 0
0.625879 0 0
0.72369 0 0
0.822492 0 0
0.913207 0 0
0.984833 0 0
1 0 0
1 0 0
1 0.180056 0.0358587
1 0.330938 0.0786145
1 0.448447 0.119921
1 0.555428 0.167208
1 0.655375 0.224353
1 0.73872 0.305135
1 0.80174 0.399268
1 0.850584 0.494377
1 0.887205 0.589197
1 0.915724 0.680766
1 0.938201 0.757214
0 0 0
0 0 0
0 0 0
0 0 0
0 0 0
0.0538491 0 0
0.0910353 0 0
0.127504 0 0
0.16643 0 0
0.210224 0 0
0.258762 0 0
0.311833 0 0
0.372351 0 0
0.444617 0 0
0.5299 0 0
0.623621 0 0
0.720851 0 0
0.819226 0 0
0.910063 0 0
0.982101 0 0
1 0 0
1 0 0
1 0.199374 0
1 0.338827 0.0717021
1 0.452461 0.115587
1 0.557198 0.163851
1 0.65568 0.221286
1 0.738247 0.300435
1 0.800961 0.394934
1 0.849729 0.490303
1 0.886427 0.585336
1 0.915022 0.677333
1 0.937621 0.754559
0 0 0
0 0 0
0 0 0
0 0 0
0.00682078 0 0
0.059144 0 0
0.0920272 0 0
0.127306 0 0
0.166445 0 0
0.210422 0 0
0.25948 0 0
0.3122 0 0
0.37232 0 0
0.443992 0 0
0.528481 0 0
0.621454 0 0
0.718044 0 0
0.815976 0 0
0.906889 0 0
0.979324 0 0
1 0 0
1 0 0
1 0.216663 0
1 0.346517 0.0637369
1 0.456458 0.111055
1 0.558999 0.160418
1 0.656016 0.218189
1 0.737804 0.295705
1 0.800183 0.39057
1 0.84889 0.486213
1 0.885664 0.58146
1 0.914321 0.673869
1 0.937026 0.751888
0 0.044419 0
0 0.0469978 0
0 0.0494545 0
0 0.0518349 0
0 0.0531777 0
0.050721 0.0524147 0
0.0865949 0.0503243 0
0.123232 0.0455177 0
0.163622 0.0343175 0
0.209094 0 0
0.259312 0 0
0.312123 0 0
0.372198 0 0
0.443397 0 0
0.527169 0 0
0.619333 0 0
0.715297 0 0
0.812741 0 0
0.903716 0 0
0.976532 0 0
1 0 0
1 0 0
1 0.232456 0
1 0.35404 0.0541238
1 0.460441 0.106279
1 0.56083 0.156924
1 0.656382 0.215076
1 0.737377 0.290944
1 0.799435 0.386191
1 0.848051 0.482109
1 0.884901 0.577569
1 0.913619 0.670375
1 0.936431 0.749172
0 0.0736553 0
0 0.0756542 0
0 0.0776074 0
0 0.079469 0
0 0.0802625 0
0.0270237 0.0801099 0
0.0780499 0.0793469 0
0.117693 0.0774701 0
0.15967 0.0735485 0
0.206592 0.0657969 0
0.258228 0.0500801 0
0.311528 0 0
0.371923 0 0
0.442832 0 0
0.525917 0 0
0.617304 0 0
0.712581 0 0
0.809522 0 0
0.900542 0 0
0.973709 0 0
1 0 0
1 0.0580606 0
1 0.247044 0
1 0.361379 0.0412604
1 0.464408 0.101228
1 0.562692 0.153353
1 0.656809 0.211933
1 0.736996 0.286152
1 0.798703 0.381765
1 0.847211 0.477989
1 0.884153 0.573678
1 0.912917 0.666835
1 0.935836 0.746426
0 0.101564 0
0 0.103136 0
0 0.104723 0
0 0.105882 0
0 0.106462 0
0 0.106432 0
0.0620737 0.106035 0
0.109316 0.104997 0
0.154025 0.102815 0
0.202777 0.0985885 0
0.255467 0.0908827 0
0.310369 0.0770733 0
0.371572 0.0486458 0
0.442466 0 0
0.524987 0 0
0.615503 0 0
0.710018 0 0
0.806378 0 0
0.897337 0 0
0.97081 0 0
1 0 0
1 0.12105 0
1 0.262226 0
1 0.369543 0.00836194
1 0.469032 0.0955215
1 0.565042 0.149569
1 0.657557 0.208713
1 0.736797 0.281239
1 0.798093 0.377279
1 0.846448 0.473823
1 0.883436 0.569741
1 0.912245 0.663264
1 0.935256 0.743633
0 0.133288 0
0 0.134569 0
0 0.135866 0
0 0.136385 0
0 0.136767 0
0 0.136782 0
0 0.136522 0
0.0935378 0.135912 0
0.144686 0.134615 0
0.196536 0.132036 0
0.250645 0.126711 0
0.308049 0.11841 0
0.371115 0.105715 0
0.442618 0.0830549 0
0.524773 0 0
0.614298 0 0
0.707851 0 0
0.803449 0 0
0.894118 0 0
0.967697 0 0
1 0 0
1 0.167071 0
1 0.281849 0
1 0.381094 0
1 0.476158 0.088014
1 0.569223 0.145098
1 0.659586 0.205219
1 0.737377 0.277317
1 0.79794 0.372595
1 0.845945 0.469551
1 0.882856 0.565744
1 0.91165 0.659617
1 0.934722 0.740795
0 0.170352 0
0 0.171405 0
0 0.17203 0
0 0.17232 0
0 0.172519 0
0 0.172488 0
0 0.17229 0
0.0528267 0.171908 0
0.127596 0.171099 0
0.185016 0.168704 0
0.242496 0.164767 0
0.303227 0.159075 0
0.369375 0.150805 0
0.442893 0.138354 0
0.525322 0.118425 0
0.613855 0.0849317 0
0.706218 0 0
0.800809 0 0
0.890867 0 0
0.964309 0 0
1 0.100786 0
1 0.211444 0
1 0.306447 0
1 0.39678 0
1 0.486442 0.0774243
1 0.575814 0.139651
1 0.66331 0.201312
1 0.738979 0.273976
1 0.798383 0.367636
1 0.845823 0.46511
1 0.88249 0.561639
1 0.911192 0.655879
1 0.934249 0.737881
0 0.213581 0
0 0.214084 0
0 0.214206 0
0 0.214343 0
0 0.214099 0
0 0.213703 0
0 0.213169 0
0 0.212406 0
0.0900893 0.211261 0
0.165164 0.209445 0
0.229267 0.206668 0
0.294484 0.202548 0
0.364767 0.196506 0
0.442054 0.187732 0
0.526299 0.175708 0
0.614237 0.160525 0
0.705303 0.14081 0
0.798566 0.116625 0
0.887556 0.100374 0
0.96051 0.126543 0
1 0.185611 0
1 0.257786 0
1 0.336385 0
1 0.417273 0
1 0.500603 0.0605631
1 0.585382 0.132815
1 0.669123 0.196902
1 0.741909 0.270512
1 0.799634 0.36231
1 0.846174 0.460441
1 0.882399 0.557397
1 0.910887 0.652033
1 0.933898 0.734905
0 0.260029 0
0 0.259861 0
0 0.259678 0
0 0.25948 0
0 0.259174 0
0 0.258762 0
0 0.258274 0
0 0.257649 0
0 0.256779 0
0.128588 0.255467 0
0.207813 0.253483 0
0.279942 0.250492 0
0.35555 0.24596 0
0.437888 0.239277 0
0.526253 0.230838 0
0.61503 0.221408 0
0.705043 0.211261 0
0.796735 0.201709 0
0.884123 0.198856 0
0.956115 0.214618 0
1 0.252552 0
1 0.307164 0
1 0.371969 0
1 0.443198 0
1 0.51931 0
1 0.598596 0.123903
1 0.677501 0.191821
1 0.746471 0.26688
1 0.801907 0.356497
1 0.847166 0.455497
1 0.882673 0.552972
1 0.910826 0.648035
1 0.933669 0.731807
0 0.313222 0
0 0.312947 0
0 0.312657 0
0 0.312322 0
0 0.311925 0
0 0.311452 0
0 0.310918 0
0 0.310338 0
0 0.309606 0
0 0.308583 0
0.16939 0.307134 0
0.256016 0.304982 0
0.339315 0.301671 0
0.42829 0.296788 0
0.522148 0.290715 0
0.614359 0.284062 0
0.704829 0.278004 0
0.795148 0.273716 0
0.880385 0.275013 0
0.950805 0.288853 0
1 0.318044 0
1 0.360113 0
1 0.413413 0
1 0.475059 0
1 0.543267 0
1 0.616144 0.111772
1 0.688884 0.185901
1 0.753017 0.263096
1 0.805447 0.350027
1 0.848951 0.450187
1 0.883421 0.548318
1 0.911055 0.64387
1 0.933608 0.728603
0 0.376501 0
0 0.376074 0
0 0.375631 0
0 0.375158 0
0 0.374609 0
0 0.374029 0
0 0.373404 0
0 0.372763 0
0 0.372061 0
0 0.371191 0
0.0475624 0.370047 0
0.213184 0.36846 0
0.312276 0.366445 0
0.41059 0.363272 0
0.510948 0.35874 0
0.60856 0.353765 0
0.70248 0.349599 0
0.79295 0.347723 0
0.875883 0.350607 0
0.944335 0.362112 0
0.997803 0.384314 0
1 0.417258 0
1 0.460792 0
1 0.513146 0
1 0.573007 0
1 0.638636 0.0940871
1 0.703655 0.178988
1 0.761837 0.259159
1 0.810483 0.346242
1 0.851728 0.444373
1 0.884764 0.543343
1 0.911665 0.639475
1 0.933791 0.725246
0 0.451011 0
0 0.450462 0
0 0.449882 0
0 0.449256 0
0 0.448615 0
0 0.447929 0
0 0.447242 0
0 0.446555 0
0 0.445853 0
0 0.445121 0
0 0.444251 0
0.106432 0.443153 0
0.265736 0.44155 0
0.380667 0.439017 0
0.48986 0.435416 0
0.594553 0.431205 0
0.694408 0.427283 0
0.788449 0.42501 0
0.870359 0.427039 0
0.936675 0.435904 0
0.988922 0.452995 0
1 0.478843 0
1 0.513954 0
1 0.557519 0
1 0.608881 0
1 0.665797 0.0645151
1 0.72195 0.170977
1 0.773114 0.255161
1 0.817304 0.343389
1 0.855695 0.437919
1 0.886854 0.537972
1 0.912779 0.634791
1 0.934279 0.721691
0 0.531792 0
0 0.53109 0
0 0.530373 0
0 0.52961 0
0 0.528832 0
0 0.528038 0
0 0.52723 0
0 0.526421 0
0 0.525597 0
0 0.524742 0
0 0.523781 0
0 0.522622 0
0.177295 0.52105 0
0.335897 0.518746 0
0.458717 0.515633 0
0.57171 0.511849 0
0.678721 0.507897 0
0.778561 0.504891 0
0.862364 0.505394 0
0.927337 0.511711 0
0.978286 0.52462 0
1 0.54461 0
1 0.572442 0
1 0.607919 0
1 0.65066 0
1 0.697063 0
1 0.743618 0.16202
1 0.786877 0.251331
1 0.826154 0.340841
1 0.861036 0.430671
1 0.88986 0.532067
1 0.914488 0.62974
1 0.935164 0.717891
0 0.614969 0
0 0.614145 0
0 0.613306 0
0 0.612451 0
0 0.611582 0
0 0.610681 0
0 0.609796 0
0 0.608881 0
0 0.607965 0
0 0.606989 0
0 0.60592 0
0 0.604654 0
0 0.603021 0
0.266178 0.600793 0
0.416205 0.597925 0
0.540032 0.594461 0
0.654582 0.590585 0
0.76109 0.587015 0
0.849012 0.585992 0
0.915099 0.58967 0
0.965515 0.598856 0
1 0.613931 0
1 0.635523 0
1 0.663157 0
1 0.695613 0
1 0.731319 0
1 0.767971 0.152743
1 0.80325 0.247944
1 0.83711 0.338842
1 0.867826 0.428946
1 0.893965 0.525444
1 0.91696 0.624216
1 0.936522 0.713756
0 0.698665 0
0 0.697765 0
0 0.696849 0
0 0.695918 0
0 0.694987 0
0 0.694041 0
0 0.69308 0
0 0.692119 0
0 0.691112 0
0 0.690044 0
0 0.688869 0
0 0.68751 0
0 0.685786 0
0.117372 0.683558 0
0.358495 0.680812 0
0.500053 0.677531 0
0.622965 0.673808 0
0.735744 0.670024 0
0.82855 0.667872 0
0.897765 0.669154 0
0.949844 0.674571 0
0.98912 0.684611 0
1 0.699275 0
1 0.718181 0
1 0.741009 0
1 0.766735 0
1 0.793851 0.144732
1 0.822065 0.245594
1 0.850095 0.337774
1 0.876097 0.427985
1 0.899306 0.517906
1 0.920287 0.618082
1 0.93846 0.709209
0 0.775876 0
0 0.775051 0
0 0.774197 0
0 0.773342 0
0 0.772473 0
0 0.771603 0
0 0.770733 0
0 0.769818 0
0 0.768841 0
0 0.767773 0
0 0.766583 0
0 0.765148 0
0 0.763348 0
0 0.76109 0
0.285527 0.758328 0
0.45594 0.754986 0
0.589166 0.75108 0
0.706996 0.746868 0
0.803632 0.743526 0
0.876631 0.742367 0
0.931991 0.743999 0
0.972885 0.748974 0
1 0.757519 0
1 0.769223 0
1 0.783886 0
1 0.80116 0
1 0.821012 0.139895
1 0.842634 0.245212
1 0.864713 0.338201
1 0.885756 0.428153
1 0.905898 0.517403
1 0.924605 0.611109
1 0.941054 0.704112
0 0.837629 0
0 0.836927 0
0 0.83621 0
0 0.835477 0
0 0.834745 0
0 0.833997 0
0 0.833249 0
0 0.832456 0
0 0.831571 0
0 0.830579 0
0 0.829404 0
0 0.82797 0
0 0.826185 0
0 0.823957 0
0.217792 0.82121 0
0.421866 0.817853 0
0.563043 0.81384 0
0.683314 0.8094 0
0.780652 0.805432 0
0.855573 0.802792 0
0.913954 0.801831 0
0.957214 0.803174 0
0.989197 0.807111 0
1 0.813657 0
1 0.822843 0
1 0.834485 0
1 0.848356 0.141711
1 0.86392 0.24828
1 0.880262 0.340932
1 0.89691 0.429892
1 0.913787 0.51812
1 0.929931 0.606058
1 0.944442 0.698268
0 0.885161 0
0 0.88452 0
0 0.883879 0
0 0.883238 0
0 0.882582 0
0 0.881926 0
0 0.881254 0
0 0.880522 0
0 0.879713 0
0 0.878752 0
0 0.877607 0
0 0.876219 0
0 0.874495 0
0 0.872358 0
0.197009 0.869718 0
0.409827 0.866468 0
0.551232 0.862547 0
0.66891 0.858213 0
0.763729 0.854154 0
0.837629 0.851011 0
0.897032 0.848936 0
0.942061 0.848402 0
0.976043 0.849668 0
1 0.852857 0
1 0.858137 0
1 0.865309 0
1 0.87422 0.153994
1 0.884565 0.25655
1 0.896315 0.346914
1 0.90927 0.433829
1 0.922835 0.52047
1 0.936172 0.607126
1 0.948669 0.691478
0 0.921813 0
0 0.921263 0
0 0.920714 0
0 0.92015 0
0 0.919585 0
0 0.919005 0
0 0.918425 0
0 0.917784 0
0 0.917037 0
0 0.916152 0
0 0.915099 0
0 0.913802 0
0 0.9122 0
0 0.910201 0
0.246021 0.907713 0
0.424598 0.904646 0
0.556069 0.900923 0
0.664958 0.896864 0
0.753887 0.892973 0
0.824628 0.889662 0
0.882826 0.887037 0
0.928222 0.88542 0
0.963821 0.884947 0
0.991531 0.885771 0
1 0.888106 0
1 0.891981 0
1 0.897414 0.177951
1 0.904387 0.271473
1 0.912779 0.357107
1 0.922362 0.440818
1 0.932738 0.525048
1 0.943252 0.609842
1 0.953658 0.691844
0 0.948684 0
0 0.948196 0
0 0.947692 0
0 0.947204 0
0 0.946715 0
0 0.946212 0
0 0.945708 0
0 0.945144 0
0 0.944488 0
0 0.943694 0
0 0.942733 0
0 0.941543 0
0 0.940078 0
0.0907454 0.938231 0
0.33518 0.935927 0
0.467247 0.933074 0
0.578347 0.929671 0
0.67306 0.92604 0
0.752483 0.922499 0
0.818067 0.91931 0
0.87332 0.916548 0
0.917235 0.914534 0
0.953109 0.913268 0
0.981842 0.912871 0
1 0.913619 0
1 0.915557 0.102083
1 0.918776 0.211368
1 0.923247 0.293965
1 0.928862 0.372732
1 0.935531 0.451835
1 0.943008 0.532631
1 0.951049 0.614755
1 0.959381 0.694377
0 0.969314 0
0 0.968887 0
0 0.968475 0
0 0.968048 0
0 0.96762 0
0 0.967193 0
0 0.966781 0
0 0.966293 0
0 0.965713 0
0 0.965011 0
0 0.964157 0
0 0.963088 0
0.195468 0.961761 0
0.3299 0.960082 0
0.433402 0.957992 0
0.527459 0.955428 0
0.61326 0.952514 0
0.690776 0.949401 0
0.758114 0.946319 0
0.81709 0.943374 0
0.867887 0.940734 0
0.909194 0.938613 0
0.94403 0.93698 0
0.972808 0.935927 0
0.995346 0.935653 0
1 0.936217 0.172351
1 0.937758 0.252338
1 0.940291 0.324025
1 0.943755 0.394797
1 0.948119 0.467964
1 0.953384 0.544091
1 0.959304 0.622568
1 0.965652 0.698802
0 0.984115 0
0 0.983764 0
0 0.983413 0
0 0.983078 0
0 0.982727 0
0.0451209 0.982376 0
0.121523 0.982025 0
0.168353 0.981628 0
0.212848 0.98114 0
0.258213 0.980545 0
0.305913 0.979797 0
0.356878 0.978866 0
0.41178 0.977707 0
0.470665 0.976226 0
0.531991 0.974456 0
0.594659 0.972351 0
0.656931 0.96997 0
0.71635 0.967422 0
0.771115 0.964828 0
0.822003 0.962234 0
0.866926 0.959823 0
0.904692 0.957748 0
0.937682 0.955993 0
0.965423 0.95465 0
0.987945 0.953811 0.15993
1 0.953536 0.232761
1 0.953979 0.298161
1 0.9552 0.360708
1 0.957214 0.423728
1 0.960006 0.490028
1 0.963546 0.560342
1 0.967651 0.634089
1 0.972213 0.705669
0.416419 0.994461 0.0595712
0.422843 0.994186 0.0530709
0.429129 0.993912 0.045243
0.435248 0.993637 0.0348974
0.441215 0.993362 0.0153811
0.447059 0.993072 0
0.452842 0.992798 0
0.460349 0.992477 0
0.470695 0.992096 0
0.484489 0.991608 0
0.502281 0.991012 0
0.52462 0.990265 0
0.551827 0.989334 0
0.583978 0.988205 0
0.620706 0.986831 0
0.661112 0.985214 0
0.70367 0.983398 0
0.7467 0.981414 0
0.790112 0.979263 0.058793
0.831952 0.977066 0.0863508
0.869917 0.974975 0.112078
0.903548 0.973068 0.13846
0.933898 0.971344 0.166659
0.95996 0.969924 0.197543
0.981674 0.968841 0.242039
0.999619 0.968139 0.293446
1 0.967926 0.346822
1 0.968277 0.401968
1 0.969238 0.4589
1 0.970825 0.518517
1 0.973007 0.582269
1 0.975631 0.65005
1 0.978683 0.71548
0.593042 1 0.253635
0.595499 1 0.252323
0.59794 1 0.250996
0.600351 1 0.249683
0.602747 1 0.248356
0.605112 1 0.247028
0.607492 1 0.245701
0.610712 1 0.244404
0.615381 0.999741 0.243183
0.621881 0.999405 0.242039
0.630655 0.998978 0.241016
0.642145 0.998459 0.240162
0.656748 0.997803 0.239521
0.674784 0.997009 0.239185
0.6963 0.996033 0.239261
0.721126 0.994888 0.239887
0.749416 0.993545 0.24126
0.780514 0.992004 0.243626
0.813214 0.990311 0.247288
0.845762 0.988556 0.252659
0.876402 0.986816 0.260166
0.905608 0.985122 0.270314
0.932647 0.98352 0.283635
0.95642 0.982116 0.30071
0.976944 0.980941 0.322087
0.994217 0.980041 0.356359
1 0.979446 0.399374
1 0.979248 0.447227
1 0.979477 0.498695
1 0.980179 0.552956
1 0.981353 0.610315
1 0.982895 0.670695
1 0.984833 0.72871
0.704341 1 0.367941
0.705333 1 0.366842
0.70631 1 0.365728
0.707301 1 0.36463
0.708278 1 0.363516
0.70927 1 0.362417
0.710262 1 0.361303
0.711666 1 0.36022
0.713863 1 0.359167
0.717052 1 0.358175
0.721523 1 0.357275
0.727596 1 0.356451
0.735622 1 0.355779
0.745983 1 0.355291
0.758999 1 0.355047
0.774884 1 0.355138
0.793652 1 0.355673
0.814969 0.999634 0.356817
0.838087 0.998367 0.35877
0.861891 0.997024 0.361791
0.886275 0.995621 0.366201
0.910674 0.994156 0.372396
0.933913 0.992752 0.380865
0.954925 0.991455 0.392187
0.973754 0.990295 0.406973
0.990066 0.989334 0.425925
1 0.988602 0.457069
1 0.988113 0.497124
1 0.987915 0.542473
1 0.988067 0.59173
1 0.988571 0.643824
1 0.98938 0.695735
1 0.990494 0.745464
0.782025 1 0.469337
0.782406 1 0.468284
0.782788 1 0.467231
0.783169 1 0.466178
0.783551 1 0.465126
0.783932 1 0.464073
0.784314 1 0.463035
0.784939 1 0.461997
0.786007 1 0.46099
