BBLuts/BB_103_0400_LUT.cube
TITLE "Generated by Resolve"
LUT_3D_SIZE 33
0 0 0
0 0 0
0 0 0
0 0 0
0 0 0
0.0053254 0 0
0.0675364 0 0
0.112169 0 0
0.157595 0 0
0.213123 0 0
0.27895 0 0
0.352438 0 0
0.433387 0 0
0.523522 0 0
0.613275 0 0
0.702358 0 0
0.78909 0 0
0.870375 0 0
0.941344 0 0
0.996811 0 0
1 0 0
1 0 0
1 0.137041 0
1 0.388891 0.0354162
0.99588 0.55613 0.0707866
0.98732 0.680812 0.114702
0.977966 0.78703 0.173037
0.970138 0.8719 0.265309
0.96408 0.932265 0.375753
0.959228 0.976593 0.482521
0.955139 1 0.576257
0.951736 1 0.666484
0.949172 1 0.741543
0 0 0
0 0 0
0 0 0
0 0 0
0 0 0
0.0181277 0 0
0.0718242 0 0
0.115709 0 0
0.163287 0 0
0.220005 0 0
0.285985 0 0
0.358587 0 0
0.437003 0 0
0.525765 0 0
0.614939 0 0
0.703487 0 0
0.789731 0 0
0.870665 0 0
0.941253 0 0
0.996445 0 0
1 0 0
1 0 0
1 0.183505 0
1 0.407782 0.0308537
0.995087 0.566796 0.0681621
0.986709 0.687099 0.112917
0.977539 0.791165 0.170947
0.969924 0.87425 0.264103
0.963989 0.933532 0.375097
0.959167 0.977325 0.48217
0.955108 1 0.576059
0.95172 1 0.666362
0.949157 1 0.741466
0 0 0
0 0 0
0 0 0
0 0 0
0 0 0
0.0256199 0 0
0.0733043 0 0
0.119081 0 0
0.169238 0 0
0.226398 0 0
0.291325 0 0
0.361883 0 0
0.44004 0 0
0.528145 0 0
0.616632 0 0
0.704601 0 0
0.790387 0 0
0.870939 0 0
0.941146 0 0
0.996063 0 0
1 0 0
1 0 0
1 0.221469 0
1 0.425177 0.0258488
0.994293 0.577005 0.0654154
0.986114 0.693233 0.111116
0.977127 0.795209 0.168917
0.969726 0.876539 0.262882
0.963897 0.934783 0.374456
0.959121 0.978058 0.481819
0.955077 1 0.57586
0.951705 1 0.666239
0.949157 1 0.741405
0 0 0
0 0 0
0 0 0
0 0 0
0 0 0
0.0313268 0 0
0.0739757 0 0
0.119387 0 0
0.17026 0 0
0.228992 0 0
0.294804 0 0
0.364874 0 0
0.442985 0 0
0.530571 0 0
0.618341 0 0
0.705745 0 0
0.791012 0 0
0.871183 0 0
0.941009 0 0
0.995636 0 0
1 0 0
1 0 0
1 0.255543 0
1 0.441718 0.0202792
0.993515 0.586816 0.0625925
0.985519 0.699245 0.109316
0.97673 0.799161 0.167895
0.969528 0.878798 0.261677
0.963806 0.936019 0.373785
0.959075 0.978775 0.481468
0.955062 1 0.575677
0.95169 1 0.666117
0.949142 1 0.741344
0 0.00822461 0
0 0.0115358 0
0 0.014725 0
0 0.0178073 0
0 0.0190127 0
0.0169985 0.0171664 0
0.0639811 0.0140383 0
0.11191 0.0075227 0
0.165957 0 0
0.230121 0 0
0.296818 0 0
0.36759 0 0
0.445823 0 0
0.532998 0 0
0.620096 0 0
0.706889 0 0
0.791653 0 0
0.871412 0 0
0.940856 0 0
0.995224 0 0
1 0 0
1 0 0
1 0.285695 0
1 0.45745 0.013962
0.992721 0.596262 0.059678
0.984939 0.705119 0.107515
0.976333 0.803006 0.166888
0.969329 0.881025 0.260502
0.963714 0.937224 0.373129
0.95903 0.979492 0.481132
0.955032 1 0.575463
0.951675 1 0.665995
0.949126 1 0.741268
0 0.0447242 0
0 0.0473793 0
0 0.0499733 0
0 0.0520333 0
0 0.0530251 0
0 0.0525521 0
0.0529793 0.0505837 0
0.104082 0.0476081 0
0.159701 0.0415961 0
0.223896 0.0298314 0
0.293446 0.00714122 0
0.370001 0 0
0.448722 0 0
0.535592 0 0
0.621958 0 0
0.708125 0 0
0.792294 0 0
0.871641 0 0
0.940703 0 0
0.994751 0 0
1 0 0
1 0.0941024 0
1 0.313954 0
0.998962 0.473136 0.00614939
0.991913 0.605768 0.0565194
0.984329 0.711131 0.105608
0.975952 0.806928 0.16585
0.969131 0.883284 0.259251
0.963623 0.938491 0.372457
0.958984 0.980224 0.480781
0.955001 1 0.575265
0.951659 1 0.665858
0.949126 1 0.741192
0 0.0834211 0
0 0.0856489 0
0 0.0878462 0
0 0.0890974 0
0 0.0898909 0
0 0.0901808 0
0.0326696 0.0887312 0
0.0922255 0.0870832 0
0.151461 0.0836652 0
0.218387 0.0768902 0
0.289296 0.0644236 0
0.365743 0.0445411 0
0.448005 0.00828565 0
0.538888 0 0
0.624384 0 0
0.709712 0 0
0.793164 0 0
0.871946 0 0
0.940475 0 0
0.994125 0 0
1 0 0
1 0.165805 0
1 0.346639 0
0.996399 0.491722 0
0.990875 0.617441 0.0523232
0.983566 0.718685 0.103166
0.975464 0.811856 0.164553
0.968887 0.886152 0.257679
0.96347 0.94049 0.371588
0.958907 0.981155 0.480308
0.954971 1 0.575006
0.951629 1 0.66569
0.949111 1 0.7411
0 0.127825 0
0 0.129793 0
0 0.131273 0
0 0.132235 0
0 0.132937 0
0 0.133333 0
0 0.133379 0
0.0707103 0.131838 0
0.137728 0.130007 0
0.208316 0.125277 0
0.282704 0.116335 0
0.363317 0.103182 0
0.447715 0.084123 0
0.536812 0.0537575 0
0.624353 0 0
0.711849 0 0
0.794324 0 0
0.872343 0 0
0.940139 0 0
0.993255 0 0
1 0.0390784 0
1 0.23476 0
1 0.384909 0
0.993744 0.514687 0
0.989593 0.630976 0.0464179
0.982574 0.728359 0.0999313
0.974838 0.818158 0.162905
0.968566 0.889815 0.255604
0.963317 0.94255 0.370459
0.958831 0.982391 0.479698
0.954925 1 0.574655
0.951598 1 0.665476
0.949096 1 0.740978
0 0.180819 0
0 0.182361 0
0 0.183215 0
0 0.1841 0
0 0.184695 0
0 0.185122 0
0 0.185382 0
0.022034 0.184939 0
0.112139 0.183185 0
0.189914 0.17969 0
0.270512 0.173495 0
0.357092 0.163867 0
0.446967 0.150256 0
0.538293 0.131395 0
0.624186 0.10602 0
0.709865 0.0716564 0
0.793423 0.0208286 0
0.872862 0 0
0.939651 0 0
0.992721 0.0466926 0
1 0.177081 0
1 0.304906 0
1 0.427695 0
0.991775 0.543145 0
0.9879 0.647623 0.0379034
0.981308 0.740627 0.095613
0.974075 0.826123 0.1608
0.968185 0.894499 0.252918
0.963134 0.945235 0.368948
0.958724 0.983978 0.478904
0.954864 1 0.574197
0.951568 1 0.665171
0.949065 1 0.74081
0 0.242527 0
0 0.243015 0
0 0.243488 0
0 0.24387 0
0 0.244129 0
0 0.244175 0
0 0.244053 0
0 0.243626 0
0.0632029 0.243473 0
0.159731 0.242267 0
0.249744 0.238575 0
0.343999 0.231785 0
0.441459 0.221561 0
0.538338 0.207752 0
0.625727 0.192035 0
0.711162 0.174731 0
0.793866 0.157839 0
0.872312 0.145556 0
0.9393 0.155154 0
0.992004 0.203494 0
1 0.281544 0
1 0.37734 0
0.99646 0.477226 0
0.989548 0.576333 0
0.985565 0.668467 0.0249332
0.97969 0.756024 0.0899062
0.973114 0.836088 0.158206
0.967681 0.900374 0.249424
0.962875 0.948653 0.366979
0.958587 0.986023 0.477867
0.954787 1 0.573587
0.951522 1 0.66479
0.949035 1 0.740597
0 0.309972 0
0 0.310445 0
0 0.310948 0
0 0.311315 0
0 0.311589 0
0 0.311757 0
0 0.311818 0
0 0.311681 0
0 0.311162 0
0.107576 0.31339 0
0.215595 0.31249 0
0.320531 0.308537 0
0.427817 0.301503 0
0.533578 0.292363 0
0.624933 0.282261 0
0.711467 0.273106 0
0.793484 0.267201 0
0.870741 0.26743 0
0.935912 0.282704 0
0.986206 0.321187 0
1 0.379583 0
0.998428 0.450385 0
0.992493 0.532479 0
0.98674 0.614511 0
0.98204 0.693202 0.00132753
0.977676 0.775021 0.0822919
0.971984 0.848295 0.155016
0.967086 0.907668 0.244877
0.96257 0.952987 0.364416
0.958419 0.988632 0.476493
0.954696 1 0.572808
0.951461 1 0.664286
0.949004 1 0.740322
0 0.391241 0
0 0.39173 0
0 0.392187 0
0 0.392554 0
0 0.392828 0
0 0.393027 0
0 0.39321 0
0 0.393271 0
0 0.393103 0
0 0.394614 0
0.155962 0.397986 0
0.281025 0.39733 0
0.402121 0.394034 0
0.519387 0.388922 0
0.617227 0.382528 0
0.707515 0.377539 0
0.789868 0.376852 0
0.865232 0.382666 0
0.927565 0.399405 0
0.97554 0.429068 0
0.996826 0.472221 0
0.992844 0.527504 0
0.988556 0.590158 0
0.983505 0.654459 0
0.977523 0.72253 0
0.975265 0.797681 0.0723888
0.970642 0.862959 0.151278
0.966369 0.916457 0.244022
0.962188 0.958434 0.361089
0.958206 0.991928 0.474693
0.954574 1 0.571756
0.951385 1 0.66363
0.948959 1 0.73994
0 0.485573 0
0 0.486015 0
0 0.486412 0
0 0.486732 0
0 0.486992 0
0 0.487221 0
0 0.487434 0
0 0.487602 0
0 0.48777 0
0 0.487877 0
0.0192874 0.49276 0
0.214801 0.497581 0
0.360586 0.497078 0
0.492638 0.494285 0
0.599649 0.490303 0
0.69572 0.487053 0
0.781415 0.487312 0
0.856199 0.49337 0
0.916457 0.50753 0
0.963134 0.53106 0
0.990463 0.562905 0
0.98764 0.602579 0
0.984054 0.647944 0
0.979507 0.70042 0
0.974197 0.75903 0
0.972549 0.823606 0.0598917
0.969146 0.880095 0.147112
0.965545 0.926879 0.243412
0.96173 0.965133 0.356802
0.957931 0.996033 0.472358
0.954421 1 0.570382
0.951278 1 0.662745
0.948898 1 0.739452
0 0.587655 0
0 0.587976 0
0 0.588251 0
0 0.588479 0
0 0.588693 0
0 0.588876 0
0 0.589059 0
0 0.589242 0
0 0.589364 0
0 0.58941 0
0 0.589242 0
0.0909743 0.596139 0
0.297368 0.598444 0
0.453101 0.596582 0
0.572946 0.593835 0
0.676646 0.591363 0
0.768643 0.591546 0
0.845975 0.596094 0
0.905196 0.606683 0
0.950286 0.62324 0
0.984298 0.644968 0
0.981949 0.672816 0
0.978775 0.708598 0
0.974884 0.751507 0
0.970489 0.799832 0
0.969635 0.852201 0.0442664
0.967514 0.899428 0.142916
0.964599 0.939071 0.243198
0.961181 0.973205 0.35201
0.95761 1 0.469322
0.954223 1 0.568597
0.951156 1 0.661585
0.948806 1 0.738796
0 0.680781 0
0 0.680949 0
0 0.681102 0
0 0.681224 0
0 0.681315 0
0 0.681407 0
0 0.681483 0
0 0.681559 0
0 0.681575 0
0 0.681498 0
0 0.68127 0
0 0.68069 0
0.196201 0.688045 0
0.396948 0.687587 0
0.538293 0.685954 0
0.650217 0.68397 0
0.749737 0.683665 0
0.83122 0.68658 0
0.891371 0.693767 0
0.935378 0.705898 0
0.970016 0.72311 0
0.975494 0.744778 0
0.972946 0.772534 0
0.969955 0.805753 0
0.966888 0.8421 0
0.966552 0.882338 0.024918
0.965835 0.920363 0.139391
0.963516 0.953521 0.243671
0.960479 0.982574 0.353674
0.957244 1 0.465415
0.953994 1 0.566247
0.951003 1 0.660075
0.948699 1 0.737926
0 0.772366 0
0 0.772442 0
0 0.772488 0
0 0.772549 0
0 0.772564 0
0 0.77258 0
0 0.772595 0
0 0.772564 0
0 0.772488 0
0 0.772305 0
0 0.771939 0
0 0.771267 0
0 0.774105 0
0.320485 0.778515 0
0.494377 0.777066 0
0.617288 0.774853 0
0.7243 0.773632 0
0.810498 0.775036 0
0.872908 0.779751 0
0.917723 0.788098 0
0.951782 0.800351 0
0.96907 0.816114 0
0.967453 0.835233 0
0.965621 0.858 0
0.963668 0.883589 0
0.963272 0.912215 0.00161746
0.964172 0.942626 0.137682
0.962356 0.969207 0.245472
0.959686 0.99324 0.35639
0.956802 1 0.461509
0.953704 1 0.563195
0.950805 1 0.658061
0.948577 1 0.736812
0 0.86128 0
0 0.861265 0
0 0.86125 0
0 0.861219 0
0 0.861189 0
0 0.861128 0
0 0.861051 0
0 0.860929 0
0 0.860731 0
0 0.86041 0
0 0.859876 0
0 0.859022 0
0 0.857679 0
0.21413 0.864866 0
0.442206 0.863203 0
0.582254 0.860136 0
0.696178 0.857298 0
0.786038 0.856626 0
0.851575 0.858427 0
0.898695 0.862623 0
0.934035 0.869368 0
0.959579 0.879026 0
0.963134 0.890791 0
0.962112 0.905211 0
0.960983 0.921859 0
0.959762 0.940612 0
0.96257 0.965377 0.138842
0.961151 0.985992 0.2495
0.958801 1 0.360708
0.956191 1 0.464988
0.953368 1 0.559228
0.950576 1 0.655451
0.948425 1 0.735332
0 0.935714 0
0 0.935637 0
0 0.935546 0
0 0.935439 0
0 0.935332 0
0 0.935225 0
0 0.935058 0
0 0.934844 0
0 0.934508 0
0 0.934035 0
0 0.933303 0
0 0.931823 0
0 0.930312 0
0.094789 0.934813 0
0.397482 0.933745 0
0.554788 0.928939 0
0.673365 0.924376 0
0.764767 0.921859 0
0.831739 0.921447 0
0.881086 0.922667 0
0.918166 0.925505 0
0.944961 0.930297 0
0.959976 0.937224 0
0.959426 0.945769 0
0.95874 0.956497 0
0.958343 0.969619 0
0.961059 0.988083 0.144945
0.959915 1 0.256992
0.957855 1 0.367391
0.955474 1 0.469871
0.952911 1 0.559136
0.950317 1 0.652033
0.948241 1 0.733379
0 0.991302 0
0 0.991165 0
0 0.991028 0
0 0.99089 0
0 0.990738 0
0 0.990555 0
0 0.990341 0
0 0.990036 0
0 0.989609 0
0 0.988998 0
0 0.988128 0
0 0.986969 0
0 0.985382 0
0.0327459 0.987228 0
0.380056 0.986084 0
0.542626 0.980575 0
0.660487 0.974975 0
0.750118 0.971344 0
0.816022 0.969665 0
0.866026 0.969253 0
0.904204 0.969985 0
0.93225 0.972091 0
0.954086 0.975662 0
0.957244 0.980591 0
0.956832 0.987228 0
0.958556 0.997879 0.0234684
0.95967 1 0.158404
0.958679 1 0.269444
0.956832 1 0.377234
0.954665 1 0.476692
0.9523 1 0.564004
0.949996 1 0.649027
0.948013 1 0.730816
0 1 0
0 1 0
0 1 0
0 1 0
0 1 0
0 1 0
0 1 0
0 1 0
0 1 0
0 1 0
0 1 0
0 1 0
0 1 0
0.118441 1 0
0.398154 1 0
0.547433 1 0
0.657664 1 0
0.741878 1 0
0.804746 1 0
0.853651 1 0
0.891752 1 0
0.920775 1 0
0.943725 1 0
0.955428 1 0
0.955215 1 0
0.957992 1 0.066041
0.958404 1 0.18117
0.957412 1 0.287968
0.955734 1 0.391043
0.953765 1 0.486152
0.951614 1 0.570657
0.949508 1 0.653925
0.947753 1 0.727443
0 1 0
0 1 0
0 1 0
0 1 0
0 1 0
0 1 0
0 1 0
0 1 0
0 1 0
0 1 0
0 1 0
0 1 0
0 1 0
0.261692 1 0
0.449363 1 0
0.570748 1 0
0.666331 1 0
0.74136 1 0
0.799207 1 0
0.845609 1 0
0.88217 1 0
0.911223 1 0
0.934829 1 0
0.952895 1 0
0.953811 1 0
0.957198 1 0.113924
0.957122 1 0.214084
0.9561 1 0.312993
0.954574 1 0.409522
0.952804 1 0.498863
0.950851 1 0.57969
0.948943 1 0.66041
0.947387 1 0.730541
0 1 0
0 1 0
0 1 0
0 1 0
0 1 0
0 1 0
0 1 0
0 1 0
0 1 0
0 1 0
0 1 0
0 1 0
0.235248 1 0
0.399771 1 0
0.51548 1 0
0.606409 1 0
0.683925 1 0
0.747036 1 0
0.79855 1 0
0.841138 1 0
0.875257 1 0
0.903334 1 0
0.926787 1 0
0.945266 1 0
0.955612 1 0.0700999
0.956207 1 0.168841
0.955764 1 0.257908
0.954726 1 0.345754
0.953368 1 0.433417
0.951782 1 0.514427
0.950042 1 0.591775
0.948333 1 0.66891
0.946944 1 0.735653
0 1 0
0 1 0
0 1 0
0 1 0
0 1 0
0 1 0
0 1 0
0 1 0
0 1 0
0.120958 1 0
0.244678 1 0
0.345724 1 0
0.436774 1 0
0.514366 1 0
0.583917 1 0
0.649363 1 0
0.707988 1 0
0.758297 1 0
0.802655 1 0
0.840314 1 0
0.871275 1 0
0.897795 1 0
0.920287 1 0
0.941466 1 0.0586862
0.955123 1 0.14934
0.955001 1 0.230091
0.95433 1 0.309621
0.953323 1 0.387427
0.952117 1 0.463249
0.950698 1 0.535058
0.949142 1 0.607645
0.947662 1 0.679866
0.946487 1 0.74226
0.271229 1 0
0.290974 1 0
0.308415 1 0
0.324956 1 0
0.340627 1 0
0.356237 1 0
0.375326 1 0
0.398154 1 0
0.424704 1 0
0.454917 1 0
0.489021 1 0
0.524025 1 0
0.563302 1 0
0.605798 1 0
0.65005 1 0
0.693935 1 0
0.735378 1 0
0.774502 1 0
0.810941 1 0
0.842832 1 0
0.872251 1 0.0216983
0.897581 1 0.0674144
0.919066 1 0.108232
0.936828 1 0.164218
0.951324 1 0.228458
0.953597 1 0.29688
0.952819 1 0.365087
0.951888 1 0.433616
0.950805 1 0.499031
0.949554 1 0.56144
0.948211 1 0.628061
0.946975 1 0.693736
0.945998 1 0.750683
0.542245 1 0.14168
0.547555 1 0.141619
0.552712 1 0.141573
0.557763 1 0.141512
0.562692 1 0.141482
0.567697 1 0.141451
0.573983 1 0.141421
0.581994 1 0.141421
0.592126 1 0.141421
0.604746 1 0.141497
0.620203 1 0.141665
0.638712 1 0.142031
0.660319 1 0.142748
0.684672 1 0.143999
0.711116 1 0.146075
0.73904 1 0.149264
0.768231 1 0.153903
0.797879 1 0.160388
0.825986 1 0.169146
0.851667 1 0.180682
0.875334 1 0.19559
0.897047 1 0.214542
0.916091 1 0.238163
0.932342 1 0.267185
0.945937 1 0.312032
0.952041 1 0.365789
0.951308 1 0.42417
0.950469 1 0.481834
0.949477 1 0.536767
0.948394 1 0.593622
0.94728 1 0.653361
0.946288 1 0.710689
0.94551 1 0.761166
0.669551 1 0.29012
0.671992 1 0.290166
0.674372 1 0.290227
0.676722 1 0.290257
0.679026 1 0.290318
0.681407 1 0.290364
0.684382 1 0.290471
0.688212 1 0.290578
0.693126 1 0.290745
0.699321 1 0.29099
0.707027 1 0.291341
0.716548 1 0.291859
0.728176 1 0.292592
0.742061 1 0.29369
0.758495 1 0.295613
0.776745 1 0.297871
0.796948 1 0.300908
0.81767 1 0.304936
0.8383 1 0.310475
0.858473 1 0.317815
0.878294 1 0.327428
0.896941 1 0.339879
0.91368 1 0.355825
0.928512 1 0.376196
0.941344 1 0.401007
0.950454 1 0.438453
0.949828 1 0.483513
0.94905 1 0.529686
0.948165 1 0.578943
0.94725 1 0.630655
0.946365 1 0.682307
0.945617 1 0.730602
0.945022 1 0.773724
0.747372 1 0.418357
0.748592 1 0.418418
0.749798 1 0.418509
0.751003 1 0.41857
0.752194 1 0.418631
0.753414 1 0.418723
0.754971 1 0.41883
0.757 1 0.418952
0.759625 1 0.41912
0.762997 1 0.419364
0.7673 1 0.419699
0.772732 1 0.420127
0.779446 1 0.420752
0.787655 1 0.421576
0.797803 1 0.422705
0.809186 1 0.424231
0.821958 1 0.426307
0.835752 1 0.429084
0.850629 1 0.432761
0.866331 1 0.437598
0.882567 1 0.444236
0.89807 1 0.452415
0.912428 1 0.462882
0.925689 1 0.476158
0.937377 1 0.492821
0.947127 1 0.511894
0.948318 1 0.542229
0.947662 1 0.580926
0.946914 1 0.624338
0.946181 1 0.66981
0.945525 1 0.713054
0.944991 1 0.752743
0.944564 1 0.788159
0.800534 1 0.525093
0.801175 1 0.525154
0.801816 1 0.525216
0.802441 1 0.525261
0.803082 1 0.525307
0.803738 1 0.525368
0.804562 1 0.52546
0.805661 1 0.525551
0.80708 1 0.525704
