BBLuts/BB_103_0580_LUT.cube
TITLE "Generated by Resolve"
LUT_3D_SIZE 5
0.00415045 0.00553903 0.00477607
0.115129 0.00909438 0.00628672
0.834852 0 0
0.873106 0.526192 0.0172427
0.93434 0.92697 0.82472
0 0.232471 0.0206302
0.130755 0.221347 0.0521096
0.710155 0.200687 0
0.86949 0.580163 0.0651102
0.934676 0.927687 0.825605
0.268238 0.769055 0.210391
0.265812 0.767132 0.209155
0.677531 0.748089 0.306355
0.900282 0.809659 0.29601
0.935668 0.929564 0.826642
0.707958 0.91458 0.45922
0.707958 0.91458 0.45922
0.820294 0.913985 0.598795
0.926879 0.926452 0.708339
0.936675 0.930388 0.839963
0.910857 0.929702 0.852552
0.910857 0.929702 0.852552
0.910857 0.929702 0.852552
0.927764 0.931533 0.859342
0.937438 0.933379 0.86923
0.0055848 0.00979629 0.04065
0.0694896 0.0189517 0.100847
0.676402 3.0518e-05 0.224887
0.919615 0.494377 0.188571
0.93434 0.92697 0.82472
0 0.195911 0.200824
0.0951247 0.1935 0.19826
0.720958 0.0841993 0.198291
0.899565 0.569039 0.194858
0.934676 0.927687 0.825605
0.260868 0.763272 0.206699
0.258778 0.761654 0.205524
0.675059 0.74345 0.299748
0.899245 0.809689 0.388922
0.935668 0.929564 0.826642
0.712917 0.914427 0.459968
0.712993 0.914427 0.46009
0.821561 0.91397 0.600275
0.926879 0.926452 0.708263
0.936675 0.930388 0.839963
0.910948 0.929702 0.852567
0.910948 0.929702 0.852567
0.910948 0.929702 0.852567
0.927764 0.931533 0.859342
0.937438 0.933379 0.86923
0 0.0229191 0.419944
0 0.0229038 0.420539
0.573831 0.0950484 0.680629
0.773022 0.281804 0.681102
0.934691 0.925261 0.856107
0 0.0229648 0.416968
0 0.0229496 0.417273
0.584787 0.0956893 0.678538
0.803967 0.425498 0.689784
0.935164 0.926146 0.856657
0.220905 0.708354 0.712154
0.221088 0.708492 0.712184
0.61146 0.701595 0.709178
0.912383 0.786801 0.71928
0.938033 0.932052 0.860258
0.711116 0.917433 0.747265
0.711116 0.917433 0.747265
0.80235 0.921157 0.763241
0.927031 0.928527 0.828473
0.93698 0.930327 0.856855
0.911559 0.929763 0.852796
0.911559 0.929763 0.852796
0.911559 0.929763 0.852796
0.927947 0.931548 0.859373
0.937438 0.933379 0.8692
0 0.00839246 0.806287
0 0.00839246 0.806287
0 0.00834669 0.80943
0.738628 0.0825971 0.907912
0.910948 0.872389 0.881422
0 0.00839246 0.806287
0 0.00839246 0.806287
0 0.00834669 0.8094
0.738628 0.0825971 0.907912
0.912444 0.875898 0.882139
0 0.00839246 0.806287
0 0.00839246 0.806287
0 0.00839246 0.816007
0.740276 0.0880293 0.907057
0.926055 0.90695 0.888609
0.614069 0.925536 0.888441
0.614069 0.925536 0.888441
0.611963 0.923247 0.886473
0.920913 0.933593 0.892882
0.941054 0.935729 0.896574
0.911467 0.932342 0.886961
0.911467 0.932342 0.886961
0.911467 0.932342 0.886961
0.925978 0.933547 0.889143
0.939681 0.93492 0.893248
0 0.250767 0.903838
0 0.250767 0.903838
0 0.250767 0.903838
0 0.249699 0.903761
0.830945 0.617105 0.876112
0 0.250767 0.903838
0 0.250767 0.903838
0 0.250767 0.903838
0 0.249699 0.903761
0.830945 0.617105 0.876112
0 0.250767 0.903838
0 0.250767 0.903838
0 0.250767 0.903838
0 0.249699 0.903761
0.830945 0.617105 0.876112
0 0.249577 0.903883
0 0.249577 0.903883
0 0.249577 0.903883
0 0.185504 0.906981
0.832639 0.623697 0.876036
0.871275 0.929641 0.899977
0.871275 0.929641 0.899977
0.871275 0.929641 0.899977
0.887419 0.930785 0.90132
0.940887 0.93637 0.904982
