BBLuts/BB_102_0290_LUT.cube
TITLE "Generated by Resolve"
LUT_3D_SIZE 5
0 0 0
0.285801 0 0
0.93669 0 0
1 0.625986 0.00192264
0.98436 0.933486 0.760342
0 0.303548 0
0.164202 0.308614 0
0.902617 0.11191 0
1 0.666209 0
0.984314 0.933852 0.760067
0 0.845518 0
0 0.845319 0
0.743801 0.812253 0
1 0.838209 0
0.983719 0.938613 0.756024
0.605783 1 0.174395
0.605783 1 0.174395
0.764065 0.988449 0.192004
0.979416 0.963928 0.412436
0.979873 0.963088 0.782025
0.942733 0.97348 0.869368
0.942733 0.97348 0.869368
0.942733 0.97348 0.869368
0.960418 0.97232 0.87097
0.975647 0.970886 0.89572
0 0 0.333318
0.225422 0 0.33521
0.931151 0 0.313085
0.901335 0.665019 0.184894
0.98436 0.933471 0.760357
0 0.237934 0.255726
0.168032 0.235782 0.252277
0.926146 0 0.281605
0.952178 0.685664 0.202182
0.984314 0.933837 0.760067
0 0.841856 0
0 0.841627 0
0.748653 0.808392 0
1 0.83563 0
0.983719 0.938613 0.756024
0.613077 1 0.173144
0.613077 1 0.173144
0.766278 0.98822 0.190921
0.979492 0.963882 0.412116
0.979873 0.963088 0.782025
0.942763 0.97348 0.869383
0.942763 0.97348 0.869383
0.942763 0.97348 0.869383
0.960449 0.97232 0.870954
0.975647 0.970886 0.89572
0 0 0.957565
0 0 0.957656
0.903853 0 0.929976
1 0.328222 0.852964
0.982422 0.930159 0.847868
0 0 0.956497
0 0 0.956558
0.913115 0 0.928267
1 0.526223 0.821591
0.982452 0.930526 0.847776
0 0.781994 0.787579
0 0.78204 0.78761
0.702007 0.752621 0.771176
1 0.800656 0.762493
0.981689 0.935576 0.845396
0.596689 0.993454 0.642481
0.596689 0.993454 0.642481
0.744747 0.981491 0.639673
0.968002 0.959289 0.672236
0.978821 0.961898 0.825147
0.943297 0.973449 0.869291
0.943297 0.973449 0.869291
0.943297 0.973449 0.869291
0.960647 0.972305 0.870878
0.975647 0.970886 0.895705
0 0 1
0 0 1
0 0 1
1 0 1
0.98323 0.900008 0.969619
0 0 1
0 0 1
0 0 1
1 0 1
0.983185 0.901076 0.969482
0 0 1
0 0 1
0 0 1
1 0 1
0.981796 0.912932 0.966995
0 1 0.987991
0 1 0.987991
0 1 0.987991
0.944076 0.947997 0.957626
0.973373 0.957137 0.953796
0.937575 0.972473 0.93901
0.937575 0.972473 0.93901
0.937575 0.972473 0.93901
0.954131 0.97145 0.938598
0.974609 0.970184 0.944686
0 0.399954 1
0 0.399954 1
0 0.399954 1
0 0.400061 1
1 0.701076 1
0 0.399954 1
0 0.399954 1
0 0.399954 1
0 0.400061 1
1 0.701076 1
0 0.399954 1
0 0.399954 1
0 0.399954 1
0 0.400061 1
1 0.701076 1
0 0.398337 1
0 0.398337 1
0 0.398337 1
0 0.398398 1
1 0.704387 1
0.871015 0.97554 0.982513
0.871015 0.97554 0.982513
0.871015 0.97554 0.982513
0.871015 0.97554 0.982513
0.973983 0.969863 0.977234
