BBLuts/BB_104_0260_LUT.cube
TITLE "Generated by Resolve"
LUT_3D_SIZE 5
0 0 0
0.187594 0 0
0.774502 0 0
0.962707 0.520836 0.106462
0.9635 0.875532 0.699153
0.00793469 0.186419 0.0034638
0.175631 0.187503 0.00141909
0.791547 0.0459144 0
0.963455 0.617472 0.0742657
0.9635 0.876432 0.698695
0.0065156 0.764202 0
0.00643931 0.763882 0
0.790326 0.761028 0
0.961044 0.79852 0.00175479
0.963561 0.882231 0.695384
0.69424 0.916152 0.168109
0.73901 0.914351 0.168231
0.848692 0.907698 0.180468
0.961318 0.902342 0.33106
0.963546 0.902831 0.71017
0.942596 0.909972 0.764035
0.942901 0.909972 0.764065
0.944976 0.909987 0.764309
0.956405 0.910109 0.766506
0.963027 0.910079 0.782467
0.000701915 0.000732433 0.142901
0.168002 0 0.138277
0.777722 0 0.105867
0.964752 0.500557 0.263386
0.963439 0.875212 0.709682
0.0109712 0.156619 0.133196
0.184054 0.1514 0.127565
0.77818 0 0.0921492
0.966445 0.607034 0.243778
0.963439 0.876127 0.709285
0.00588998 0.761547 0
0.00581369 0.761196 0
0.79379 0.75848 0
0.963088 0.799207 0.0705272
0.963485 0.881971 0.706401
0.70219 0.915831 0.1673
0.743435 0.914061 0.167498
0.849836 0.907607 0.180072
0.961395 0.902312 0.330999
0.963546 0.902815 0.710109
0.942641 0.909972 0.764035
0.942931 0.909972 0.764065
0.945022 0.909987 0.764309
0.95642 0.910109 0.766506
0.963027 0.910079 0.782467
0 0 0.680201
0 0 0.680339
0.779873 0 0.657008
0.948928 0.166949 0.698878
0.963287 0.873259 0.755795
0 0 0.679088
0 0 0.67924
0.785657 0 0.655787
0.964645 0.417456 0.704173
0.963287 0.87422 0.755581
0.0134127 0.730907 0.654887
0.0134585 0.731182 0.655085
0.785016 0.728893 0.659709
0.963973 0.7823 0.676478
0.963333 0.880446 0.754055
0.703456 0.913542 0.553887
0.743725 0.911803 0.553155
0.847333 0.905272 0.556344
0.957137 0.899489 0.614572
0.963455 0.902312 0.743191
0.942992 0.909972 0.763989
0.943267 0.909972 0.764035
0.945312 0.910002 0.764263
0.956527 0.910109 0.766476
0.963027 0.910079 0.782467
0 0 0.82977
0 0 0.82977
0 0 0.82977
0.918029 0 0.815808
0.963149 0.851225 0.822904
0 0 0.82977
0 0 0.82977
0 0 0.82977
0.918029 0 0.815808
0.96289 0.85333 0.82269
0 0 0.82977
0 0 0.82977
0.340078 0 0.821485
0.918029 0 0.815808
0.962951 0.865995 0.821454
0.0524605 0.918669 0.826215
0.052369 0.917494 0.826108
0.750774 0.902327 0.817548
0.946075 0.892576 0.81561
0.96347 0.899657 0.817655
0.941161 0.90988 0.803311
0.941436 0.90988 0.803326
0.943435 0.909911 0.803403
0.954467 0.910018 0.804196
0.963058 0.910048 0.809873
0.00723278 0.264256 0.839506
0.00723278 0.264256 0.839506
0.00723278 0.264286 0.839506
0.00723278 0.264454 0.839506
0.967041 0.715145 0.842206
0.00721752 0.26424 0.839506
0.00721752 0.26424 0.839506
0.00723278 0.264256 0.839506
0.00723278 0.264439 0.839506
0.967041 0.715221 0.842206
0.00721752 0.264103 0.839506
0.00721752 0.264103 0.839506
0.00723278 0.264118 0.839506
0.423957 0.247974 0.839963
0.96701 0.715846 0.842145
0.00717174 0.262776 0.839506
0.00717174 0.262776 0.839506
0.00717174 0.262806 0.839506
0.918029 0 0.815808
0.966903 0.717815 0.841978
0.902312 0.909377 0.831693
0.903609 0.909377 0.831708
0.912062 0.909468 0.831785
0.944137 0.909834 0.832135
0.963577 0.910521 0.832776
