BBLuts/BB_104_0095_LUT.cube
TITLE "Generated by Resolve"
LUT_3D_SIZE 5
0 0 0
0.184131 0 0
0.691081 0 0
0.841276 0.552056 0.0569772
0.828275 0.869459 0.606561
0 0.210056 0
0.132464 0.212894 0
0.690455 0.101045 0
0.838941 0.599908 0.0119783
0.82826 0.86981 0.606409
0 0.729 0
0 0.728801 0
0.616983 0.722301 0
0.831037 0.762966 0
0.828031 0.874403 0.603952
0.522667 0.903655 0.153704
0.521706 0.903975 0.153368
0.648737 0.89984 0.165866
0.818982 0.891966 0.296407
0.827008 0.898375 0.623514
0.801419 0.907897 0.682765
0.801419 0.907897 0.682765
0.801419 0.907897 0.682765
0.81503 0.907927 0.684474
0.826993 0.908049 0.702022
0 0 0.164523
0.148974 0 0.166522
0.690822 0 0.163317
0.842298 0.540276 0.214618
0.828275 0.869444 0.606577
0 0.167254 0.149081
0.135134 0.164843 0.147112
0.689784 0.00114443 0.149126
0.839857 0.59266 0.198016
0.82826 0.869795 0.606409
0 0.725505 0
0 0.725292 0
0.620447 0.718868 0
0.831235 0.761761 0.00703441
0.828031 0.874403 0.603952
0.528878 0.903777 0.15285
0.528878 0.903777 0.15285
0.650385 0.899733 0.165347
0.819043 0.89192 0.296193
0.827008 0.898375 0.623514
0.80145 0.907897 0.682765
0.80145 0.907897 0.682765
0.80145 0.907897 0.682765
0.815045 0.907927 0.684474
0.826993 0.908049 0.702022
0 0 0.620325
0 0 0.620371
0.683726 0 0.616037
0.855741 0.275319 0.621302
0.828687 0.867903 0.666346
0 0 0.620066
0 0 0.619669
0.690776 0 0.61503
0.848554 0.43444 0.617319
0.830396 0.867628 0.667338
0 0.681819 0.591211
0 0.682368 0.590158
0.603769 0.675883 0.593225
0.834318 0.741207 0.598825
0.830655 0.872297 0.666484
0.525002 0.903517 0.506081
0.523888 0.903883 0.50547
0.642344 0.900023 0.508446
0.817639 0.89102 0.547799
0.827298 0.8981 0.653071
0.801862 0.907897 0.682719
0.801862 0.907897 0.682719
0.801862 0.907897 0.682719
0.818814 0.906538 0.686702
0.826993 0.908049 0.702007
0 0 0.773571
0 0 0.770443
0 0 0.770443
0.869017 0 0.7682
0.863096 0.82858 0.771206
0 0 0.776013
0 0 0.770443
0 0 0.770443
0.870588 0 0.771389
0.863081 0.829602 0.77113
0 0 0.777401
0 0 0.770443
0 0 0.770443
0.872145 0 0.774563
0.862943 0.841001 0.770275
0 0.899931 0.753323
0 0.90457 0.744274
0 0.90457 0.744274
0.807706 0.883223 0.744503
0.862455 0.881682 0.766674
0.801694 0.907057 0.731945
0.798993 0.90811 0.730098
0.798993 0.90811 0.730098
0.81178 0.908141 0.73048
0.831861 0.906401 0.738582
0 0.296086 0.772992
0 0.29778 0.767269
0 0.29778 0.767269
0 0.297856 0.767269
0.846906 0.647807 0.767742
0 0.297154 0.769421
0 0.29778 0.767269
0 0.29778 0.767269
0 0.297856 0.767269
0.839948 0.650248 0.761334
0 0.29778 0.767269
0 0.29778 0.767269
0 0.29778 0.767269
0 0.297444 0.768704
0.839551 0.650385 0.760952
0 0.296574 0.767285
0 0.296574 0.767285
0 0.296574 0.767285
0 0.29662 0.767285
0.840635 0.653086 0.762036
0.748547 0.90811 0.757366
0.748547 0.90811 0.757366
0.748547 0.90811 0.757366
0.748547 0.90811 0.757366
0.828962 0.907668 0.758297
