BBLuts/BB_101_0310_LUT.cube
TITLE "Generated by Resolve"
LUT_3D_SIZE 5
0.0111696 0.0111696 0.0111696
0.0355077 0.0155184 0.0117952
0.637964 0.0128176 0.0128176
0.893248 0.39086 0.011841
0.9234 0.869978 0.752132
0.011368 0.0802167 0.019852
0.0413214 0.0862745 0.0234073
0.625666 0.0128328 0.0127718
0.880323 0.453223 0.0117494
0.923522 0.870466 0.752529
0.020676 0.616922 0.116533
0.0205234 0.616571 0.116274
0.535897 0.603937 0.171176
0.896452 0.690501 0.18291
0.925353 0.877455 0.758495
0.662837 0.906844 0.478172
0.662837 0.906844 0.478172
0.776913 0.895994 0.538643
0.925399 0.899474 0.545846
0.937835 0.913024 0.813016
0.92163 0.925307 0.856306
0.92163 0.925307 0.856306
0.92163 0.925307 0.856306
0.935027 0.927337 0.859983
0.948394 0.929839 0.872358
0.012314 0.0117647 0.0191806
0.0220035 0.0157015 0.0283055
0.603845 0.0126497 0.121477
0.938521 0.353491 0.0326848
0.9234 0.869978 0.752132
0.0117342 0.0598764 0.076112
0.0324254 0.066453 0.0833143
0.634913 0.0127413 0.104417
0.914641 0.432563 0.0150149
0.923522 0.870466 0.752529
0.0186007 0.611887 0.112688
0.0184634 0.611536 0.112428
0.537331 0.59939 0.162966
0.895796 0.688182 0.182071
0.925353 0.877455 0.758495
0.667704 0.906554 0.48011
0.667704 0.906554 0.48011
0.778378 0.895888 0.539467
0.925399 0.899474 0.545571
0.937835 0.913024 0.813016
0.92163 0.925307 0.856306
0.92163 0.925307 0.856306
0.92163 0.925307 0.856306
0.935027 0.927337 0.859983
0.948394 0.929839 0.872358
0.016968 0.0278782 0.208042
0.016968 0.0278782 0.208042
0.448798 0.0864881 0.538628
0.770535 0.193439 0.588617
0.928222 0.868833 0.794675
0.0171359 0.0278477 0.206607
0.0171206 0.0278477 0.206744
0.458579 0.0888838 0.537682
0.801358 0.307622 0.599207
0.928283 0.869291 0.795117
0.0120546 0.554055 0.591134
0.0120546 0.554055 0.591134
0.477256 0.552636 0.585351
0.926085 0.648371 0.630991
0.929397 0.876127 0.802258
0.670253 0.907134 0.657435
0.670253 0.907134 0.657435
0.753643 0.903243 0.671595
0.92047 0.899443 0.74406
0.939788 0.912352 0.831937
0.922057 0.925338 0.856428
0.922057 0.925338 0.856428
0.922057 0.925338 0.856428
0.93518 0.927337 0.859983
0.948379 0.929839 0.872328
0.0122225 0.0129854 0.765393
0.0122225 0.0129854 0.765393
0.0122225 0.0129854 0.765393
0.742275 0.0896162 0.910048
0.911467 0.835431 0.876402
0.0122225 0.0129854 0.765393
0.0122225 0.0129854 0.765393
0.0122225 0.0129854 0.765393
0.742275 0.0896162 0.910048
0.911955 0.836988 0.876478
0.0122225 0.0129854 0.765393
0.0122225 0.0129854 0.765393
0.0122225 0.0129854 0.765393
0.742275 0.0896162 0.910048
0.917418 0.853498 0.878294
0.620493 0.918135 0.888411
0.620493 0.918135 0.888411
0.620493 0.918135 0.888411
0.903807 0.895018 0.881544
0.943465 0.912337 0.88957
0.92108 0.927428 0.885023
0.92108 0.927428 0.885023
0.92108 0.927428 0.885023
0.933898 0.928328 0.887266
0.950988 0.929595 0.892561
0.0119326 0.195865 0.901366
0.0119326 0.195865 0.901366
0.0119326 0.195865 0.901366
0.0119326 0.195865 0.901366
0.82417 0.566079 0.888472
0.0119326 0.195865 0.901366
0.0119326 0.195865 0.901366
0.0119326 0.195865 0.901366
0.0119326 0.195865 0.901366
0.82417 0.566079 0.888472
0.0119326 0.195865 0.901366
0.0119326 0.195865 0.901366
0.0119326 0.195865 0.901366
0.0119326 0.195865 0.901366
0.82417 0.566079 0.888472
0.0119326 0.194934 0.90135
0.0119326 0.194934 0.90135
0.0119326 0.194934 0.90135
0.0119326 0.194934 0.90135
0.825467 0.570504 0.888121
0.879408 0.92459 0.90454
0.879408 0.92459 0.90454
0.879408 0.92459 0.90454
0.879408 0.92459 0.90454
0.951278 0.932403 0.90631
