BBLuts/BB_106_0198_LUT.cube
TITLE "Generated by Resolve"
LUT_3D_SIZE 5
0.0551308 0.0569009 0.055848
0.090959 0.0585794 0.0571756
0.669322 0.0681468 0.360418
0.90573 0.472862 0.637476
0.975052 0.947601 0.857511
0.0499733 0.169406 0.0705882
0.0975967 0.180011 0.074403
0.675517 0.0735637 0.367041
0.924483 0.585107 0.64361
0.97554 0.948959 0.857527
0.156786 0.752239 0.2215
0.154742 0.751827 0.221088
0.694209 0.742397 0.297429
0.951141 0.809903 0.353597
0.978973 0.957626 0.855695
0.658549 0.961959 0.630564
0.658549 0.961959 0.630564
0.879438 0.956008 0.661906
0.986084 0.966628 0.519844
0.985321 0.972442 0.866102
0.982071 0.973693 0.923125
0.982361 0.973739 0.923217
0.984314 0.974029 0.923903
0.988663 0.97464 0.926848
0.989532 0.97435 0.938659
0.0590829 0.063035 0.0957504
0.0887312 0.0700236 0.125368
0.65803 0.0956283 0.395651
0.900847 0.445335 0.639796
0.976059 0.947768 0.869963
0.0493935 0.189212 0.203967
0.121096 0.191989 0.208408
0.659709 0.0937362 0.393866
0.920424 0.574807 0.647776
0.97641 0.949126 0.870512
0.138888 0.748699 0.217792
0.136324 0.748196 0.217258
0.696544 0.739757 0.286976
0.950378 0.812299 0.45359
0.979187 0.957671 0.871946
0.658549 0.961959 0.630564
0.658549 0.961959 0.630564
0.8804 0.956054 0.661891
0.986084 0.966628 0.519844
0.985321 0.972442 0.865995
0.982116 0.973709 0.923125
0.982361 0.973739 0.923217
0.984375 0.974044 0.923919
0.988663 0.97464 0.926848
0.989532 0.97435 0.938659
0.537057 0.627817 0.756603
0.537331 0.627985 0.756832
0.69218 0.63032 0.763226
0.901518 0.653712 0.793042
0.979995 0.952422 0.910094
0.534722 0.626322 0.754574
0.534997 0.62649 0.754818
0.699001 0.628992 0.761303
0.904494 0.658549 0.791669
0.980423 0.953765 0.910796
0.564233 0.724636 0.736324
0.564782 0.725032 0.73669
0.686946 0.724727 0.739498
0.970352 0.794949 0.78967
0.983169 0.962295 0.915129
0.658549 0.961959 0.630564
0.675364 0.960464 0.611994
0.879942 0.956039 0.661906
0.986084 0.966628 0.519844
0.987182 0.972137 0.911467
0.982406 0.973754 0.923171
0.982651 0.973785 0.923262
0.984604 0.974075 0.923949
0.988663 0.97464 0.926848
0.989532 0.97435 0.938659
0.845289 0.877119 0.940429
0.845289 0.877119 0.940429
0.845289 0.877119 0.940429
0.953933 0.88394 0.943252
0.978363 0.952926 0.950973
0.845289 0.877119 0.940429
0.845289 0.877119 0.940429
0.845289 0.877119 0.940429
0.953933 0.88394 0.943252
0.979248 0.954879 0.951339
0.845289 0.877119 0.940429
0.845289 0.877119 0.940429
0.845808 0.877134 0.940429
0.953933 0.88394 0.943252
0.98555 0.966049 0.953765
0.908507 0.968917 0.952621
0.908507 0.968917 0.952621
0.915526 0.969924 0.952605
0.991592 0.976684 0.9561
0.991592 0.976684 0.9561
0.989151 0.975647 0.952544
0.989349 0.975662 0.952544
0.991196 0.975799 0.952682
0.99173 0.975982 0.953292
0.991592 0.976684 0.9561
0.845563 0.877485 0.940444
0.845563 0.877485 0.940444
0.845563 0.877485 0.940444
0.845563 0.877485 0.940444
0.957214 0.894926 0.94403
0.845563 0.877485 0.940444
0.845563 0.877485 0.940444
0.845563 0.877485 0.940444
0.845563 0.877485 0.940444
0.957214 0.894926 0.94403
0.845563 0.877485 0.940444
0.845563 0.877485 0.940444
0.845563 0.877485 0.940444
0.846265 0.877531 0.940444
0.957244 0.895018 0.944045
0.845563 0.877485 0.940444
0.845563 0.877485 0.940444
0.845563 0.877485 0.940444
0.953933 0.88394 0.943252
0.957366 0.895399 0.944076
0.968521 0.973663 0.955596
0.969238 0.973785 0.955703
0.974075 0.974624 0.956436
0.991592 0.976684 0.9561
0.991592 0.976684 0.9561
