BBLuts/BB_103_0730_LUT.cube
TITLE "Generated by Resolve"
LUT_3D_SIZE 5
0.00500496 0 0.0280156
0.133211 0.00807202 0.0376287
0.781476 0 0
1 0.608499 0.193286
0.956329 1 0.894697
0 0.207263 7.62951e-05
0.0581216 0.222019 0.0133211
0.763272 0.110475 0
1 0.67071 0.125856
0.956268 1 0.894575
0 0.829389 0
0 0.829099 0
0.567987 0.852491 0.0334325
0.993744 0.910903 0.0489815
0.955596 1 0.892775
0.367605 1 0.355306
0.367605 1 0.355306
0.626932 1 0.364355
0.948867 1 0.551293
0.951385 1 0.910124
0.899229 1 0.956603
0.899229 1 0.956603
0.899229 1 0.956603
0.925689 1 0.957732
0.948898 1 0.970504
0 0 0.318807
0.101884 0.00105287 0.328084
0.770748 0 0.312673
1 0.592935 0.420172
0.956329 1 0.894697
0 0.162188 0.27715
0.0593729 0.17171 0.283787
0.766064 0.00457771 0.290105
1 0.658412 0.396719
0.956268 1 0.894575
0 0.824094 0
0 0.823804 0
0.575463 0.847547 0.0328832
0.992126 0.907637 0.122301
0.955596 1 0.892775
0.378592 1 0.354101
0.378592 1 0.354101
0.630289 1 0.363531
0.948974 1 0.550988
0.951385 1 0.910124
0.899275 1 0.956603
0.899275 1 0.956603
0.899275 1 0.956603
0.925719 1 0.957732
0.948898 1 0.970504
0 0 0.894118
0 0 0.894163
0.742031 0 0.909056
1 0.298314 0.900023
0.955795 1 0.941939
0 0 0.893523
0 0 0.893553
0.756786 0 0.908186
1 0.472709 0.896696
0.955749 1 0.941894
0 0.751781 0.838056
0 0.751858 0.838071
0.514763 0.779065 0.870893
0.97998 0.869627 0.882689
0.954986 1 0.941268
0.359228 1 0.818372
0.359228 1 0.818372
0.600763 1 0.819211
0.932158 1 0.843961
0.951095 1 0.933333
0.900053 1 0.956573
0.900053 1 0.956573
0.900053 1 0.956573
0.925994 1 0.957687
0.948913 1 0.970489
0 0 1
0 0 1
0 0 1
1 0 1
0.959884 0.996139 1
0 0 1
0 0 1
0 0 1
1 0 1
0.959716 0.997421 1
0 0 1
0 0 1
0 0 1
1 0 1
0.9579 1 1
0 1 0.983246
0 1 0.983246
0 1 0.983246
0.903288 1 0.998627
0.951446 1 0.999878
0.894118 1 0.991424
0.894118 1 0.991424
0.894118 1 0.991424
0.91899 1 0.991577
0.948913 1 0.995163
0 0.280125 0.979339
0 0.280125 0.979339
0 0.280125 0.979339
0 0.280201 0.979339
1 0.744945 1
0 0.280125 0.979339
0 0.280125 0.979339
0 0.280125 0.979339
0 0.280201 0.979339
1 0.744945 1
0 0.280125 0.979339
0 0.280125 0.979339
0 0.280125 0.979339
0 0.280201 0.979339
1 0.744945 1
0 0.278859 0.9794
0 0.278859 0.9794
0 0.278859 0.9794
0 0.27892 0.9794
1 0.749447 1
0.799435 1 1
0.799435 1 1
0.799435 1 1
0.799435 1 1
0.949401 1 1
