BBLuts/BB_104_0070_LUT.cube
TITLE "Generated by Resolve"
LUT_3D_SIZE 33
0.0184329 0.0276799 0.0437629
0.0184329 0.0276799 0.0437629
0.0184329 0.0276799 0.0437629
0.0184329 0.0276799 0.0437629
0.0184329 0.0276799 0.0437629
0.063798 0.0282597 0.0446632
0.116762 0.0289616 0.0457008
0.155596 0.0293126 0.0462959
0.196338 0.0294499 0.0466773
0.248707 0.0293431 0.0469062
0.3131 0.0289158 0.0470588
0.387991 0.0284733 0.0476692
0.477317 0.0294041 0.050782
0.559106 0.0360876 0.0627756
0.61117 0.0599222 0.100237
0.665003 0.132723 0.208698
0.721172 0.288945 0.375418
0.771542 0.448631 0.534432
0.813016 0.564233 0.607691
0.845167 0.609354 0.65449
0.850965 0.617197 0.662913
0.850965 0.617197 0.662913
0.850858 0.619577 0.663249
0.850584 0.625193 0.663218
0.849928 0.637675 0.66244
0.848539 0.66099 0.65977
0.84625 0.694957 0.653178
0.844022 0.730999 0.640909
0.842512 0.760525 0.623407
0.841489 0.783734 0.608408
0.840208 0.801129 0.626261
0.838407 0.813825 0.68368
0.836912 0.824079 0.739483
0.0184329 0.0276799 0.0437629
0.0184329 0.0276799 0.0437629
0.0184329 0.0276799 0.0437629
0.0184329 0.0276799 0.0437629
0.0184329 0.0276799 0.0437629
0.0744488 0.0284123 0.0448768
0.120485 0.0289921 0.0457618
0.158694 0.0293278 0.0463264
0.201678 0.0294499 0.0467079
0.255299 0.0293126 0.0469215
0.320119 0.0288548 0.0470893
0.394369 0.0284733 0.047776
0.481254 0.0295109 0.0510567
0.560845 0.036408 0.0632944
0.612146 0.0606851 0.101411
0.665721 0.134264 0.210681
0.721584 0.290211 0.376761
0.77171 0.44921 0.534874
0.812955 0.564141 0.60763
0.844953 0.609064 0.654185
0.850965 0.617197 0.662913
0.850965 0.617197 0.662913
0.850843 0.620081 0.66302
0.850553 0.626078 0.663081
0.849867 0.639033 0.662242
0.848417 0.662669 0.659464
0.846143 0.696559 0.652644
0.843961 0.732082 0.640177
0.842496 0.761166 0.622431
0.841489 0.784115 0.607217
0.840208 0.801343 0.625452
0.838407 0.813962 0.683345
0.836912 0.824155 0.739361
0.0184329 0.0276799 0.0437629
0.0184329 0.0276799 0.0437629
0.0184329 0.0276799 0.0437629
0.0184329 0.0276799 0.0437629
0.0184329 0.0276799 0.0437629
0.0807813 0.0284886 0.0450141
0.121767 0.0290074 0.0457771
0.161639 0.0293584 0.0463722
0.207263 0.0294499 0.0467231
0.261418 0.0292821 0.0469368
0.325475 0.0288243 0.0471199
0.397787 0.0284581 0.0478523
0.484443 0.0296178 0.0512856
0.562661 0.0367437 0.0638437
0.613138 0.0614786 0.102617
0.666423 0.135775 0.212619
0.722011 0.291447 0.378088
0.771862 0.449775 0.535302
0.812894 0.564004 0.607523
0.844739 0.608774 0.653864
0.850965 0.617197 0.662913
0.850965 0.617197 0.662913
0.850813 0.62063 0.662638
0.850492 0.626993 0.662928
0.849775 0.640436 0.662043
0.848325 0.664347 0.659159
0.846036 0.698146 0.65211
0.843915 0.733135 0.639429
0.842481 0.761807 0.621454
0.841474 0.784512 0.606012
0.840208 0.801572 0.624613
0.838392 0.814084 0.683024
0.836896 0.824231 0.739239
0.0184329 0.0276799 0.0437629
0.0184329 0.0276799 0.0437629
0.0184329 0.0276799 0.0437629
0.0176852 0.0322728 0.0434272
0.038407 0.0366979 0.0435187
0.0856489 0.0285649 0.0451057
0.122362 0.0290074 0.0457923
0.161898 0.0293584 0.0463722
0.20824 0.0294652 0.0467384
0.26392 0.0292668 0.0469368
0.328969 0.0287938 0.0471199
0.4009 0.0284733 0.0479133
0.487434 0.0297246 0.0514839
0.564492 0.0370947 0.0644388
0.61416 0.0622873 0.103883
0.66714 0.137346 0.214633
0.722408 0.292683 0.379385
0.772015 0.450278 0.535668
0.812818 0.563851 0.607416
0.844495 0.608454 0.653513
0.850965 0.617197 0.662913
0.850965 0.617197 0.662913
0.850782 0.621241 0.662577
0.850446 0.627985 0.66276
0.849699 0.641855 0.661845
0.848203 0.666041 0.658824
0.845945 0.699702 0.651591
0.843854 0.734203 0.638666
0.842451 0.762432 0.620462
0.841489 0.784894 0.604776
0.840208 0.801785 0.623789
0.838392 0.814221 0.682673
0.836896 0.824308 0.739132
0.0115358 0.0700389 0.0405585
0.0111391 0.0724041 0.0403906
0.0107576 0.0746929 0.0402075
0.0104067 0.0768902 0.0400549
0.0102541 0.07776 0.0399786
0.0700542 0.0779583 0.0410925
0.110231 0.0766766 0.0419928
0.152026 0.0728313 0.0429694
0.202197 0.0632334 0.0441444
0.265049 0.0292668 0.046952
0.330983 0.0287785 0.0471351
0.403738 0.0284733 0.0479744
0.490257 0.0298314 0.0517281
0.566308 0.0374609 0.0650492
0.615183 0.0631418 0.105196
0.667872 0.138964 0.216663
0.72282 0.293904 0.380667
0.772137 0.450752 0.536004
0.812726 0.563668 0.607294
0.844266 0.608133 0.653178
0.850965 0.617197 0.662913
0.850935 0.617929 0.662852
0.850752 0.621897 0.662531
0.850401 0.628992 0.662562
0.849622 0.643305 0.661631
0.848096 0.667735 0.658488
0.845838 0.701228 0.651072
0.843809 0.735241 0.637903
0.842435 0.763058 0.619455
0.841474 0.785275 0.60354
0.840208 0.801999 0.622965
0.838392 0.814359 0.682353
0.836881 0.824384 0.738994
0.00723278 0.0961624 0.0385748
0.00691234 0.0980392 0.0384222
0.00662242 0.0999008 0.0382696
0.00636301 0.101366 0.0381628
0.0062562 0.102068 0.0381018
0.0482338 0.102571 0.038819
0.0991531 0.102586 0.0398566
0.143328 0.101335 0.0407568
0.194598 0.0979171 0.0415961
0.25832 0.0905928 0.0424964
0.32845 0.0758526 0.0437934
0.406241 0.0284886 0.0480354
0.493095 0.0299229 0.051957
0.568215 0.0378882 0.0657054
0.616281 0.0640726 0.10663
0.66865 0.140719 0.21886
0.723232 0.295171 0.38201
0.77229 0.45124 0.53637
0.812634 0.563485 0.607156
0.843992 0.607767 0.652796
0.850965 0.617197 0.662913
0.850889 0.619104 0.66276
0.850721 0.622629 0.66247
0.85034 0.630106 0.662318
0.849531 0.644862 0.661387
0.847974 0.66952 0.658122
0.845731 0.7028 0.650507
0.843748 0.736294 0.637095
0.842405 0.763699 0.618372
0.841489 0.785672 0.602228
0.840208 0.802228 0.622065
0.838392 0.814496 0.682002
0.836881 0.824475 0.738872
0.00454719 0.123583 0.0362249
0.00450141 0.125154 0.0360876
0.00445563 0.126726 0.0359503
0.00444038 0.127611 0.035874
0.00442512 0.128176 0.0358282
0.00440986 0.128374 0.0358129
0.0802319 0.129305 0.0374304
0.131289 0.129183 0.0384985
0.184878 0.127672 0.0394141
0.252674 0.123964 0.0402533
0.325353 0.116609 0.0412757
0.405097 0.104906 0.0433051
0.495201 0.0841688 0.0491646
0.570596 0.0384375 0.0665904
0.617716 0.0653239 0.108522
0.669657 0.143023 0.221683
0.723796 0.296834 0.38378
0.772457 0.45185 0.536812
0.812497 0.563195 0.606958
0.843641 0.607294 0.652277
0.850965 0.617197 0.662913
0.850858 0.619852 0.662699
0.850675 0.623652 0.662379
0.850263 0.631601 0.661906
0.849409 0.646891 0.661067
0.847822 0.671809 0.657633
0.845609 0.704814 0.649775
0.843687 0.737652 0.636027
0.84239 0.764508 0.616968
0.841489 0.786175 0.600488
0.840208 0.802518 0.620935
0.838376 0.814664 0.681529
0.836866 0.824567 0.738705
0.00355535 0.154971 0.0335088
0.00349432 0.156344 0.0333715
0.0034638 0.157382 0.0332647
0.00343328 0.158068 0.0332341
0.00341802 0.158541 0.0331731
0.00341802 0.158831 0.0331426
0.0262913 0.159365 0.033814
0.110994 0.160327 0.0356756
0.169451 0.160067 0.0368658
0.242267 0.15787 0.0379339
0.319524 0.153079 0.0390936
0.404562 0.146365 0.0412299
0.498085 0.138384 0.0472572
0.573297 0.130175 0.0646067
0.620172 0.119326 0.110552
0.671016 0.146181 0.225483
0.724529 0.299077 0.38613
0.772686 0.452659 0.537423
0.812314 0.562814 0.606683
0.843153 0.606622 0.65156
0.850904 0.618524 0.662806
0.850797 0.620844 0.662623
0.850599 0.625116 0.662257
0.850156 0.633692 0.661402
0.849241 0.649668 0.660609
0.847623 0.674846 0.656977
0.845441 0.707408 0.648783
0.843595 0.739391 0.634592
0.842359 0.76556 0.615076
0.841489 0.786847 0.598123
0.840208 0.802899 0.619379
0.838361 0.814908 0.680949
0.836866 0.824704 0.738491
0.00175479 0.197498 0.0293584
0.00169375 0.198871 0.0292058
0.00164797 0.199634 0.029099
0.00161746 0.200412 0.0290227
0.00158694 0.200946 0.0289616
0.00157168 0.201328 0.0289311
0.00155642 0.201556 0.0289006
0.0668193 0.202731 0.0307927
0.14342 0.202502 0.0328832
0.2224 0.200656 0.0346227
0.307668 0.196902 0.036286
0.4 0.191562 0.0389563
0.500023 0.186404 0.0459297
0.576074 0.186374 0.0651408
0.623774 0.202472 0.114076
0.674983 0.249393 0.23299
0.725963 0.337133 0.389532
0.772992 0.453727 0.538201
0.812009 0.562203 0.606256
0.842374 0.607355 0.650416
0.850843 0.619989 0.662699
0.850721 0.622385 0.662486
0.850492 0.627283 0.662043
0.849989 0.636698 0.661067
0.849012 0.653437 0.659953
0.847349 0.678874 0.656031
0.845243 0.71075 0.647425
0.843488 0.741634 0.632654
0.842313 0.766934 0.612467
0.841489 0.787701 0.594919
0.840208 0.803388 0.617288
0.838361 0.815198 0.680125
0.836851 0.824872 0.738201
0 0.252949 0.0214694
0 0.253407 0.0213931
0 0.253834 0.0213169
0 0.2542 0.0212558
0 0.254414 0.02121
0 0.254475 0.02121
0 0.254353 0.0212253
0 0.253971 0.0212863
0.0951705 0.255192 0.0249027
0.185428 0.255116 0.027863
0.285023 0.253101 0.0306706
0.387717 0.248997 0.0342565
0.497581 0.244312 0.0423896
0.57789 0.243641 0.0639353
0.62707 0.256992 0.116289
0.677836 0.2972 0.237964
0.727428 0.374838 0.392721
0.773068 0.484611 0.537911
0.811444 0.569863 0.60531
0.84126 0.608148 0.648768
0.850752 0.621805 0.662547
0.850614 0.624796 0.662272
0.850324 0.630549 0.661738
0.84976 0.641016 0.660578
0.848692 0.658564 0.658976
0.846998 0.684153 0.654719
0.844984 0.715007 0.645563
0.843351 0.744457 0.629984
0.842283 0.768688 0.608896
0.841505 0.788815 0.590448
0.840223 0.804044 0.61442
0.838346 0.815595 0.679057
0.836835 0.825116 0.737819
0 0.315602 0.00793469
0 0.316045 0.00781262
0 0.316533 0.00770581
0 0.316854 0.00759899
0 0.317113 0.00753796
0 0.317281 0.00749218
0 0.317342 0.00749218
0 0.31722 0.0075227
0 0.316732 0.00764477
0.118593 0.319265 0.0138552
0.241566 0.319951 0.0188144
0.361715 0.317632 0.0237583
0.486442 0.313634 0.0330358
0.57763 0.312642 0.0569314
0.629374 0.322026 0.113222
0.680491 0.35256 0.239963
0.729061 0.413687 0.395239
0.773251 0.503655 0.53785
0.810651 0.574487 0.604013
0.839658 0.609384 0.646357
0.850614 0.624887 0.662272
0.850416 0.628672 0.661906
0.85005 0.635508 0.661204
0.849393 0.647166 0.659785
0.848249 0.665492 0.657389
0.846525 0.691051 0.652781
0.844663 0.720348 0.642954
0.843198 0.747997 0.626322
0.842237 0.770947 0.603891
0.84152 0.790234 0.584115
0.840238 0.804883 0.610483
0.838331 0.816098 0.677638
0.83682 0.825406 0.737316
0 0.393652 0
0 0.394141 0
0 0.394553 0
0 0.394919 0
0 0.395193 0
0 0.395407 0
0 0.395575 0
0 0.395636 0
0 0.395468 0
0 0.395071 0
0.140581 0.399619 0.00254826
0.308568 0.401343 0.00627146
0.457267 0.39939 0.0113375
0.572274 0.398444 0.0363622
0.628046 0.403723 0.0950027
0.681437 0.424323 0.229419
0.729885 0.4692 0.393225
0.773068 0.531014 0.536187
0.809293 0.580957 0.601755
0.837324 0.612696 0.642786
0.85034 0.630167 0.661753
0.85008 0.634989 0.661265
0.849638 0.643076 0.660319
0.848859 0.655909 0.658503
0.847639 0.674815 0.654994
0.845945 0.699825 0.649958
0.844282 0.72694 0.639277
0.843015 0.752331 0.621485
0.842191 0.773785 0.596674
0.841581 0.792065 0.575708
0.840269 0.805966 0.60499
0.838315 0.81677 0.675685
0.836789 0.825788 0.73666
0 0.491051 0
0 0.491463 0
0 0.491829 0
0 0.492119 0
0 0.492363 0
0 0.492561 0
0 0.49276 0
0 0.492912 0
0 0.49308 0
0 0.493172 0
0 0.493172 0
0.168093 0.500298 0.000961318
0.39472 0.502983 0.00596628
0.552071 0.501778 0.00634775
0.620447 0.50309 0.0445563
0.677913 0.512352 0.179629
0.728725 0.533745 0.376928
0.772152 0.566796 0.530419
0.807218 0.59382 0.597971
0.83415 0.620279 0.637751
0.849851 0.639155 0.660792
0.849515 0.645075 0.66006
0.848966 0.654368 0.658747
0.848081 0.668101 0.656382
0.846815 0.687114 0.652018
0.845273 0.710521 0.645808
0.84387 0.735042 0.633967
0.842817 0.757534 0.614618
0.842176 0.777325 0.585916
0.841703 0.7944 0.55555
0.840314 0.807385 0.59707
0.838285 0.817624 0.673091
0.836744 0.826291 0.735775
0 0.573663 0
0 0.573846 0
0 0.573983 0
0 0.574105 0
0 0.574212 0
0 0.574304 0
0 0.574395 0
0 0.574502 0
0 0.574563 0
0 0.574578 0
0 0.574502 0
0 0.574243 0
0.22562 0.5785 0.0037995
0.503563 0.578805 0.00738537
0.605509 0.578225 0.00758373
0.668757 0.579187 0.0635233
0.724392 0.585214 0.32369
0.769757 0.597498 0.513573
0.803998 0.615244 0.59115
0.829831 0.635004 0.630259
0.849012 0.653681 0.658839
0.848585 0.660487 0.657755
0.847929 0.670512 0.655894
0.846998 0.684459 0.65272
0.845792 0.702556 0.647211
0.844526 0.723095 0.639521
0.843427 0.744244 0.626139
0.842618 0.763714 0.604456
0.842222 0.781674 0.568521
0.841962 0.79736 0.510506
0.840406 0.809171 0.58526
0.83827 0.818708 0.669551
0.836698 0.826947 0.7346
0 0.622171 0
0 0.622263 0
0 0.622354 0
0 0.622415 0
0 0.622461 0
0 0.622522 0
0 0.622568 0
0 0.622599 0
0 0.622599 0
0 0.622568 0
0 0.622446 0
0 0.622126 0
0 0.621515 0
0.332189 0.626551 0.00700389
0.579507 0.625772 0.00798047
0.653254 0.625254 0.00863661
0.714672 0.627787 0.108278
0.763836 0.635187 0.453529
0.798703 0.645731 0.577554
0.823957 0.658824 0.618051
0.843687 0.673152 0.648814
0.84715 0.682139 0.6533
0.846479 0.692027 0.650629
0.84564 0.704952 0.646326
0.844709 0.720287 0.639475
0.843778 0.737377 0.629709
0.842985 0.754513 0.614237
0.842481 0.770977 0.588251
0.84242 0.786908 0.520623
0.842588 0.801175 0.380133
0.840604 0.811475 0.564263
0.838239 0.820081 0.664668
0.836637 0.827756 0.733043
0 0.672099 0
0 0.672145 0
0 0.67216 0
0 0.67219 0
0 0.672206 0
0 0.672206 0
0 0.672221 0
0 0.672206 0
0 0.67216 0
0 0.672068 0
0 0.67187 0
0 0.671504 0
0 0.670848 0
0 0.669917 0
0.460121 0.675044 0.00981155
0.627802 0.673961 0.0102846
0.699413 0.673838 0.0119478
0.752956 0.677134 0.131304
0.790234 0.683284 0.516274
0.816022 0.690867 0.594278
0.835523 0.700191 0.629099
0.845365 0.709194 0.644648
0.844877 0.717296 0.641001
0.844312 0.727367 0.635386
0.843702 0.739345 0.626627
0.843122 0.752255 0.613657
0.842664 0.765576 0.594949
0.842512 0.77937 0.552651
0.843107 0.793317 0.354559
0.843091 0.805188 0.0298466
0.841062 0.814511 0.495705
0.838224 0.82179 0.657847
0.836576 0.828794 0.730983
0 0.720424 0
0 0.720424 0
0 0.720409 0
0 0.720378 0
0 0.720378 0
0 0.720348 0
0 0.720302 0
0 0.720241 0
0 0.720134 0
0 0.719966 0
0 0.719661 0
0 0.719203 0
0 0.718471 0
0 0.717464 0
0 0.716182 0
0.57435 0.720836 0.0157931
0.677577 0.719081 0.0149538
0.738201 0.719265 0.0171817
0.778561 0.721523 0.0205997
0.80679 0.725902 0.495384
0.826917 0.730785 0.591516
0.841489 0.736889 0.623255
0.843549 0.742748 0.623484
0.843244 0.749691 0.6159
0.842954 0.75787 0.604135
0.842725 0.767163 0.584695
0.842634 0.777569 0.549325
0.843244 0.789044 0.36965
0.843336 0.799695 0.0295415
0.842878 0.809384 0.0300755
0.842283 0.818586 0.146883
0.838224 0.823896 0.648066
0.836484 0.83006 0.728023
0 0.760952 0.0110781
0 0.760906 0.0110628
0 0.760861 0.0110475
0 0.7608 0.011017
0 0.760739 0.0110018
0 0.760678 0.0109865
0 0.760586 0.010956
0 0.760464 0.0109102
0 0.760296 0.0108492
0 0.760021 0.0107576
0 0.759625 0.0106355
0 0.759045 0.0104372
0 0.758221 0.0101625
0 0.757122 0.00979629
0 0.755718 0.00933852
0 0.754009 0.00877394
0.645899 0.756466 0.0208591
0.721889 0.754833 0.0201724
0.766537 0.755047 0.0220798
0.797223 0.756527 0.0242771
0.819821 0.759487 0.256336
0.83444 0.761837 0.556222
0.842756 0.765423 0.589044
0.842695 0.769833 0.577829
0.842756 0.775509 0.547951
0.843107 0.782528 0.452705
0.843717 0.790509 0.118517
0.843381 0.798291 0.0294652
0.843015 0.80621 0.0299077
0.842603 0.81416 0.0303349
0.842145 0.821988 0.0307469
0.83827 0.826429 0.633463
0.836362 0.831632 0.7243
0 0.791257 0.0222629
0 0.79118 0.0222477
0 0.791104 0.0222171
0 0.791028 0.0221714
0 0.790951 0.0221408
0 0.79086 0.0221103
0 0.790738 0.0220645
0 0.79057 0.0220035
0 0.790341 0.021912
0 0.790005 0.0217746
0 0.789532 0.0215915
0 0.788891 0.0213474
0 0.788022 0.0210117
0 0.786892 0.0205692
0 0.785458 0.0200198
0 0.783688 0.0193484
0.586786 0.785367 0.0293278
0.704982 0.781842 0.024094
0.754986 0.780926 0.024445
0.787945 0.781079 0.0258335
0.811765 0.78204 0.0271305
0.82884 0.783764 0.0280766
0.841993 0.786389 0.151415
0.843778 0.789029 0.0763714
0.843641 0.792416 0.0291447
0.843458 0.796674 0.0293736
0.843229 0.801617 0.0296483
0.842954 0.807065 0.0299382
0.842649 0.813046 0.0302739
0.842268 0.819394 0.0306249
0.841871 0.825818 0.0309453
0.838392 0.829404 0.613214
0.83624 0.833509 0.719249
0 0.814496 0.0314641
0 0.814389 0.0314183
0 0.814298 0.0313878
0 0.814191 0.031342
0 0.814099 0.0313115
0 0.813993 0.0312505
0 0.81384 0.0312047
0 0.813642 0.0311284
0 0.813367 0.0310063
0 0.813001 0.030869
0 0.812512 0.0306706
0 0.811856 0.0304265
0 0.811002 0.0300755
0 0.809888 0.029633
0 0.808469 0.0290684
0 0.806729 0.0283818
0 0.804791 0.0276036
0.68571 0.803204 0.0282597
0.743908 0.80145 0.0268864
0.779095 0.800855 0.0274968
0.803983 0.8009 0.028336
0.822126 0.801495 0.0290227
0.836164 0.80264 0.0295262
0.843107 0.804166 0.0297856
0.843 0.806058 0.0298924
0.842878 0.808591 0.0300298
0.842695 0.811795 0.0302129
0.842481 0.815641 0.0304265
0.842206 0.820066 0.0306554
0.841886 0.824903 0.0308995
0.84155 0.829953 0.0311437
0.838254 0.832486 0.605173
0.836118 0.835706 0.712276
0 0.831373 0.038056
0 0.83125 0.0380102
0 0.831144 0.0379644
0 0.831037 0.0379187
0 0.830915 0.0378729
0 0.830793 0.0378271
0 0.83064 0.0377661
0 0.830427 0.0376898
0 0.830137 0.037583
0 0.829786 0.0374456
0 0.829297 0.0372473
0 0.828656 0.0370031
0 0.827817 0.0366827
0 0.826749 0.0362707
0 0.825391 0.0357519
0 0.823758 0.035111
0 0.821973 0.0344091
0.667079 0.819409 0.0320592
0.734905 0.816983 0.0289158
0.771954 0.815961 0.0288396
0.797253 0.815518 0.0293431
0.816068 0.815488 0.0298314
0.830854 0.815869 0.0302129
0.841962 0.816663 0.0304723
0.842329 0.817639 0.030518
0.842237 0.819181 0.0306096
0.8421 0.821271 0.0307164
0.841917 0.82388 0.0308537
0.841703 0.826978 0.0310063
0.841443 0.830472 0.0311742
0.841184 0.834257 0.031342
0.838071 0.835843 0.597787
0.835874 0.838102 0.711971
0.00137331 0.844007 0.0427253
0.00134279 0.843885 0.0426947
0.00131228 0.843778 0.042649
0.00128176 0.843656 0.0426032
0.00125124 0.843534 0.0425574
0.00123598 0.843427 0.0425269
0.0011902 0.843275 0.0424659
0.00114443 0.843061 0.0423896
0.00106813 0.842786 0.042298
0.000991836 0.842451 0.0421759
0.000869764 0.841978 0.0420081
0.000717174 0.841382 0.0417792
0.000518807 0.840604 0.0415045
0.000259403 0.839597 0.0411383
0 0.838346 0.0406806
0 0.836896 0.0401312
0 0.835355 0.0395514
0.652354 0.832273 0.0352483
0.728481 0.829328 0.0304875
0.76643 0.828092 0.0299077
0.791592 0.827436 0.0301518
0.81059 0.827115 0.0304875
0.825711 0.827054 0.0307774
0.837293 0.827298 0.0309758
0.841611 0.827756 0.0310369
0.841566 0.828534 0.0310826
0.841459 0.829755 0.0311437
0.841337 0.831403 0.03122
0.841169 0.833417 0.0313115
0.840986 0.835843 0.0314031
0.840787 0.838636 0.0315251
0.837766 0.839338 0.594812
0.835569 0.840665 0.713695
0.00361639 0.8533 0.0459602
0.00358587 0.853193 0.0459297
0.00355535 0.853086 0.0458839
0.00354009 0.852979 0.0458534
0.00350958 0.852872 0.0458228
0.00347906 0.85275 0.0457771
0.00344854 0.852613 0.0457313
0.00340276 0.85243 0.0456703
0.00335698 0.852171 0.0455787
0.00326543 0.85185 0.0454719
0.00317388 0.851423 0.0453193
0.00303655 0.850874 0.0451362
0.0028687 0.850156 0.044892
0.00265507 0.849256 0.0445716
0.00241093 0.848203 0.0442206
0.002121 0.846998 0.0437934
0.00180056 0.845716 0.0433356
0.65182 0.842008 0.0367437
0.72639 0.839017 0.0315251
0.763226 0.837736 0.0307012
0.787518 0.836988 0.0307469
0.806256 0.836469 0.0309758
0.821241 0.836164 0.0311894
0.833005 0.836088 0.031342
0.840894 0.83621 0.0314183
0.840864 0.836454 0.0314336
0.840818 0.837064 0.0314641
0.840726 0.838041 0.0315099
0.84062 0.839353 0.0315557
0.840482 0.841001 0.0316167
0.84036 0.842969 0.0316777
0.837278 0.842725 0.601373
0.835218 0.843336 0.717235
0.00505074 0.859815 0.0480812
0.00503548 0.859724 0.0480507
0.00500496 0.859632 0.0480354
0.0049897 0.859525 0.0480049
0.00497444 0.859434 0.0479744
0.00494392 0.859327 0.0479286
0.00492866 0.85919 0.0478981
0.00488289 0.859022 0.047837
0.00483711 0.858808 0.047776
0.00477607 0.858503 0.0476692
0.00469978 0.858137 0.0475624
0.00459297 0.857679 0.0474098
0.00445563 0.857084 0.0472114
0.00430304 0.856382 0.0469825
0.00411994 0.855543 0.0467079
0.00390631 0.854612 0.0464027
0.00367742 0.85362 0.046067
0.670985 0.848798 0.035935
0.730388 0.846448 0.0320134
0.762844 0.845289 0.03122
0.785351 0.844526 0.0311742
0.803281 0.843976 0.0313268
0.817731 0.843565 0.0314794
0.829267 0.843305 0.0316167
0.838636 0.843214 0.0316777
0.840177 0.843214 0.031693
0.840162 0.843427 0.031693
0.840116 0.843915 0.0317082
0.840055 0.844694 0.0317388
0.839979 0.845762 0.0317845
0.839918 0.847059 0.0318151
0.836561 0.845792 0.620768
0.834836 0.845945 0.723201
0.00598154 0.864271 0.049485
0.00596628 0.864195 0.0494545
0.00593576 0.864118 0.049424
0.00593576 0.864042 0.0494087
0.0059205 0.863966 0.0493782
0.00590524 0.86389 0.0493629
0.00587472 0.863783 0.0493324
0.00585946 0.863661 0.0492866
0.00582895 0.863493 0.0492409
0.00578317 0.863279 0.0491798
0.00572213 0.863005 0.0490883
0.00564584 0.862669 0.0489815
0.00556954 0.862242 0.0488594
0.00546273 0.861738 0.0486915
0.00534066 0.861143 0.0485084
0.00518807 0.860456 0.0482948
0.597955 0.85803 0.0439765
0.698375 0.853727 0.0342718
0.738979 0.852155 0.032105
0.765133 0.851225 0.0315404
0.785199 0.850523 0.0314641
0.801678 0.849958 0.0315557
0.815183 0.849515 0.0316777
0.826276 0.849165 0.0317845
0.835416 0.848951 0.0318456
0.839521 0.848798 0.0318608
0.839536 0.848768 0.0318608
0.839536 0.84892 0.0318761
0.839521 0.849302 0.0318761
0.839506 0.849928 0.0318914
0.839521 0.850736 0.0319219
0.835691 0.848447 0.649729
0.834409 0.848447 0.732143
0.00616464 0.865232 0.0497749
0.00616464 0.865232 0.0497749
0.00616464 0.865232 0.0497749
0.00616464 0.865232 0.0497749
0.00616464 0.865232 0.0497749
0.00616464 0.865232 0.0497749
0.00616464 0.865232 0.0497749
0.00616464 0.865248 0.0497749
0.00616464 0.865248 0.0497749
0.00616464 0.865248 0.0497749
0.0061799 0.865248 0.0497749
0.0061799 0.865248 0.0497749
0.0061799 0.865263 0.0497749
0.0061799 0.865263 0.0497902
0.00616464 0.865171 0.0497597
0.616266 0.861936 0.0425879
0.688258 0.858778 0.0353857
0.724865 0.857313 0.0329595
0.750408 0.856382 0.0320134
0.770275 0.855665 0.0316777
0.787182 0.85507 0.0316472
0.801633 0.854536 0.0317082
0.813794 0.854093 0.0318151
0.824155 0.853727 0.0318914
0.832883 0.853437 0.0319524
0.838956 0.853239 0.0319829
0.839002 0.853056 0.0319677
0.839033 0.853025 0.0319677
0.839063 0.853162 0.0319829
0.839094 0.853483 0.0319829
0.839155 0.853956 0.0319982
0.834806 0.850797 0.681834
0.833997 0.850782 0.743465
0.0061799 0.865293 0.0497902
0.0061799 0.865293 0.0497902
0.0061799 0.865293 0.0497902
0.0061799 0.865293 0.0497902
0.0061799 0.865293 0.0497902
0.0061799 0.865293 0.0497902
0.0061799 0.865293 0.0497902
0.0061799 0.865293 0.0497902
0.0061799 0.865293 0.0497902
0.0061799 0.865309 0.0497902
0.455543 0.866285 0.0528572
0.595041 0.863371 0.0449226
0.636713 0.861738 0.0404517
0.667002 0.860609 0.0373693
0.691646 0.859831 0.0352026
0.712749 0.859297 0.0337224
0.731533 0.858946 0.0327459
0.748089 0.858747 0.032166
0.763394 0.858671 0.0318608
0.777691 0.858671 0.031754
0.790951 0.858488 0.031754
0.802976 0.858045 0.0318151
0.813519 0.857633 0.0318914
0.822889 0.857267 0.0319677
0.830945 0.856962 0.0320134
0.837598 0.856733 0.0320439
0.838544 0.856504 0.0320439
0.838605 0.856367 0.0320439
0.838666 0.856367 0.0320439
0.838758 0.856474 0.0320439
0.835477 0.85388 0.622156
0.834043 0.852842 0.712856
0.833631 0.852842 0.756817
0.70103 0.859602 0.0345006
0.702235 0.859571 0.0344091
0.70341 0.859541 0.0343328
0.704555 0.85951 0.0342565
0.705684 0.85948 0.0341802
0.706828 0.859464 0.0340887
0.708278 0.859419 0.0339971
0.710109 0.859388 0.0338903
0.712459 0.859327 0.0337377
