BBLuts/BB_104_0080_LUT.cube
TITLE "Generated by Resolve"
LUT_3D_SIZE 5
0.0176242 0.0282902 0.0462654
0.206043 0.0321508 0.0513161
0.838071 0.299886 0.383856
1 0.697154 0.738506
1 1 0.864775
0 0.20824 0.0330968
0.151431 0.210819 0.0346685
0.845457 0.34609 0.39678
1 0.723323 0.734203
1 1 0.862654
0 0.84538 0.00991836
0 0.844877 0.00982681
0.765408 0.83415 0.0172427
1 0.895674 0.640177
1 1 0.84625
0.0206149 1 0.0708019
0.0204013 1 0.0705272
0.633677 1 0.0525216
1 1 0.0377203
1 1 0.85272
0.985718 1 0.984268
0.986206 1 0.98436
0.989731 1 0.985092
1 1 0.99089
1 1 1
0.041474 0.0441444 0.217487
0.204654 0.0466621 0.220706
0.837934 0.30721 0.437217
1 0.693187 0.743877
1 1 0.889632
0.0138094 0.187472 0.190875
0.182437 0.185046 0.189319
0.838972 0.308293 0.434272
1 0.718456 0.739788
1 1 0.887953
0 0.841199 0.00915541
0 0.840635 0.0090486
0.772961 0.830213 0.016968
1 0.894026 0.646754
1 1 0.875227
0.0205692 1 0.0707408
0.0203708 1 0.0704814
0.655619 1 0.0508278
1 1 0.0377203
1 1 0.852552
0.985779 1 0.984268
0.986282 1 0.984375
0.989807 1 0.985077
1 1 0.99089
1 1 1
0.588739 0.553872 0.861875
0.588998 0.554162 0.862119
0.846662 0.576577 0.863355
1 0.708583 0.91429
1 1 0.983246
0.586587 0.551385 0.859907
0.586892 0.551736 0.860182
0.855024 0.577173 0.861906
1 0.716381 0.910445
1 1 0.982589
0 0.792096 0.807797
0 0.792508 0.808148
0.765118 0.784268 0.814359
1 0.87332 0.870726
1 1 0.977935
0.0203555 1 0.0704814
0.0201419 1 0.070222
0.644602 1 0.0515755
1 1 0.0376745
1 1 0.944457
0.986358 1 0.984222
0.986847 1 0.984329
0.99028 1 0.985016
1 1 0.990829
1 1 1
0.856367 0.846433 1
0.856367 0.846433 1
0.856367 0.846433 1
1 0.861875 1
1 0.982071 1
0.856367 0.846433 1
0.856367 0.846433 1
0.856367 0.846433 1
1 0.861875 1
1 0.984543 1
0.856367 0.846433 1
0.856367 0.846433 1
0.857603 0.846464 1
1 0.861875 1
1 0.999802 1
0.00936904 1 1
0.00923171 1 1
0.624842 1 1
1 1 1
1 1 1
0.987564 1 1
0.988006 1 1
0.991196 1 1
1 1 1
1 1 1
0.856214 0.847547 1
0.856214 0.847547 1
0.856214 0.847547 1
0.856214 0.847547 1
1 0.885954 1
0.856214 0.847547 1
0.856214 0.847547 1
0.856214 0.847547 1
0.856214 0.847547 1
1 0.885985 1
0.856214 0.847547 1
0.856214 0.847547 1
0.856214 0.847547 1
0.857862 0.84744 1
1 0.886183 1
0.856214 0.847547 1
0.856214 0.847547 1
0.856214 0.847547 1
1 0.861875 1
1 0.886854 1
0.9355 1 1
0.937438 1 1
0.950088 1 1
0.997742 1 1
1 1 1
