BBLuts/BB_106_0290_LUT.cube
TITLE "Generated by Resolve"
LUT_3D_SIZE 5
0.00842298 0.0103456 0.0121157
0.212329 0.0133822 0.0151522
0.756817 0.0175479 0.020325
0.912917 0.601404 0.201694
0.897841 0.925475 0.820447
0 0.252964 0.00416571
0.173144 0.259037 0.0069276
0.759441 0.103914 0.01738
0.910903 0.648859 0.163394
0.897795 0.926329 0.820066
0 0.785382 0
0 0.784985 0
0.698451 0.779293 0
0.90396 0.822858 0
0.897551 0.932189 0.81709
0.618906 0.962539 0.33283
0.644831 0.962264 0.335332
0.754223 0.957931 0.355047
0.894499 0.950561 0.517906
0.896529 0.955749 0.829404
0.875105 0.963287 0.892241
0.87538 0.963287 0.892271
0.877379 0.963287 0.8925
0.889754 0.963302 0.894743
0.896254 0.963348 0.913924
0.00665293 0.00880446 0.26009
0.184878 0.0116884 0.263035
0.755688 0.016022 0.271473
0.912963 0.590723 0.403067
0.897856 0.925277 0.829541
0 0.212284 0.232639
0.180743 0.211154 0.230488
0.756405 0.0160983 0.250797
0.910765 0.640543 0.379492
0.89781 0.926131 0.829206
0 0.782345 0
0 0.781903 0
0.702647 0.776501 0
0.903258 0.820905 0.178225
0.897551 0.932036 0.826505
0.623087 0.962554 0.332403
0.64828 0.962127 0.33492
0.755459 0.957855 0.354665
0.894575 0.95053 0.517861
0.896529 0.955734 0.829358
0.875151 0.963287 0.892241
0.87541 0.963287 0.892271
0.877424 0.963287 0.892485
0.889769 0.963302 0.894743
0.896254 0.963348 0.913924
0.00541695 0.00834669 0.789441
0.00541695 0.00834669 0.789609
0.759594 0.0156405 0.790066
0.918471 0.376989 0.80032
0.897948 0.923705 0.877028
0.00541695 0.00834669 0.788113
0.00541695 0.00834669 0.788296
0.766567 0.015671 0.788647
0.914366 0.540444 0.794644
0.897902 0.924605 0.876814
0 0.740887 0.743481
0 0.741161 0.743694
0.68658 0.73695 0.749111
0.903212 0.801846 0.767987
0.897627 0.930816 0.875196
0.626825 0.96173 0.630625
0.65069 0.960983 0.631403
0.753811 0.956863 0.637354
0.890929 0.949813 0.689693
0.896559 0.955474 0.862379
0.875471 0.963287 0.892195
0.875731 0.963287 0.892226
0.877699 0.963287 0.892454
0.889876 0.963302 0.894697
0.896254 0.963348 0.913924
0.00570687 0.00901808 0.985306
0.00570687 0.00901808 0.985306
0.00570687 0.00901808 0.985306
0.927626 0.0168612 0.989868
0.89897 0.901686 0.958846
0.00570687 0.00901808 0.985306
0.00570687 0.00901808 0.985306
0.00570687 0.00901808 0.985306
0.927626 0.0168612 0.989868
0.898878 0.903548 0.958648
0.00570687 0.00901808 0.985306
0.00570687 0.00901808 0.985306
0.252567 0.0126802 0.987305
0.927626 0.0168612 0.989868
0.89836 0.915526 0.957412
0 0.959121 0.946441
0 0.958877 0.946319
0.643809 0.953643 0.949874
0.877882 0.943664 0.950256
0.896757 0.952789 0.952941
0.873884 0.963378 0.933562
0.874144 0.963378 0.933577
0.876036 0.963378 0.933669
0.887846 0.963394 0.934615
0.896284 0.963409 0.942779
0 0.399481 0.978637
0 0.399481 0.978637
0 0.399496 0.978637
0 0.39968 0.978637
0.905501 0.75198 0.975235
0 0.399466 0.978637
0 0.399466 0.978637
0 0.399481 0.978637
0 0.399664 0.978637
0.905486 0.752041 0.975235
0 0.399329 0.978637
0 0.399329 0.978637
0 0.399344 0.978637
0 0.399527 0.978637
0.90547 0.75259 0.975219
0 0.397894 0.978668
0 0.39791 0.978668
0 0.397925 0.978668
0.927626 0.0168612 0.989868
0.905379 0.754543 0.975158
0.829633 0.963394 0.969238
0.830808 0.963394 0.969238
0.839109 0.963409 0.969253
0.875181 0.963455 0.969329
0.896315 0.96347 0.96936
