BBLuts/BB_101_0220_LUT.cube
TITLE "Generated by Resolve"
LUT_3D_SIZE 5
0.0195621 0.0195621 0.0195621
0.239384 0.0184634 0.018677
0.797803 0 0
1 0.634272 0.153536
0.998123 0.941894 0.819608
0.0205997 0.258122 0.0172274
0.198001 0.263081 0.0187533
0.808057 0.117601 0
1 0.677775 0.0954604
0.998123 0.942199 0.819409
0.0268864 0.810864 0.0113832
0.0268406 0.810651 0.0113375
0.776959 0.807309 0.0229038
1 0.851225 0.0327459
0.998215 0.94638 0.816403
0.68986 0.98764 0.297688
0.68986 0.98764 0.297688
0.830427 0.97821 0.304662
0.995834 0.967849 0.490211
0.998337 0.967819 0.841199
0.97319 0.976226 0.910704
0.97319 0.976226 0.910704
0.97319 0.976226 0.910704
0.986297 0.976226 0.912718
0.998047 0.97615 0.93254
0.0188296 0.0187076 0.257954
0.201068 0.0184787 0.257877
0.797299 0 0.227924
1 0.625177 0.367483
0.998123 0.941878 0.819623
0.0214847 0.212345 0.240818
0.197818 0.211292 0.237446
0.798016 0.00770581 0.210346
1 0.671153 0.344198
0.998123 0.942199 0.819409
0.0259709 0.806958 0.0105592
0.0259098 0.806729 0.0105135
0.780499 0.803647 0.0225681
1 0.850065 0.0896925
0.998215 0.94638 0.816403
0.696605 0.987152 0.296407
0.696605 0.987152 0.296407
0.832166 0.978058 0.303868
0.99588 0.967819 0.489921
0.998337 0.967819 0.841199
0.97322 0.976226 0.910704
0.97322 0.976226 0.910704
0.97322 0.976226 0.910704
0.986328 0.976226 0.912703
0.998047 0.97615 0.93254
0.00703441 0.00669871 0.81326
0.00701915 0.00669871 0.813321
0.784512 0 0.79678
0.99826 0.343114 0.835569
0.997742 0.939834 0.891447
0.00703441 0.00671397 0.812375
0.00703441 0.00671397 0.812421
0.792172 0 0.795499
1 0.536416 0.835538
0.997742 0.940169 0.89134
0.0230106 0.75848 0.785214
0.0230259 0.758526 0.785245
0.74931 0.757488 0.792096
0.997635 0.824216 0.808438
0.997818 0.944564 0.89012
0.686732 0.98262 0.703517
0.686732 0.98262 0.703517
0.818418 0.97351 0.701747
0.988037 0.963394 0.741802
0.998184 0.967315 0.876478
0.973617 0.976226 0.910643
0.973617 0.976226 0.910643
0.973617 0.976226 0.910643
0.986465 0.976226 0.912657
0.998047 0.97615 0.932525
0.00614939 0.00561532 0.987518
0.00614939 0.00561532 0.987518
0.00614939 0.00561532 0.987518
0.97499 0 0.981659
0.997314 0.915282 0.982361
0.00614939 0.00561532 0.987518
0.00614939 0.00561532 0.987518
0.00614939 0.00561532 0.987518
0.97499 0 0.981659
0.99733 0.916228 0.9823
0.00614939 0.00561532 0.987518
0.00614939 0.00561532 0.987518
0.00614939 0.00561532 0.987518
0.97499 0 0.981659
0.997482 0.926421 0.981506
0.0767529 0.991058 0.993881
0.0767529 0.991058 0.993881
0.0767529 0.991058 0.993881
0.973175 0.955139 0.976303
0.998123 0.963912 0.97821
0.970642 0.976211 0.964065
0.970642 0.976211 0.964065
0.970642 0.976211 0.964065
0.982956 0.976226 0.964569
0.998093 0.976165 0.970108
0.0167391 0.347845 0.99028
0.0167391 0.347845 0.99028
0.0167391 0.347845 0.99028
0.0167391 0.347936 0.99028
1 0.732357 1
0.0167391 0.347845 0.99028
0.0167391 0.347845 0.99028
0.0167391 0.347845 0.99028
0.0167391 0.347936 0.99028
1 0.732357 1
0.0167391 0.347845 0.99028
0.0167391 0.347845 0.99028
0.0167391 0.347845 0.99028
0.0167391 0.347936 0.99028
1 0.732357 1
0.0167239 0.346395 0.99028
0.0167239 0.346395 0.99028
0.0167239 0.346395 0.99028
0.0167086 0.346456 0.99028
1 0.735622 1
0.922271 0.97615 0.994965
0.922271 0.97615 0.994965
0.922271 0.97615 0.994965
0.922271 0.97615 0.994965
0.998398 0.97644 0.995346
