BBLuts/BB_104_0420_LUT.cube
TITLE "Generated by Resolve"
LUT_3D_SIZE 9
0.0549325 0.0594797 0.0617838
0.0549325 0.0594797 0.0617838
0.210758 0.0610971 0.0631266
0.456489 0.0614481 0.0652018
0.757229 0.2869 0.279927
0.924346 0.609812 0.54139
0.923354 0.634531 0.540444
0.915694 0.782162 0.498054
0.911116 0.859525 0.609171
0.0493019 0.0963149 0.0589303
0.0482643 0.103029 0.0584115
0.216144 0.0904097 0.0607614
0.468971 0.0618448 0.0657969
0.75938 0.291188 0.283406
0.924346 0.609812 0.54139
0.923049 0.641321 0.539544
0.915587 0.785183 0.493019
0.911086 0.859892 0.608698
0.0420996 0.206592 0.0493172
0.0419928 0.209567 0.0489967
0.166293 0.210681 0.0509194
0.480232 0.196918 0.0588083
0.764065 0.328496 0.288685
0.924224 0.613184 0.541115
0.922438 0.653529 0.537713
0.915419 0.789822 0.483894
0.91104 0.860487 0.607935
0.0249027 0.462074 0.0188907
0.0248264 0.463386 0.0188296
0.0247959 0.464118 0.0187991
0.38883 0.47332 0.0263981
0.771008 0.505638 0.276341
0.923278 0.636301 0.538842
0.920165 0.694102 0.529366
0.915068 0.802426 0.446326
0.910903 0.862181 0.605585
0.0195163 0.733852 0.0187381
0.019501 0.733791 0.0187228
0.0194705 0.733486 0.0186923
0.0192874 0.731487 0.0184939
0.710018 0.73077 0.0244755
0.895857 0.746166 0.456077
0.915938 0.778866 0.472984
0.951995 0.814481 0.0365911
0.910567 0.866667 0.598337
0.0425879 0.867704 0.0417029
0.0424811 0.86714 0.0415961
0.0422827 0.866209 0.0414282
0.0417334 0.863416 0.0408789
0.0402991 0.856367 0.0395056
0.895933 0.833265 0.0363622
0.952041 0.83563 0.0368811
0.951934 0.846616 0.0370184
0.909758 0.876249 0.58291
0.0495308 0.907332 0.0485084
0.0494698 0.90695 0.0484474
0.0493935 0.906401 0.0483711
0.0491646 0.904891 0.0481422
0.625055 0.894591 0.0425269
0.883482 0.874525 0.0371862
0.904387 0.887144 0.0306096
0.909392 0.887572 0.0305791
0.90837 0.888808 0.601648
0.843687 0.884398 0.037644
0.845502 0.884382 0.0376135
0.848371 0.884352 0.0375677
0.85655 0.884306 0.0374456
0.875059 0.88426 0.0372625
0.906035 0.884321 0.0371557
0.897383 0.899474 0.030457
0.908171 0.898054 0.487678
0.90779 0.896834 0.653941
0.883574 0.896971 0.677699
0.883711 0.896986 0.677729
0.88394 0.896986 0.67776
0.884627 0.896986 0.677867
0.88658 0.897002 0.678172
0.891493 0.897078 0.679057
0.900801 0.897215 0.681483
0.908782 0.897429 0.687236
0.909422 0.897871 0.700664
0.0602579 0.0629129 0.0920272
0.0602884 0.0629282 0.0921798
0.2159 0.0644999 0.0938888
0.458228 0.0649882 0.0968032
0.757366 0.288914 0.292363
0.924346 0.609949 0.542336
0.923415 0.633509 0.541299
0.915694 0.781506 0.507073
0.911131 0.859449 0.614939
0.0561379 0.083238 0.0851911
0.0892348 0.0914168 0.0840467
0.230365 0.0639658 0.0889754
0.464332 0.0644236 0.0901656
0.75819 0.289616 0.287205
0.924346 0.609903 0.542046
0.923095 0.640223 0.540413
0.915572 0.784527 0.502617
0.911101 0.859815 0.614527
0.0423743 0.199039 0.0500801
0.0422827 0.201526 0.049836
0.183124 0.20322 0.0518044
0.477867 0.189288 0.0589761
0.761303 0.314595 0.284901
0.924239 0.612879 0.541131
0.922499 0.652384 0.538643
0.915404 0.789197 0.494636
0.911055 0.860395 0.613825
0.0251621 0.457084 0.0191348
0.0251011 0.45832 0.0190738
0.0250706 0.458839 0.0190585
0.405707 0.46772 0.0264591
0.770657 0.502388 0.276402
0.923308 0.635706 0.538918
0.920226 0.693111 0.530221
0.915022 0.801877 0.462913
0.910918 0.862104 0.611704
0.0194247 0.732876 0.0186313
0.0194095 0.732784 0.018616
0.019379 0.732479 0.0186007
0.0191958 0.730434 0.0183871
0.712886 0.729839 0.0244297
0.895964 0.745602 0.45716
0.915953 0.778546 0.473579
0.951995 0.814343 0.0365759
0.910552 0.866575 0.605158
0.0425422 0.867506 0.0416724
0.0424353 0.866941 0.0415656
0.0422522 0.866026 0.0413825
0.0416876 0.863218 0.0408484
0.0402533 0.856199 0.0394751
0.896193 0.833158 0.0363622
0.952056 0.835554 0.0368811
0.951934 0.846571 0.0370184
0.909758 0.876234 0.583688
0.0495155 0.907256 0.0484932
0.0494698 0.906889 0.0484474
0.0493782 0.906325 0.0483558
0.0491646 0.90483 0.048127
0.635203 0.892989 0.04271
0.883665 0.87451 0.0371862
0.904418 0.887129 0.0306096
0.909392 0.887556 0.0305791
0.90837 0.888792 0.601617
0.843961 0.884398 0.037644
0.845777 0.884382 0.0376135
0.84863 0.884367 0.0375677
0.856764 0.884306 0.0374456
0.875212 0.88426 0.0372625
0.906096 0.884321 0.0371557
0.897398 0.899474 0.030457
0.908171 0.898054 0.487602
0.90779 0.896834 0.653941
0.883589 0.896971 0.677714
0.883726 0.896986 0.677729
0.883955 0.896986 0.67776
0.884657 0.896986 0.677867
0.886595 0.897017 0.678172
0.891508 0.897078 0.679057
0.900816 0.897215 0.681483
0.908782 0.897429 0.687236
0.909422 0.897871 0.700664
0.074342 0.0719463 0.174044
0.0743877 0.0719615 0.174197
0.211139 0.0732128 0.17499
0.473762 0.0740368 0.17528
0.757717 0.293721 0.317769
0.924346 0.610178 0.543786
0.923491 0.631678 0.543557
0.915648 0.780377 0.52018
0.911177 0.859327 0.623346
0.0738842 0.0716564 0.171298
0.0739147 0.0716716 0.171557
0.231174 0.0729229 0.172229
0.471946 0.0736858 0.172824
0.759686 0.297414 0.319387
0.924346 0.610147 0.543679
0.923217 0.638148 0.542672
0.915541 0.783444 0.517357
0.911147 0.859693 0.622965
0.0537118 0.190326 0.153216
0.0533913 0.191913 0.152865
0.194385 0.189471 0.152514
0.463508 0.181659 0.160189
0.75848 0.294667 0.315648
0.924269 0.612299 0.543313
0.922637 0.650004 0.540948
0.915373 0.788174 0.512032
0.911101 0.860288 0.622354
0.0264591 0.443626 0.0426795
0.0263828 0.445029 0.0426795
0.0263523 0.445716 0.0432136
0.411902 0.454353 0.063859
0.766918 0.492012 0.293385
0.923384 0.633829 0.540536
0.920363 0.690562 0.533333
0.914961 0.800961 0.488167
0.910964 0.861982 0.620508
0.0192264 0.730831 0.0184176
0.0192264 0.730739 0.0184176
0.0191958 0.730419 0.0183871
0.0190127 0.728344 0.0181735
0.715541 0.727901 0.0243687
0.895933 0.744259 0.458762
0.915969 0.777676 0.478294
0.914427 0.827802 0.229175
0.910582 0.866468 0.614878
0.0424811 0.867185 0.0416114
0.0423743 0.866636 0.0415045
0.0421912 0.865705 0.0413214
0.0416266 0.862913 0.0407874
0.0402075 0.85594 0.0394293
0.896605 0.833005 0.0363622
0.952041 0.835447 0.0368811
0.951934 0.84651 0.0370184
0.909728 0.876066 0.59704
0.0495003 0.907149 0.0484779
0.0494545 0.906783 0.0484321
0.0493629 0.906218 0.0483406
0.0491493 0.904738 0.048127
0.649348 0.890486 0.0430457
0.88397 0.874479 0.0371862
0.904479 0.887114 0.0306096
0.909392 0.887556 0.0305791
0.908385 0.888792 0.601556
0.844404 0.884382 0.037644
0.84622 0.884382 0.0375982
0.849027 0.884352 0.0375525
0.85713 0.884306 0.0374456
0.875456 0.88426 0.0372625
0.906203 0.884321 0.0371557
0.897429 0.899474 0.030457
0.908171 0.898054 0.487602
0.90779 0.896834 0.653925
0.883619 0.896971 0.677714
0.883772 0.896986 0.677729
0.884001 0.896986 0.67776
0.884672 0.896986 0.677867
0.886641 0.897017 0.678157
0.891524 0.897078 0.679042
0.900816 0.897215 0.681483
0.908782 0.897429 0.687236
0.909422 0.897871 0.700664
0.156954 0.124346 0.368612
0.157076 0.124422 0.36875
0.157137 0.124453 0.368841
0.460853 0.126329 0.362844
0.775067 0.348104 0.425772
0.924361 0.611749 0.553292
0.923766 0.627802 0.55819
0.915572 0.777111 0.559258
0.911376 0.859098 0.643107
0.155154 0.123217 0.366537
0.155337 0.123308 0.36672
0.220356 0.123766 0.366354
0.476616 0.125826 0.360403
0.773419 0.344732 0.423209
0.924361 0.611704 0.553048
0.923506 0.63331 0.557244
0.915434 0.78027 0.557366
0.911345 0.859449 0.642832
0.144793 0.169726 0.361517
0.144366 0.173617 0.361608
0.233387 0.171328 0.361501
0.482841 0.124147 0.356619
0.768383 0.335195 0.41738
0.924361 0.611612 0.552605
0.923003 0.643915 0.555459
0.915221 0.785107 0.554192
0.911299 0.860044 0.64239
0.0412299 0.407904 0.319661
0.040177 0.409659 0.319753
0.0397192 0.410925 0.320272
0.426139 0.419181 0.331121
0.754879 0.459251 0.38854
0.923659 0.628901 0.549493
0.920836 0.682963 0.54815
0.914702 0.79823 0.543832
0.911147 0.861753 0.641077
0.0184939 0.72192 0.0175784
0.0184939 0.721889 0.0175784
0.0184787 0.72166 0.0175479
0.0183413 0.719768 0.0173953
0.713222 0.719722 0.0240635
0.894484 0.738231 0.481712
0.91603 0.774044 0.508339
0.913848 0.824918 0.501122
0.91075 0.866255 0.637156
0.0423133 0.866316 0.0414435
0.0421912 0.865751 0.0413367
0.0420081 0.86482 0.0411536
0.0414435 0.862013 0.0406195
0.0400244 0.855055 0.0392462
0.896132 0.832273 0.036347
0.952071 0.834852 0.0368811
0.95201 0.846082 0.0370184
0.909819 0.875807 0.625574
0.0494545 0.906798 0.0484321
0.0493935 0.906462 0.0483864
0.0493324 0.905913 0.0483101
0.0491035 0.904479 0.0480812
0.684627 0.884703 0.0436408
0.884871 0.874388 0.0371862
0.904631 0.887037 0.0306096
0.909392 0.88751 0.0305791
0.908385 0.888777 0.601358
0.845747 0.884382 0.0376135
0.847517 0.884367 0.037583
0.850553 0.884352 0.0375372
0.858183 0.884291 0.0374304
0.876188 0.884245 0.0372625
0.906538 0.884321 0.0371557
0.89752 0.899474 0.030457
0.908171 0.898054 0.487434
0.90779 0.896834 0.653864
0.883726 0.896971 0.677699
0.883879 0.896986 0.677714
0.884092 0.896986 0.677745
0.884779 0.896986 0.677852
0.886717 0.897017 0.678157
0.8916 0.897078 0.679042
0.900847 0.897215 0.681468
0.908782 0.897429 0.687221
0.909422 0.897871 0.700664
0.575967 0.52256 0.615198
0.576059 0.522667 0.615259
0.576211 0.522835 0.615335
0.587411 0.521813 0.614679
0.774121 0.541939 0.614542
0.9243 0.6374 0.633951
0.924163 0.643381 0.64123
0.916396 0.769436 0.647227
0.91223 0.858671 0.677714
0.575174 0.521721 0.614786
0.575265 0.521828 0.614832
0.575433 0.522011 0.614923
0.588998 0.520806 0.614145
0.777996 0.542672 0.614298
0.924315 0.637232 0.633616
0.924056 0.645014 0.640375
0.916182 0.772931 0.646448
0.9122 0.859052 0.677562
0.573892 0.520348 0.614099
0.573999 0.520455 0.61416
0.574182 0.520653 0.614252
0.591867 0.519219 0.613306
0.780301 0.542412 0.613657
0.924315 0.636927 0.633051
0.923781 0.649027 0.638911
0.915862 0.77821 0.645228
0.912139 0.859663 0.677317
0.564767 0.527489 0.609888
0.564782 0.527779 0.609903
0.564721 0.528115 0.609903
0.585733 0.526558 0.609186
0.779095 0.543496 0.61033
0.924163 0.638315 0.629786
0.922271 0.672328 0.633631
0.915084 0.792218 0.641718
0.911986 0.861418 0.676585
0.0252689 0.699306 0.578775
0.0252689 0.69955 0.578851
0.0252689 0.699611 0.578973
0.0252384 0.698436 0.579309
0.716487 0.698619 0.584146
0.88983 0.720516 0.602518
0.916335 0.763378 0.614343
0.913558 0.820539 0.632105
0.911559 0.866026 0.674479
0.0417792 0.863676 0.04094
0.0416724 0.863127 0.0408331
0.0414893 0.862211 0.04065
0.0409247 0.859419 0.0401007
0.0394293 0.852201 0.0386816
0.852232 0.842268 0.467613
0.912291 0.844343 0.562188
0.911345 0.856153 0.607324
0.910536 0.875685 0.668788
0.0493629 0.906218 0.0483406
0.0493172 0.905852 0.0482948
0.0492256 0.905333 0.0482032
0.049012 0.903883 0.0479896
0.637461 0.891752 0.0427558
0.880476 0.873869 0.0371862
0.942412 0.8719 0.037171
0.90956 0.885359 0.510201
0.908843 0.888594 0.654597
0.849958 0.884352 0.0375525
0.851606 0.884337 0.0375219
0.854185 0.884321 0.0374762
0.861341 0.884276 0.0373999
0.87837 0.884245 0.0372473
0.907515 0.884337 0.0371557
0.89781 0.899474 0.030457
0.908186 0.89807 0.487007
0.907774 0.896834 0.653727
0.884047 0.896986 0.677668
0.884184 0.896986 0.677684
0.884413 0.896986 0.677729
0.885084 0.896986 0.677836
0.886992 0.897017 0.678126
0.891798 0.897078 0.679026
0.900954 0.897215 0.681453
0.908782 0.897429 0.68719
0.909422 0.897871 0.700664
0.745312 0.701137 0.729091
0.745327 0.701137 0.729107
0.745342 0.701167 0.729122
0.745373 0.701198 0.729152
0.766751 0.697444 0.726192
0.923644 0.715923 0.727138
0.923644 0.716472 0.727626
0.920775 0.750408 0.720607
0.914382 0.857023 0.716487
0.745251 0.701076 0.729061
0.745266 0.701076 0.729061
0.745266 0.701091 0.729061
0.745312 0.701137 0.729091
0.76849 0.697353 0.726101
0.923644 0.715862 0.727108
0.923644 0.716426 0.727581
0.920485 0.75407 0.719997
0.914351 0.85745 0.716411
0.745159 0.700969 0.728985
0.745159 0.700969 0.729
0.745174 0.700984 0.729
0.745205 0.701015 0.729015
0.771466 0.69723 0.725948
0.923644 0.71577 0.727016
0.923644 0.71635 0.72752
0.920043 0.759991 0.719066
0.91429 0.858137 0.716258
0.744839 0.700633 0.728756
0.744854 0.700648 0.728771
0.744869 0.700648 0.728771
0.74461 0.700374 0.728588
0.778958 0.69691 0.725582
0.923629 0.715526 0.726802
0.923629 0.715145 0.726482
0.918837 0.776638 0.716518
0.914122 0.860121 0.715862
0.733669 0.701183 0.721401
0.733608 0.701274 0.721386
0.733532 0.701411 0.72134
0.733013 0.70132 0.720989
0.766857 0.698985 0.719356
0.920821 0.718593 0.72079
0.921035 0.742016 0.71696
0.916609 0.811749 0.711391
0.913649 0.865278 0.714733
0.0463874 0.860639 0.707317
0.0463417 0.860319 0.707301
0.0462501 0.859709 0.707271
0.0459144 0.857298 0.707134
0.590524 0.847303 0.702953
0.849302 0.835279 0.698207
0.911955 0.84004 0.70071
0.913725 0.85417 0.703395
0.912596 0.875746 0.712047
0.0513313 0.908263 0.690013
0.0513008 0.907866 0.690105
0.0512551 0.907271 0.690257
0.051133 0.905669 0.690669
0.564523 0.897093 0.685969
0.830839 0.885008 0.680888
0.894484 0.883009 0.685939
0.910658 0.884215 0.693446
0.910872 0.889296 0.706889
0.804608 0.896529 0.645228
0.80618 0.896513 0.645289
0.808667 0.896483 0.645396
0.815564 0.896437 0.645731
0.832059 0.896376 0.646845
0.860822 0.896437 0.650187
0.892424 0.896727 0.658381
0.908293 0.897124 0.674052
0.909255 0.897749 0.697322
0.884993 0.896986 0.677607
0.88513 0.896986 0.677623
0.885344 0.896986 0.677653
0.885985 0.897002 0.677745
0.8878 0.897017 0.678065
0.892409 0.897078 0.678935
0.901274 0.897215 0.681361
0.908782 0.897429 0.687114
0.909438 0.897871 0.700648
0.786221 0.744823 0.759319
0.786221 0.744823 0.759319
0.786221 0.744823 0.759319
0.786221 0.744823 0.759319
0.786221 0.744823 0.759319
0.914122 0.754284 0.760723
0.924895 0.755978 0.760861
0.924895 0.755978 0.760861
0.918074 0.844556 0.746212
0.786221 0.744823 0.759319
0.786221 0.744823 0.759319
0.786221 0.744823 0.759319
0.786221 0.744823 0.759319
0.786221 0.744823 0.759319
0.914931 0.754406 0.760739
0.924895 0.755978 0.760861
0.924895 0.755978 0.760861
0.918029 0.845258 0.74612
0.786221 0.744823 0.759319
0.786221 0.744823 0.759319
0.786221 0.744823 0.759319
0.786221 0.744823 0.759319
0.786221 0.744823 0.759319
0.916243 0.754604 0.760754
0.924895 0.755978 0.760861
0.924895 0.755978 0.760861
0.917952 0.846387 0.745968
0.786221 0.744823 0.759319
0.786221 0.744823 0.759319
0.786221 0.744823 0.759319
0.786221 0.744823 0.759319
0.786221 0.744823 0.759319
0.920073 0.755199 0.7608
0.924895 0.755978 0.760861
0.924895 0.755978 0.760861
0.917708 0.849592 0.745541
0.786221 0.744823 0.759319
0.786221 0.744823 0.759319
0.786221 0.744823 0.759319
0.786221 0.744823 0.759319
0.787121 0.744854 0.759319
0.924895 0.755978 0.760861
0.924895 0.755978 0.760861
0.924163 0.760098 0.757671
0.917052 0.857664 0.744442
0.765682 0.804196 0.751598
0.765637 0.804318 0.751598
0.765545 0.804532 0.751568
0.76524 0.805158 0.751507
0.764828 0.802487 0.75082
0.86685 0.798123 0.749172
0.920073 0.810834 0.747921
0.918151 0.839979 0.744686
0.915694 0.872557 0.742214
0.0527352 0.91281 0.750759
0.0527047 0.912337 0.750759
0.0526589 0.911574 0.750729
0.0525216 0.909331 0.750668
0.61471 0.89662 0.742824
0.828214 0.88452 0.736751
0.895598 0.882246 0.737301
0.914153 0.884001 0.737911
0.91371 0.889616 0.739086
0.798795 0.899168 0.731716
0.800458 0.899153 0.731701
0.803067 0.899123 0.73167
0.810391 0.899062 0.731594
0.827955 0.898955 0.731487
0.858686 0.898985 0.731548
0.891508 0.89926 0.732113
0.911894 0.89955 0.73344
0.912154 0.899733 0.736019
0.885496 0.898665 0.723262
0.885634 0.898665 0.723278
0.885832 0.898665 0.723278
0.886458 0.89868 0.723308
0.888212 0.898695 0.723384
0.892668 0.898756 0.723644
0.901305 0.898878 0.724361
0.911177 0.899077 0.726207
0.911604 0.899351 0.730465
0.786206 0.744961 0.759304
0.786206 0.744961 0.759304
0.786206 0.744961 0.759304
0.786206 0.744961 0.759304
0.786206 0.744961 0.759304
0.786206 0.744961 0.759304
0.924895 0.755978 0.760861
0.924895 0.755978 0.760861
0.924102 0.767147 0.760159
0.786206 0.744961 0.759304
0.786206 0.744961 0.759304
0.786206 0.744961 0.759304
0.786206 0.744961 0.759304
0.786206 0.744961 0.759304
0.786206 0.744961 0.759304
0.924895 0.755978 0.760861
0.924895 0.755978 0.760861
0.924102 0.767147 0.760159
0.786206 0.744961 0.759304
0.786206 0.744961 0.759304
0.786206 0.744961 0.759304
0.786206 0.744961 0.759304
0.786206 0.744961 0.759304
0.786206 0.744961 0.759304
0.924895 0.755978 0.760861
0.924895 0.755978 0.760861
0.924102 0.767147 0.760159
0.786206 0.744961 0.759304
0.786206 0.744961 0.759304
0.786206 0.744961 0.759304
0.786206 0.744961 0.759304
0.786206 0.744961 0.759304
0.786206 0.7449 0.759304
0.924895 0.755978 0.760861
0.924895 0.755978 0.760861
0.924102 0.767117 0.760159
0.786206 0.744945 0.759304
0.786206 0.744945 0.759304
0.786206 0.744945 0.759304
0.786206 0.744945 0.759304
0.786206 0.744945 0.759304
0.787411 0.744854 0.759319
0.924895 0.755978 0.760861
0.924895 0.755978 0.760861
0.924102 0.767071 0.760174
0.786206 0.744945 0.759304
0.786206 0.744945 0.759304
0.786206 0.744945 0.759304
0.786206 0.744945 0.759304
0.786206 0.744945 0.759304
0.827756 0.746334 0.759564
0.924895 0.755978 0.760861
0.924895 0.756085 0.760845
0.920577 0.825605 0.757214
0.709514 0.881407 0.756588
0.709453 0.881437 0.756588
0.709377 0.881468 0.756588
0.709087 0.88159 0.756588
0.708232 0.881926 0.756603
0.786999 0.867506 0.755184
0.902083 0.863905 0.755215
0.917617 0.869718 0.755077
0.916365 0.883146 0.754238
0.690517 0.904021 0.755611
0.697139 0.903731 0.755337
0.707027 0.903319 0.75494
0.732433 0.902373 0.753994
0.78204 0.901045 0.752605
0.841474 0.900542 0.751842
0.888655 0.900786 0.751858
0.913375 0.900328 0.752163
0.914153 0.900694 0.752285
0.882368 0.900618 0.750454
0.882521 0.900618 0.750454
0.88278 0.900618 0.750454
0.883543 0.900618 0.750469
0.885725 0.900649 0.750484
0.891127 0.900694 0.750515
0.90103 0.900801 0.750622
0.911711 0.900923 0.750805
0.913954 0.900984 0.751141
0.786114 0.745647 0.759289
0.786114 0.745647 0.759289
0.786114 0.745647 0.759289
0.786114 0.745647 0.759289
0.786114 0.745647 0.759289
0.786114 0.745647 0.759289
0.786114 0.745647 0.759289
0.924849 0.756588 0.760815
0.923674 0.773419 0.759793
0.786114 0.745647 0.759289
0.786114 0.745647 0.759289
0.786114 0.745647 0.759289
0.786114 0.745647 0.759289
0.786114 0.745647 0.759289
0.786114 0.745647 0.759289
0.786114 0.745647 0.759289
0.924849 0.756603 0.760815
0.923674 0.773434 0.759793
0.786114 0.745647 0.759289
0.786114 0.745647 0.759289
0.786114 0.745647 0.759289
0.786114 0.745647 0.759289
0.786114 0.745647 0.759289
0.786114 0.745647 0.759289
0.786114 0.745647 0.759289
0.924849 0.756603 0.760815
0.923674 0.773449 0.759793
0.786114 0.745647 0.759289
0.786114 0.745647 0.759289
0.786114 0.745647 0.759289
0.786114 0.745647 0.759289
0.786114 0.745647 0.759289
0.786114 0.745647 0.759289
0.786114 0.745647 0.759289
0.924849 0.756603 0.760815
0.923659 0.77348 0.759793
0.786114 0.745647 0.759289
0.786114 0.745647 0.759289
0.786114 0.745647 0.759289
0.786114 0.745647 0.759289
0.786114 0.745647 0.759289
0.786114 0.745647 0.759289
0.787335 0.745571 0.759289
0.924849 0.756619 0.760815
0.923659 0.773602 0.759777
0.786114 0.745647 0.759289
0.786114 0.745647 0.759289
0.786114 0.745647 0.759289
0.786114 0.745647 0.759289
0.786114 0.745647 0.759289
0.786114 0.745647 0.759289
0.83653 0.74699 0.759655
0.924849 0.75668 0.760815
0.923644 0.77377 0.759762
0.786114 0.745647 0.759289
0.786114 0.745647 0.759289
0.786114 0.745647 0.759289
0.786114 0.745647 0.759289
0.786114 0.745647 0.759289
0.786114 0.745647 0.759289
0.924895 0.755978 0.760861
0.924834 0.756802 0.7608
0.923629 0.77409 0.759747
0.0532082 0.915633 0.767086
0.0532082 0.915633 0.767086
0.0532082 0.915633 0.767086
0.0532082 0.915633 0.767086
0.0532082 0.915633 0.767086
0.0532082 0.915633 0.767086
0.862882 0.893767 0.752987
0.915282 0.8925 0.753552
0.915038 0.894728 0.753368
0.846693 0.900603 0.752361
0.847242 0.900603 0.752361
0.848127 0.900603 0.752361
0.850706 0.900603 0.752361
0.857847 0.900633 0.752377
0.872541 0.900725 0.752438
0.893477 0.900908 0.752605
0.910109 0.901091 0.752773
0.914183 0.901137 0.752834
