BBLuts/BB_101_0160_LUT.cube
TITLE "Generated by Resolve"
LUT_3D_SIZE 33
0 0 0
0 0 0
0 0 0
0 0 0
0 0 0
0.0560616 0 0
0.119768 0 0
0.167071 0 0
0.215228 0 0
0.270604 0 0
0.333242 0 0
0.399619 0 0
0.471473 0 0
0.547005 0 0
0.620432 0 0
0.694224 0 0
0.770352 0 0
0.847257 0 0
0.917433 0 0
0.973236 0 0
0.987045 0 0
0.987839 0 0
0.987839 0.283604 0
0.987839 0.457115 0.0446326
0.987839 0.577432 0.10837
0.987839 0.662287 0.178286
0.987839 0.738155 0.256489
0.987839 0.798428 0.348898
0.987839 0.843656 0.454658
0.987839 0.879026 0.552926
0.987839 0.905348 0.631815
0.987839 0.926207 0.704555
0.987839 0.94255 0.769207
0 0 0
0 0 0
0 0 0
0 0 0
0 0 0
0.0679942 0 0
0.123781 0 0
0.170382 0 0
0.220554 0 0
0.276646 0 0
0.339345 0 0
0.404105 0 0
0.472938 0 0
0.54847 0 0
0.621592 0 0
0.694942 0 0
0.770977 0 0
0.847257 0 0
0.917357 0 0
0.972869 0 0
0.987015 0 0
0.987839 0.015198 0
0.987839 0.311864 0
0.987839 0.470878 0.0225834
0.987839 0.583658 0.103487
0.987839 0.665858 0.176028
0.987839 0.740108 0.255802
0.987839 0.799405 0.348791
0.987839 0.84416 0.454368
0.987839 0.879301 0.552789
0.987839 0.90547 0.631754
0.987839 0.926284 0.704524
0.987839 0.94258 0.769177
0 0 0
0 0 0
0 0 0
0 0 0
0 0 0
0.0742657 0 0
0.1243 0 0
0.172976 0 0
0.225544 0 0
0.280842 0 0
0.341955 0 0
0.405142 0 0
0.474891 0 0
0.550286 0 0
0.622751 0 0
0.695949 0 0
0.771298 0 0
0.847547 0 0
0.917266 0 0
0.972473 0 0
0.986984 0 0
0.987839 0.0874495 0
0.987839 0.339544 0
0.987839 0.483268 0.00540169
0.987839 0.589395 0.0990311
0.987839 0.669062 0.174014
0.987839 0.741909 0.255177
0.987839 0.80032 0.348684
0.987839 0.844633 0.454078
0.987839 0.879545 0.552636
0.987839 0.905608 0.631678
0.987839 0.926375 0.704479
0.987839 0.942626 0.769177
0 0 0
0 0 0
0 0 0
0 0.00163272 0
0.0191348 0.00737011 0
0.0757763 0 0
0.121691 0 0
0.170245 0 0
0.223804 0 0
0.281895 0 0
0.344396 0 0
0.40705 0 0
0.477256 0 0
0.552132 0 0
0.623941 0 0
0.696681 0 0
0.771939 0 0
0.847807 0 0
0.917144 0 0
0.972061 0 0
0.986938 0 0
0.987839 0.164797 0
0.987839 0.361425 0
0.987839 0.493324 0
0.987839 0.593988 0.0951858
0.987839 0.671931 0.172213
0.987839 0.743587 0.254597
0.987839 0.801205 0.348577
0.987839 0.845121 0.453803
0.987839 0.879805 0.552499
0.987839 0.905745 0.631601
0.987839 0.926436 0.704433
0.987839 0.942672 0.769146
0 0.0571756 0
0 0.0606394 0
0 0.0640269 0
0 0.0673381 0
0 0.0686961 0
0.063035 0.0680858 0
0.114778 0.0657664 0
0.165805 0.0600443 0
0.221622 0.0469062 0
0.282109 0.00201419 0
0.345693 0 0
0.40911 0 0
0.47953 0 0
0.554009 0 0
0.625437 0 0
0.697734 0 0
0.772549 0 0
0.848051 0 0
0.917006 0 0
0.971603 0 0
0.986908 0 0
0.987839 0.209003 0
0.987839 0.380285 0
0.987839 0.503304 0
0.987839 0.598627 0.0901656
0.987839 0.674891 0.170153
0.987839 0.74519 0.254047
0.987839 0.802075 0.348486
0.987839 0.845594 0.453513
0.987839 0.880049 0.552361
0.987839 0.905867 0.63154
0.987839 0.926513 0.704387
0.987839 0.942702 0.769116
0 0.0962844 0
0 0.0990921 0
0 0.101976 0
0 0.104234 0
0 0.105379 0
0.0391241 0.10547 0
0.10338 0.104814 0
0.159411 0.102602 0
0.21825 0.0978408 0
0.281132 0.0881971 0
0.345907 0.0691844 0
0.410605 0.00906386 0
0.481849 0.00268559 0
0.556054 0 0
0.626856 0 0
0.698634 0 0
0.773251 0 0
0.848341 0 0
0.916854 0 0
0.971115 0 0
0.986877 0.0229496 0
0.987839 0.245014 0
0.987839 0.395834 0
0.987839 0.511742 0
0.987839 0.602869 0.0853285
0.987839 0.677958 0.167865
0.987839 0.74699 0.253422
0.987839 0.802899 0.348394
0.987839 0.846052 0.453254
0.987839 0.880308 0.552209
0.987839 0.906004 0.631464
0.987839 0.926589 0.704356
0.987839 0.942748 0.7691
0 0.137301 0
0 0.139651 0
0 0.141939 0
0 0.143359 0
0 0.144366 0
0 0.144686 0
0.0790265 0.144686 0
0.148074 0.143801 0
0.211475 0.14136 0
0.277806 0.136263 0
0.344762 0.126711 0
0.411948 0.111177 0
0.484382 0.0819715 0
0.558556 0.0140536 0
0.62887 0.00460822 0
0.700023 0 0
0.773785 0 0
0.848371 0 0
0.916396 0 0
0.97052 0 0
0.986831 0.0922713 0
0.987839 0.280476 0
0.987839 0.412848 0
0.987839 0.521508 0
0.987839 0.607569 0.0799725
0.987839 0.681407 0.165286
0.987839 0.749126 0.252659
0.987839 0.804074 0.348302
0.987839 0.846586 0.452934
0.987839 0.880583 0.552056
0.987839 0.906172 0.631388
0.987839 0.926665 0.704295
0.987839 0.942794 0.76907
0 0.183856 0
0 0.185885 0
0 0.187411 0
0 0.188571 0
0 0.189288 0
0 0.189914 0
0.0240787 0.190036 0
0.12192 0.189853 0
0.198672 0.188479 0
0.269947 0.185367 0
0.340719 0.178866 0
0.411688 0.169497 0
0.486564 0.155535 0
0.561639 0.132158 0
0.631205 0.0829938 0
0.70164 0.0211795 0
0.774914 0.0142367 0
0.848798 0 0
0.916106 0 0
0.969467 0.0487831 0
0.98677 0.181689 0
0.987839 0.321477 0
0.987839 0.434852 0
0.987839 0.534463 0
0.987839 0.614603 0.0690318
0.987839 0.685985 0.161822
0.987839 0.75198 0.251652
0.987839 0.805646 0.34818
0.987839 0.847501 0.452445
0.987839 0.88101 0.551827
0.987839 0.906386 0.631281
0.987839 0.926802 0.704234
0.987839 0.942855 0.769039
0 0.237858 0
0 0.239353 0
0 0.240375 0
0 0.241184 0
0 0.241764 0
0 0.242405 0
0 0.242679 0
0.0735027 0.242588 0
0.171405 0.241321 0
0.254032 0.238697 0
0.331411 0.23447 0
0.408118 0.228107 0
0.487297 0.21915 0
0.564843 0.205371 0
0.634165 0.186358 0
0.704112 0.159945 0
0.776135 0.120745 0
0.849363 0.0421607 0
0.915663 0.0514076 0
0.968277 0.156268 0
0.986603 0.264179 0
0.987839 0.366354 0
0.987839 0.46215 0
0.987839 0.55079 0
0.987839 0.624018 0.0517281
0.987839 0.692546 0.156558
0.987839 0.755779 0.250324
0.987839 0.807813 0.348013
0.987839 0.848753 0.451759
0.987839 0.881712 0.551461
0.987839 0.906722 0.631113
0.987839 0.926986 0.704128
0.987839 0.942962 0.768978
0 0.296773 0
0 0.297444 0
0 0.297871 0
0 0.298207 0
0 0.298711 0
0 0.298787 0
0 0.298726 0
0 0.29839 0
0.11368 0.297749 0
0.225147 0.296086 0
0.314427 0.293446 0
0.39913 0.289174 0
0.484459 0.282826 0
0.566522 0.273365 0
0.637034 0.262455 0
0.7066 0.24976 0
0.777844 0.236713 0
0.84979 0.226596 0
0.914733 0.234226 0
0.966552 0.273442 0
0.986465 0.338064 0
0.987839 0.414405 0
0.987839 0.495399 0
0.987839 0.570855 0
0.987839 0.636484 0.027451
0.987839 0.701274 0.149279
0.987839 0.761135 0.248463
0.987839 0.810712 0.347814
0.987839 0.850462 0.450843
0.987839 0.882658 0.550958
0.987839 0.907256 0.630808
0.987839 0.92723 0.70399
0.987839 0.943099 0.768887
0 0.358694 0
0 0.35935 0
0 0.359762 0
0 0.360098 0
0 0.360342 0
0 0.36051 0
0 0.360601 0
0 0.36083 0
0 0.360433 0
0.158709 0.359503 0
0.284047 0.358068 0
0.381964 0.355398 0
0.475151 0.350881 0
0.564599 0.34435 0
0.638666 0.337453 0
0.709316 0.330327 0
0.779797 0.324498 0
0.850233 0.322515 0
0.913634 0.33257 0
0.963851 0.36199 0
0.986267 0.40824 0
0.987839 0.467475 0
0.987839 0.532067 0
0.987839 0.594903 0
0.987839 0.652201 0
0.987839 0.712627 0.140597
0.987839 0.76817 0.246006
0.987839 0.814694 0.347601
0.987839 0.85272 0.449622
0.987839 0.883955 0.550271
0.987839 0.908019 0.630396
0.987839 0.927672 0.703716
0.987839 0.943297 0.76878
0 0.42707 0
0 0.427344 0
0 0.42771 0
0 0.428321 0
0 0.428565 0
0 0.428748 0
0 0.428931 0
0 0.429007 0
0 0.428931 0
0.0389105 0.428855 0
0.21561 0.428 0
0.348837 0.426657 0
0.455848 0.424262 0
0.556115 0.420493 0
0.63624 0.415732 0
0.70985 0.411444 0
0.781201 0.409491 0
0.850294 0.410925 0
0.911543 0.420798 0
0.960357 0.442969 0
0.985885 0.478218 0
0.987839 0.522393 0
0.987839 0.571862 0
0.987839 0.620661 0
0.987839 0.672602 0
0.987839 0.726711 0.130694
0.987839 0.777249 0.242908
0.987839 0.820035 0.347433
0.987839 0.855909 0.449241
0.987839 0.885664 0.549386
0.987839 0.909026 0.629862
0.987839 0.928283 0.703349
0.987839 0.943648 0.768582
0 0.505241 0
0 0.505394 0
0 0.505699 0
0 0.505959 0
0 0.506172 0
0 0.506676 0
0 0.506859 0
0 0.507027 0
0 0.507164 0
0 0.507256 0
0.0969711 0.507179 0
0.280369 0.506996 0
0.421698 0.505684 0
0.537484 0.503487 0
0.626871 0.500389 0
0.705409 0.497536 0
0.779904 0.495827 0
0.849241 0.497337 0
0.908568 0.50518 0
0.955627 0.520912 0
0.985504 0.5449 0
0.987839 0.576608 0
0.987839 0.611566 0
0.987839 0.651682 0
0.987839 0.697215 0
0.987839 0.744259 0.11574
0.987839 0.788388 0.2392
0.987839 0.826886 0.347402
0.987839 0.860136 0.449989
0.987839 0.88806 0.548241
0.987839 0.910384 0.629129
0.987839 0.929091 0.702846
0.987839 0.944121 0.768277
0 0.582284 0
0 0.582345 0
0 0.582544 0
0 0.582742 0
0 0.582895 0
0 0.583047 0
0 0.5832 0
0 0.583383 0
0 0.583795 0
0 0.583871 0
0 0.58378 0
0.157534 0.583398 0
0.360067 0.582742 0
0.505669 0.580987 0
0.609705 0.57882 0
0.694392 0.576288 0
0.773968 0.574533 0
0.845533 0.574792 0
0.904234 0.579721 0
0.949554 0.590494 0
0.984222 0.605158 0
0.987762 0.626383 0
0.987839 0.653971 0
0.987839 0.68751 0
0.987839 0.725444 0
0.987839 0.76463 0.0966201
0.987839 0.801907 0.234516
0.987839 0.83537 0.347601
0.987839 0.865858 0.451148
0.987839 0.891234 0.546822
0.987839 0.912306 0.628138
0.987839 0.930175 0.70219
0.987839 0.944762 0.76788
0 0.648524 0
0 0.648524 0
0 0.6486 0
0 0.648707 0
0 0.648798 0
0 0.648875 0
0 0.648951 0
0 0.649027 0
0 0.649073 0
0 0.649058 0
0 0.64918 0
0 0.648798 0
0.241047 0.64802 0
0.452522 0.646937 0
0.584634 0.645075 0
0.676204 0.643091 0
0.7617 0.641108 0
0.836805 0.640604 0
0.89691 0.643137 0
0.941573 0.65005 0
0.97702 0.661768 0
0.987167 0.67834 0
0.987839 0.700206 0
0.987839 0.726696 0
0.987839 0.756329 0
0.987839 0.787152 0.0705272
0.987839 0.817349 0.230457
0.987839 0.845838 0.348302
0.987839 0.872465 0.452796
0.987839 0.895262 0.546807
0.987839 0.914855 0.626856
0.987839 0.931701 0.701274
0.987839 0.945617 0.767346
0 0.715465 0
0 0.715465 0
0 0.715465 0
0 0.715526 0
0 0.715541 0
0 0.715587 0
0 0.715587 0
0 0.715618 0
0 0.715587 0
0 0.715496 0
0 0.715267 0
0 0.715068 0
0.0660716 0.714229 0
0.353933 0.712963 0
0.544228 0.711513 0
0.651041 0.709392 0
0.742855 0.707332 0
0.822278 0.706004 0
0.884794 0.707179 0
0.930968 0.71162 0
0.966049 0.719799 0
0.98587 0.732006 0
0.987808 0.74757 0
0.987839 0.766476 0
0.987839 0.787976 0
0.987839 0.811032 0.0330358
0.987839 0.834455 0.226978
0.987839 0.857954 0.350698
0.987839 0.880491 0.455299
0.987839 0.900236 0.548836
0.987839 0.91812 0.626123
0.987839 0.93373 0.700053
0.987839 0.946822 0.766583
0 0.780926 0
0 0.780926 0
0 0.780926 0
0 0.780926 0
0 0.780926 0
0 0.780911 0
0 0.78088 0
0 0.780819 0
0 0.780697 0
0 0.780484 0
0 0.780133 0
0 0.779522 0
0 0.778805 0
0.239002 0.777432 0
0.486671 0.775631 0
0.621302 0.773632 0
0.719448 0.771084 0
0.802884 0.76907 0
0.868498 0.768475 0
0.917128 0.770245 0
0.953918 0.774533 0
0.980621 0.781735 0
0.987411 0.791791 0
0.987839 0.80415 0
0.987839 0.818738 0
0.987839 0.835035 0
0.987839 0.852918 0.227008
0.987839 0.871702 0.355245
0.987839 0.889647 0.459632
0.987839 0.906416 0.551629
0.987839 0.922164 0.626261
0.987839 0.936309 0.698756
0.987839 0.948425 0.76553
0 0.836454 0
0 0.836454 0
0 0.836454 0
0 0.836454 0
0 0.836454 0
0 0.836408 0
0 0.836332 0
0 0.836194 0
0 0.835966 0
0 0.835615 0
0 0.835111 0
0 0.834287 0
0 0.833143 0
0.136828 0.831617 0
0.417395 0.829816 0
0.595499 0.827344 0
0.698802 0.824475 0
0.784375 0.821866 0
0.851194 0.820142 0
0.902678 0.81976 0
0.94139 0.821225 0
0.969635 0.824659 0
0.986145 0.830137 0
0.987823 0.837812 0
0.987839 0.847425 0
0.987839 0.858885 0.0211795
0.987839 0.872053 0.235843
0.987839 0.885893 0.363165
0.987839 0.899733 0.466026
0.987839 0.913649 0.555947
0.987839 0.927138 0.628733
0.987839 0.939498 0.69749
0.987839 0.9505 0.764233
0 0.879484 0
0 0.879484 0
0 0.879484 0
0 0.879484 0
0 0.879484 0
0 0.879484 0
0 0.879484 0
0 0.879316 0
0 0.879026 0
0 0.878538 0
0 0.877852 0
0 0.876921 0
0 0.875639 0
0.0775616 0.873991 0
0.366339 0.871916 0
0.578164 0.869444 0
0.685328 0.866438 0
0.770809 0.863111 0
0.837125 0.860853 0
0.889372 0.859495 0
0.929519 0.859266 0
0.959182 0.860578 0
0.981979 0.863371 0
0.987488 0.868162 0
0.987839 0.874189 0
0.987839 0.881727 0.0868544
0.987839 0.89044 0.256153
0.987839 0.900038 0.375219
0.987839 0.910674 0.475196
0.987839 0.921767 0.561883
0.987839 0.932891 0.632624
0.987839 0.943374 0.699931
0.987839 0.953033 0.762676
0 0.912825 0
0 0.912825 0
0 0.912825 0
0 0.912825 0
0 0.912825 0
0 0.912825 0
0 0.912825 0
0 0.912825 0
0 0.912688 0
0 0.912139 0
0 0.911269 0
0 0.910201 0
0 0.908888 0
0.078996 0.907164 0
0.37438 0.905043 0
0.575494 0.902434 0
0.680308 0.899535 0
0.762661 0.896559 0
0.826856 0.894011 0
0.878294 0.892134 0
0.918563 0.891051 0
0.949371 0.890898 0
0.973404 0.891844 0
0.986557 0.893935 0
0.987839 0.897231 0
0.987839 0.901671 0.141634
0.987839 0.907408 0.283665
0.987839 0.914244 0.392874
0.987839 0.922011 0.487373
0.987839 0.930556 0.570047
0.987839 0.939284 0.637934
0.987839 0.94789 0.703899
0.987839 0.956176 0.764294
0 0.937453 0
0 0.937453 0
0 0.937453 0
0 0.937453 0
0 0.937453 0
0 0.937453 0
0 0.937453 0
0 0.937453 0
0 0.937453 0
0 0.937423 0
0 0.936492 0
0 0.935256 0
0 0.933822 0
0.0245823 0.932128 0
0.427527 0.929946 0
0.590738 0.927382 0
0.685573 0.924498 0
0.761501 0.921721 0
0.821714 0.919188 0
0.871046 0.917052 0
0.910109 0.915557 0
0.940978 0.914702 0
0.965789 0.914534 0
0.984802 0.915282 0
0.987732 0.916945 0.000228885
0.987839 0.919631 0.197345
0.987839 0.923308 0.319921
0.987839 0.927947 0.416159
0.987839 0.933425 0.504067
0.987839 0.939529 0.580697
0.987839 0.946166 0.645167
0.987839 0.952987 0.709163
0.987839 0.959808 0.767468
0 0.956115 0
0 0.956115 0
0 0.956115 0
0 0.956115 0
0 0.956115 0
0 0.956115 0
0 0.956115 0
0 0.956115 0
0 0.956115 0
0 0.956115 0
0 0.956115 0
0 0.954894 0
0 0.953307 0
0.207691 0.951522 0
0.497673 0.949432 0
0.61677 0.946944 0
0.698878 0.944305 0
0.765972 0.941711 0
0.820813 0.93933 0
0.867063 0.937285 0
0.904067 0.935607 0
0.934096 0.934447 0
0.958816 0.933745 0
0.978332 0.933654 0
0.987015 0.934249 0.142901
0.987839 0.935576 0.269047
0.987839 0.937713 0.36437
0.987839 0.940581 0.446769
0.987839 0.944183 0.525124
0.987839 0.948455 0.594476
0.987839 0.953277 0.654536
0.987839 0.958495 0.716167
0.987839 0.963851 0.771908
0.000381476 0.970001 0
0.000381476 0.970001 0
0.000381476 0.970001 0
0.000381476 0.970001 0
0.000381476 0.970001 0
0.000381476 0.970001 0
0.000381476 0.970001 0
0.000381476 0.970001 0
0.000381476 0.970001 0
0.000381476 0.970001 0
0.000381476 0.970001 0
0.000381476 0.970001 0
0.00315862 0.968536 0
0.418677 0.966583 0
0.565423 0.964477 0
0.651011 0.962203 0
0.71902 0.959823 0
0.776089 0.957519 0
0.824537 0.955352 0
0.866361 0.953368 0
0.900572 0.951736 0
0.92929 0.950378 0
0.953216 0.949386 0
0.972595 0.948837 0.124773
0.986175 0.948699 0.245396
0.987839 0.949142 0.335882
0.987839 0.950195 0.412634
0.987839 0.951858 0.484642
0.987839 0.954147 0.550958
0.987839 0.957046 0.610315
0.987839 0.960433 0.667308
0.987839 0.964141 0.724987
0.987839 0.968154 0.777722
0.382605 0.979767 0
0.382605 0.979767 0
0.382605 0.979767 0
0.382605 0.979767 0
0.382589 0.979767 0
0.382589 0.979767 0
0.382589 0.979767 0
0.382589 0.979767 0
0.382574 0.979767 0
0.382559 0.979767 0
0.382559 0.979767 0
0.382513 0.979767 0
0.382483 0.979767 0
0.525429 0.978073 0
0.622705 0.975921 0
0.688243 0.973831 0
0.743313 0.971786 0
0.790356 0.969787 0
0.832212 0.967849 0
0.869062 0.966049 0
0.899855 0.964477 0.0647593
0.926436 0.963149 0.142687
0.949218 0.962036 0.200992
0.96791 0.961257 0.265812
0.983246 0.960784 0.334203
0.987533 0.960693 0.400397
0.987839 0.961059 0.464195
0.987839 0.961883 0.525017
0.987839 0.963211 0.58117
0.987839 0.964996 0.631052
0.987839 0.967208 0.683528
0.987839 0.969741 0.736675
0.987839 0.972503 0.784939
0.613947 0.986404 0.240665
0.613947 0.986404 0.240665
0.613947 0.986404 0.240665
0.613947 0.986404 0.240665
0.613947 0.986404 0.240665
0.613947 0.986404 0.240665
0.613947 0.986404 0.240665
0.613947 0.986404 0.240665
0.613947 0.986404 0.240665
0.613931 0.986404 0.240665
0.613931 0.986404 0.240665
0.613931 0.986404 0.240665
0.613931 0.986404 0.240665
0.613916 0.986404 0.240665
0.66862 0.984771 0.244556
0.724468 0.982834 0.250324
0.768582 0.981064 0.257053
0.807385 0.979355 0.265095
0.842817 0.977646 0.275547
0.874159 0.976074 0.288426
0.901427 0.97464 0.304433
0.925582 0.973327 0.324056
0.946563 0.972244 0.348241
0.964309 0.971328 0.376349
0.979171 0.970687 0.415808
0.986938 0.970291 0.464912
0.987839 0.970169 0.516533
0.987839 0.970443 0.566354
0.987839 0.971054 0.611429
0.987839 0.972045 0.656229
0.987839 0.973327 0.703731
0.987839 0.974929 0.750927
0.987839 0.976806 0.794308
0.7196 0.987839 0.400137
0.7196 0.987839 0.400137
0.7196 0.987839 0.400137
0.7196 0.987839 0.400137
0.7196 0.987839 0.400137
0.7196 0.987839 0.400137
0.7196 0.987839 0.400137
0.7196 0.987839 0.400137
0.7196 0.987839 0.400137
0.7196 0.987839 0.400137
0.7196 0.987839 0.400137
0.7196 0.987839 0.400137
0.7196 0.987839 0.400137
0.7196 0.987839 0.400137
0.719585 0.987839 0.400137
0.754925 0.987839 0.402716
0.793683 0.987716 0.406561
0.826307 0.986343 0.411032
0.855299 0.984924 0.416449
0.881559 0.983581 0.423621
0.905028 0.98233 0.432609
0.926604 0.981125 0.444053
0.945525 0.980056 0.45864
0.961959 0.979171 0.477195
0.976013 0.978424 0.498604
0.986313 0.977859 0.529931
0.987839 0.977539 0.567803
0.987839 0.977432 0.605798
0.987839 0.9776 0.644465
0.987839 0.978042 0.685344
0.987839 0.978729 0.72723
0.987839 0.979675 0.767895
0.987839 0.98085 0.805463
0.790127 0.987839 0.517723
0.790127 0.987839 0.517723
0.790127 0.987839 0.517723
0.790127 0.987839 0.517723
0.790127 0.987839 0.517723
0.790127 0.987839 0.517723
0.790127 0.987839 0.517723
0.790127 0.987839 0.517723
0.790112 0.987839 0.517723
0.790112 0.987839 0.517723
0.790112 0.987839 0.517723
0.790112 0.987839 0.517723
0.790112 0.987839 0.517723
0.790112 0.987839 0.517723
0.790097 0.987839 0.517723
0.790097 0.987839 0.517723
0.815717 0.987839 0.519814
0.844617 0.987839 0.522957
0.868727 0.987839 0.526589
0.89012 0.987839 0.530953
0.910369 0.987716 0.536614
0.92903 0.986999 0.543679
0.945769 0.986023 0.552544
0.960693 0.985168 0.563668
0.973678 0.984436 0.577691
0.984512 0.983841 0.593805
0.98761 0.983398 0.616236
0.987839 0.983108 0.646052
0.987839 0.982986 0.680156
0.987839 0.983093 0.716762
0.987839 0.983352 0.752789
0.987839 0.98381 0.786984
0.987839 0.984436 0.818479
0.841611 0.987839 0.607217
0.841611 0.987839 0.607217
0.841611 0.987839 0.607217
0.841611 0.987839 0.607217
0.841611 0.987839 0.607217
0.841611 0.987839 0.607217
0.841611 0.987839 0.607217
0.841611 0.987839 0.607217
0.841611 0.987839 0.607217
