BBLuts/BB_101_0120_LUT.cube
TITLE "Generated by Resolve"
LUT_3D_SIZE 33
0.00553903 0 0
0.00553903 0 0
0.00553903 0 0
0.00553903 0 0
0.00972 0 0
0.0576944 0 0
0.108568 0 0.000442512
0.14583 0 0.000991836
0.183337 0 0.00157168
0.227207 0 0.00225834
0.277501 0 0.0030518
0.332509 0 0.00395209
0.393988 0.000686656 0.00497444
0.463859 0.00202945 0.00614939
0.543954 0.00360113 0.00755322
0.627878 0.00529488 0.00903334
0.712856 0.00701915 0.0105592
0.798321 0.00877394 0.0121004
0.875654 0.0103456 0.0135195
0.937255 0.0116121 0.0146334
0.952926 0.0119326 0.0149081
0.953811 0.0119478 0.0149233
0.925628 0.252476 0
0.908019 0.405524 0.0175021
0.894179 0.525689 0.0545815
0.882094 0.630381 0.0965438
0.87158 0.721477 0.145495
0.863294 0.793805 0.20824
0.857206 0.848127 0.287205
0.852598 0.890272 0.367224
0.849241 0.922011 0.44593
0.846662 0.94728 0.520455
0.844694 0.967086 0.585809
0.00553903 0 0
0.00553903 0 0
0.00553903 0 0
0.00553903 0 0
0.0102388 0 0
0.0673075 0 0
0.111757 0 0.000488289
0.148425 0 0.00103761
0.187488 0 0.00163272
0.232029 0 0.00233463
0.282445 0 0.0031281
0.336416 0 0.00401312
0.395224 0.000717174 0.0049897
0.465324 0.00205997 0.0061799
0.545281 0.00363165 0.00756847
0.628672 0.00531014 0.0090486
0.713542 0.00703441 0.0105745
0.798321 0.00877394 0.0121004
0.875578 0.0103456 0.0135195
0.936858 0.0115969 0.0146334
0.952911 0.0119326 0.0149081
0.951583 0.0306249 0.0128939
0.922911 0.276448 0
0.906645 0.417823 0
0.893385 0.53254 0.0502022
0.88159 0.63473 0.0944381
0.871305 0.723812 0.144747
0.863157 0.79498 0.208042
0.857145 0.848737 0.286915
0.852552 0.890593 0.367056
0.849226 0.922164 0.445838
0.846647 0.947356 0.520409
0.844694 0.967132 0.585779
0.00553903 0 0
0.00553903 0 0
0.00553903 0 0
0.00555428 0 0
0.010193 0 0
0.072343 0 0
0.112169 0 0.000488289
0.150454 0 0.00106813
0.191409 0 0.00169375
0.235401 0 0.00238041
0.28455 0 0.00315862
0.337316 0 0.00402838
0.396872 0.000747692 0.00502022
0.467124 0.00209049 0.00621042
0.546639 0.00366217 0.00759899
0.629801 0.00534066 0.00907912
0.713909 0.00704967 0.0105745
0.798642 0.00877394 0.0121157
0.875471 0.0103456 0.0135042
0.936416 0.0115969 0.0146181
0.952865 0.0119326 0.0149081
0.944549 0.0904555 0.00666819
0.920226 0.300084 0
0.905394 0.429191 0
0.892638 0.539101 0.0461738
0.881132 0.63859 0.0925612
0.871046 0.725978 0.14406
0.86302 0.796078 0.207858
0.857069 0.849302 0.286625
0.852522 0.890898 0.366888
0.84921 0.922332 0.445747
0.846632 0.947463 0.520348
0.844678 0.967178 0.585763
0.00544747 0 0
0.00544747 0 0
0.00541695 0 0
0.00585946 0.00187686 0
0.0268711 0.00706493 0
0.0733654 0 0
0.109895 0 0.00030518
0.148104 0 0.000854505
0.189837 0 0.00151064
0.236225 0 0.00238041
0.286534 0 0.00320439
0.338964 0 0.0040589
0.398901 0.00077821 0.00505074
0.468971 0.00213626 0.00624094
0.548028 0.00367742 0.00761425
0.630625 0.00535592 0.00907912
0.714611 0.00706493 0.0105898
0.798917 0.0087892 0.0121157
0.875334 0.0103456 0.0135042
0.935973 0.0115816 0.0146181
0.952819 0.0119326 0.0149081
0.937255 0.154086 0.00030518
0.918074 0.318929 0
0.904372 0.438743 0
0.891981 0.544747 0.04271
0.880735 0.642039 0.0908827
0.870817 0.727993 0.14342
0.862898 0.797131 0.20766
0.856992 0.849867 0.286351
0.852491 0.891203 0.366735
0.84918 0.922499 0.445655
0.846632 0.94754 0.520302
0.844678 0.967239 0.585733
0.00181582 0.0502937 0
0.00158694 0.0532845 0
0.00135805 0.056199 0
0.00111391 0.0590372 0
0.00102235 0.0602274 0
0.0583352 0.0598459 0
0.0995499 0.0582437 0
0.139971 0.0538186 0
0.184314 0.0431983 0
0.235721 0.00564584 0.00183108
0.287129 0.00321965 0.00282292
0.340719 7.62951e-05 0.00404364
0.400854 0.000823987 0.00508125
0.470848 0.00216678 0.00627146
0.549767 0.0037232 0.00764477
0.6318 0.00537118 0.00910964
0.715297 0.00708019 0.010605
0.799207 0.0087892 0.0121157
0.875181 0.0103456 0.0135042
0.93547 0.0115663 0.0146029
0.952789 0.0119326 0.0149081
0.93315 0.190188 0
0.916213 0.335256 0
0.903273 0.448402 0
0.891279 0.550759 0.0383001
0.880323 0.645579 0.0890059
0.870588 0.729915 0.142809
0.862776 0.798169 0.207492
0.856931 0.850431 0.286061
0.852445 0.891478 0.366567
0.849165 0.922637 0.445579
0.846616 0.947631 0.520241
0.844678 0.967269 0.585702
0 0.0838331 0
0 0.0862135 0
0 0.0886854 0
0 0.0905928 0
0 0.0915847 0
0.0363928 0.0916152 0
0.087602 0.0913405 0
0.131685 0.0898604 0
0.177661 0.0863355 0
0.228122 0.0788281 0
0.281621 0.0635386 0
0.340795 0.0135348 0.0030518
0.402075 0.00924697 0.00447089
0.472801 0.00302129 0.00622568
0.5514 0.00375372 0.00767529
0.632807 0.00538643 0.0091249
0.716075 0.00709544 0.0106203
0.799512 0.00880446 0.0121309
0.875013 0.0103304 0.0135042
0.934936 0.0115663 0.0145876
0.949737 0.0370489 0.012192
0.92932 0.220005 0
0.91458 0.349569 0
0.902312 0.456733 0
0.890639 0.556344 0.0340581
0.879896 0.64921 0.0869459
0.870329 0.732052 0.142123
0.862669 0.799146 0.207324
0.85687 0.85098 0.285801
0.852415 0.891783 0.366415
0.849149 0.922805 0.445472
0.846601 0.947723 0.520195
0.844663 0.967315 0.585672
0 0.118669 0
0 0.120668 0
0 0.122591 0
0 0.123781 0
0 0.124636 0
0 0.12491 0
0.0652781 0.12488 0
0.1196 0.124498 0
0.168917 0.122896 0
0.221546 0.119188 0
0.275929 0.111864 0
0.333364 0.0996262 0
0.397498 0.0760967 0
0.47364 0.0202029 0.00482185
0.552758 0.0137484 0.00686656
0.634256 0.00639353 0.00906386
0.716655 0.00709544 0.0106355
0.799558 0.00880446 0.0121309
0.874495 0.0103304 0.013489
0.934279 0.0115511 0.0145724
0.942992 0.0944228 0.0062562
0.925933 0.249836 0
0.912795 0.36527 0
0.901183 0.466545 0
0.889921 0.562463 0.0293736
0.879408 0.65333 0.0846113
0.870039 0.734615 0.141299
0.862501 0.800549 0.207111
0.856794 0.851621 0.285481
0.852369 0.892119 0.366232
0.849119 0.923003 0.445365
0.846601 0.947799 0.520134
0.844663 0.967376 0.585641
0 0.157885 0
0 0.159594 0
0 0.160861 0
0 0.161837 0
0 0.162432 0
0 0.162951 0
0.0177768 0.16289 0
0.095491 0.162905 0
0.15523 0.162188 0
0.211276 0.160113 0
0.268315 0.155337 0
0.328206 0.148272 0
0.393088 0.137514 0
0.466377 0.119142 0
0.54844 0.079469 0.000808728
0.633661 0.0292821 0.00694286
0.715984 0.0250858 0.00892653
0.799847 0.0106355 0.0119783
0.874189 0.0103151 0.013489
0.927596 0.0581064 0.00961318
0.934051 0.16791 0
0.921981 0.284627 0
0.910475 0.385504 0
0.899657 0.479866 0
0.888914 0.571298 0.0201114
0.878767 0.658778 0.0814984
0.869627 0.738033 0.1402
0.862272 0.802441 0.206836
0.856657 0.85272 0.284977
0.852308 0.892622 0.365957
0.849088 0.923262 0.445212
0.846571 0.947967 0.520043
0.844648 0.967453 0.585595
0 0.203265 0
0 0.204532 0
0 0.205417 0
0 0.206104 0
0 0.206607 0
0 0.207141 0
0 0.207385 0
0.0531319 0.20705 0
0.129854 0.206256 0
0.194232 0.204517 0
0.256153 0.201495 0
0.320134 0.196826 0
0.388266 0.190158 0
0.463233 0.179751 0
0.542702 0.16524 0
0.623896 0.144717 0
0.70753 0.11368 0.00030518
0.795987 0.0500038 0.00796521
0.868025 0.0591135 0.00840772
0.916106 0.1467 0.000671397
0.926131 0.236072 0
0.917586 0.323186 0
0.907652 0.410163 0
0.897673 0.497078 0
0.887556 0.583062 0.0055848
0.877836 0.666636 0.0767987
0.869093 0.74258 0.13875
0.861967 0.80502 0.206439
0.856489 0.854215 0.284291
0.852216 0.893462 0.36553
0.849042 0.923644 0.444999
0.846555 0.94818 0.519921
0.844633 0.967575 0.585519
0 0.253895 0
0 0.254475 0
0 0.254841 0
0 0.255131 0
0 0.255573 0
0 0.255634 0
0 0.255589 0
0 0.255283 0
0.0800946 0.254429 0
0.166613 0.253407 0
0.237415 0.251667 0
0.307012 0.248661 0
0.380148 0.244022 0
0.458854 0.236881 0
0.539208 0.228672 0
0.618601 0.219059 0
0.698909 0.209293 0
0.779446 0.202121 0
0.849958 0.209659 0
0.903227 0.243534 0
0.918868 0.298802 0
0.912627 0.366705 0
0.904143 0.440742 0
0.895171 0.518761 0
0.885801 0.598596 0
0.876616 0.677119 0.0703288
0.868345 0.748974 0.136706
0.86157 0.808469 0.205936
0.856229 0.856245 0.283345
0.852079 0.894575 0.36495
0.848966 0.924285 0.444602
0.84651 0.948486 0.519738
0.844617 0.967742 0.585412
0 0.307805 0
0 0.308385 0
0 0.308736 0
0 0.309026 0
0 0.309239 0
0 0.309392 0
0 0.309468 0
0 0.309667 0
0 0.309331 0
0.109773 0.308156 0
0.207507 0.307408 0
0.286183 0.305684 0
0.365988 0.30251 0
0.450385 0.297749 0
0.534142 0.292775 0
0.61413 0.287694 0
0.692851 0.283772 0
0.770886 0.283207 0
0.839384 0.292866 0
0.891707 0.31902 0
0.911543 0.360983 0
0.907103 0.414893 0
0.899947 0.477363 0
0.892012 0.546151 0
0.883665 0.618158 0
0.875013 0.690745 0.0624704
0.867338 0.757412 0.13402
0.861006 0.813245 0.205295
0.855909 0.85893 0.282094
0.851896 0.896132 0.364141
0.848859 0.925185 0.444068
0.846448 0.949004 0.519402
0.844587 0.967987 0.585275
0 0.370565 0
0 0.370825 0
0 0.371176 0
0 0.37174 0
0 0.371954 0
0 0.372137 0
0 0.372305 0
0 0.372381 0
0 0.372305 0
0.00920119 0.371847 0
0.147112 0.371069 0
0.252583 0.370398 0
0.34284 0.368887 0
0.434485 0.366247 0
0.523705 0.362799 0
0.60679 0.359808 0
0.686061 0.359014 0
0.762203 0.361364 0
0.828214 0.371405 0
0.879499 0.392523 0
0.903868 0.424567 0
0.901091 0.46743 0
0.895048 0.51986 0
0.888212 0.579095 0
0.880781 0.643046 0
0.87303 0.707622 0.0533761
0.866056 0.768261 0.130617
0.860243 0.819623 0.204532
0.855467 0.86273 0.281422
0.851652 0.898161 0.363104
0.848707 0.92639 0.443351
0.846357 0.949722 0.518929
0.844541 0.968383 0.585016
0 0.443503 0
0 0.443656 0
0 0.443961 0
0 0.444205 0
0 0.444419 0
0 0.444923 0
0 0.445121 0
0 0.445274 0
0 0.445411 0
0 0.445518 0
0.0475624 0.444816 0
0.190143 0.444877 0
0.305653 0.444251 0
0.407736 0.442893 0
0.504341 0.440772 0
0.593072 0.438941 0
0.675746 0.438224 0
0.752087 0.44062 0
0.816098 0.449088 0
0.86595 0.465461 0
0.895827 0.490791 0
0.894453 0.525032 0
0.889525 0.567742 0
0.883741 0.617548 0
0.877363 0.67248 0
0.870573 0.728649 0.0400397
0.8645 0.781582 0.126497
0.859281 0.827817 0.203677
0.854871 0.867765 0.281498
0.851301 0.901015 0.361746
0.848508 0.928008 0.442405
0.84625 0.950683 0.518318
0.844465 0.968963 0.584649
0 0.525414 0
0 0.525475 0
0 0.525704 0
0 0.525917 0
0 0.526085 0
0 0.526253 0
0 0.526436 0
0 0.526635 0
0 0.527092 0
0 0.527184 0
0 0.527092 0
0.0861067 0.525887 0
0.244938 0.525597 0
0.368841 0.524422 0
0.47538 0.522881 0
0.571649 0.521004 0
0.659968 0.519982 0
0.738857 0.521157 0
0.802396 0.527337 0
0.850721 0.540139 0
0.886503 0.559533 0
0.887297 0.586206 0
0.883421 0.620386 0
0.878721 0.660838 0
0.873411 0.706355 0
0.86772 0.753048 0.0231327
0.862593 0.797742 0.12137
0.858091 0.837934 0.202823
0.854109 0.874205 0.281773
0.850843 0.904784 0.360052
0.848234 0.930282 0.441093
0.846082 0.951965 0.51751
0.844373 0.969726 0.584161
0 0.608621 0
0 0.608621 0
0 0.608728 0
0 0.60885 0
0 0.608972 0
0 0.609049 0
0 0.60914 0
0 0.609247 0
0 0.609308 0
0 0.609277 0
0 0.60943 0
0 0.608972 0
0.141695 0.607172 0
0.314122 0.60647 0
0.436973 0.604974 0
0.542245 0.603357 0
0.63711 0.601785 0
0.719997 0.602014 0
0.785336 0.605859 0
0.833326 0.614954 0
0.870466 0.629816 0
0.879255 0.649882 0
0.876936 0.676081 0
0.873243 0.707851 0
0.869093 0.743374 0
0.864561 0.780026 0.000534066
0.86041 0.81619 0.116487
0.856611 0.850431 0.20209
0.853178 0.882078 0.282292
0.850278 0.90959 0.359548
0.847868 0.933303 0.439384
0.845869 0.95378 0.51635
0.844251 0.970718 0.583505
0 0.690044 0
0 0.690044 0
0 0.690044 0
0 0.69012 0
0 0.69015 0
0 0.690196 0
0 0.690211 0
0 0.690242 0
0 0.690211 0
0 0.690089 0
0 0.689815 0
0 0.689586 0
0 0.687907 0
0.22237 0.68629 0
0.387427 0.685328 0
0.504845 0.683604 0
0.607126 0.681971 0
0.694896 0.681163 0
0.763073 0.683253 0
0.813107 0.689113 0
0.85037 0.699336 0
0.870329 0.714199 0
0.870268 0.732891 0
0.867674 0.755535 0
0.864652 0.781262 0
0.861265 0.808652 0
0.858 0.836606 0.111849
0.854917 0.864881 0.202472
0.852064 0.891661 0.283314
0.849577 0.915511 0.360845
0.847395 0.937209 0.438209
0.845563 0.956191 0.514839
0.844068 0.972152 0.582574
0 0.769162 0
0 0.769162 0
0 0.769162 0
0 0.769162 0
0 0.769146 0
0 0.769131 0
0 0.769085 0
0 0.769024 0
0 0.768872 0
0 0.768612 0
0 0.768185 0
0 0.767468 0
0 0.766583 0
0.122881 0.763851 0
0.325338 0.762234 0
0.461997 0.760601 0
0.572473 0.758343 0
0.66482 0.756695 0
0.73666 0.756619 0
0.789761 0.759274 0
0.82945 0.764797 0
0.857633 0.773709 0
0.863645 0.785824 0
0.862379 0.800626 0
0.860334 0.818036 0
0.85803 0.837507 0
0.85539 0.858656 0.109667
0.85304 0.880888 0.204334
0.850782 0.902571 0.285618
0.848722 0.922896 0.362707
0.84683 0.942 0.437873
0.845197 0.959258 0.513176
0.843839 0.97406 0.581277
0 0.836042 0
0 0.836042 0
0 0.836042 0
0 0.836042 0
0 0.836042 0
0 0.835996 0
0 0.835889 0
0 0.835737 0
0 0.835462 0
0 0.835035 0
0 0.834424 0
0 0.833448 0
0 0.832074 0
0.0370184 0.829206 0
0.259571 0.8271 0
0.42417 0.824872 0
0.542245 0.822171 0
0.637125 0.819791 0
0.710857 0.818326 0
0.767025 0.818387 0
0.809201 0.820539 0
0.839612 0.824933 0
0.856886 0.831647 0
0.857633 0.840848 0
0.856321 0.852323 0
0.854582 0.865843 0
0.852766 0.881086 0.114
0.851041 0.897826 0.208682
0.849363 0.914611 0.289387
0.847715 0.931517 0.365896
0.846143 0.947936 0.439948
0.844739 0.963027 0.511467
0.843534 0.976501 0.57969
0 0.887358 0
0 0.887358 0
0 0.887358 0
0 0.887358 0
0 0.887358 0
0 0.887358 0
0 0.887358 0
0 0.887175 0
0 0.886824 0
0 0.886229 0
0 0.885405 0
0 0.884291 0
0 0.882765 0
0 0.879957 0
0.210971 0.877089 0
0.399786 0.8748 0
0.521584 0.871916 0
0.616449 0.869001 0
0.689738 0.866896 0
0.746883 0.865736 0
0.79089 0.865858 0
0.823163 0.867735 0
0.847669 0.87129 0
0.853056 0.876661 0
0.852598 0.883864 0
0.851316 0.892561 0.00173953
0.850202 0.903029 0.127031
0.849073 0.914717 0.21622
0.847852 0.927657 0.295338
0.846586 0.941207 0.37052
0.845335 0.954803 0.443473
0.844205 0.967651 0.513542
0.843168 0.979522 0.577752
0 0.927382 0
0 0.927382 0
0 0.927382 0
0 0.927382 0
0 0.927382 0
0 0.927382 0
0 0.927382 0
0 0.927382 0
0 0.927214 0
0 0.926558 0
0 0.925505 0
0 0.924224 0
0 0.922667 0
0 0.919738 0
0.212924 0.916777 0
0.392569 0.91426 0
0.511482 0.911437 0
0.602869 0.908476 0
0.673869 0.905974 0
0.73022 0.904204 0
0.774487 0.903273 0
0.808209 0.90341 0
0.834348 0.904768 0
0.848417 0.907393 0
0.849363 0.91133 0
0.848508 0.91632 0.0406653
0.847852 0.923293 0.145708
0.84712 0.93167 0.228641
0.846281 0.941192 0.303853
0.845365 0.951705 0.377218
0.844465 0.962432 0.448447
0.84358 0.973053 0.517143
0.842725 0.983261 0.579049
0 0.956924 0
0 0.956924 0
0 0.956924 0
0 0.956924 0
0 0.956924 0
0 0.956924 0
0 0.956924 0
0 0.956924 0
0 0.956924 0
0 0.956878 0
0 0.955764 0
0 0.954269 0
0 0.95256 0
0 0.950088 0
0.254627 0.946685 0
0.404959 0.944152 0
0.513802 0.941299 0
0.598093 0.938521 0
0.664714 0.935988 0
0.718791 0.933867 0
0.761807 0.932418 0
0.795712 0.931701 0
0.822843 0.931746 0
0.843503 0.932815 0
0.846418 0.934768 0
0.846006 0.937743 0.0798199
0.84567 0.94229 0.171221
0.845243 0.948058 0.245991
0.844724 0.954833 0.316594
0.844144 0.962417 0.386343
0.843519 0.970657 0.455421
0.842878 0.979141 0.522026
0.842237 0.987594 0.581918
0 0.979278 0
0 0.979278 0
0 0.979278 0
0 0.979278 0
0 0.979278 0
0 0.979278 0
0 0.979278 0
0 0.979278 0
0 0.979278 0
0 0.979278 0
0 0.979278 0
0 0.977813 0
0 0.975799 0
0.075349 0.972427 0
0.311376 0.970138 0
0.432975 0.967666 0
0.52578 0.965011 0
0.600244 0.962402 0
0.660899 0.959991 0
0.711589 0.957946 0
0.752377 0.956252 0
0.785397 0.955154 0
0.812528 0.954559 0
0.833829 0.954589 0
0.843015 0.955108 0.0376898
0.843854 0.956817 0.131304
0.843732 0.959533 0.203372
0.843534 0.96318 0.269276
0.843275 0.967727 0.333791
0.842939 0.973114 0.399329
0.842557 0.979156 0.464652
0.84213 0.985718 0.528649
0.841688 0.992416 0.586038
0 0.995773 0
0 0.995773 0
0 0.995773 0
0 0.995773 0
0 0.995773 0
0 0.995773 0
0 0.995773 0
0 0.995773 0
0 0.995773 0
0 0.995773 0
0 0.995773 0
0 0.995773 0
0 0.993973 0
0.242069 0.990448 0
0.373907 0.988327 0
0.470054 0.986068 0
0.545892 0.983658 0
0.609171 0.981323 0
0.66276 0.97911 0
0.708568 0.977096 0
0.746273 0.975433 0
0.777874 0.974044 0
0.804166 0.973083 0
0.825223 0.972335 0.0222477
0.840162 0.972381 0.111925
0.842039 0.973083 0.18024
0.842084 0.974502 0.240452
0.842054 0.976715 0.297993
0.841962 0.979675 0.356313
0.84181 0.983413 0.416251
0.841611 0.987747 0.47744
0.841382 0.992493 0.537179
0.841108 0.997559 0.591546
0.209323 1 0
0.209323 1 0
0.209323 1 0
0.209323 1 0
0.209323 1 0
0.209323 1 0
0.209323 1 0
0.209323 1 0
0.209308 1 0
0.209293 1 0
0.209293 1 0
0.209262 1 0
0.209232 1 0
0.332921 1 0
0.435752 1 0
0.509865 1 0
0.571023 0.998047 0
0.623133 0.996002 0
0.669413 0.994003 0
0.709712 0.992172 0
0.743496 0.990341 0
0.772747 0.988952 0.0336156
0.797848 0.987854 0.0771038
0.818463 0.987182 0.125612
0.835386 0.986877 0.177523
0.840223 0.986954 0.229191
0.840681 0.987579 0.280552
0.840757 0.988769 0.331548
0.840787 0.990585 0.383917
0.840787 0.992966 0.437873
0.840726 0.995895 0.493538
0.84065 0.999695 0.548684
0.840528 1 0.598505
0.424109 1 0.101656
0.424109 1 0.101656
0.424109 1 0.101656
0.424109 1 0.101656
0.424109 1 0.101656
0.424109 1 0.101656
0.424109 1 0.101656
0.424109 1 0.101656
0.424109 1 0.101656
0.424094 1 0.101656
0.424094 1 0.101656
0.424094 1 0.101656
0.424079 1 0.101656
0.424063 1 0.101656
0.486641 1 0.104997
0.548592 1 0.109819
0.597498 1 0.115328
0.640436 1 0.121813
0.679622 1 0.130129
0.713848 1 0.14023
0.743954 1 0.152682
0.770611 1 0.16788
0.793744 1 0.186557
0.813306 0.999817 0.208316
0.829725 0.99881 0.240482
0.838392 0.99855 0.280003
0.839551 0.998596 0.323003
0.839704 0.999603 0.368872
0.839826 1 0.415793
0.839902 1 0.46421
0.839963 1 0.513878
0.839994 1 0.56289
0.839963 1 0.607706
0.542824 1 0.224002
0.542824 1 0.224002
0.542824 1 0.224002
0.542824 1 0.224002
0.542824 1 0.224002
0.542824 1 0.224002
0.542824 1 0.224002
0.542824 1 0.224002
0.542824 1 0.224002
0.542824 1 0.224002
0.542824 1 0.224002
0.542824 1 0.224002
0.542809 1 0.224002
0.542809 1 0.224002
0.542794 1 0.224002
0.581796 1 0.226291
0.624506 1 0.229664
0.660563 1 0.233661
0.692576 1 0.238437
0.721202 1 0.244587
0.747097 1 0.252186
0.770901 1 0.261753
0.791791 1 0.273625
0.809903 1 0.288472
0.825437 1 0.306401
0.836851 1 0.334035
0.838697 1 0.36939
0.838895 1 0.408759
0.839063 1 0.450858
0.8392 1 0.494102
0.839323 1 0.537743
0.839414 1 0.57995
0.839445 1 0.618769
0.62089 1 0.320607
0.62089 1 0.320607
0.62089 1 0.320607
0.62089 1 0.320607
0.62089 1 0.320607
0.62089 1 0.320607
0.62089 1 0.320607
0.62089 1 0.320607
0.62089 1 0.320607
0.62089 1 0.320607
0.62089 1 0.320607
0.62089 1 0.320607
0.62089 1 0.320607
0.62089 1 0.320607
0.620874 1 0.320607
0.620874 1 0.320607
0.649027 1 0.322621
0.680781 1 0.325597
0.706859 1 0.329
0.730297 1 0.333074
0.752499 1 0.338399
0.773037 1 0.345129
0.791501 1 0.353643
0.807965 1 0.36434
0.822309 1 0.37792
0.834287 1 0.394278
0.837842 1 0.419532
0.838285 1 0.451896
0.838468 1 0.488121
0.838651 1 0.526299
0.838804 1 0.56379
0.838926 1 0.599252
0.839017 1 0.631815
0.677821 1 0.408118
0.677821 1 0.408118
0.677821 1 0.408118
0.677821 1 0.408118
0.677821 1 0.408118
0.677821 1 0.408118
0.677821 1 0.408118
0.677821 1 0.408118
0.677821 1 0.408118
