BBLuts/BB_106_0050_LUT.cube
TITLE "Generated by Resolve"
LUT_3D_SIZE 33
0.0184176 0.0175479 0.0163119
0.0184176 0.0175479 0.0163119
0.0184176 0.0175479 0.0163119
0.0184176 0.0175479 0.0163119
0.0184176 0.0175479 0.0163119
0.0599069 0.0175479 0.0162203
0.108171 0.0175021 0.016144
0.144121 0.0174716 0.016083
0.179187 0.0174716 0.0160067
0.220798 0.0175326 0.0159152
0.269001 0.0176089 0.0157778
0.322087 0.017731 0.0156405
0.381903 0.0178683 0.0154726
0.451499 0.0180209 0.0152895
0.531014 0.0181735 0.0150759
0.615305 0.0183261 0.0148623
0.70135 0.0184634 0.0146487
0.787625 0.0186007 0.014435
0.863783 0.0187076 0.0142367
0.922469 0.0187839 0.0140993
0.922942 0.0187839 0.0140993
0.922988 0.0187839 0.0140993
0.919585 0.227054 0.0599222
0.917464 0.367041 0.0905623
0.916167 0.475914 0.125444
0.915633 0.572854 0.167468
0.916091 0.659113 0.224964
0.917632 0.727687 0.300084
0.919936 0.778561 0.379004
0.923369 0.817365 0.458106
0.927443 0.845609 0.535698
0.92668 0.869444 0.603922
0.922881 0.889128 0.656001
0.0184176 0.0175479 0.0163119
0.0184176 0.0175479 0.0163119
0.0184176 0.0175479 0.0163119
0.0184176 0.0175479 0.0163119
0.0184176 0.0175479 0.0163119
0.0705272 0.0175479 0.0162051
0.112016 0.0175021 0.0161288
0.14696 0.0174716 0.0160678
0.183734 0.0174716 0.0160067
0.226169 0.0175174 0.0158999
0.274372 0.0176089 0.0157778
0.326787 0.017731 0.0156252
0.384894 0.0178683 0.0154726
0.453422 0.0180209 0.0152895
0.532616 0.0181735 0.0150759
0.616388 0.0183261 0.0148623
0.702007 0.0184634 0.0146487
0.7879 0.0185855 0.014435
0.863645 0.0187076 0.0142367
0.922026 0.0187839 0.0140993
0.922957 0.0187839 0.0140993
0.923003 0.0187839 0.0140993
0.919188 0.248753 0.051545
0.91725 0.377722 0.0868391
0.91603 0.482826 0.12343
0.915526 0.577447 0.166369
0.915984 0.662074 0.223804
0.91754 0.729381 0.299458
0.919875 0.779538 0.378653
0.923323 0.817929 0.457893
0.927413 0.84593 0.535561
0.92665 0.869642 0.603845
0.922866 0.889235 0.655955
0.0184176 0.0175479 0.0163119
0.0184176 0.0175479 0.0163119
0.0184176 0.0175479 0.0163119
0.0184176 0.0175479 0.0163119
0.0184176 0.0175479 0.0163119
0.0767681 0.0175479 0.0161898
0.113573 0.0175021 0.0161288
0.14963 0.0174716 0.0160678
0.188479 0.0174716 0.0159915
0.231312 0.0175174 0.0158846
0.278676 0.0176089 0.0157626
0.329442 0.017731 0.0156252
0.387228 0.0178683 0.0154574
0.455482 0.0180209 0.0152743
0.534234 0.0181735 0.0150759
0.617456 0.0183261 0.0148623
0.702632 0.0184634 0.0146334
0.788144 0.0185855 0.014435
0.863478 0.0187076 0.0142367
0.921584 0.0187839 0.0140993
0.922972 0.0187839 0.0140993
0.923033 0.0187839 0.0140993
0.918822 0.267948 0.0395819
0.917067 0.38793 0.082887
0.915908 0.48954 0.121386
0.915404 0.581964 0.16527
0.915892 0.664988 0.222629
0.917464 0.731044 0.298848
0.919814 0.780514 0.378302
0.923278 0.818479 0.457679
0.927382 0.84625 0.535424
0.926635 0.869825 0.603754
0.922866 0.889357 0.655909
0.0184176 0.0175479 0.0163119
0.0184176 0.0175479 0.0163119
0.0184176 0.0175479 0.0163119
0.0183413 0.0240024 0.0162509
0.0395209 0.0284276 0.0161593
0.0816052 0.0175326 0.0161898
0.114382 0.0175174 0.0161288
0.149859 0.0174868 0.0160678
0.189258 0.0174868 0.0159915
0.233265 0.0175174 0.0158846
0.2813 0.0176089 0.0157626
0.331716 0.0177157 0.0156252
0.389471 0.0178683 0.0154574
0.457542 0.0180209 0.0152743
0.535866 0.0181735 0.0150607
0.618555 0.0183261 0.014847
0.703288 0.0184634 0.0146487
0.788388 0.0185855 0.014435
0.86331 0.0186923 0.0142367
0.921111 0.0187839 0.0140993
0.923018 0.0187839 0.0140993
0.921477 0.106966 0.0131533
0.918425 0.285191 0.0112612
0.916899 0.397742 0.0786297
0.915801 0.496056 0.11931
0.915328 0.586389 0.164187
0.915816 0.667842 0.221485
0.917403 0.732662 0.298238
0.919768 0.78146 0.377951
0.923232 0.819028 0.45745
0.927337 0.846571 0.535271
0.926604 0.870024 0.603662
0.92285 0.889464 0.655863
0.0176089 0.0657511 0.0158083
0.0174105 0.068513 0.0157778
0.0173342 0.0711223 0.0157473
0.0174411 0.0735637 0.0157321
0.0177462 0.0743725 0.0157626
0.0738689 0.0736706 0.0157015
0.110231 0.0717174 0.0156863
0.147524 0.0674754 0.0156863
0.188434 0.0582132 0.015671
0.233936 0.0175174 0.0158846
0.282902 0.0176089 0.0157626
0.333684 0.0177157 0.0156252
0.391608 0.0178683 0.0154574
0.459648 0.0180209 0.0152743
0.537545 0.0181735 0.0150607
0.619684 0.0183261 0.014847
0.703944 0.0184482 0.0146334
0.788617 0.0185855 0.014435
0.863142 0.0186923 0.0142519
0.920638 0.0187686 0.0140993
0.923049 0.0187686 0.0140993
0.920638 0.157031 0.0126192
0.918196 0.30106 0.0110933
0.916762 0.407156 0.0740063
0.915724 0.502403 0.11722
0.915282 0.590723 0.163104
0.91577 0.670619 0.220356
0.917357 0.734264 0.297627
0.919738 0.782391 0.377615
0.923156 0.819577 0.457221
0.927291 0.846891 0.535134
0.926589 0.870207 0.603586
0.922835 0.88957 0.655818
0.0171206 0.0945449 0.0155184
0.0168307 0.0968185 0.0154726
0.0166629 0.0990005 0.0154421
0.0166781 0.100679 0.0154269
0.0169223 0.101335 0.0154421
0.0560159 0.101183 0.0154116
0.102785 0.100221 0.0153964
0.143252 0.0982223 0.0153964
0.186297 0.0943923 0.0153658
0.233692 0.0871138 0.0153048
0.28336 0.0727855 0.0152743
0.335393 0.0177157 0.01561
0.393729 0.0178683 0.0154574
0.461799 0.0180209 0.015259
0.539269 0.0181735 0.0150607
0.620829 0.0183261 0.014847
0.704601 0.0184482 0.0146334
0.788846 0.0185702 0.014435
0.862943 0.0186923 0.0142519
0.920134 0.0187686 0.0140993
0.923095 0.0187686 0.0140993
0.920104 0.190417 0.0122683
0.917998 0.315816 0.0109407
0.916671 0.416281 0.0688792
0.915694 0.508614 0.115068
0.915267 0.595026 0.162036
0.915755 0.673365 0.219226
0.917342 0.735836 0.297032
0.919722 0.783322 0.377279
0.923079 0.820127 0.456992
0.927245 0.847211 0.534981
0.926558 0.870405 0.603494
0.92282 0.889693 0.655772
0.0166323 0.123583 0.0152285
0.0163882 0.125505 0.015198
0.0159152 0.12752 0.0151217
0.0159304 0.128542 0.0151217
0.0161135 0.129122 0.0151369
0.0166018 0.129107 0.0151827
0.0885328 0.128618 0.0151064
0.136141 0.12726 0.0151522
0.182818 0.12491 0.0151675
0.233051 0.120806 0.0151064
0.284138 0.11339 0.0150149
0.337652 0.100984 0.0149233
0.396628 0.0763104 0.0149386
0.465476 0.0178988 0.0153048
0.542092 0.0180972 0.0150759
0.622538 0.0182803 0.0148623
0.705516 0.0184329 0.0146487
0.789136 0.0185702 0.014435
0.862669 0.018677 0.0142519
0.919478 0.0187686 0.0141146
0.923125 0.0187686 0.0140993
0.919585 0.222492 0.0119326
0.917723 0.332601 0.0107576
0.916396 0.4271 0.0616312
0.915312 0.516121 0.112306
0.914534 0.600427 0.160525
0.914366 0.677104 0.217411
0.915022 0.738521 0.29546
0.916411 0.785595 0.375479
0.918349 0.822446 0.45449
0.92134 0.849729 0.531746
0.922652 0.872068 0.601144
0.923644 0.889509 0.656229
0.0167391 0.156741 0.0149691
0.0163119 0.158511 0.0149081
0.0158236 0.160006 0.014847
0.0155032 0.160922 0.0148013
0.0154879 0.161486 0.0148013
0.0159609 0.161547 0.014847
0.0436713 0.161212 0.0148775
0.122057 0.160281 0.0148623
0.175113 0.158724 0.0148928
0.228428 0.155932 0.014847
0.281788 0.150958 0.0147097
0.338094 0.143664 0.0145571
0.398764 0.132311 0.0144198
0.467414 0.111833 0.0143587
0.544274 0.0617533 0.0146334
0.624552 0.018265 0.0148623
0.706615 0.0184329 0.0146487
0.789441 0.0185702 0.014435
0.862242 0.018677 0.0142519
0.918532 0.0187533 0.0141146
0.921035 0.140139 0.0128176
0.919066 0.257267 0.0115663
0.917494 0.35314 0.010544
0.916243 0.440818 0.0490883
0.915297 0.525689 0.108614
0.91458 0.607156 0.158785
0.914443 0.681331 0.216388
0.915099 0.740948 0.294545
0.916472 0.787045 0.374975
0.918242 0.823331 0.454124
0.921279 0.850248 0.531502
0.922621 0.872374 0.600992
0.923629 0.889693 0.656153
0.0162509 0.196231 0.0145876
0.0157168 0.197772 0.0145113
0.0151369 0.198734 0.0144503
0.0147097 0.199603 0.0144045
0.0146029 0.200137 0.014374
0.0149996 0.200259 0.0144198
0.0159304 0.2 0.0145266
0.0871595 0.19939 0.0145113
0.158633 0.197436 0.0145418
0.21796 0.194873 0.0145266
0.276036 0.191501 0.0143893
0.33608 0.186725 0.0141909
0.400092 0.179492 0.0139773
0.470375 0.1682 0.0137942
0.546441 0.151629 0.0137026
0.625269 0.126543 0.0137179
0.707012 0.0822156 0.013962
0.789899 0.018555 0.014435
0.861616 0.0186618 0.0142519
0.915389 0.121157 0.0130312
0.919921 0.210208 0.0120699
0.918532 0.295308 0.0111696
0.917189 0.377508 0.0102998
0.915877 0.457984 0.00944533
0.915084 0.537972 0.103395
0.914321 0.615976 0.156374
0.914107 0.686931 0.215488
0.914687 0.744274 0.293141
0.916045 0.78912 0.37409
0.918135 0.82446 0.453651
0.921187 0.850935 0.531197
0.92256 0.872786 0.600809
0.923598 0.889937 0.656046
0.0157015 0.241337 0.0141451
0.0150607 0.241993 0.0140841
0.0143893 0.242649 0.0140078
0.0139773 0.243137 0.013962
0.0140993 0.243259 0.0139773
0.0147707 0.242985 0.0140383
0.0157931 0.24242 0.0141451
0.016907 0.241596 0.0142672
0.124392 0.240467 0.0141604
0.198917 0.238743 0.0140993
0.264332 0.236393 0.0139925
0.329976 0.233066 0.0138094
0.398657 0.228138 0.0135348
0.472694 0.220508 0.0132906
0.549645 0.2112 0.013077
0.627268 0.199573 0.0129397
0.707027 0.186267 0.0128481
0.787488 0.175051 0.0127565
0.857633 0.181415 0.0125124
0.911604 0.216007 0.0120241
0.918761 0.270695 0.0114137
0.917693 0.336889 0.0107118
0.916579 0.406561 0.0099794
0.91548 0.479332 0.00921645
0.914824 0.553536 0.0959182
0.914214 0.62707 0.153292
0.914122 0.693919 0.214496
0.914748 0.748333 0.291508
0.916106 0.791592 0.37319
0.918029 0.82594 0.453025
0.921096 0.851835 0.530785
0.922499 0.873335 0.600565
0.923568 0.890257 0.655909
0.0150912 0.289296 0.0136873
0.014313 0.290013 0.0135958
0.0134585 0.290761 0.0135042
0.0128023 0.291341 0.0134432
0.0125887 0.29163 0.0134127
0.0130159 0.291539 0.0134585
0.0139467 0.291142 0.01355
0.015198 0.290486 0.0136873
0.0164492 0.289555 0.0138247
0.163699 0.288426 0.013611
0.243626 0.286809 0.0135042
0.317052 0.284581 0.0133211
0.392386 0.281132 0.0130465
0.471992 0.276173 0.012726
0.551965 0.270191 0.0124819
0.629847 0.263859 0.0122683
0.708339 0.258061 0.0121004
0.78677 0.255283 0.0119173
0.854887 0.263539 0.0116579
0.907622 0.289113 0.0112612
0.917983 0.330098 0.0108034
0.917144 0.381765 0.0102541
0.916197 0.440818 0.00962844
0.915236 0.505135 0.00894179
0.914672 0.572778 0.0847334
0.914199 0.640833 0.14934
0.914229 0.702663 0.213336
0.914931 0.753475 0.289387
0.916304 0.794751 0.372045
0.918029 0.827802 0.452293
0.920974 0.85301 0.530266
0.922423 0.874037 0.600229
0.923522 0.890669 0.655726
0.0143435 0.345754 0.013138
0.0134127 0.346517 0.0130312
0.0124056 0.34728 0.0129244
0.0115663 0.347921 0.0128328
0.0111391 0.348318 0.0127871
0.0112154 0.348424 0.0127871
0.0118105 0.348257 0.0128634
0.0128939 0.347814 0.0129702
0.0142672 0.347082 0.0131228
0.01561 0.346105 0.0132601
0.204974 0.345129 0.0129244
0.293629 0.343709 0.0127413
0.378561 0.341756 0.0124666
0.465232 0.338842 0.0121157
0.550149 0.33492 0.0118257
0.630961 0.331106 0.0115663
0.709407 0.328756 0.011368
0.785718 0.329763 0.0111391
0.851286 0.338903 0.0108797
0.902464 0.359136 0.010544
0.917159 0.389593 0.0101778
0.916487 0.430686 0.00973526
0.915724 0.480232 0.00921645
0.914931 0.535912 0.00863661
0.914443 0.596078 0.0658122
0.914229 0.657588 0.14435
0.914412 0.71339 0.212009
0.915175 0.75996 0.286595
0.916564 0.798764 0.37052
0.918273 0.830091 0.451423
0.920821 0.854536 0.529549
0.922316 0.874968 0.599802
0.923476 0.891218 0.655482
0.0134127 0.411414 0.0124971
0.0122988 0.412222 0.0123751
0.0111849 0.41297 0.012253
0.0104067 0.413535 0.0121614
0.00936904 0.414191 0.0120546
0.00944533 0.414298 0.0120699
0.00976577 0.414298 0.0121004
0.0105135 0.414084 0.0121767
0.0117189 0.413626 0.0122988
0.0131838 0.413077 0.0124514
0.101701 0.412589 0.0123598
0.250782 0.4121 0.0120546
0.35285 0.411185 0.0117647
0.449516 0.409277 0.0114595
0.54139 0.406668 0.0111543
0.627466 0.404044 0.0108797
0.708675 0.402609 0.0106203
0.783749 0.404181 0.0103761
0.846632 0.411673 0.010132
0.895933 0.427222 0.00984207
0.916243 0.45127 0.00953689
0.915724 0.484047 0.00918593
0.91516 0.524559 0.00875868
0.91458 0.571832 0.00827039
0.914061 0.624063 0.00773632
0.91429 0.677394 0.138216
0.914626 0.726284 0.21062
0.915328 0.768032 0.285222
0.916442 0.803952 0.368338
0.917662 0.833326 0.449851
0.920256 0.856641 0.52842
0.921141 0.87657 0.598611
0.921523 0.892638 0.653986
0.0117952 0.486275 0.0117037
0.0113375 0.486717 0.0116426
0.010605 0.487236 0.0115663
0.00975052 0.4878 0.0114748
0.00881971 0.48835 0.0113832
0.00823987 0.488746 0.0113069
0.0081178 0.48893 0.0113069
0.00872816 0.488792 0.011368
0.00984207 0.488411 0.0114748
0.0112612 0.487831 0.0116274
0.0124514 0.48719 0.0117647
0.160708 0.486824 0.011429
0.310582 0.486183 0.0110323
0.42269 0.484779 0.0106966
0.523125 0.482704 0.0103761
0.616175 0.480308 0.0100862
0.702693 0.478477 0.00982681
0.779324 0.479149 0.00959792
0.840345 0.484871 0.00936904
0.887724 0.496818 0.00910964
0.915221 0.515267 0.00885023
0.914885 0.540978 0.00859083
0.914534 0.573587 0.00825513
0.914214 0.612421 0.0078584
0.914 0.655894 0.0074464
0.914473 0.700023 0.131121
0.915053 0.741176 0.209445
0.915877 0.777691 0.285878
0.916991 0.810086 0.365774
0.918196 0.836912 0.448386
0.920104 0.859144 0.527245
0.920989 0.878111 0.597864
0.921447 0.893584 0.653574
0.0108339 0.562936 0.010956
0.0103151 0.563302 0.0109102
0.00944533 0.56379 0.0108034
0.00842298 0.564324 0.0106966
0.00732433 0.564874 0.0105898
0.00657664 0.565255 0.0104982
0.00628672 0.565438 0.0104677
0.00665293 0.565332 0.0105135
0.00755322 0.564965 0.010605
0.00880446 0.564385 0.0107424
0.0100862 0.563653 0.0108797
0.0109102 0.562829 0.0109712
0.241016 0.562295 0.0103914
0.384955 0.561151 0.0099794
0.496468 0.559487 0.00962844
0.597269 0.557336 0.009308
0.689906 0.5552 0.0090486
0.769924 0.554803 0.00881971
0.831418 0.558419 0.00860609
0.877638 0.567147 0.00839246
0.91429 0.580957 0.00816358
0.914153 0.600595 0.00796521
0.914046 0.626215 0.00772107
0.913985 0.656626 0.00743114
0.913939 0.69012 0.00712596
0.914351 0.724941 0.123659
0.914672 0.75816 0.208621
0.915022 0.789624 0.286534
0.915633 0.818158 0.362295
0.917403 0.841917 0.445762
0.919982 0.862257 0.525704
0.920867 0.880064 0.596902
0.92137 0.894789 0.653025
0.00926223 0.639384 0.0101625
0.0087129 0.639689 0.0101015
0.00759899 0.640192 0.0099794
0.00622568 0.640803 0.00984207
0.00479133 0.641428 0.00968948
0.00387579 0.641825 0.00958267
0.00350958 0.641978 0.00955215
0.00378424 0.64184 0.00958267
0.00442512 0.641505 0.0096437
0.00544747 0.64094 0.00975052
0.00665293 0.640131 0.00988785
0.0077821 0.639109 0.0100099
0.0083772 0.637873 0.010071
0.329061 0.637217 0.00920119
0.460166 0.635782 0.00880446
0.569757 0.633906 0.0084535
0.668574 0.631708 0.00814832
0.752544 0.630549 0.00791943
0.816114 0.632334 0.00772107
0.863157 0.638071 0.00753796
0.899123 0.647944 0.00735485
0.911665 0.662028 0.007187
0.911833 0.679942 0.00703441
0.912154 0.701381 0.00686656
0.912581 0.72546 0.00668345
0.913481 0.751034 0.117647
0.914305 0.777066 0.20882
0.915007 0.802915 0.288304
0.915953 0.82681 0.36434
0.917647 0.847593 0.442893
0.920165 0.865995 0.523857
0.92105 0.882399 0.595819
0.921599 0.896208 0.652491
0.0081178 0.71368 0.00941482
0.00747692 0.713939 0.00935378
0.00622568 0.714443 0.00921645
0.00469978 0.715053 0.0090486
0.00314336 0.715663 0.00889601
0.00215152 0.71603 0.0087892
0.00169375 0.716152 0.00874342
0.00183108 0.715999 0.00875868
0.00227359 0.715648 0.00880446
0.00297551 0.715068 0.00888075
0.00393683 0.714229 0.00898756
0.00502022 0.713054 0.00910964
0.00588998 0.711543 0.00920119
0.250904 0.710353 0.00860609
0.418875 0.708644 0.00816358
0.540688 0.706447 0.00782788
0.645594 0.703838 0.00755322
0.732738 0.701778 0.00730907
0.799039 0.701534 0.00712596
0.848692 0.703822 0.00697337
0.885801 0.709087 0.00682078
0.911864 0.71754 0.00669871
0.912093 0.728786 0.00660716
0.912459 0.742657 0.0065156
0.912917 0.758648 0.00640879
0.913863 0.777081 0.115938
0.914733 0.797009 0.211185
0.915526 0.817258 0.29163
0.916487 0.836408 0.367437
0.918135 0.854231 0.441627
0.920592 0.870451 0.521508
0.921462 0.885176 0.594491
0.922026 0.897963 0.651881
0.00729381 0.77554 0.00881971
0.00653086 0.775784 0.00874342
0.00518807 0.776257 0.00859083
0.00363165 0.776822 0.00842298
0.00209049 0.777371 0.00827039
0.00106813 0.777707 0.00816358
0.000534066 0.777798 0.00810254
0.000534066 0.7776 0.00810254
0.000839246 0.777188 0.00813306
0.00140383 0.776547 0.00820935
0.00218204 0.775601 0.00828565
0.00311284 0.774273 0.00839246
0.0040589 0.77258 0.00851453
0.162264 0.77084 0.00817884
0.385702 0.768826 0.00766003
0.517906 0.766201 0.00735485
0.626825 0.763134 0.00708019
0.714412 0.760418 0.0068513
0.781903 0.75877 0.00666819
0.833997 0.758633 0.0065156
0.872953 0.760403 0.00640879
0.901488 0.764431 0.00631724
0.912459 0.770733 0.0062562
0.912825 0.779293 0.00621042
0.913298 0.78999 0.00614939
0.914321 0.802915 0.121309
0.915282 0.817227 0.216815
0.916213 0.83209 0.297063
0.917281 0.846998 0.371969
0.918959 0.861799 0.44535
0.921309 0.875608 0.518471
0.922118 0.888487 0.592798
0.922698 0.900069 0.651118
0.00680552 0.822507 0.0083772
0.00610361 0.822675 0.00830091
0.00485237 0.823056 0.00816358
0.00337224 0.823545 0.00801099
0.00190738 0.824018 0.0078584
0.0010071 0.824247 0.00775158
0 0.824659 0.00761425
0 0.824338 0.00762951
3.0518e-05 0.82385 0.00766003
0.000549325 0.823102 0.00772107
0.00117494 0.822095 0.00779736
0.00192264 0.820768 0.00787366
0.00276188 0.819043 0.00798047
0.128725 0.817136 0.00775158
0.374548 0.815015 0.00720226
0.508766 0.812161 0.00691234
0.616648 0.808881 0.00668345
0.701915 0.805844 0.00650034
0.768032 0.803601 0.00633249
0.820768 0.802304 0.00619516
0.860792 0.80235 0.00608835
0.890791 0.803922 0.0059968
0.912734 0.807141 0.00595102
0.913146 0.812085 0.00593576
0.91371 0.818631 0.0059205
0.914931 0.826978 0.136675
0.91606 0.836408 0.227329
0.917128 0.846937 0.305455
0.918425 0.858381 0.378485
0.920226 0.870085 0.450584
0.922545 0.881315 0.521691
0.923217 0.892317 0.590661
0.923735 0.902541 0.650187
0.00698863 0.85861 0.00808728
0.00604257 0.858839 0.00798047
0.00497444 0.859113 0.00787366
0.00384527 0.859419 0.00775158
0.00241093 0.859831 0.00759899
0.0012665 0.860136 0.00749218
0.000366217 0.860288 0.00738537
7.62951e-05 0.86009 0.00737011
0.000122072 0.859632 0.00737011
0.00047303 0.858915 0.00741588
0.00105287 0.857893 0.00747692
0.00169375 0.85658 0.00755322
0.00238041 0.854902 0.00764477
0.201877 0.853193 0.00720226
0.391806 0.851011 0.00679026
0.516091 0.848157 0.00653086
0.615854 0.844968 0.00633249
0.69543 0.841901 0.0061799
0.758267 0.839414 0.00604257
0.809583 0.837537 0.00590524
0.849531 0.83653 0.00581369
0.880812 0.836454 0.00573739
0.905394 0.83743 0.00570687
0.913466 0.839597 0.00570687
0.914229 0.84303 0.00575265
0.915785 0.848173 0.162142
0.917098 0.854398 0.243809
0.918364 0.861799 0.317556
0.91989 0.870085 0.387686
0.921904 0.878798 0.457847
0.924224 0.887449 0.527367
0.924727 0.896635 0.591791
0.925078 0.905409 0.648936
0.00759899 0.884581 0.00793469
0.00691234 0.884688 0.0078584
0.00590524 0.884916 0.00775158
0.0047303 0.885206 0.00762951
0.00326543 0.885634 0.00747692
0.00204471 0.885939 0.00735485
0.00103761 0.886122 0.00724804
0.000579843 0.885985 0.00720226
0.000457771 0.885603 0.007187
0.000701915 0.884916 0.00721752
0.0011902 0.88394 0.00727855
0.00175479 0.882658 0.00733959
0.00241093 0.881041 0.00743114
0.307042 0.87953 0.00672923
0.436866 0.877348 0.00646983
0.540764 0.874693 0.0062562
0.626291 0.871809 0.00607309
0.696773 0.868986 0.00593576
0.754452 0.866529 0.00581369
0.802808 0.864454 0.00569161
0.841108 0.86302 0.00560006
0.872557 0.862135 0.00555428
0.897993 0.861906 0.00553903
0.914168 0.862562 0.00556954
0.915572 0.864408 0.103456
0.91696 0.867323 0.195346
0.918044 0.871321 0.266667
0.918624 0.876448 0.333822
0.91957 0.882292 0.399512
0.919814 0.889036 0.465766
0.920775 0.895994 0.532128
0.920439 0.903624 0.593622
0.920821 0.910826 0.645426
0.00489815 0.905623 0.00747692
0.0043946 0.905638 0.00743114
0.00318914 0.905943 0.00729381
0.00198367 0.906264 0.00717174
0.000793469 0.906783 0.00698863
0 0.907225 0.00683604
0 0.907515 0.00669871
0 0.9075 0.00662242
0 0.907286 0.00657664
0 0.906828 0.00656138
0 0.906081 0.00656138
0.151263 0.905226 0.00621042
0.300923 0.90396 0.00590524
0.403265 0.902281 0.00570687
0.491829 0.900221 0.00553903
0.570291 0.897841 0.00538643
0.63917 0.895277 0.00526436
0.698283 0.89279 0.00515755
0.749783 0.89044 0.005066
0.793942 0.88835 0.00497444
0.829755 0.886717 0.00491341
0.86009 0.885451 0.00486763
0.885374 0.884581 0.00486763
0.905837 0.884321 0.0417334
0.911025 0.884855 0.164767
0.913024 0.885939 0.232975
0.915053 0.887816 0.294362
0.916976 0.890486 0.354223
0.919203 0.893843 0.415488
0.920241 0.898344 0.477928
0.921523 0.903288 0.541222
0.921187 0.909117 0.599664
0.921553 0.914748 0.649149
0.00515755 0.919829 0.00738537
0.00466926 0.919844 0.00733959
0.00349432 0.92015 0.00721752
0.00236515 0.920455 0.00709544
0.00117494 0.920958 0.00691234
0 0.921828 0.00675975
0.0887617 0.922271 0.00640879
0.166308 0.922332 0.00614939
0.22388 0.922148 0.00598154
0.277516 0.921767 0.00582895
0.330999 0.920699 0.00572213
0.386175 0.919783 0.00561532
0.442725 0.918471 0.00553903
0.500801 0.916838 0.00547799
0.558556 0.914916 0.00543221
0.614557 0.912795 0.00537118
0.666697 0.910597 0.00531014
0.714534 0.908431 0.00523384
0.758679 0.906325 0.00515755
0.79733 0.904418 0.00509651
0.829831 0.9028 0.00503548
0.858228 0.901427 0.0049897
0.882353 0.900587 0.0724346
0.902739 0.899977 0.159152
0.913344 0.899657 0.219867
0.915022 0.899809 0.275502
0.916747 0.900603 0.328832
0.918563 0.902022 0.38143
0.920623 0.904005 0.436927
0.921584 0.906966 0.494331
0.92282 0.910292 0.553368
0.92314 0.91429 0.608118
0.92343 0.918456 0.654597
0.387289 0.929686 0.00663767
0.394965 0.930098 0.00646983
0.401709 0.930709 0.0062562
0.408606 0.931121 0.00608835
0.414893 0.931655 0.00588998
0.421256 0.932067 0.00573739
0.429236 0.932326 0.00560006
0.440238 0.932342 0.00550851
0.454429 0.932204 0.00543221
0.472435 0.931838 0.00537118
0.494469 0.931258 0.00534066
0.520638 0.930434 0.00531014
0.550866 0.929366 0.00531014
0.584955 0.927993 0.00531014
0.621561 0.92636 0.00534066
0.659617 0.924681 0.0491493
0.697749 0.922881 0.0686809
0.735775 0.920592 0.0864424
0.771908 0.918822 0.104402
0.804288 0.91722 0.123522
0.833188 0.915785 0.14435
0.859159 0.914488 0.167468
0.881376 0.913466 0.193439
0.900282 0.912657 0.231052
0.915511 0.91194 0.27451
0.91693 0.911574 0.319951
0.91841 0.911635 0.366049
0.920195 0.912093 0.413794
0.92221 0.912993 0.463416
0.923247 0.914717 0.515343
0.92459 0.916671 0.568902
0.925063 0.91928 0.618662
0.925505 0.922606 0.661402
0.560952 0.935699 0.217884
0.562997 0.93637 0.217517
0.564614 0.937163 0.217044
0.566812 0.937713 0.216754
0.568704 0.938354 0.216403
0.570886 0.938857 0.216159
0.574014 0.939223 0.216007
0.578973 0.939208 0.216098
0.584405 0.939574 0.215946
0.59324 0.939269 0.216327
0.604425 0.938842 0.216892
0.618235 0.938201 0.217716
0.635081 0.937346 0.218875
0.654887 0.936294 0.220401
0.677546 0.935058 0.222416
0.703212 0.933608 0.225071
0.730953 0.932052 0.228504
0.759518 0.930495 0.232883
0.787381 0.929015 0.238544
0.813428 0.927657 0.245884
0.838331 0.926329 0.255314
0.861219 0.925109 0.267308
0.881239 0.924071 0.282368
0.898741 0.923171 0.300999
0.914046 0.922301 0.330419
0.918532 0.921569 0.366369
0.919966 0.920684 0.4065
0.922026 0.920378 0.449668
0.924147 0.920439 0.494621
0.925399 0.92163 0.54107
0.926925 0.922591 0.588052
0.926925 0.924407 0.631479
0.92752 0.926253 0.669779
0.66508 0.935439 0.321263
0.665827 0.935836 0.320958
0.665614 0.936614 0.320287
0.666117 0.937102 0.31989
0.666438 0.937652 0.319448
0.66688 0.938155 0.319036
0.66772 0.938628 0.318669
0.669383 0.939055 0.318395
0.672068 0.939391 0.318242
0.676341 0.939529 0.318349
0.682277 0.939544 0.318669
0.69015 0.939437 0.319219
0.70016 0.939239 0.319997
0.712474 0.938994 0.321035
0.727199 0.93872 0.322377
0.744244 0.938445 0.324102
0.76321 0.938186 0.326284
0.783276 0.937346 0.329061
0.803616 0.936202 0.332601
0.824445 0.935058 0.337072
0.84506 0.933913 0.342992
0.864515 0.93283 0.350713
0.882094 0.931838 0.360754
0.897978 0.930953 0.373617
0.912169 0.930022 0.390066
0.919921 0.929091 0.416678
0.921782 0.928206 0.450446
