BBLuts/BB_102_0610_LUT.cube
TITLE "Generated by Resolve"
LUT_3D_SIZE 5
0 0 0
0.157595 0 0
0.762661 0 0
0.94287 0.554314 0.0704814
0.90103 1 0.710491
0 0.180819 0
0.112139 0.183185 0
0.765667 0.0205539 0
0.935439 0.639109 0.037644
0.900938 1 0.709834
0 0.829908 0
0 0.829419 0
0.674342 0.826154 0
0.911116 0.883757 0
0.900359 1 0.704967
0.537194 1 0.142016
0.58175 1 0.141726
0.739147 1 0.154116
0.8981 1 0.312123
0.897749 1 0.727932
0.867185 1 0.810468
0.867597 1 0.810513
0.870542 1 0.81088
0.88658 1 0.81416
0.89575 1 0.838422
0 0 0.116899
0.137316 0 0.113283
0.766491 0 0.0877241
0.94696 0.535698 0.238285
0.900862 1 0.726467
0 0.146365 0.0995956
0.127062 0.141192 0.0935988
0.767193 0 0.0731212
0.939788 0.630869 0.217868
0.900771 1 0.725902
0 0.825788 0
0 0.825238 0
0.679606 0.822263 0
0.913954 0.885069 0.0355688
0.900175 1 0.72166
0.544533 1 0.14107
0.587503 1 0.140902
0.740764 1 0.153674
0.898192 1 0.312078
0.897765 1 0.72784
0.867247 1 0.810468
0.867658 1 0.810513
0.870588 1 0.810864
0.88661 1 0.814145
0.89575 1 0.838422
0 0 0.688533
0 0 0.688746
0.768551 0 0.663279
0.964446 0.170367 0.708614
0.900374 0.997269 0.796841
0 0 0.686839
0 0 0.687068
0.776822 0 0.661479
0.952819 0.44979 0.712093
0.900267 0.998749 0.796536
0 0.779202 0.643534
0 0.779629 0.643854
0.667018 0.777081 0.648447
0.913329 0.859022 0.674037
0.899611 1 0.794369
0.544152 1 0.521065
0.585565 1 0.520119
0.734874 1 0.522469
0.890517 1 0.582025
0.897307 1 0.778408
0.867735 1 0.810407
0.868132 1 0.810452
0.871 1 0.810819
0.886763 1 0.814099
0.89575 1 0.838422
0 0 0.917967
0 0 0.917967
0 0 0.917967
0.961593 0 0.905791
0.902068 0.963699 0.898619
0 0 0.917967
0 0 0.917967
0 0 0.917967
0.961593 0 0.905791
0.901823 0.966888 0.89836
0 0 0.917967
0 0 0.917967
0.323171 0 0.91043
0.961593 0 0.905791
0.900404 0.986068 0.896757
0 1 0.912077
0 1 0.911879
0.5944 1 0.893385
0.873549 1 0.888594
0.896788 1 0.891814
0.864713 1 0.870329
0.86511 1 0.870344
0.867918 1 0.870466
0.883436 1 0.871595
0.895476 1 0.880201
0 0.276661 0.918624
0 0.276661 0.918624
0 0.276692 0.918624
0 0.27689 0.918624
0.924468 0.756161 0.925155
0 0.276646 0.918624
0 0.276646 0.918624
0 0.276661 0.918624
0 0.27686 0.918624
0.924437 0.756283 0.925155
0 0.276493 0.918624
0 0.276493 0.918624
0 0.276509 0.918624
0.361852 0.259403 0.921172
0.924315 0.757229 0.925078
0 0.274968 0.918639
0 0.274968 0.918639
0 0.274983 0.918639
0.961593 0 0.905791
0.923919 0.76025 0.924849
0.809644 1 0.913924
0.811475 1 0.913924
0.823392 1 0.913985
0.868574 1 0.914305
0.895521 1 0.914763
