BBLuts/BB_103_0870_LUT.cube
TITLE "Generated by Resolve"
LUT_3D_SIZE 33
0 0 0
0 0 0
0 0 0
0 0 0
0 0 0
0.0209049 0 0
0.0906386 0 0
0.139651 0 0
0.188952 0 0
0.247776 0 0
0.315801 0 0
0.389334 0 0
0.470054 0 0
0.548119 0 0
0.614282 0 0
0.681605 0 0
0.74612 0 0
0.805982 0 0
0.857069 0 0
0.896864 0 0
0.904494 0 0
0.904494 0 0
0.887541 0.185519 0.0482795
0.876539 0.420218 0.129931
0.866331 0.563897 0.193057
0.859419 0.650965 0.265126
0.85214 0.723659 0.352758
0.845579 0.780591 0.480537
0.840238 0.820523 0.620493
0.836088 0.849775 0.734813
0.832822 0.871 0.818814
0.830137 0.88687 0.898634
0.828183 0.899718 0.963348
0 0 0
0 0 0
0 0 0
0 0 0
0 0 0
0.0353246 0 0
0.0953841 0 0
0.143511 0 0
0.195132 0 0
0.254902 0 0
0.323003 0 0
0.395209 0 0
0.473457 0 0
0.549966 0 0
0.615549 0 0
0.68246 0 0
0.746593 0 0
0.806195 0 0
0.857008 0 0
0.896605 0 0
0.904494 0 0
0.904494 0 0
0.886336 0.232166 0.0282139
0.875425 0.437552 0.121263
0.865827 0.57232 0.188678
0.859068 0.655406 0.262409
0.851926 0.726543 0.349828
0.845472 0.782223 0.478996
0.840192 0.821378 0.61976
0.836072 0.850263 0.734524
0.832822 0.871275 0.818662
0.830137 0.887037 0.898543
0.828183 0.899825 0.963287
0 0 0
0 0 0
0 0 0
0 0 0
0 0 0
0.0437781 0 0
0.0970169 0 0
0.147189 0 0
0.201587 0 0
0.261524 0 0
0.328481 0 0
0.398367 0 0
0.476249 0 0
0.551934 0 0
0.616831 0 0
0.683284 0 0
0.747082 0 0
0.806394 0 0
0.856931 0 0
0.89633 0 0
0.904494 0 0
0.904494 0 0
0.885588 0.269917 0
0.874372 0.454047 0.111589
0.865339 0.580316 0.1841
0.858732 0.659724 0.259648
0.851698 0.729366 0.34699
0.84538 0.783795 0.477424
0.840146 0.822248 0.619043
0.836042 0.850767 0.734234
0.832807 0.87155 0.818479
0.830121 0.88719 0.898436
0.828183 0.899916 0.963226
0 0 0
0 0 0
0 0 0
0 0 0
0 0 0
0.0502174 0 0
0.0977646 0 0
0.147509 0 0
0.202686 0 0
0.26421 0 0
0.332021 0 0
0.401236 0 0
0.478935 0 0
0.553918 0 0
0.618143 0 0
0.684138 0 0
0.747555 0 0
0.806577 0 0
0.85684 0 0
0.896025 0 0
0.904494 0 0
0.904494 0 0
0.884306 0.302083 0
0.87335 0.469993 0.100542
0.864881 0.587961 0.179339
0.858396 0.663951 0.256886
0.851484 0.732097 0.345602
0.845289 0.785351 0.475898
0.840101 0.823087 0.618311
0.836027 0.851255 0.733959
0.832792 0.871824 0.818326
0.830121 0.887373 0.898329
0.828168 0.900008 0.96318
0 0.0249027 0
0 0.0288701 0
0 0.0326848 0
0 0.036347 0
0 0.0377661 0
0.0337224 0.0360723 0
0.0847486 0.0336004 0
0.136187 0.0273136 0
0.193744 0.0119783 0
0.265385 0 0
0.334081 0 0
0.403845 0 0
0.481514 0 0
0.555932 0 0
0.619471 0 0
0.685008 0 0
0.748012 0 0
0.806729 0 0
0.856733 0 0
0.895735 0 0
0.904494 0 0
0.895582 0.0333104 0
0.883024 0.330434 0
0.872419 0.485008 0.0875257
0.864454 0.59472 0.17438
0.858076 0.668101 0.254108
0.85127 0.734768 0.344213
0.845197 0.786892 0.474388
0.840055 0.823911 0.617578
0.835996 0.851743 0.733654
0.832776 0.872084 0.818143
0.830106 0.887526 0.898238
0.828168 0.900114 0.963119
0 0.0677653 0
0 0.0708019 0
0 0.0737774 0
0 0.0761273 0
0 0.0772564 0
0.0083772 0.0759442 0
0.0737011 0.0749676 0
0.128252 0.0725567 0
0.186908 0.0670024 0
0.252796 0.055436 0
0.323552 0.0320134 0
0.406149 0 0
0.484123 0 0
0.558038 0 0
0.62089 0 0
0.685924 0 0
0.748501 0 0
0.806897 0 0
0.856611 0 0
0.895399 0 0
0.904494 0 0
0.88986 0.145602 0
0.881682 0.356847 0
0.87158 0.49926 0.0702983
0.864073 0.600717 0.168948
0.85774 0.672328 0.251164
0.851057 0.737484 0.342794
0.845106 0.788449 0.472786
0.840024 0.824781 0.616831
0.835981 0.852232 0.733379
0.832761 0.872358 0.817975
0.830106 0.887694 0.898116
0.828168 0.900221 0.963073
0 0.111513 0
0 0.113985 0
0 0.116442 0
0 0.117815 0
0 0.1187 0
0 0.11902 0
0.0531167 0.116915 0
0.116533 0.115816 0
0.178729 0.112978 0
0.24715 0.106828 0
0.318456 0.0948348 0
0.392691 0.0751507 0
0.474281 0.0380407 0
0.560678 0 0
0.622736 0 0
0.687114 0 0
0.749126 0 0
0.807126 0 0
0.856443 0 0
0.894942 0 0
0.904494 0 0
0.887465 0.216709 0
0.879957 0.387259 0
0.870787 0.515908 0.0314488
0.8636 0.607874 0.161639
0.857328 0.677638 0.247395
0.850782 0.740902 0.341024
0.844984 0.790417 0.470756
0.839963 0.825864 0.615869
0.83595 0.852872 0.732967
0.832746 0.872724 0.817761
0.830091 0.887922 0.897978
0.828153 0.900343 0.962982
0 0.160372 0
0 0.162524 0
0 0.164126 0
0 0.165179 0
0 0.165942 0
0 0.166354 0
0 0.164843 0
0.0951247 0.163775 0
0.165331 0.162432 0
0.237446 0.158297 0
0.311879 0.149996 0
0.389624 0.137636 0
0.471717 0.119463 0
0.548241 0.0897536 0
0.614755 0.027039 0
0.688716 0 0
0.749981 0 0
0.807416 0 0
0.856214 0 0
0.894316 0 0
0.892103 0.0899062 0
0.8851 0.282445 0
0.877775 0.420829 0
0.869886 0.535744 0
0.862974 0.617533 0.151232
0.856779 0.684443 0.242359
0.850446 0.745266 0.338766
0.844831 0.79295 0.468086
0.839887 0.827283 0.614603
0.835904 0.853697 0.732464
0.832731 0.873182 0.817456
0.830076 0.888212 0.897795
0.828153 0.900526 0.96289
0 0.217487 0
0 0.219104 0
0 0.22002 0
0 0.220951 0
0 0.221576 0
0 0.222019 0
0 0.222293 0
0.0457313 0.219791 0
0.1402 0.218204 0
0.219974 0.215091 0
0.300328 0.209491 0
0.383703 0.200687 0
0.470207 0.188159 0
0.54757 0.170657 0
0.610285 0.146914 0
0.674662 0.114137 0
0.738155 0.0639963 0
0.807797 0 0
0.855848 0 0
0.880522 0.0972152 0
0.887083 0.22771 0
0.882124 0.348409 0
0.875074 0.460288 0
0.868406 0.558526 0
0.862165 0.629709 0.135882
0.856107 0.693065 0.23563
0.850019 0.750774 0.335897
0.844663 0.79617 0.464607
0.839811 0.829114 0.612894
0.835859 0.85478 0.731777
0.8327 0.873793 0.817075
0.83006 0.888579 0.897551
0.828138 0.90074 0.962753
0 0.281041 0
0 0.281544 0
0 0.282032 0
0 0.282414 0
0 0.282673 0
0 0.282734 0
0 0.282612 0
0 0.28217 0
0.0914931 0.279194 0
0.191287 0.278019 0
0.280919 0.274739 0
0.372015 0.268742 0
0.465141 0.25977 0
0.546334 0.247669 0
0.609598 0.234089 0
0.672679 0.218936 0
0.733242 0.204028 0
0.790173 0.193591 0
0.837751 0.2047 0
0.873625 0.252598 0
0.883207 0.326528 0
0.878233 0.414176 0
0.871962 0.50515 0
0.866773 0.584405 0
0.861189 0.644816 0.111421
0.855253 0.703868 0.226658
0.8495 0.757656 0.332341
0.844434 0.800229 0.460075
0.839704 0.831449 0.610666
0.835798 0.856168 0.730846
0.83267 0.874586 0.816541
0.830045 0.889082 0.897231
0.828122 0.90103 0.962585
0 0.349096 0
0 0.349569 0
0 0.350072 0
0 0.350439 0
0 0.350698 0
0 0.350866 0
0 0.350927 0
0 0.350805 0
0 0.350286 0
0.140246 0.348547 0
0.248981 0.347539 0
0.351507 0.343984 0
0.453513 0.337819 0
0.542 0.329961 0
0.607889 0.321523 0
0.671229 0.314137 0
0.730648 0.309834 0
0.785977 0.311177 0
0.831998 0.326528 0
0.866819 0.363302 0
0.878096 0.416144 0
0.873594 0.481666 0
0.86894 0.550057 0
0.865064 0.609537 0
0.860212 0.663264 0.0603189
0.854215 0.717189 0.214557
0.84889 0.766094 0.327977
0.844175 0.805249 0.45417
0.839551 0.834714 0.607721
0.835721 0.857939 0.72961
0.832624 0.875608 0.815869
0.830014 0.889708 0.896819
0.828107 0.901411 0.962356
0 0.426841 0
0 0.427298 0
0 0.427726 0
0 0.428061 0
0 0.428321 0
0 0.428504 0
0 0.428672 0
0 0.428733 0
0 0.428565 0
0 0.426505 0
0.192874 0.428473 0
0.315648 0.427512 0
0.431449 0.424399 0
0.531243 0.420127 0
0.601617 0.415152 0
0.667353 0.411582 0
0.726665 0.411765 0
0.780377 0.417533 0
0.824369 0.433036 0
0.857801 0.461372 0
0.872267 0.500954 0
0.8692 0.546075 0
0.866117 0.594568 0
0.862989 0.637858 0
0.859281 0.685512 0
0.85304 0.733104 0.198566
0.848188 0.776211 0.322866
0.843778 0.811246 0.453193
0.839384 0.838437 0.603815
0.835615 0.860166 0.727947
0.832563 0.876921 0.814969
0.829969 0.890547 0.896269
0.828077 0.901915 0.962051
0 0.516091 0
0 0.516472 0
0 0.516808 0
0 0.517067 0
0 0.517281 0
0 0.517479 0
0 0.517662 0
0 0.5178 0
0 0.517937 0
0 0.518029 0
0.0579995 0.51783 0
0.254231 0.520531 0
0.393408 0.519646 0
0.510338 0.517235 0
0.588586 0.514153 0
0.65832 0.511879 0
0.71986 0.512505 0
0.773053 0.517784 0
0.815579 0.52961 0
0.848356 0.548821 0
0.867445 0.574014 0
0.865583 0.602304 0
0.863325 0.63328 0
0.860502 0.670069 0
0.857282 0.710887 0
0.851804 0.751293 0.177844
0.84741 0.787991 0.317189
0.84332 0.818341 0.452613
0.8392 0.843015 0.598672
0.835508 0.862959 0.725673
0.832502 0.878599 0.813794
0.829923 0.8916 0.895537
0.828046 0.902556 0.961654
0 0.597498 0
0 0.597696 0
0 0.597879 0
0 0.598016 0
0 0.598138 0
0 0.59826 0
0 0.598367 0
0 0.598489 0
0 0.598566 0
0 0.598596 0
0 0.598489 0
0.1364 0.599435 0
0.337728 0.6 0
0.479683 0.59855 0
0.56994 0.596735 0
0.64509 0.595193 0
0.711009 0.595376 0
0.765927 0.598276 0
0.807797 0.604685 0
0.839582 0.615579 0
0.863493 0.631189 0
0.861997 0.650736 0
0.860044 0.675792 0
0.857694 0.705669 0
0.855085 0.739147 0
0.850614 0.771405 0.150896
0.846571 0.801266 0.311467
0.842802 0.826627 0.452613
0.838987 0.848508 0.592813
0.83537 0.866361 0.722713
0.83241 0.880705 0.812268
0.829862 0.892943 0.894575
0.828016 0.90338 0.96112
0 0.663111 0
0 0.663233 0
0 0.66334 0
0 0.663417 0
0 0.663493 0
0 0.663554 0
0 0.663615 0
0 0.663661 0
0 0.663676 0
0 0.66363 0
0 0.663462 0
0 0.663035 0
0.245151 0.663798 0
0.434867 0.662501 0
0.546059 0.660838 0
0.627314 0.659205 0
0.698573 0.658808 0
0.756344 0.660639 0
0.798733 0.665568 0
0.829694 0.673961 0
0.854047 0.685924 0
0.858061 0.700999 0
0.856535 0.720256 0
0.854795 0.743236 0
0.853025 0.768261 0
0.849607 0.792721 0.115343
0.845716 0.815595 0.306783
0.842191 0.836454 0.453574
0.838575 0.854826 0.595148
0.835218 0.870436 0.718868
0.832303 0.88333 0.810224
0.829801 0.894636 0.893294
0.827955 0.904433 0.960418
0 0.72842 0
0 0.728466 0
0 0.728511 0
0 0.728542 0
0 0.728557 0
0 0.728573 0
0 0.728588 0
0 0.728557 0
0 0.728511 0
0 0.728374 0
0 0.72813 0
0 0.727642 0
0.0214389 0.726192 0
0.366339 0.72694 0
0.51754 0.725002 0
0.604913 0.722957 0
0.681559 0.721782 0
0.742397 0.722454 0
0.786633 0.725505 0
0.818112 0.731151 0
0.842039 0.739544 0
0.854261 0.750378 0
0.853346 0.763531 0
0.852308 0.779171 0
0.851225 0.796689 0
0.848997 0.814267 0.0655222
0.844862 0.830503 0.304784
0.84152 0.847059 0.456336
0.838087 0.862013 0.598779
0.835035 0.875135 0.715023
0.832181 0.886519 0.807599
0.829709 0.896727 0.891615
0.827893 0.90573 0.959503
0 0.790417 0
0 0.790417 0
0 0.790402 0
0 0.790372 0
0 0.790356 0
0 0.790326 0
0 0.790265 0
0 0.790188 0
0 0.790036 0
0 0.789822 0
0 0.789456 0
0 0.788861 0
0 0.787945 0
0.270802 0.787625 0
0.478004 0.784924 0
0.58085 0.782025 0
0.662577 0.779629 0
0.726345 0.778836 0
0.772549 0.779812 0
0.805631 0.782528 0
0.830411 0.78703 0
0.848325 0.793576 0
0.85095 0.801602 0
0.850385 0.81146 0
0.84979 0.822797 0
0.849149 0.835569 0
0.843946 0.846204 0.307042
0.840803 0.858366 0.462089
0.837552 0.869841 0.604379
0.834653 0.880415 0.718746
0.832044 0.890333 0.80415
0.829602 0.89926 0.889418
0.827832 0.907362 0.958297
0 0.840986 0
0 0.84094 0
0 0.840864 0
0 0.840803 0
0 0.840726 0
0 0.84065 0
0 0.840543 0
0 0.840391 0
0 0.840177 0
0 0.839857 0
0 0.839353 0
0 0.838636 0
0 0.837613 0
0.15935 0.836774 0
0.442786 0.8336 0
0.56202 0.829267 0
0.647196 0.825589 0
0.712108 0.823499 0
0.759365 0.82295 0
0.793988 0.82359 0
0.819959 0.825406 0
0.838712 0.82858 0
0.849271 0.832975 0
0.848966 0.839063 0
0.848615 0.846342 0
0.847745 0.854597 0.0152743
0.843015 0.861448 0.316533
0.839994 0.869841 0.472465
0.836942 0.878019 0.61268
0.834195 0.886381 0.723888
0.8318 0.894652 0.804196
0.829496 0.902266 0.886534
0.827741 0.909331 0.956695
0 0.878492 0.00610361
0 0.878401 0.00605783
0 0.878309 0.00601205
0 0.878218 0.00596628
0 0.878111 0.0059205
0 0.877989 0.00585946
0 0.877836 0.00578317
0 0.877638 0.00567636
0 0.877348 0.00555428
0 0.876936 0.00534066
0 0.876356 0.00503548
0 0.875563 0.004654
0 0.874495 0.00411994
0.100755 0.873091 0.00691234
0.429709 0.869352 0.00189212
0.55404 0.864469 0
0.638697 0.860059 0
0.702403 0.857206 0
0.748913 0.855802 0
0.784009 0.855314 0
0.810727 0.855665 0
0.830335 0.856992 0
0.845594 0.859342 0
0.847868 0.862669 0
0.847654 0.867155 0
0.845426 0.871305 0.115465
0.841978 0.875654 0.336568
0.839109 0.880827 0.489235
0.83624 0.886549 0.624292
0.833692 0.892882 0.730877
0.831418 0.899397 0.808698
0.829343 0.905684 0.884016
0.827634 0.911696 0.954589
0 0.907164 0.0199283
0 0.907042 0.0198825
0 0.906935 0.0198215
0 0.906798 0.0197604
0 0.906676 0.0197147
0 0.906538 0.0196536
0 0.906355 0.0195621
0 0.906111 0.0194553
0 0.905776 0.0192874
0 0.905318 0.0190738
0 0.904723 0.0187991
0 0.903929 0.0184329
0 0.902861 0.0179294
0.186801 0.901289 0.0203861
0.446006 0.896178 0.0099794
0.55816 0.890944 0
0.637263 0.886305 0
0.697093 0.883131 0
0.741466 0.88127 0
0.775799 0.880171 0
0.802472 0.879713 0
0.822751 0.879911 0
0.838758 0.880766 0
0.846952 0.882338 0
0.846845 0.884749 0
0.843595 0.885924 0.193149
0.840787 0.888289 0.369589
0.838117 0.891417 0.512322
0.835447 0.895216 0.64007
0.833097 0.899687 0.739284
0.830976 0.904494 0.814817
0.829038 0.909361 0.888395
0.827512 0.914458 0.951797
0 0.927947 0.02916
0 0.92781 0.029099
0 0.927672 0.0290379
0 0.92752 0.0289769
0 0.927382 0.0289158
0 0.92723 0.0288548
0 0.927047 0.0287633
0 0.926772 0.0286564
0 0.926436 0.0285191
0 0.925994 0.0283207
0 0.925399 0.0280766
0 0.924605 0.0277256
0 0.923583 0.0272984
0.323537 0.920195 0.0244144
0.488579 0.914809 0.0122835
0.575479 0.909758 0.00161746
0.6439 0.905425 0
0.697154 0.902358 0
0.737972 0.900359 0
0.77055 0.899001 0
0.796139 0.898146 0
0.816419 0.897734 0
0.832883 0.89778 0
0.845487 0.898405 0
0.846143 0.89958 0
0.84181 0.898695 0.271336
0.839414 0.899779 0.415808
0.836973 0.901396 0.544366
0.834562 0.903609 0.660822
0.832456 0.906493 0.74963
0.830488 0.909758 0.823056
0.828687 0.91339 0.894148
0.827298 0.917464 0.954528
0 0.943496 0.0354162
0 0.943358 0.0353704
0 0.943221 0.0353246
0 0.943084 0.0352636
0 0.942931 0.0352026
0 0.942794 0.0351415
0 0.942596 0.0350652
0 0.942336 0.0349737
0 0.942 0.0348516
0 0.941573 0.0346838
0 0.941009 0.0344549
0 0.940261 0.034165
0.300481 0.937057 0.0305943
0.448997 0.932448 0.0198978
0.536019 0.927977 0.0100252
0.601495 0.923659 0.0010071
0.656809 0.920043 0
0.701518 0.917403 0
0.73785 0.915511 0
0.767742 0.914092 0
0.791608 0.913085 0
0.811215 0.912413 0
0.827558 0.912032 0
0.840436 0.912062 0
0.842268 0.910246 0.201007
0.839948 0.909712 0.352895
0.837812 0.909789 0.475166
0.83566 0.910307 0.586999
0.833585 0.911345 0.6869
0.831708 0.912978 0.764157
0.829923 0.915084 0.833967
0.828275 0.917632 0.901656
0.827024 0.920699 0.958953
0 0.954955 0.0396277
0 0.954833 0.0395819
0 0.954696 0.0395361
0 0.954559 0.0394903
0 0.954421 0.0394446
0 0.954284 0.0393835
0 0.954101 0.0393225
0 0.953872 0.0392462
0 0.953552 0.0391241
0.192874 0.951827 0.0379034
0.310246 0.949737 0.0335088
0.403738 0.946883 0.0267796
0.479683 0.943755 0.0194705
0.535576 0.940475 0.0121767
0.585702 0.937072 0.00488289
0.632517 0.933883 0
0.674189 0.931182 0
0.709758 0.929076 0
0.741009 0.927382 0
0.767422 0.92604 0
0.789075 0.925002 0
0.807599 0.924193 0
0.82327 0.923583 0
0.833036 0.921218 0.182071
0.839857 0.919707 0.325185
0.83798 0.918715 0.438331
0.836103 0.918105 0.540627
0.834241 0.917952 0.636835
0.832517 0.918303 0.718196
0.830884 0.919097 0.783215
0.829282 0.920272 0.848173
0.827832 0.921904 0.911254
0.826734 0.924056 0.964675
0.334386 0.959136 0.0341497
0.352132 0.958587 0.0328374
0.36878 0.958053 0.0315557
0.384726 0.957534 0.0302892
0.399649 0.957031 0.0290684
0.413672 0.956512 0.0278325
0.429816 0.955871 0.0262913
0.448737 0.955062 0.0243839
0.47042 0.954086 0.0220798
0.494499 0.952911 0.0194095
0.517525 0.951476 0.0161898
0.54287 0.949767 0.0123751
0.571176 0.947814 0.0081178
0.601663 0.945678 0.00364691
0.63328 0.943496 0
0.664469 0.941421 0
0.693828 0.93959 0
0.721416 0.937957 0
0.747066 0.936568 0
0.769406 0.935393 0
0.786511 0.933028 0.115007
0.802335 0.931395 0.197559
0.816037 0.930068 0.263798
0.826932 0.92871 0.347066
0.835615 0.927352 0.436469
0.83595 0.92607 0.524544
0.834318 0.925124 0.611612
0.832792 0.924559 0.687541
0.831388 0.924422 0.750317
0.829984 0.924605 0.807187
0.82858 0.925093 0.866285
0.827344 0.925994 0.923308
0.826413 0.927382 0.971893
0.549187 0.95404 0.318578
0.552987 0.95375 0.318395
0.556695 0.953475 0.318227
0.560311 0.953216 0.318074
0.563851 0.952941 0.317937
0.567437 0.952682 0.317815
0.571939 0.952346 0.317678
0.577676 0.951919 0.31754
0.584909 0.951385 0.317388
0.593912 0.950713 0.317311
0.604929 0.949874 0.317342
0.618097 0.948913 0.317632
0.633417 0.947784 0.318425
0.65066 0.946548 0.319951
0.669306 0.945235 0.322683
0.688945 0.943908 0.327031
0.709392 0.942565 0.333486
0.730098 0.941253 0.342611
0.749615 0.940002 0.354986
0.767315 0.938827 0.371206
0.783536 0.937682 0.391974
0.798276 0.936553 0.418021
0.811063 0.935454 0.449943
0.821836 0.934386 0.488396
0.830518 0.933181 0.544335
0.83389 0.931884 0.612711
0.832624 0.930831 0.677668
0.831388 0.930053 0.736629
0.830213 0.929534 0.785092
0.829007 0.92929 0.836042
0.827848 0.92932 0.888502
0.826841 0.929732 0.937972
0.826078 0.930587 0.98085
0.637049 0.948592 0.518349
0.638773 0.948531 0.51838
0.640467 0.94847 0.518425
0.64213 0.948394 0.518456
0.643763 0.948333 0.518502
0.645441 0.948272 0.518547
0.647547 0.948196 0.518639
0.650263 0.948104 0.51873
0.653742 0.947982 0.518914
0.658122 0.947829 0.519158
0.663569 0.947646 0.519524
0.670298 0.947448 0.520088
0.678492 0.947204 0.520912
0.688289 0.946944 0.522164
0.699825 0.946471 0.524407
0.712627 0.945647 0.527047
0.726787 0.944762 0.53077
0.741253 0.943847 0.535958
0.755611 0.942931 0.543008
0.769589 0.942 0.552361
0.783261 0.941039 0.564614
0.796078 0.940078 0.580667
0.807477 0.939132 0.600961
0.817502 0.938201 0.624964
0.826093 0.937285 0.652644
0.831968 0.936217 0.693065
0.831037 0.935241 0.738201
0.830076 0.934356 0.77882
0.829053 0.933639 0.823133
0.828031 0.933165 0.868803
0.8271 0.932952 0.913695
0.826337 0.933089 0.955047
0.825742 0.933547 0.991501
0.690181 0.944701 0.672419
0.691035 0.944671 0.67248
0.69189 0.944656 0.672572
0.692729 0.94464 0.672648
0.693568 0.944625 0.672709
0.694438 0.94461 0.672801
0.695521 0.944579 0.672892
0.696956 0.944549 0.673014
0.698802 0.944518 0.673198
0.701183 0.944472 0.673442
0.704204 0.944411 0.673777
0.708019 0.94435 0.67422
0.712734 0.944259 0.674861
0.718502 0.944183 0.675731
0.725643 0.944091 0.67689
0.733623 0.943999 0.678492
0.74255 0.943923 0.68069
0.752178 0.943847 0.683604
0.762554 0.943771 0.68748
0.773495 0.943709 0.692561
0.784741 0.943252 0.699504
0.795453 0.942489 0.707958
0.805341 0.941711 0.718654
0.81442 0.940932 0.731929
0.822385 0.940169 0.745769
0.828992 0.939437 0.762615
0.829526 0.938521 0.790326
0.828748 0.937667 0.825025
0.827924 0.936904 0.863386
0.827115 0.936339 0.902998
0.826413 0.936034 0.940185
0.825849 0.935988 0.973892
0.825406 0.936172 1
0.726513 0.942321 0.775097
0.726955 0.942321 0.775143
0.727413 0.942321 0.775204
0.727855 0.942306 0.77525
0.728298 0.942306 0.77528
0.728756 0.942306 0.775341
0.729335 0.94229 0.775418
0.730098 0.94229 0.775494
0.731106 0.942275 0.775631
