BBLuts/BB_104_0150_LUT.cube
TITLE "Generated by Resolve"
LUT_3D_SIZE 9
0 0 0
0.00366217 0 0
0.159533 0 0
0.401297 0 0.000976577
0.627024 0 0.353918
0.710811 0 0.59617
0.700542 0.466682 0.600519
0.685283 0.6757 0.460639
0.678935 0.721965 0.643977
0 0.0376593 0
0.000534066 0.0462806 0
0.165179 0.0248417 0
0.410758 0 0.00297551
0.62797 0 0.35761
0.710811 0 0.59617
0.698741 0.511467 0.599512
0.685512 0.677852 0.413489
0.678935 0.722179 0.64332
0 0.19939 0
0 0.20264 0
0.11165 0.199908 0
0.403586 0.169482 0
0.627909 0.016907 0.358419
0.710811 0 0.595926
0.696178 0.557748 0.597192
0.686625 0.681849 0.195636
0.678904 0.72256 0.642145
0 0.473747 0
0 0.474815 0
0 0.475395 0
0.318639 0.476783 0
0.619058 0.46389 0.322652
0.699794 0.486427 0.59881
0.690501 0.611841 0.586023
0.686961 0.690242 0.0208133
0.678859 0.723613 0.638453
0 0.66186 0.0143893
0 0.661814 0.0143587
0 0.661601 0.0142519
0 0.660319 0.0135805
0.582834 0.654658 0.011429
0.67628 0.656092 0.373053
0.687388 0.67602 0.1131
0.685863 0.705608 0.0225223
0.678828 0.726436 0.624582
0 0.737362 0.0593729
0 0.737041 0.059205
0 0.736492 0.0589151
0 0.734829 0.0580301
0.554925 0.72372 0.0340429
0.657389 0.717906 0.0233921
0.68481 0.718547 0.0236667
0.68426 0.725093 0.0240635
0.678874 0.732708 0.591608
0 0.759274 0.0681926
0 0.75906 0.0680705
0 0.758709 0.0678721
0.504585 0.750393 0.0425116
0.603632 0.745571 0.0291447
0.651972 0.742382 0.0244144
0.680156 0.740826 0.0239261
0.682612 0.741085 0.0239414
0.677623 0.739971 0.615167
0.637308 0.748379 0.025391
0.637919 0.748363 0.0253452
0.638956 0.748348 0.0252689
0.641855 0.748302 0.0250706
0.648997 0.748226 0.0246433
0.662013 0.748135 0.0241855
0.676997 0.74818 0.0239872
0.68217 0.748394 0.0311894
0.676631 0.744152 0.681498
0.665324 0.743999 0.703197
0.665385 0.743999 0.703212
0.665492 0.743999 0.703227
0.665827 0.743999 0.703334
0.666758 0.743999 0.703578
0.669047 0.743999 0.704341
0.673426 0.743999 0.706401
0.677165 0.743999 0.711208
0.677623 0.743984 0.722133
0.00157168 0 0.0593576
0.00996414 0 0.0599527
0.169726 0 0.0670176
0.40238 0 0.0855421
0.626947 0 0.373037
0.710811 0 0.597101
0.700847 0.458045 0.601419
0.684947 0.675059 0.505379
0.678874 0.721935 0.650324
0 0.0255131 0.0410773
0.0328679 0.0354314 0.0391546
0.180377 0.00927749 0.0528115
0.406912 0 0.0697185
0.627359 0 0.365179
0.710811 0 0.596857
0.69897 0.506172 0.600412
0.685023 0.677119 0.479118
0.678859 0.722148 0.64976
0 0.190372 0
0 0.193271 0
0.128161 0.19089 0
0.402197 0.160418 0
0.627283 0.00614939 0.355367
0.710811 0 0.596033
0.696361 0.554818 0.598199
0.68542 0.680659 0.397787
0.678843 0.722515 0.648798
0 0.469368 0
0 0.47039 0
0 0.470802 0
0.330541 0.47187 0
0.619028 0.45948 0.324834
0.699977 0.481773 0.598901
0.690593 0.610956 0.587045
0.686976 0.689998 0.020798
0.678782 0.723552 0.645747
0 0.661311 0.0140993
0 0.66125 0.0140688
0 0.661036 0.0139467
0 0.659724 0.0132753
0.584024 0.654108 0.0112459
0.67631 0.655711 0.379416
0.687282 0.675761 0.141314
0.685878 0.705516 0.0225071
0.678691 0.726345 0.633585
0 0.737255 0.0593118
0 0.736934 0.059144
0 0.73637 0.058854
0 0.734722 0.057969
0.556741 0.723598 0.0338293
0.657511 0.717845 0.0233921
0.68481 0.718517 0.0236515
0.68426 0.725063 0.0240635
0.678828 0.732662 0.59411
0 0.759228 0.0681773
0 0.759014 0.06804
0 0.758663 0.0678569
0.507805 0.750286 0.0422065
0.603983 0.745541 0.029099
0.652033 0.742367 0.0244144
0.680171 0.74081 0.0239261
0.682612 0.741085 0.0239414
0.677638 0.739971 0.615106
0.6374 0.748379 0.025391
0.638025 0.748363 0.0253452
0.639048 0.748348 0.0252689
0.641932 0.748302 0.0250553
0.649058 0.748226 0.0246586
0.662043 0.748135 0.0241855
0.677012 0.74818 0.0239872
0.68217 0.748394 0.0311894
0.676631 0.744152 0.681483
0.665339 0.743999 0.703197
0.6654 0.743999 0.703212
0.665507 0.743999 0.703227
0.665843 0.743999 0.703319
0.666758 0.743999 0.703593
0.669062 0.743999 0.704341
0.673426 0.743999 0.706401
0.677165 0.743999 0.711208
0.677623 0.743984 0.722133
0.0274052 0.025452 0.235508
0.0274357 0.0254978 0.235706
0.171283 0.0259251 0.237797
0.411521 0.0182803 0.243885
0.626917 0 0.406241
0.710811 0 0.598505
0.701427 0.442527 0.603754
0.684489 0.674113 0.555062
0.678798 0.721889 0.659342
0.0265354 0.0247959 0.231373
0.0319524 0.0290837 0.231312
0.189425 0.0247349 0.23415
0.410254 0.0172732 0.240177
0.627665 0 0.406973
0.710811 0 0.598398
0.699413 0.495689 0.602701
0.684459 0.676097 0.543862
0.678782 0.722118 0.6589
0.00242618 0.198001 0.195636
0.002121 0.199756 0.19498
0.147555 0.194186 0.194827
0.390417 0.17322 0.213703
0.625879 0.00697337 0.400534
0.710811 0 0.598047
0.696757 0.54844 0.600626
0.684474 0.679362 0.51664
0.678752 0.722469 0.658122
0 0.45774 0
0 0.458946 0
0 0.459541 0
0.334478 0.460319 0.00660716
0.617212 0.44889 0.357641
0.700526 0.467109 0.600534
0.690837 0.608606 0.59057
0.686732 0.689387 0.0716869
0.678676 0.723507 0.655756
0 0.660075 0.0134432
0 0.659998 0.0134127
0 0.659785 0.0133059
0 0.658473 0.0126345
0.585153 0.652934 0.0109102
0.676265 0.654749 0.390249
0.686702 0.674815 0.275608
0.685908 0.705303 0.0224918
0.678508 0.726223 0.648096
0 0.737072 0.059205
0 0.736736 0.0590524
0 0.736187 0.0587625
0 0.734539 0.0578775
0.559716 0.723369 0.0334936
0.65771 0.717754 0.0233768
0.684825 0.718441 0.0236515
0.684276 0.725032 0.0240635
0.678416 0.732158 0.617273
0 0.759167 0.0681315
0 0.758953 0.0680095
0 0.757809 0.0658122
0.513008 0.750118 0.0416876
0.604562 0.745495 0.0290074
0.652171 0.742351 0.0243992
0.680201 0.740795 0.0239261
0.682612 0.74107 0.0239261
0.677638 0.739971 0.615015
0.637568 0.748363 0.0253758
0.638163 0.748363 0.02533
0.639185 0.748348 0.0252537
0.642054 0.748302 0.0250553
0.649149 0.748211 0.0246433
0.662089 0.748135 0.0241855
0.677028 0.74818 0.0239872
0.682185 0.748394 0.0311742
0.676631 0.744152 0.681483
0.665354 0.743999 0.703182
0.665415 0.743999 0.703197
0.665522 0.743999 0.703227
0.665858 0.743999 0.703319
0.666773 0.743999 0.703578
0.669062 0.743999 0.704326
0.673426 0.743999 0.706386
0.677165 0.743999 0.711208
0.677623 0.743984 0.722133
0.173754 0.229633 0.482719
0.173938 0.229862 0.482887
0.183734 0.229984 0.483024
0.394705 0.226017 0.482444
0.629694 0.175158 0.525429
0.710811 0 0.607919
0.701701 0.435492 0.617823
0.683772 0.672053 0.612009
0.678752 0.72195 0.678233
0.171435 0.226642 0.480629
0.171664 0.226947 0.480842
0.21709 0.226963 0.481056
0.405417 0.222416 0.480308
0.628977 0.171588 0.523369
0.710811 0 0.607691
0.699901 0.482933 0.616785
0.683619 0.674022 0.609689
0.678721 0.722164 0.677958
0.161151 0.265309 0.475196
0.161059 0.26775 0.475334
0.21767 0.265522 0.475959
0.40914 0.226291 0.476295
0.626398 0.167346 0.518685
0.710796 0 0.607248
0.697475 0.53579 0.614939
0.683406 0.67718 0.605386
0.678691 0.722515 0.67747
0.0943465 0.439139 0.430182
0.0943923 0.440528 0.43035
0.0949874 0.441581 0.431022
0.349065 0.442771 0.43946
0.610956 0.432853 0.496727
0.701793 0.433249 0.609766
0.691463 0.602182 0.606455
0.682979 0.685435 0.589258
0.678599 0.723537 0.676036
0 0.654963 0.0108644
0 0.654932 0.0108644
0 0.654765 0.0107881
0 0.653559 0.0102083
0.583749 0.648371 0.00979629
0.675029 0.65069 0.480278
0.685359 0.67155 0.492973
0.685588 0.704417 0.0949111
0.678355 0.726207 0.671672
0 0.736553 0.0589456
0 0.736233 0.0587778
0 0.735668 0.0584878
0 0.73402 0.0576028
0.559518 0.722911 0.0334173
0.657435 0.717311 0.023331
0.684855 0.71809 0.023621
0.684352 0.724834 0.0240482
0.677882 0.731823 0.657649
0 0.758953 0.0680247
0 0.758755 0.0679026
0.159747 0.75639 0.0631723
0.526665 0.74963 0.0402686
0.606287 0.745342 0.028748
0.652567 0.74229 0.0243839
0.680278 0.740764 0.0239261
0.682612 0.741054 0.0239414
0.677623 0.739956 0.615488
0.638041 0.748363 0.0253452
0.638636 0.748348 0.0252995
0.639643 0.748333 0.0252232
0.642451 0.748302 0.0250248
0.649454 0.748211 0.0246281
0.662242 0.748135 0.0241855
0.677073 0.74818 0.0239872
0.682185 0.748394 0.0311742
0.676631 0.744152 0.681422
0.665476 0.743999 0.703609
0.665553 0.743999 0.703624
0.66566 0.743999 0.703655
0.665904 0.743999 0.703319
0.66688 0.743999 0.70399
0.669154 0.743999 0.704723
0.673442 0.743999 0.706386
0.67718 0.743999 0.711467
0.677623 0.743984 0.722316
0.506294 0.583078 0.664927
0.506355 0.583124 0.664958
0.506477 0.583185 0.665019
0.511879 0.58265 0.664515
0.615625 0.581109 0.664317
0.694148 0.581277 0.676982
0.693019 0.590661 0.681819
0.683467 0.670817 0.686275
0.679103 0.722499 0.707042
0.50573 0.582788 0.664637
0.505806 0.582818 0.664668
0.505928 0.582895 0.664744
0.512444 0.582284 0.664149
0.617487 0.580835 0.664134
0.694194 0.580957 0.676768
0.692912 0.59144 0.681224
0.683268 0.67274 0.68571
0.679072 0.722713 0.706905
0.504768 0.582284 0.664134
0.504845 0.58233 0.664179
0.504952 0.582391 0.66424
0.51342 0.581674 0.663523
0.618784 0.580316 0.663676
0.69427 0.580362 0.676341
0.692576 0.593912 0.680125
0.682963 0.675792 0.684779
0.679026 0.723079 0.706676
0.498268 0.581781 0.661097
0.498283 0.581842 0.661112
0.498253 0.581888 0.661097
0.508247 0.581277 0.660594
0.617746 0.579416 0.661219
0.69427 0.580133 0.673884
0.690455 0.609812 0.676097
0.682185 0.683726 0.681956
0.67892 0.724086 0.705989
0.438331 0.643854 0.642451
0.438468 0.643977 0.642527
0.438682 0.643992 0.642618
0.440146 0.64332 0.642908
0.582727 0.639048 0.643137
0.67126 0.64358 0.653681
0.683803 0.666453 0.661326
0.680705 0.699931 0.673426
0.67863 0.726726 0.704036
0 0.734859 0.114382
0 0.734539 0.114733
0 0.733989 0.115312
0 0.732097 0.11664
0.550439 0.721798 0.0993668
0.654139 0.715877 0.0988937
0.680797 0.71397 0.58117
0.679057 0.720439 0.645991
0.677989 0.732418 0.698665
0 0.758709 0.0679026
0 0.758495 0.0677958
0.219532 0.755673 0.0616159
0.522728 0.749508 0.0406653
0.603998 0.74519 0.0290837
0.650675 0.742092 0.0244602
0.67866 0.740627 0.0239261
0.68246 0.740841 0.0996414
0.677043 0.739712 0.684565
0.639429 0.748333 0.0252384
0.639994 0.748333 0.0251926
0.640955 0.748318 0.0251316
0.643641 0.748272 0.0249485
0.650324 0.748211 0.0245975
0.662684 0.748135 0.0241703
0.677211 0.74818 0.0239872
0.68217 0.748394 0.0311437
0.676631 0.744167 0.68127
0.665553 0.743999 0.703151
0.665614 0.743999 0.703166
0.665721 0.743999 0.703212
0.666041 0.743999 0.703288
0.666941 0.743999 0.703548
0.6692 0.743999 0.704311
0.673487 0.743999 0.706355
0.677165 0.743999 0.711177
0.677623 0.743984 0.722133
0.610986 0.670237 0.744396
0.610986 0.670237 0.744396
0.611002 0.670253 0.744411
0.611002 0.670253 0.744411
0.618051 0.667765 0.742061
0.686412 0.665507 0.74136
0.686397 0.665888 0.741695
0.685145 0.674754 0.737942
0.68043 0.723537 0.736156
0.610956 0.670207 0.744366
0.610956 0.670207 0.744366
0.610971 0.670207 0.744381
0.610971 0.670207 0.744381
0.618631 0.667674 0.74197
0.686412 0.665476 0.741329
0.686412 0.665843 0.741665
0.684993 0.675959 0.737636
0.680415 0.723766 0.736095
0.61091 0.670146 0.74432
0.61091 0.670146 0.74432
0.61091 0.670161 0.74432
0.610895 0.670146 0.744305
0.619684 0.667521 0.741833
0.686412 0.665415 0.741268
0.686412 0.665782 0.741604
0.684733 0.678111 0.737118
0.680369 0.724147 0.735973
0.610742 0.669978 0.744152
0.610758 0.669978 0.744152
0.610758 0.669993 0.744167
0.610605 0.66981 0.743999
0.622248 0.66714 0.741482
0.686412 0.665232 0.7411
0.686427 0.664897 0.740749
0.683986 0.684657 0.735729
0.680232 0.725231 0.735637
0.605402 0.667597 0.738964
0.605371 0.667613 0.738964
0.605341 0.667628 0.738933
0.605081 0.66746 0.738674
0.616342 0.66569 0.737209
0.684382 0.664393 0.736858
0.685252 0.671382 0.734997
0.682292 0.700267 0.732586
0.679911 0.728023 0.734707
0.583398 0.722393 0.724056
0.583413 0.72224 0.724071
0.583474 0.721935 0.724102
0.583673 0.720729 0.724178
0.592493 0.71696 0.724025
0.649546 0.712413 0.7234
0.679271 0.714046 0.72491
0.679988 0.721645 0.72665
0.679103 0.733928 0.732113
0.564782 0.746319 0.707057
0.566552 0.74609 0.707103
0.569955 0.745678 0.707164
0.579248 0.744427 0.70721
0.604913 0.74165 0.70721
0.643137 0.738659 0.708568
0.670314 0.73727 0.712398
0.677958 0.738003 0.718074
0.678172 0.741238 0.72781
0.633906 0.744411 0.676234
0.634409 0.744411 0.67631
0.635264 0.744396 0.676417
0.63769 0.74435 0.676768
0.643809 0.744259 0.677806
0.655436 0.744152 0.680827
0.669505 0.744091 0.688121
0.676905 0.74403 0.701579
0.677531 0.743984 0.720241
0.666072 0.743999 0.703517
0.666133 0.743999 0.703532
0.666163 0.743999 0.703136
0.666468 0.743999 0.703212
0.667384 0.743999 0.703899
0.66949 0.743999 0.704234
0.67364 0.743999 0.706279
0.677165 0.743999 0.711376
0.677623 0.743984 0.722118
0.630686 0.691707 0.756252
0.630686 0.691707 0.756252
0.630686 0.691707 0.756252
0.630686 0.691707 0.756252
0.630716 0.691707 0.756252
0.681575 0.691371 0.755978
0.684825 0.691341 0.755993
0.684825 0.691341 0.755993
0.68217 0.72018 0.756069
0.630686 0.691707 0.756252
0.630686 0.691707 0.756252
0.630686 0.691707 0.756252
0.630686 0.691707 0.756252
0.630716 0.691707 0.756252
0.681926 0.691371 0.755978
0.684825 0.691341 0.755993
0.684825 0.691341 0.755993
0.682139 0.720516 0.756069
0.630686 0.691707 0.756252
0.630686 0.691707 0.756252
0.630686 0.691707 0.756252
0.630686 0.691707 0.756252
0.630732 0.691707 0.756252
0.682551 0.691371 0.755978
0.684825 0.691341 0.755993
0.684825 0.691341 0.755993
0.682078 0.721065 0.756069
0.630686 0.691707 0.756252
0.630686 0.691707 0.756252
0.630686 0.691707 0.756252
0.630686 0.691707 0.756252
0.630762 0.691707 0.756252
0.684291 0.691356 0.755993
0.684825 0.691341 0.755993
0.684825 0.691341 0.755993
0.681941 0.722622 0.756069
0.630686 0.691707 0.756252
0.630686 0.691707 0.756252
0.630686 0.691707 0.756252
0.630686 0.691707 0.756252
0.631235 0.691707 0.756237
0.684733 0.691341 0.755993
0.684825 0.691341 0.755993
0.68481 0.691524 0.755993
0.681575 0.726604 0.755901
0.624491 0.706981 0.756573
0.624491 0.707012 0.756573
0.62446 0.707088 0.756573
0.624399 0.707286 0.756573
0.624186 0.70602 0.756558
0.660075 0.703197 0.755993
0.683421 0.706477 0.755993
0.682322 0.718471 0.755962
0.680766 0.73431 0.754177
0.609995 0.744717 0.750423
0.61001 0.744717 0.750439
0.610056 0.744717 0.750469
0.610208 0.744717 0.75053
0.616449 0.743908 0.7505
0.645441 0.740673 0.750195
0.671839 0.739223 0.750622
0.680232 0.740032 0.751049
0.680003 0.743023 0.751827
0.637613 0.744091 0.746197
0.638041 0.744091 0.746197
0.638758 0.744076 0.746181
0.640818 0.74406 0.746151
0.64622 0.743999 0.746136
0.657053 0.743954 0.746181
0.670512 0.743954 0.746593
0.67953 0.743999 0.747555
0.679728 0.743999 0.749416
0.667308 0.743938 0.740154
0.667445 0.743938 0.740124
0.66746 0.743938 0.740169
0.66775 0.743938 0.740185
0.668605 0.743938 0.740215
0.670558 0.743954 0.740429
0.674464 0.743969 0.740963
0.678981 0.743984 0.742275
0.679316 0.743984 0.745388
0.630686 0.691737 0.756252
0.630686 0.691737 0.756252
0.630686 0.691737 0.756252
0.630686 0.691737 0.756252
0.630686 0.691737 0.756252
0.631586 0.691722 0.756237
0.684825 0.691341 0.755993
0.684825 0.691341 0.755993
0.68455 0.694194 0.755993
0.630686 0.691737 0.756252
0.630686 0.691737 0.756252
0.630686 0.691737 0.756252
0.630686 0.691737 0.756252
0.630686 0.691737 0.756252
0.631617 0.691722 0.756237
0.684825 0.691341 0.755993
0.684825 0.691341 0.755993
0.68455 0.694194 0.755993
0.630686 0.691737 0.756252
0.630686 0.691737 0.756252
0.630686 0.691737 0.756252
0.630686 0.691737 0.756252
0.630686 0.691737 0.756252
0.631693 0.691722 0.756222
0.684825 0.691341 0.755993
0.684825 0.691341 0.755993
0.68455 0.694194 0.755993
0.630686 0.691737 0.756252
0.630686 0.691737 0.756252
0.630686 0.691737 0.756252
0.630686 0.691737 0.756252
0.630686 0.691737 0.756252
0.631937 0.691707 0.756222
0.684825 0.691341 0.755993
0.684825 0.691341 0.755993
0.68455 0.694194 0.755978
0.630686 0.691737 0.756252
0.630686 0.691737 0.756252
0.630686 0.691737 0.756252
0.630686 0.691737 0.756252
0.630686 0.691737 0.756252
0.633051 0.691676 0.756207
0.684825 0.691341 0.755993
0.684825 0.691341 0.755993
0.68455 0.694179 0.755993
0.630686 0.691737 0.756252
0.630686 0.691737 0.756252
0.630686 0.691737 0.756252
0.630686 0.691737 0.756252
0.630686 0.691737 0.756252
0.646876 0.691508 0.756024
0.684825 0.691341 0.755993
0.684825 0.691371 0.755993
0.682719 0.714183 0.756039
0.623484 0.73959 0.756588
0.623484 0.73959 0.756588
0.623484 0.73962 0.756588
0.623468 0.739666 0.756588
0.623438 0.739818 0.756588
0.635264 0.733852 0.756298
0.675639 0.731533 0.756085
0.680751 0.734386 0.755962
0.680171 0.740917 0.756008
0.626719 0.744289 0.756512
0.627146 0.744274 0.756497
0.627894 0.744259 0.756481
0.630274 0.744213 0.75642
0.637644 0.744106 0.756268
0.65304 0.743969 0.756069
0.670436 0.743969 0.756024
0.680049 0.744167 0.756207
0.680049 0.744167 0.756207
0.667475 0.743954 0.756024
0.667552 0.743954 0.756024
0.667659 0.743954 0.756024
0.667994 0.743954 0.756024
0.66891 0.743954 0.756024
0.671214 0.743969 0.756024
0.675471 0.743984 0.756024
0.680049 0.744167 0.756207
0.680049 0.744167 0.756207
0.630671 0.691875 0.756252
0.630671 0.691875 0.756252
0.630671 0.691875 0.756252
0.630671 0.691875 0.756252
0.630671 0.691875 0.756252
0.630671 0.691875 0.756252
0.633982 0.691814 0.756191
0.68481 0.691493 0.755993
0.684398 0.695918 0.755993
0.630671 0.691875 0.756252
0.630671 0.691875 0.756252
0.630671 0.691875 0.756252
0.630671 0.691875 0.756252
0.630671 0.691875 0.756252
0.630671 0.691875 0.756252
0.633982 0.691814 0.756191
0.68481 0.691493 0.755993
0.684398 0.695918 0.755993
0.630671 0.691875 0.756252
0.630671 0.691875 0.756252
0.630671 0.691875 0.756252
0.630671 0.691875 0.756252
0.630671 0.691875 0.756252
0.630671 0.691875 0.756252
0.633982 0.691814 0.756191
0.68481 0.691493 0.755993
0.684398 0.695918 0.755993
0.630671 0.691875 0.756252
0.630671 0.691875 0.756252
0.630671 0.691875 0.756252
0.630671 0.691875 0.756252
0.630671 0.691875 0.756252
0.630671 0.691875 0.756252
0.633982 0.691814 0.756191
0.68481 0.691493 0.755993
0.684398 0.695933 0.755993
0.630671 0.691875 0.756252
0.630671 0.691875 0.756252
0.630671 0.691875 0.756252
0.630671 0.691875 0.756252
0.630671 0.691875 0.756252
0.630671 0.691875 0.756252
0.634363 0.691783 0.756191
0.68481 0.691493 0.755993
0.684382 0.695964 0.755993
0.630671 0.691875 0.756252
0.630671 0.691875 0.756252
0.630671 0.691875 0.756252
0.630671 0.691875 0.756252
0.630671 0.691875 0.756252
0.630671 0.691875 0.756252
0.65069 0.691524 0.756008
0.68481 0.691508 0.755993
0.684382 0.696025 0.755993
0.630671 0.691875 0.756252
0.630671 0.691875 0.756252
0.630671 0.691875 0.756252
0.630671 0.691875 0.756252
0.630671 0.691875 0.756252
0.630671 0.691875 0.756252
0.684825 0.691341 0.755993
0.68481 0.691539 0.755993
0.684367 0.696132 0.755993
0.621698 0.744396 0.756649
0.621698 0.744396 0.756649
0.621698 0.744396 0.756649
0.621698 0.744396 0.756649
0.621698 0.744396 0.756649
0.621744 0.744396 0.756649
0.660029 0.743954 0.756039
0.680049 0.744167 0.756207
0.680049 0.744167 0.756207
0.654276 0.743969 0.756069
0.654459 0.743969 0.756069
0.65478 0.743954 0.756069
0.655711 0.743954 0.756054
0.658244 0.743954 0.756039
0.663874 0.743954 0.756024
0.672419 0.743969 0.756024
0.679698 0.744152 0.756207
0.680049 0.744167 0.756207
