BBLuts/BB_106_0470_LUT.cube
TITLE "Generated by Resolve"
LUT_3D_SIZE 33
0.0129702 0.00956741 0.00527962
0.0129702 0.00956741 0.00527962
0.0129702 0.00956741 0.00527962
0.0129702 0.00956741 0.00527962
0.0129702 0.00956741 0.00527962
0.0644694 0.0110933 0.00688182
0.125872 0.0135805 0.00936904
0.170489 0.0154116 0.0112001
0.21355 0.0171817 0.0129702
0.26244 0.0191958 0.0149996
0.316579 0.0214389 0.0172274
0.368658 0.0235599 0.0193332
0.425696 0.025864 0.0216373
0.479942 0.027985 0.023743
0.525643 0.0296178 0.0253605
0.574258 0.0313725 0.0271153
0.624521 0.0332341 0.0289616
0.675242 0.0351415 0.0308537
0.720989 0.0368811 0.0325933
0.757046 0.0382544 0.0339666
0.763867 0.0383764 0.0341039
0.763867 0.0383764 0.0341039
0.796384 0.229099 0.0994278
0.828214 0.41706 0.158755
0.848219 0.529595 0.208881
0.862058 0.603296 0.259205
0.873503 0.660349 0.316991
0.884199 0.711299 0.391638
0.892989 0.750881 0.468986
0.900114 0.78172 0.539696
0.905852 0.805753 0.600366
0.910262 0.823941 0.645045
0.913756 0.838468 0.678264
0.0129702 0.00956741 0.00527962
0.0129702 0.00956741 0.00527962
0.0129702 0.00956741 0.00527962
0.0129702 0.00956741 0.00527962
0.0129702 0.00956741 0.00527962
0.0768444 0.0115969 0.00738537
0.130144 0.0137484 0.00955215
0.173968 0.0155489 0.0113375
0.218753 0.0174105 0.0131991
0.268254 0.01944 0.0152285
0.322133 0.0216678 0.0174563
0.372961 0.0237278 0.019501
0.428016 0.0259556 0.0217288
0.481254 0.0280308 0.0237888
0.526528 0.0296483 0.0254063
0.574899 0.0314031 0.0271458
0.624918 0.0332494 0.0289769
0.675425 0.0351415 0.030869
0.720943 0.0368658 0.032578
0.756802 0.0382544 0.0339513
0.763867 0.0383764 0.0341039
0.763867 0.0383764 0.0341039
0.802228 0.266651 0.0911421
0.830228 0.429816 0.155673
0.849317 0.536324 0.207218
0.862593 0.606485 0.258167
0.873884 0.662654 0.31577
0.884443 0.712688 0.391028
0.893126 0.751659 0.468727
0.900191 0.782177 0.539544
0.905898 0.806012 0.60029
0.910277 0.824094 0.645014
0.913771 0.83856 0.678248
0.0129702 0.00956741 0.00527962
0.0129702 0.00956741 0.00527962
0.0129702 0.00956741 0.00527962
0.0129702 0.00956741 0.00527962
0.0129702 0.00956741 0.00527962
0.0841993 0.0118715 0.00767529
0.131624 0.0138094 0.00959792
0.177264 0.0156863 0.01149
0.224155 0.0176242 0.0134127
0.273625 0.0196689 0.0154574
0.32607 0.0218357 0.0176242
0.37528 0.0238193 0.0196078
0.429923 0.0260319 0.0218051
0.482643 0.0280919 0.0238499
0.527428 0.0296788 0.0254368
0.575525 0.0314183 0.0271611
0.625299 0.0332494 0.0289921
0.675608 0.0351568 0.030869
0.720867 0.0368658 0.032578
0.756558 0.0382391 0.0339361
0.763867 0.0383764 0.0341039
0.763867 0.0383764 0.0341039
0.806455 0.296208 0.0697948
0.83212 0.441855 0.151965
0.85034 0.542733 0.205402
0.863127 0.609613 0.257099
0.87425 0.664927 0.314595
0.884657 0.714046 0.390417
0.893263 0.752453 0.468467
0.900282 0.78265 0.539376
0.905943 0.806271 0.600214
0.910307 0.824262 0.644999
0.913787 0.838651 0.678233
0.0129702 0.00956741 0.00527962
0.0129702 0.00956741 0.00527962
0.0129702 0.00956741 0.00527962
0.0138399 0.0153048 0.00595102
0.039353 0.0222782 0.00784314
0.0898299 0.0121157 0.00790417
0.132296 0.0138399 0.00962844
0.177554 0.0157015 0.01149
0.225071 0.0176699 0.0134585
0.275792 0.0197604 0.0155489
0.32842 0.0219272 0.0177005
0.377401 0.0239109 0.0196841
0.431754 0.0261082 0.0218814
0.484047 0.0281376 0.0238956
0.528344 0.0297093 0.0254673
0.576165 0.0314336 0.0271916
0.625681 0.0332799 0.0290074
0.675761 0.0351568 0.0308843
0.720775 0.0368658 0.032578
0.756283 0.0382239 0.0339361
0.763867 0.0383764 0.0341039
0.763867 0.0383764 0.0341039
0.810712 0.322042 0.0732738
0.83389 0.453285 0.147494
0.851316 0.548791 0.203479
0.863645 0.61268 0.256031
0.874632 0.667155 0.314168
0.884886 0.715389 0.389792
0.893385 0.753216 0.468193
0.900343 0.783108 0.539208
0.905974 0.806531 0.600137
0.910338 0.82443 0.644968
0.913802 0.838758 0.678218
0.0235447 0.0692149 0.01355
0.024155 0.0726177 0.0140078
0.0247349 0.0758984 0.0144656
0.0253147 0.0790417 0.0149081
0.0255436 0.0802777 0.0150759
0.0947127 0.0823377 0.017731
0.140505 0.0816663 0.0192569
0.186603 0.0775464 0.0203555
0.233387 0.0656291 0.0204471
0.276753 0.019791 0.0155795
0.329793 0.021973 0.0177615
0.379324 0.0239872 0.0197604
0.433524 0.0261845 0.0219577
0.485466 0.0281987 0.0239567
0.529274 0.0297398 0.0254978
0.576806 0.0314641 0.0272068
0.626062 0.0332799 0.0290227
0.675898 0.0351568 0.0308843
0.720684 0.0368658 0.032578
0.756024 0.0382239 0.0339208
0.763867 0.0383764 0.0341039
0.773938 0.0981918 0.0427405
0.814435 0.344625 0.0763104
0.835828 0.464317 0.141939
0.852247 0.554559 0.201434
0.864164 0.615686 0.254932
0.874998 0.669337 0.313756
0.8851 0.716716 0.389197
0.893507 0.753979 0.467918
0.900435 0.783566 0.53904
0.90602 0.806775 0.600061
0.910369 0.824582 0.644938
0.913817 0.838849 0.678203
0.0304265 0.106584 0.0187228
0.03093 0.109285 0.019089
0.0314183 0.11194 0.0194705
0.0317998 0.114031 0.0197452
0.0319982 0.115038 0.0198978
0.0806592 0.117006 0.0218204
0.139483 0.118502 0.0240787
0.189639 0.11812 0.0258183
0.240238 0.114992 0.0272221
0.292851 0.106905 0.0280308
0.342641 0.088716 0.0274052
0.381048 0.0240635 0.0198367
0.435309 0.0262455 0.0220188
0.486961 0.0282444 0.0240024
0.530266 0.0297704 0.0255283
0.577493 0.0314946 0.0272374
0.626459 0.0332952 0.0290379
0.676051 0.0351568 0.0308843
0.720577 0.0368658 0.0325628
0.755718 0.0382086 0.0339208
0.763867 0.0383764 0.0341039
0.789593 0.193454 0.0558328
0.817884 0.365545 0.0791028
0.837446 0.475364 0.134218
0.853162 0.560265 0.19913
0.864683 0.618784 0.253773
0.87538 0.67158 0.313329
0.885328 0.718074 0.38854
0.893645 0.754772 0.467643
0.900511 0.784039 0.538888
0.906065 0.80705 0.599985
0.910399 0.82475 0.644907
0.913832 0.838956 0.678187
0.037705 0.145937 0.0241398
0.038117 0.14818 0.0244602
0.0385443 0.150423 0.0247654
0.0387732 0.15169 0.0249485
0.0389258 0.152499 0.0250553
0.0389715 0.152789 0.0251011
0.129778 0.156176 0.0286717
0.188495 0.157458 0.0309453
0.243427 0.157 0.0328374
0.299596 0.153964 0.0344549
0.352529 0.146105 0.0353246
0.402121 0.131777 0.0351873
0.450752 0.102129 0.0329595
0.488807 0.0283207 0.0240787
0.531563 0.0298161 0.0255741
0.578393 0.0315251 0.0272679
0.626978 0.0333257 0.0290532
0.676249 0.035172 0.0308995
0.720424 0.0368505 0.0325628
0.755306 0.0381933 0.0339055
0.763867 0.0383764 0.0341039
0.799374 0.253071 0.0639658
0.821836 0.389456 0.0822919
0.839139 0.48838 0.115831
0.854276 0.567254 0.195972
0.865339 0.622675 0.252262
0.875868 0.674403 0.312795
0.885603 0.719783 0.387717
0.893812 0.755764 0.467292
0.900603 0.784634 0.538659
0.906126 0.807385 0.599893
0.91043 0.824964 0.644877
0.913863 0.839078 0.678157
0.0459754 0.190768 0.0303197
0.0463264 0.192721 0.0305791
0.0466011 0.194186 0.0307774
0.0467842 0.195132 0.0309148
0.0469062 0.195819 0.0310063
0.0469825 0.196201 0.0310521
0.0813458 0.197635 0.0324102
0.179294 0.201175 0.0363317
0.242695 0.202411 0.0387579
0.302724 0.201328 0.0407721
0.359213 0.196887 0.0422065
0.412879 0.189242 0.0430915
0.465629 0.176532 0.0432593
0.511681 0.153063 0.0417029
0.544961 0.0997787 0.0356603
0.579599 0.0315709 0.0273136
0.627665 0.033341 0.0290837
0.676509 0.035172 0.0308995
0.720211 0.0368505 0.0325628
0.754742 0.0381628 0.033875
0.781826 0.146166 0.0493477
0.808118 0.30631 0.0711681
0.826139 0.415198 0.0856794
0.841199 0.503624 0.0972915
0.85565 0.575952 0.191333
0.866178 0.62771 0.250248
0.876493 0.678004 0.312093
0.885969 0.721981 0.386618
0.894026 0.757061 0.466819
0.90074 0.785428 0.538369
0.906203 0.807843 0.599756
0.910475 0.825238 0.644816
0.913893 0.839246 0.678141
0.0552987 0.241077 0.037171
0.0555428 0.242481 0.0373693
0.0556954 0.243275 0.0374762
0.055848 0.244068 0.037583
0.0559396 0.244617 0.0376593
0.0560159 0.244999 0.037705
0.0560616 0.245243 0.0377356
0.146151 0.248768 0.0413214
0.2327 0.250767 0.0446784
0.300175 0.250797 0.0471046
0.362753 0.249088 0.049134
0.420813 0.24509 0.05066
0.477455 0.238041 0.0517128
0.525521 0.225818 0.0516976
0.564706 0.207156 0.0504463
0.605707 0.179355 0.0480812
0.645533 0.134813 0.043473
0.676829 0.0352026 0.0309148
0.71989 0.0368353 0.0325475
0.773129 0.153414 0.0501259
0.800824 0.261982 0.0651713
0.816785 0.358877 0.0782177
0.831022 0.444373 0.0895247
0.844312 0.52195 0.0996414
0.857282 0.586435 0.184237
0.867247 0.63415 0.247486
0.877272 0.682582 0.311192
0.886427 0.724788 0.385183
0.894301 0.75874 0.466194
0.900908 0.78645 0.537987
0.906294 0.808423 0.599588
0.910536 0.825605 0.644755
0.913924 0.839475 0.678096
0.0654307 0.295537 0.0445563
0.065507 0.295964 0.0446021
0.0655833 0.296361 0.0446632
0.0656443 0.296696 0.0447089
0.0656748 0.29691 0.0447395
0.0656901 0.296956 0.0447547
0.0656748 0.296864 0.0447395
0.0655985 0.296498 0.0446784
0.202289 0.301244 0.0500954
0.289555 0.303258 0.0534829
0.361395 0.303517 0.0561074
0.424918 0.301808 0.0581369
0.486702 0.29778 0.0597696
0.537423 0.29015 0.060441
0.57911 0.280507 0.0604715
0.622354 0.26865 0.0603037
0.666529 0.255131 0.0599527
0.71165 0.243198 0.0598764
0.754314 0.24802 0.0619059
0.793301 0.28336 0.0677958
0.813931 0.341543 0.0758984
0.825315 0.410239 0.0850385
0.837034 0.478767 0.0940566
0.847883 0.542824 0.102281
0.858808 0.596628 0.172168
0.868605 0.642344 0.243748
0.878248 0.688334 0.310063
0.887007 0.728344 0.383291
0.894652 0.760891 0.465354
0.901122 0.787762 0.537484
0.906416 0.809186 0.599344
0.910628 0.826093 0.644663
0.91397 0.83975 0.67805
0.0758984 0.351492 0.052079
0.0759747 0.351873 0.0521248
0.076051 0.35227 0.0521706
0.076112 0.35256 0.0522164
0.0761425 0.352773 0.0522469
0.076173 0.352911 0.0522621
0.076173 0.352956 0.0522621
0.0761578 0.352865 0.0522621
0.0760815 0.352453 0.0522011
0.261662 0.359289 0.0596475
0.350988 0.361456 0.0631418
0.423743 0.361685 0.0657511
0.492607 0.359991 0.0679484
0.548074 0.355779 0.0692454
0.592325 0.350195 0.0698863
0.636942 0.344442 0.070573
0.68188 0.339467 0.0713664
0.727565 0.337377 0.0725872
0.769619 0.3458 0.0750591
0.80618 0.37174 0.0796063
0.825559 0.411704 0.0852216
0.833646 0.460075 0.0915847
0.843153 0.515114 0.0987716
0.851865 0.565881 0.105165
0.860395 0.608957 0.146426
0.870298 0.652613 0.238529
0.879469 0.695445 0.308644
0.887709 0.732754 0.380774
0.895109 0.763622 0.464286
0.901396 0.789425 0.536828
0.906584 0.810178 0.599039
0.910719 0.826703 0.644541
0.914046 0.840131 0.677974
0.0870375 0.409491 0.0597238
0.0871138 0.409842 0.0597696
0.0871595 0.410147 0.0598154
0.0872053 0.410407 0.0598459
0.0872511 0.41059 0.0598764
0.0872816 0.410742 0.0598917
0.0872969 0.410864 0.0599069
0.0873121 0.41091 0.0599069
0.0872969 0.410788 0.0598917
0.142321 0.412726 0.0620584
0.322057 0.419654 0.0693828
0.413794 0.422065 0.0729839
0.492988 0.423011 0.0758984
0.555856 0.421942 0.0778668
0.603067 0.419333 0.078996
0.650065 0.416999 0.0802014
0.695842 0.416129 0.0815747
0.741176 0.41825 0.0833295
0.781842 0.427237 0.0858015
0.816205 0.446128 0.0893416
0.836454 0.475319 0.0935988
0.842618 0.51191 0.0983597
0.849332 0.551293 0.103349
0.856092 0.590005 0.108095
0.862257 0.624155 0.112016
0.872358 0.665217 0.231434
0.880949 0.704082 0.306966
0.88867 0.738201 0.380926
0.895674 0.767056 0.462928
0.901747 0.791547 0.535912
0.906798 0.811429 0.598611
0.910857 0.827512 0.644388
0.914122 0.84062 0.677897
0.099794 0.475517 0.0683452
0.099855 0.475792 0.0683909
0.0999008 0.476036 0.0684215
0.0999466 0.476234 0.0684367
0.0999619 0.476387 0.068452
0.100008 0.476539 0.0684825
0.100023 0.476661 0.0684977
0.100053 0.476768 0.068513
0.100069 0.476875 0.0685283
0.100084 0.476936 0.0685283
0.224582 0.482246 0.0735943
0.38764 0.488945 0.0803388
0.484993 0.492012 0.084184
0.559533 0.492958 0.0868391
0.6103 0.492088 0.0883192
0.660441 0.491218 0.0898299
0.708278 0.491341 0.0914015
0.753384 0.493919 0.0932174
0.792355 0.501289 0.0954452
0.824674 0.514992 0.0982223
0.846448 0.534463 0.101228
0.850629 0.55877 0.10428
0.855497 0.586755 0.107713
0.860197 0.612711 0.110689
0.865736 0.643519 0.11426
0.874708 0.679973 0.22182
0.882689 0.71429 0.305089
0.88983 0.744717 0.381384
0.896376 0.771282 0.461006
0.902174 0.794186 0.534737
0.907057 0.813046 0.598062
0.91104 0.82855 0.644175
0.914229 0.841245 0.67776
0.112169 0.536522 0.0760204
0.112215 0.536706 0.076051
0.112261 0.536873 0.0760662
0.112276 0.536995 0.0760815
0.112291 0.537118 0.0760967
0.112322 0.537224 0.076112
0.112352 0.537331 0.0761273
0.112367 0.537438 0.0761273
0.112383 0.537514 0.0761425
0.112383 0.53753 0.0761425
0.112367 0.537438 0.0761273
0.307561 0.54583 0.084184
0.459236 0.551858 0.0904097
0.553307 0.554589 0.0940566
0.611505 0.555093 0.0959793
0.665324 0.555184 0.097734
0.716243 0.555627 0.0994583
0.762448 0.557565 0.101244
0.800153 0.562737 0.10312
0.830533 0.572015 0.105257
0.855222 0.585153 0.10753
0.857664 0.598642 0.109071
0.86096 0.616922 0.111192
0.865019 0.639475 0.113787
0.86978 0.666163 0.116899
0.877302 0.696498 0.208804
0.884703 0.725978 0.303288
0.891188 0.752407 0.382254
0.8972 0.776394 0.45861
0.902708 0.797406 0.53315
0.907393 0.815076 0.59733
0.911254 0.829847 0.643885
0.914366 0.842054 0.677607
0.122637 0.583932 0.0816358
0.122652 0.584024 0.081651
0.122667 0.5841 0.081651
0.122683 0.584161 0.0816663
0.122698 0.584207 0.0816663
0.122698 0.584253 0.0816663
0.122713 0.584283 0.0816663
0.122728 0.584329 0.0816815
0.122728 0.584329 0.0816815
0.122713 0.584298 0.0816815
0.122683 0.584176 0.0816663
0.122621 0.583886 0.0816205
0.406607 0.596323 0.093431
0.535454 0.601205 0.0986191
0.605966 0.603006 0.101167
0.663615 0.603967 0.103151
0.718105 0.604852 0.105058
0.766339 0.606424 0.106874
0.804211 0.609781 0.108537
0.833341 0.615717 0.110185
0.857588 0.62443 0.111894
0.864363 0.635874 0.113375
0.867048 0.650874 0.115114
0.87039 0.66952 0.117281
0.874113 0.69044 0.119707
0.880003 0.714305 0.190997
0.886931 0.738857 0.302083
0.89279 0.761364 0.383719
0.898329 0.782528 0.460472
0.903365 0.801526 0.531106
0.907805 0.817578 0.596323
0.911528 0.831495 0.643503
0.914534 0.843076 0.677378
0.133165 0.631769 0.0872511
0.133181 0.631815 0.0872511
0.133181 0.63183 0.0872511
0.133196 0.631861 0.0872663
0.133196 0.631876 0.0872663
0.133196 0.631876 0.0872663
0.133196 0.631891 0.0872663
0.133196 0.631876 0.0872663
0.133181 0.63183 0.0872511
0.133165 0.631739 0.0872358
0.13312 0.63154 0.0872206
0.133043 0.631174 0.0871748
0.227955 0.634852 0.0910201
0.501579 0.646418 0.102373
0.595865 0.649363 0.105943
0.657633 0.650507 0.108064
0.715526 0.651408 0.110094
0.766049 0.652613 0.111925
0.805112 0.655085 0.113542
0.834485 0.659571 0.115038
0.857832 0.666423 0.116609
0.871443 0.675441 0.117968
0.873396 0.686442 0.119249
0.875776 0.699763 0.12079
0.878492 0.714992 0.122545
0.882582 0.732448 0.165621
0.889342 0.752575 0.302373
0.894636 0.771481 0.386236
0.899626 0.789563 0.463096
0.904097 0.806012 0.529091
0.908309 0.820645 0.59501
0.911864 0.833524 0.643
0.914748 0.844343 0.677073
0.143587 0.679469 0.0928359
0.143587 0.679454 0.0928359
0.143587 0.679438 0.0928359
0.143572 0.679423 0.0928359
0.143572 0.679408 0.0928359
0.143557 0.679377 0.0928359
0.143557 0.679347 0.0928206
0.143542 0.679286 0.0928206
0.143526 0.679164 0.0928054
0.143481 0.678996 0.0927901
0.14342 0.678706 0.0927596
0.143313 0.678248 0.0926986
0.14316 0.677516 0.092607
0.439979 0.690089 0.104906
0.580804 0.695155 0.110506
0.64918 0.696529 0.112856
0.710216 0.697368 0.114977
0.76231 0.698161 0.116808
0.803021 0.699565 0.118349
0.833524 0.702174 0.119692
0.85713 0.706294 0.120958
0.875364 0.712169 0.122133
0.879271 0.719341 0.123049
0.880827 0.728115 0.124071
0.882643 0.738369 0.125246
0.884688 0.749828 0.126574
0.891951 0.767102 0.305089
0.896651 0.782452 0.390356
0.901061 0.79733 0.466621
0.905104 0.811307 0.532067
0.908904 0.824292 0.593225
0.912276 0.835981 0.642329
0.915007 0.84593 0.676677
0.152407 0.719966 0.0975662
0.152392 0.719921 0.0975662
0.152392 0.719875 0.0975509
0.152377 0.719814 0.0975509
0.152361 0.719753 0.0975509
0.152346 0.719692 0.0975357
0.152331 0.7196 0.0975357
0.1523 0.719478 0.0975204
0.152255 0.719295 0.0974899
0.152209 0.719036 0.0974594
0.152117 0.718624 0.0974136
0.15198 0.718029 0.0973373
0.151797 0.717189 0.0972457
0.35433 0.725353 0.105577
0.562783 0.733425 0.114076
0.642374 0.735119 0.116869
0.705516 0.735821 0.11902
0.757977 0.736233 0.120836
0.799252 0.736843 0.122316
0.83093 0.738033 0.123522
0.855299 0.740139 0.12459
0.873335 0.743404 0.125582
0.884306 0.747707 0.126329
0.885267 0.753079 0.12694
0.886473 0.759869 0.127733
0.888319 0.768322 0.142702
0.894697 0.781857 0.311849
0.898787 0.793805 0.396887
0.902663 0.805798 0.471412
0.906264 0.817349 0.536065
0.909667 0.828565 0.593729
0.912749 0.838865 0.641459
0.915328 0.847852 0.676127
0.159167 0.75111 0.101198
0.159152 0.751019 0.101183
0.159136 0.750942 0.101183
0.159121 0.750866 0.101167
0.159106 0.750774 0.101152
0.159075 0.750683 0.101152
0.15906 0.750561 0.101137
0.159014 0.750378 0.101106
0.158968 0.750149 0.101076
0.158892 0.749798 0.101045
0.158785 0.74931 0.100984
0.158648 0.748653 0.100908
0.15845 0.747753 0.100801
0.303044 0.753185 0.106691
0.557717 0.763348 0.117144
0.641581 0.765164 0.120134
0.704311 0.765759 0.122255
0.755505 0.765957 0.123995
0.795865 0.766186 0.125383
0.827848 0.766644 0.126543
0.852781 0.767636 0.127504
0.871397 0.769406 0.128344
0.886595 0.77203 0.129061
0.88922 0.775296 0.129503
0.889982 0.779599 0.130007
0.892851 0.786664 0.197833
0.89752 0.796338 0.324453
0.901015 0.805219 0.40676
0.904341 0.814496 0.478111
0.907546 0.824018 0.541405
0.910597 0.833448 0.597177
0.913314 0.842206 0.640803
0.915709 0.850156 0.675364
0.164492 0.775708 0.104051
0.164477 0.775601 0.104051
0.164446 0.775494 0.104036
0.164431 0.775387 0.104021
0.164401 0.77528 0.104005
0.164385 0.775174 0.10399
0.16434 0.775006 0.103975
0.164294 0.774792 0.10396
0.164233 0.774502 0.103914
0.164157 0.774121 0.103868
0.16405 0.773602 0.103822
0.163897 0.772915 0.103731
0.163699 0.772015 0.103624
0.37847 0.780667 0.112474
0.571817 0.788006 0.120333
0.648539 0.789517 0.123018
0.70753 0.790005 0.125017
0.755673 0.790097 0.126635
0.794049 0.790112 0.127932
0.825208 0.790188 0.129015
0.850019 0.790539 0.129915
0.869108 0.791348 0.130663
0.884596 0.792691 0.13135
0.892622 0.794476 0.131716
0.89305 0.796826 0.131991
0.896757 0.802899 0.243381
0.900267 0.809491 0.343816
0.903273 0.816266 0.420523
0.906142 0.823484 0.487221
0.908965 0.831083 0.54844
0.911635 0.838727 0.601663
0.914031 0.845991 0.643168
0.916136 0.852827 0.674311
0.168399 0.793683 0.106142
0.168368 0.793561 0.106126
0.168338 0.793439 0.106111
0.168307 0.793317 0.106096
0.168292 0.793194 0.106081
0.168261 0.793057 0.106065
0.168215 0.792889 0.10605
0.16817 0.79266 0.106035
0.168109 0.79237 0.105989
0.168017 0.791974 0.105943
0.16791 0.791455 0.105882
0.167758 0.790768 0.105806
0.167575 0.789883 0.105699
0.487251 0.803372 0.118929
0.604028 0.807202 0.123522
0.664332 0.808042 0.125551
0.716121 0.808377 0.127291
0.759319 0.808377 0.12874
0.794659 0.80827 0.129931
0.82417 0.808164 0.130938
0.847913 0.808179 0.131746
0.866941 0.808454 0.132433
0.882475 0.809049 0.133043
0.894926 0.810071 0.133486
0.895613 0.811292 0.133639
0.900359 0.817273 0.289281
0.903075 0.821958 0.369909
0.905577 0.826993 0.438819
0.908003 0.83241 0.499382
0.91043 0.83827 0.557443
0.912749 0.844236 0.607462
0.914855 0.850156 0.64625
0.916716 0.855879 0.676051
0.171344 0.807309 0.107713
0.171313 0.807187 0.107698
0.171298 0.807065 0.107683
0.171267 0.806943 0.107683
0.171237 0.806821 0.107668
0.171206 0.806699 0.107652
0.171176 0.806516 0.107622
0.17113 0.806302 0.107607
0.171069 0.806012 0.107576
0.170977 0.805631 0.10753
0.170886 0.805127 0.107469
0.170733 0.804471 0.107393
0.471611 0.817395 0.119875
0.578729 0.821195 0.124163
0.638437 0.822461 0.126268
0.686458 0.822965 0.127886
0.729198 0.823148 0.129335
0.766003 0.823102 0.130556
0.79762 0.82295 0.131624
0.82472 0.822751 0.13254
0.846845 0.822629 0.133272
0.865202 0.82266 0.133928
0.880568 0.822858 0.134478
0.893187 0.823316 0.134874
0.901137 0.826978 0.250034
0.903731 0.830182 0.33666
0.905837 0.833387 0.402258
0.907881 0.836973 0.462013
0.909865 0.840879 0.515282
0.91194 0.845289 0.568734
0.913939 0.849928 0.614832
0.91574 0.854597 0.650324
0.917388 0.85922 0.678676
0.173541 0.817472 0.108888
0.173526 0.817349 0.108873
0.173495 0.817227 0.108858
0.17348 0.817121 0.108858
0.173449 0.816983 0.108843
0.173419 0.816861 0.108827
0.173388 0.816709 0.108797
0.173342 0.81651 0.108782
0.173281 0.81622 0.108751
0.386603 0.825635 0.117632
0.480308 0.829465 0.121492
0.549493 0.832013 0.1243
0.602228 0.8336 0.126314
0.640314 0.834257 0.127611
0.676921 0.834699 0.128847
0.712474 0.834943 0.130053
0.745678 0.834989 0.131167
0.775525 0.834882 0.132158
0.802991 0.834699 0.133074
0.827008 0.83447 0.133883
0.847059 0.834272 0.134554
0.864378 0.834134 0.135134
0.879088 0.834104 0.135637
0.894286 0.837018 0.239857
0.904997 0.839384 0.322103
0.906783 0.841291 0.383795
0.908461 0.843458 0.438544
0.910079 0.845945 0.487984
0.911742 0.848814 0.535729
0.913481 0.852079 0.58262
0.915175 0.855573 0.624048
0.916686 0.859113 0.655436
0.918074 0.862699 0.681971
0.500618 0.839506 0.123323
0.514595 0.84004 0.123903
0.52726 0.840513 0.124407
0.538308 0.840894 0.124849
0.548318 0.841245 0.125261
0.557855 0.841566 0.125628
0.569039 0.841932 0.12607
0.582193 0.842329 0.126574
0.597375 0.842771 0.127138
0.613886 0.843168 0.127749
0.629129 0.843427 0.128252
0.647379 0.843702 0.128862
0.667994 0.843946 0.129564
0.690791 0.844175 0.130343
0.714992 0.844312 0.131151
0.739742 0.844358 0.131991
0.763973 0.844327 0.132799
0.787686 0.84419 0.133593
0.810498 0.843992 0.13434
0.8309 0.843763 0.135012
0.850507 0.845273 0.201221
0.86775 0.846311 0.248783
0.882551 0.847166 0.287129
0.895582 0.848386 0.33492
0.906661 0.849683 0.383566
0.909575 0.850919 0.430716
0.910903 0.852354 0.476097
0.9122 0.854032 0.517113
0.913619 0.856107 0.559899
0.915007 0.858427 0.599084
0.916411 0.86096 0.635096
0.917632 0.863523 0.661768
0.918807 0.866178 0.686061
0.661494 0.855817 0.302174
0.664271 0.855848 0.302449
0.667002 0.855879 0.302724
0.669673 0.855924 0.302998
0.672282 0.855955 0.303273
0.674937 0.855985 0.303563
0.678294 0.856046 0.303929
0.682597 0.856092 0.304417
0.68806 0.856168 0.305058
0.694881 0.856245 0.305882
0.703273 0.856321 0.30695
0.71342 0.856413 0.308339
0.725414 0.856504 0.31014
0.739178 0.856596 0.312444
0.754452 0.856641 0.315404
0.770993 0.856703 0.319188
0.788724 0.856703 0.32401
0.807263 0.856718 0.330129
0.825269 0.856703 0.337743
0.842039 0.856718 0.347265
0.85774 0.856779 0.35906
0.872328 0.856916 0.373495
0.885298 0.857176 0.390814
0.896574 0.857572 0.411246
0.906981 0.858274 0.441901
0.912123 0.859113 0.477394
0.913115 0.859953 0.511986
0.914244 0.861128 0.549599
0.915373 0.862516 0.585077
0.916487 0.864118 0.617777
0.917556 0.865812 0.645747
0.918563 0.867628 0.669383
0.919539 0.869566 0.691035
0.73492 0.862882 0.420096
0.736309 0.862943 0.420233
0.737667 0.863005 0.420401
0.73901 0.863066 0.420539
0.740337 0.863127 0.420691
0.741695 0.863188 0.420844
0.74342 0.863264 0.421057
0.745632 0.863371 0.421317
0.748486 0.863493 0.421653
0.752102 0.863661 0.42211
0.756619 0.863874 0.422675
0.762249 0.864134 0.423438
0.769207 0.864454 0.42443
0.7776 0.864851 0.425711
0.787472 0.865187 0.427344
0.798718 0.865156 0.429404
0.811383 0.86511 0.432029
0.824598 0.865049 0.435401
0.837964 0.864973 0.439673
0.851194 0.864912 0.445121
0.864317 0.864866 0.451987
0.876799 0.864851 0.460655
0.888121 0.864927 0.471458
0.898268 0.865064 0.483574
0.907668 0.865293 0.498314
0.914366 0.865797 0.521767
0.91519 0.866346 0.551385
0.91606 0.867063 0.581353
0.91696 0.867979 0.610285
0.917876 0.869047 0.637385
0.918669 0.870146 0.658
0.919493 0.871412 0.678264
0.920272 0.87277 0.696849
0.783963 0.867094 0.504768
0.78471 0.867124 0.504845
0.785458 0.86717 0.504952
0.786175 0.867201 0.505028
0.786923 0.867231 0.505119
0.787671 0.867262 0.505211
0.788617 0.867308 0.505333
0.789883 0.867369 0.505486
0.791501 0.867445 0.505684
0.793591 0.867552 0.505959
0.796277 0.867674 0.50631
0.799664 0.867826 0.506767
0.803906 0.868025 0.507378
0.809339 0.868284 0.508171
0.815595 0.868574 0.509163
0.822934 0.868925 0.51046
