BBLuts/BB_101_0160_LUT.cube
TITLE "Generated by Resolve"
LUT_3D_SIZE 9
0 0 0
0 0 0
0.215228 0 0
0.471473 0 0
0.770352 0 0
0.987045 0 0
0.987839 0.577432 0.10837
0.987839 0.843656 0.454658
0.987839 0.94255 0.769207
0 0.0571756 0
0 0.0686961 0
0.221622 0.0469062 0
0.47953 0 0
0.772549 0 0
0.986908 0 0
0.987839 0.598627 0.0901656
0.987839 0.845594 0.453513
0.987839 0.942702 0.769116
0 0.237858 0
0 0.241764 0
0.171405 0.241321 0
0.487297 0.21915 0
0.776135 0.120745 0
0.986603 0.264179 0
0.987839 0.624018 0.0517281
0.987839 0.848753 0.451759
0.987839 0.942962 0.768978
0 0.505241 0
0 0.506172 0
0 0.507164 0
0.421698 0.505684 0
0.779904 0.495827 0
0.985504 0.5449 0
0.987839 0.697215 0
0.987839 0.860136 0.449989
0.987839 0.944121 0.768277
0 0.780926 0
0 0.780926 0
0 0.780697 0
0 0.778805 0
0.719448 0.771084 0
0.953918 0.774533 0
0.987839 0.818738 0
0.987839 0.889647 0.459632
0.987839 0.948425 0.76553
0 0.937453 0
0 0.937453 0
0 0.937453 0
0 0.933822 0
0.685573 0.924498 0
0.910109 0.915557 0
0.987732 0.916945 0.000228885
0.987839 0.933425 0.504067
0.987839 0.959808 0.767468
0.613947 0.986404 0.240665
0.613947 0.986404 0.240665
0.613947 0.986404 0.240665
0.613931 0.986404 0.240665
0.768582 0.981064 0.257053
0.901427 0.97464 0.304433
0.979171 0.970687 0.415808
0.987839 0.971054 0.611429
0.987839 0.976806 0.794308
0.878538 0.987839 0.681865
0.878538 0.987839 0.68188
0.878538 0.987839 0.68188
0.878538 0.987839 0.68188
0.878538 0.987839 0.68188
0.923842 0.987839 0.68835
0.971237 0.987839 0.707576
0.987839 0.987839 0.757427
0.987839 0.987839 0.848859
0.956191 0.987839 0.880308
0.956191 0.987839 0.880308
0.956191 0.987839 0.880308
0.956191 0.987839 0.880308
0.956191 0.987839 0.880308
0.956176 0.987839 0.880308
0.973098 0.987839 0.882856
0.987839 0.987839 0.89012
0.987839 0.987839 0.908248
0 0 0.0594492
0 0 0.060029
0.211856 0 0.0608682
0.470497 0 0.0621805
0.769558 0 0.0621958
0.987045 0 0.0659648
0.987839 0.575204 0.141207
0.987839 0.843626 0.454673
0.987839 0.942535 0.769223
0 0.0244907 0.0505226
0.0333715 0.0399481 0.0493477
0.227451 0 0.0521859
0.473167 0 0.049134
0.770367 0 0.0183719
0.986908 0 0.0227512
0.987839 0.597116 0.117571
0.987839 0.845563 0.453529
0.987839 0.942702 0.769116
0 0.226078 0
0 0.229633 0
0.190478 0.229664 0.000167849
0.48455 0.206943 0
0.772656 0.0860456 0
0.986587 0.249378 0
0.987839 0.622721 0.0762646
0.987839 0.848753 0.451759
0.987839 0.942946 0.768978
0 0.500481 0
0 0.50132 0
0 0.50222 0
0.431968 0.500389 0
0.779156 0.491356 0
0.985351 0.541878 0
0.987839 0.696437 0
0.987839 0.860136 0.449989
0.987839 0.944121 0.768277
0 0.779507 0
0 0.779492 0
0 0.779248 0
0 0.777325 0
0.721645 0.769909 0
0.953933 0.773754 0
0.987839 0.818463 0
0.987839 0.889647 0.459632
0.987839 0.948425 0.76553
0 0.937102 0
0 0.937179 0
0 0.937179 0
0 0.933577 0
0.687404 0.924285 0
0.910307 0.915419 0
0.987732 0.916884 0.000228885
0.987839 0.933425 0.504067
0.987839 0.959808 0.767468
0.616999 0.986297 0.240421
0.616999 0.986297 0.240421
0.616983 0.986297 0.240421
0.616983 0.986297 0.240421
0.769467 0.981018 0.256779
0.901579 0.974594 0.304234
0.979202 0.970672 0.415793
0.987839 0.971054 0.611429
0.987839 0.976806 0.794308
0.878752 0.987839 0.681865
0.878752 0.987839 0.681865
0.878752 0.987839 0.681865
0.878752 0.987839 0.681865
0.878737 0.987839 0.681865
0.923934 0.987839 0.688334
0.971267 0.987839 0.707546
0.987839 0.987839 0.757427
0.987839 0.987839 0.848859
0.956207 0.987839 0.880308
0.956207 0.987839 0.880308
0.956207 0.987839 0.880308
0.956207 0.987839 0.880308
0.956207 0.987839 0.880308
0.956207 0.987839 0.880308
0.973114 0.987839 0.882856
0.987839 0.987839 0.89012
0.987839 0.987839 0.908248
0 0 0.23064
0 0 0.230976
0.177768 0 0.230594
0.47985 0 0.227466
0.76936 0 0.232486
0.98706 0 0.255528
0.987839 0.564935 0.308095
0.987839 0.843015 0.486885
0.987839 0.942535 0.769223
0 0 0.227604
0 0 0.228107
0.202899 0 0.227253
0.478813 0 0.223545
0.770489 0 0.227771
0.986831 0 0.246738
0.987839 0.588983 0.300389
0.987839 0.844968 0.485817
0.987839 0.942702 0.769116
0 0.192004 0.214527
0 0.195087 0.214527
0.170794 0.190036 0.210208
0.467613 0.170947 0.212299
0.769223 0.0142367 0.214801
0.986526 0.191592 0.230762
0.987839 0.615503 0.28893
0.987839 0.848173 0.483955
0.987839 0.942946 0.768978
0 0.485817 0.12697
0 0.487129 0.127398
0 0.487968 0.128985
0.428962 0.48603 0.131258
0.773617 0.477501 0.133242
0.985168 0.53051 0.149096
0.987839 0.691722 0.243641
0.987839 0.859663 0.476738
0.987839 0.944121 0.768277
0 0.776776 0
0 0.776776 0
0 0.776532 0
0 0.774609 0
0.723522 0.76701 0
0.95375 0.77145 0
0.987839 0.817136 0.0503395
0.987839 0.889509 0.461097
0.987839 0.948425 0.76553
0 0.936675 0
0 0.936675 0
0 0.936675 0
0 0.93312 0
0.690623 0.923934 0
0.91078 0.91516 0
0.987747 0.916716 0.000198367
0.987839 0.933364 0.503868
0.987839 0.959808 0.767468
0.621088 0.98616 0.24004
0.621088 0.98616 0.24004
0.621088 0.98616 0.24004
0.621073 0.98616 0.24004
0.770642 0.980926 0.256413
0.901946 0.974548 0.303975
0.979232 0.970642 0.415564
0.987839 0.971038 0.611383
0.987839 0.976806 0.794308
0.879042 0.987839 0.681819
0.879042 0.987839 0.681819
0.879042 0.987839 0.681819
0.879042 0.987839 0.681819
0.879042 0.987839 0.681819
0.924041 0.987839 0.688289
0.971298 0.987839 0.70753
0.987839 0.987839 0.757412
0.987839 0.987839 0.848859
0.956222 0.987839 0.880308
0.956222 0.987839 0.880308
0.956222 0.987839 0.880308
0.956222 0.987839 0.880308
0.956222 0.987839 0.880308
0.956222 0.987839 0.880308
0.973129 0.987839 0.882856
0.987839 0.987839 0.89012
0.987839 0.987839 0.908248
0 0 0.492027
0 0 0.492119
0 0 0.492378
0.4383 0 0.491203
0.787549 0 0.4934
0.987045 0 0.508919
0.987839 0.526528 0.544869
0.987839 0.838315 0.62945
0.987839 0.942351 0.780407
0 0 0.490486
0 0 0.490623
0.0178073 0 0.490776
0.453483 0 0.489174
0.786068 0 0.491447
0.986908 0 0.506279
0.987839 0.556161 0.542077
0.987839 0.840421 0.628931
0.987839 0.942519 0.780316
0 0.0467384 0.486992
0 0.0495003 0.487114
0.0236973 0.0503395 0.48719
0.460578 0 0.48574
0.780926 0 0.48777
0.986572 0.00581369 0.501793
0.987839 0.591333 0.537972
0.987839 0.843778 0.628061
0.987839 0.942763 0.780194
0 0.433661 0.464012
0 0.434516 0.464103
0 0.436484 0.464775
0.406043 0.434607 0.466194
0.757351 0.425757 0.469291
0.98497 0.486748 0.482826
0.987839 0.674784 0.523812
0.987839 0.85594 0.624887
0.987839 0.943938 0.779583
0 0.765148 0.384039
0 0.765148 0.384039
0 0.765332 0.384833
0 0.76347 0.387869
0.716518 0.756191 0.395605
0.950881 0.762142 0.419989
0.987839 0.811368 0.484825
0.987839 0.887236 0.614145
0.987839 0.948241 0.777188
0 0.935515 0.106325
0 0.935515 0.106325
0 0.935515 0.106325
0 0.932097 0.108248
0.686366 0.922805 0.111589
0.909514 0.913878 0.250202
0.987594 0.915633 0.401328
0.987839 0.932631 0.586145
0.987839 0.959762 0.770306
0.633417 0.985702 0.238193
0.633417 0.985702 0.238193
0.633417 0.985702 0.238193
0.633417 0.985702 0.238193
0.774243 0.980682 0.255222
0.902892 0.974411 0.303105
0.979431 0.97052 0.415229
0.987839 0.970962 0.611017
0.987839 0.976791 0.794232
0.880064 0.987839 0.681712
0.880064 0.987839 0.681712
0.880064 0.987839 0.681712
0.880064 0.987839 0.681712
0.880064 0.987839 0.681712
0.924437 0.987839 0.688167
0.97145 0.987839 0.707439
0.987839 0.987839 0.757305
0.987839 0.987839 0.848814
0.956344 0.987839 0.880308
0.956344 0.987839 0.880308
0.956344 0.987839 0.880308
0.956344 0.987839 0.880308
0.956344 0.987839 0.880308
0.956344 0.987839 0.880308
0.973159 0.987839 0.882841
0.987839 0.987839 0.890105
0.987839 0.987839 0.908248
0 0 0.770642
0 0 0.770642
0 0 0.770718
0.106355 0 0.77055
0.758556 0 0.766827
0.987839 0 0.769375
0.987839 0.299443 0.779217
0.987839 0.823011 0.798459
0.987839 0.940368 0.855528
0 0 0.770565
0 0 0.770565
0 0 0.770626
0.114122 0 0.770138
0.762081 0 0.76643
0.987839 0 0.769024
0.987839 0.37969 0.777951
0.987839 0.82562 0.798154
0.987839 0.94052 0.855482
0 0 0.769635
0 0 0.769635
0 0 0.769696
0.217136 0 0.768963
0.76733 0 0.765393
0.987839 0 0.768032
0.987839 0.460334 0.776165
0.987839 0.829587 0.797665
0.987839 0.94081 0.855406
0 0.202655 0.765072
0 0.202655 0.765072
0 0.206973 0.765072
0.223423 0.198535 0.764294
0.767452 0.102739 0.76144
0.986709 0.188006 0.762676
0.987839 0.610422 0.770413
0.987839 0.844038 0.795834
0.987839 0.942031 0.85507
0 0.722942 0.738277
0 0.722942 0.738277
0 0.722988 0.738293
0 0.722805 0.738659
0.691203 0.715877 0.739132
0.943038 0.727428 0.742321
0.987839 0.790265 0.755261
0.987839 0.880247 0.790265
0.987839 0.946593 0.853849
0 0.931395 0.702403
0 0.931395 0.702403
0 0.931472 0.702358
0 0.928801 0.702861
0.642847 0.9187 0.705074
0.898756 0.909133 0.712673
0.986664 0.911528 0.733913
0.987839 0.92987 0.777996
0.987839 0.958572 0.849454
0.614649 0.984894 0.637644
0.614649 0.984894 0.637644
0.614649 0.984894 0.637644
0.614649 0.984894 0.637644
0.759213 0.979934 0.641215
0.89543 0.973465 0.652613
0.973678 0.969497 0.684169
0.987839 0.970108 0.74902
0.987839 0.976364 0.836881
0.883314 0.987839 0.681056
0.883314 0.987839 0.681056
0.883314 0.987839 0.681056
0.883314 0.987839 0.681056
0.883314 0.987839 0.681056
0.925658 0.987839 0.687709
0.971817 0.987839 0.707057
0.987839 0.987839 0.757122
0.987839 0.987839 0.84863
0.956741 0.987839 0.880247
0.956741 0.987839 0.880247
0.956741 0.987839 0.880247
0.956741 0.987839 0.880247
0.956741 0.987839 0.880247
0.956725 0.987839 0.880247
0.973297 0.987839 0.882795
0.987839 0.987839 0.890059
0.987839 0.987839 0.908232
0 0 0.941497
0 0 0.941588
0 0 0.941588
0 0 0.941619
0.572824 0 0.937789
0.983642 0 0.931945
0.987839 0 0.932509
0.987839 0.749355 0.921462
0.987839 0.934676 0.924163
0 0 0.941588
0 0 0.941588
0 0 0.941588
0 0 0.941619
0.572122 0 0.937804
0.983642 0 0.931945
0.987839 0 0.932433
0.987839 0.755047 0.921126
0.987839 0.93489 0.924147
0 0 0.941543
0 0 0.941543
0 0 0.941543
0 0 0.941558
0.582773 0 0.937621
0.983993 0 0.931853
0.987839 0 0.932326
0.987839 0.763745 0.920607
0.987839 0.93521 0.924086
0 0 0.941146
0 0 0.941146
0 0 0.941146
0 0 0.941161
0.633524 0 0.936553
0.984863 0 0.931411
0.987839 0 0.930938
0.987839 0.792325 0.918822
0.987839 0.93666 0.923919
0 0.483619 0.931685
0 0.483619 0.931685
0 0.483619 0.931685
0 0.487495 0.931579
0.623453 0.481498 0.928191
0.977478 0.500893 0.923323
0.987839 0.6748 0.918532
0.987839 0.852674 0.91458
0.987839 0.942016 0.923262
0 0.916259 0.903578
0 0.916259 0.903578
0 0.916259 0.903578
0 0.916259 0.903578
0.417426 0.905379 0.902693
0.882261 0.893156 0.902144
0.982483 0.898451 0.903288
0.987839 0.921721 0.908202
0.987839 0.955688 0.921233
0.439216 0.984375 0.889281
0.439216 0.984375 0.889281
0.440299 0.98439 0.88925
0.440299 0.98439 0.88925
0.68249 0.979339 0.889113
0.874495 0.971145 0.889708
0.963043 0.96698 0.892729
0.987839 0.968078 0.900725
0.987839 0.975143 0.916823
0.871427 0.987839 0.861799
0.871427 0.987839 0.861799
0.871427 0.987839 0.861799
0.871427 0.987839 0.861799
0.871427 0.987839 0.861799
0.914321 0.987839 0.863462
0.963607 0.987839 0.868986
0.987823 0.987839 0.882445
0.987839 0.987839 0.906661
0.958022 0.987839 0.88011
0.958022 0.987839 0.88011
0.958022 0.987839 0.88011
0.958022 0.987839 0.88011
0.958022 0.987839 0.88011
0.958022 0.987839 0.88011
0.97377 0.987839 0.882612
0.987839 0.987839 0.889937
0.987839 0.987839 0.908186
0 0 0.987839
0 0 0.987839
0 0 0.987839
0 0 0.987839
0 0 0.987839
0.898741 0 0.987839
0.987839 0 0.987839
0.987839 0 0.987839
0.987839 0.908186 0.97203
0 0 0.987839
0 0 0.987839
0 0 0.987839
0 0 0.987839
0 0 0.987839
0.898741 0 0.987839
0.987839 0 0.987839
0.987839 0 0.987839
0.987839 0.908629 0.972
0 0 0.987839
0 0 0.987839
0 0 0.987839
0 0 0.987839
0 0 0.987839
0.898741 0 0.987839
0.987839 0 0.987839
0.987839 0 0.987839
0.987839 0.909422 0.971939
0 0 0.987839
0 0 0.987839
0 0 0.987839
0 0 0.987839
0 0 0.987839
0.903716 0 0.987839
0.987839 0 0.987839
0.987839 0 0.987839
0.987839 0.912459 0.97171
0 0 0.987839
0 0 0.987839
0 0 0.987839
0 0 0.987839
0 0 0.987839
0.938445 0 0.987839
0.987839 0 0.987839
0.987839 0.431128 0.984588
0.987839 0.92285 0.970932
0 0.751034 0.981262
0 0.751034 0.981262
0 0.751034 0.981262
0 0.751034 0.981262
0 0.754116 0.98117
0.867781 0.745068 0.978408
0.987839 0.79144 0.97554
0.987839 0.879667 0.971176
0.987839 0.945296 0.969146
0 0.986023 0.966033
0 0.986023 0.966033
0 0.986023 0.966033
0 0.986023 0.966033
0 0.986023 0.966033
0.826886 0.966247 0.964309
0.956237 0.960418 0.964065
0.987839 0.962783 0.964538
0.987839 0.972015 0.966567
0.840787 0.987839 0.959182
0.840787 0.987839 0.959182
0.840787 0.987839 0.959182
0.840787 0.987839 0.959182
0.840787 0.987839 0.959182
0.889036 0.987839 0.959091
0.954574 0.987839 0.959289
0.986969 0.987839 0.96051
0.987839 0.987839 0.963745
0.952865 0.987839 0.948669
0.952865 0.987839 0.948669
0.952865 0.987839 0.948669
0.952865 0.987839 0.948669
0.952865 0.987839 0.948669
0.952865 0.987839 0.948669
0.96875 0.987839 0.949294
0.986175 0.987839 0.951339
0.987839 0.987839 0.956451
0 0.0806287 0.987839
0 0.0806287 0.987839
0 0.0806287 0.987839
0 0.0806287 0.987839
0 0.0806287 0.987839
0 0.0807202 0.987839
0.987839 0 0.987839
0.987839 0.0199283 0.987839
0.987839 0.649592 0.987839
0 0.0806287 0.987839
0 0.0806287 0.987839
0 0.0806287 0.987839
0 0.0806287 0.987839
0 0.0806287 0.987839
0 0.0807202 0.987839
0.987839 0 0.987839
0.987839 0.0199283 0.987839
0.987839 0.649592 0.987839
0 0.0806287 0.987839
0 0.0806287 0.987839
0 0.0806287 0.987839
0 0.0806287 0.987839
0 0.0806287 0.987839
0 0.0807202 0.987839
0.987839 0 0.987839
0.987839 0.0199283 0.987839
0.987839 0.649546 0.987839
0 0.0806287 0.987839
0 0.0806287 0.987839
0 0.0806287 0.987839
0 0.0806287 0.987839
0 0.0806287 0.987839
0 0.0807202 0.987839
0.987839 0 0.987839
0.987839 0.0199283 0.987839
0.987839 0.649454 0.987839
0 0.0804913 0.987839
0 0.0804913 0.987839
0 0.0804913 0.987839
0 0.0804913 0.987839
0 0.0804913 0.987839
0 0.0805829 0.987839
0.987839 0 0.987839
0.987839 0.0221256 0.987839
0.987839 0.649165 0.987839
0 0.0787671 0.987839
0 0.0787671 0.987839
0 0.0787671 0.987839
0 0.0787671 0.987839
0 0.0787671 0.987839
0 0.0788434 0.987839
0.987839 0 0.987839
0.987839 0.0630503 0.987839
0.987839 0.78912 0.987839
0 0.912276 0.987839
0 0.912276 0.987839
0 0.912276 0.987839
0 0.912276 0.987839
0 0.912276 0.987839
0 0.914107 0.987839
0.952697 0.890654 0.987839
0.987839 0.921706 0.987839
0.987839 0.95552 0.987839
0.542458 0.987839 0.987762
0.542458 0.987839 0.987762
0.542458 0.987839 0.987762
0.542458 0.987839 0.987762
0.542458 0.987839 0.987762
0.542458 0.987839 0.987762
0.936538 0.987808 0.987091
0.984939 0.986435 0.987015
0.987839 0.986969 0.987167
0.94168 0.987839 0.98558
0.94168 0.987839 0.98558
0.94168 0.987839 0.98558
0.94168 0.987839 0.98558
0.94168 0.987839 0.98558
0.94168 0.987839 0.98558
0.959472 0.987839 0.985565
0.982864 0.987839 0.985611
0.987839 0.987839 0.985931
0 0.323888 0.987839
0 0.323888 0.987839
0 0.323888 0.987839
0 0.323888 0.987839
0 0.323888 0.987839
0 0.323888 0.987839
0 0.323964 0.987839
0.987839 0.127077 0.987839
0.987839 0.681483 0.987839
0 0.323888 0.987839
0 0.323888 0.987839
0 0.323888 0.987839
0 0.323888 0.987839
0 0.323888 0.987839
0 0.323888 0.987839
0 0.323964 0.987839
0.987839 0.127077 0.987839
0.987839 0.681483 0.987839
0 0.323888 0.987839
0 0.323888 0.987839
0 0.323888 0.987839
0 0.323888 0.987839
0 0.323888 0.987839
0 0.323888 0.987839
0 0.323964 0.987839
0.987839 0.127077 0.987839
0.987839 0.681483 0.987839
0 0.323888 0.987839
0 0.323888 0.987839
0 0.323888 0.987839
0 0.323888 0.987839
0 0.323888 0.987839
0 0.323888 0.987839
0 0.323964 0.987839
0.987839 0.127077 0.987839
0.987839 0.681483 0.987839
0 0.323888 0.987839
0 0.323888 0.987839
0 0.323888 0.987839
0 0.323888 0.987839
0 0.323888 0.987839
0 0.323888 0.987839
0 0.323964 0.987839
0.987839 0.127077 0.987839
0.987839 0.681483 0.987839
0 0.323812 0.987839
0 0.323812 0.987839
0 0.323812 0.987839
0 0.323812 0.987839
0 0.323812 0.987839
0 0.323812 0.987839
0 0.323873 0.987839
0.987839 0.128084 0.987839
0.987839 0.682811 0.987839
0 0.322637 0.987839
0 0.322637 0.987839
0 0.322637 0.987839
0 0.322637 0.987839
0 0.322637 0.987839
0 0.322637 0.987839
0 0.322698 0.987839
0.987839 0.256977 0.987839
0.987839 0.685191 0.987839
0 0.985275 0.987839
0 0.985275 0.987839
0 0.985275 0.987839
0 0.985275 0.987839
0 0.985275 0.987839
0 0.985275 0.987839
0 0.985473 0.987839
0.982147 0.971145 0.987839
0.987839 0.976226 0.987839
0.890333 0.987839 0.987839
0.890333 0.987839 0.987839
0.890333 0.987839 0.987839
0.890333 0.987839 0.987839
0.890333 0.987839 0.987839
0.890333 0.987839 0.987839
0.890333 0.987839 0.987839
0.977676 0.987839 0.987839
0.987839 0.987839 0.987839
