BBLuts/BB_103_0530_LUT.cube
TITLE "Generated by Resolve"
LUT_3D_SIZE 33
0 0 0
0 0 0
0 0 0
0 0 0
0 0 0
0 0 0
0.0049897 0 0
0.0554208 0 0
0.128344 0 0
0.241001 0 0
0.337499 0 0
0.429221 0 0
0.519158 0 0
0.608286 0 0
0.69662 0 0
0.783978 0 0
0.870115 0 0
0.95436 0 0
1 0 0
1 0 0
1 0 0
1 0 0
1 0 0.0349737
1 0 0.25594
1 0 0.427878
1 0 0.532967
1 0.0746624 0.625498
1 0.283391 0.714427
1 0.416693 0.799084
1 0.526284 0.880507
1 0.633326 0.958618
1 0.726055 1
1 0.803571 1
0 0 0
0 0 0
0 0 0
0 0 0
0 0 0
0 0 0
0 0 0
0.0473945 0 0
0.11783 0 0
0.232563 0 0
0.33164 0 0
0.425071 0 0
0.51606 0 0
0.605982 0 0
0.694911 0 0
0.782696 0 0
0.869154 0 0
0.953658 0 0
1 0 0
1 0 0
1 0 0
1 0 0
1 0 0.0323796
1 0 0.253544
1 0 0.426627
1 0 0.528283
1 0.0949569 0.623407
1 0.29752 0.713329
1 0.425055 0.798459
1 0.531914 0.88011
1 0.63711 0.958389
1 0.728756 1
1 0.80557 1
0 0 0
0 0 0
0 0 0
0 0 0
0 0 0
0 0 0
0 0 0
0.0331884 0 0
0.101427 0 0
0.21735 0 0
0.32192 0 0
0.419715 0 0
0.512749 0 0
0.603555 0 0
0.693156 0 0
0.781399 0 0
0.868208 0 0
0.952956 0 0
1 0 0
1 0 0
1 0 0
1 0 0
1 0 0.0297704
1 0 0.251118
1 0 0.424857
1 0 0.524224
1 0.115572 0.621469
1 0.31078 0.712276
1 0.433204 0.797848
1 0.537423 0.879728
1 0.640879 0.958144
1 0.731441 1
1 0.807538 1
0 0 0
0 0 0
0 0 0
0 0 0
0 0 0
0 0 0
0 0 0
0.0196231 0 0
0.0867781 0 0
0.199359 0 0
0.308492 0 0
0.407416 0 0
0.502708 0 0
0.597772 0 0
0.691142 0 0
0.780102 0 0
0.867247 0 0
0.952255 0 0
1 0 0
1 0 0
1 0 0
1 0 0
1 0 0.0271611
1 0 0.248661
1 0 0.417075
1 0 0.520653
1 0.140108 0.619638
1 0.323354 0.711284
1 0.441077 0.797253
1 0.542855 0.879362
1 0.644587 0.957916
1 0.734096 1
1 0.809491 1
0 0 0
0 0 0
0 0 0
0 0 0
0 0 0
0 0 0
0 0 0
0.00686656 0 0
0.0725719 0 0
0.181109 0 0
0.295949 0 0
0.397055 0 0
0.493492 0 0
0.588296 0 0
0.682643 0 0
0.778408 0 0
0.866285 0 0
0.951553 0 0
1 0 0
1 0 0
1 0 0
1 0 0
1 0 0.0245365
1 0 0.246189
1 0 0.4094
1 0 0.517433
1 0.168399 0.617868
1 0.335393 0.710307
1 0.448753 0.796674
1 0.548196 0.878996
1 0.648264 0.957687
1 0.73669 1
1 0.811429 1
0 0 0
0 0 0
0 0 0
0 0 0
0 0 0
0 0 0
0 0 0
0 0 0
0.0585794 0 0
0.161257 0 0
0.282933 0 0
0.386267 0 0
0.483909 0 0
0.579553 0 0
0.674327 0 0
0.768292 0 0
0.86482 0 0
0.95082 0 0
1 0 0
1 0 0
1 0 0
1 0 0
1 0 0.0218051
1 0 0.24358
1 0 0.401648
1 0.00817884 0.514321
1 0.193912 0.616144
1 0.347341 0.709331
1 0.456596 0.796078
1 0.553674 0.878614
1 0.652033 0.957443
1 0.739406 1
1 0.813443 1
0 0 0
0 0 0
0 0 0
0 0 0
0 0 0
0 0 0
0 0 0
0 0 0
0.0426795 0 0
0.137301 0 0
0.267597 0 0
0.373831 0 0
0.47277 0 0
0.568933 0 0
0.663981 0 0
0.758511 0 0
0.852827 0 0
0.948852 0 0
1 0 0
1 0 0
1 0 0
1 0 0
1 0 0.018265
1 0 0.240055
1 0 0.392477
1 0.0344396 0.510597
1 0.22211 0.614069
1 0.36202 0.708125
1 0.466392 0.795316
1 0.560586 0.878126
1 0.65684 0.957153
1 0.742885 1
1 0.816022 1
0 0 0
0 0 0
0 0 0
0 0 0
0 0 0
0 0 0
0 0 0
0 0 0
0.024567 0 0
0.113024 0 0
0.248936 0 0
0.359625 0 0
0.460655 0 0
0.557641 0 0
0.652766 0 0
0.746609 0 0
0.84036 0 0
0.934295 0 0
1 0 0
1 0 0
1 0 0
1 0 0
1 0 0.01355
1 0 0.224933
1 0 0.383017
1 0.071107 0.505974
1 0.254398 0.61149
1 0.380209 0.7066
1 0.478904 0.794369
1 0.569451 0.877501
1 0.663111 0.956756
1 0.747417 1
1 0.819409 1
0 0.0509804 0
0 0.0499733 0
0 0.0489815 0
0 0.0479286 0
0 0.0466163 0
0 0.0453193 0
0 0.0432593 0
0 0.0405127 0
0.002533 0.0370947 0
0.087892 0.0327306 0
0.224857 0.0271611 0
0.342657 0.0202029 0
0.446784 0.01149 0
0.545586 0.00077821 0
0.64155 0 0
0.735424 0 0
0.827893 0 0
0.919448 0 0
1 0 0
1 0 0
1 0 0
1 0 0
1 0 0.00494392
1 0 0.199512
1 0 0.37322
1 0.120287 0.500557
1 0.290974 0.608362
1 0.402548 0.704707
1 0.494545 0.793149
1 0.580819 0.876692
1 0.671168 0.956237
1 0.753231 1
1 0.823819 1
0 0.127001 0
0 0.125689 0
0 0.124376 0
0 0.123079 0
0 0.121691 0
0 0.11986 0
0 0.117571 0
0 0.114 0
0 0.109697 0
0.057496 0.10454 0
0.19118 0.0982376 0
0.32105 0.0904707 0
0.430076 0.0808423 0
0.531685 0.0690013 0
0.629358 0.0541085 0
0.724147 0.0352331 0
0.816678 0.0126955 0
0.907057 0 0
0.995895 0 0
1 0 0
1 0 0
1 0 0
1 0 0
1 0 0.170611
1 0.0472877 0.362387
1 0.200885 0.49424
1 0.331563 0.604654
1 0.429496 0.702358
1 0.513985 0.791608
1 0.595087 0.875669
1 0.681315 0.955566
1 0.760662 1
1 0.829526 1
0 0.239811 0
0 0.238834 0
0 0.237858 0
0 0.236866 0
0 0.235889 0
0 0.234791 0
0 0.232761 0
0 0.229862 0
0 0.225544 0
0.0207523 0.220264 0
0.13904 0.213397 0
0.292653 0.204654 0
0.409339 0.193256 0
0.515099 0.178241 0
0.615335 0.157397 0
0.711666 0.131411 0
0.805066 0.104021 0
0.895659 0.0731365 0
0.983719 0.036347 0
1 0 0
1 0 0
1 0 0
1 0 0
1 0.0325475 0.140322
1 0.13637 0.350103
1 0.27599 0.487068
1 0.376837 0.600229
1 0.461402 0.699504
1 0.537713 0.78967
1 0.612833 0.874342
1 0.69427 0.954696
1 0.770199 1
1 0.836759 1
0 0.334203 0
0 0.333547 0
0 0.332891 0
0 0.332235 0
0 0.331579 0
0 0.330892 0
0 0.329992 0
0 0.328008 0
0 0.32488 0
0 0.320684 0
0.0867475 0.315572 0
0.253132 0.309255 0
0.383078 0.30164 0
0.49514 0.292332 0
0.599268 0.280247 0
0.698116 0.264454 0
0.793011 0.243305 0
0.884245 0.214008 0
0.972213 0.171252 0
1 0.118608 0
1 0.08365 0
1 0.068986 0
1 0.0877852 0
1 0.155764 0.111757
1 0.258366 0.336385
1 0.347326 0.478935
1 0.426734 0.595026
1 0.498695 0.695994
1 0.566369 0.787259
1 0.634714 0.872679
1 0.710475 0.953597
1 0.782315 1
1 0.846006 1
0 0.421683 0
0 0.42121 0
0 0.420722 0
0 0.420233 0
0 0.41976 0
0 0.419257 0
0 0.418601 0
0 0.417731 0
0 0.41561 0
0 0.411963 0
0.0264439 0.407538 0
0.193057 0.402182 0
0.34789 0.395987 0
0.470085 0.388678 0
0.580163 0.379843 0
0.682872 0.368811 0
0.780255 0.354528 0
0.872999 0.335958 0
0.961654 0.312001 0
1 0.283299 0
1 0.255085 0
1 0.240696 0
1 0.254536 0
1 0.297353 0.0855573
1 0.355627 0.320577
1 0.418677 0.46952
1 0.481178 0.5888
1 0.541329 0.691737
1 0.600168 0.784283
1 0.661311 0.870588
1 0.730602 0.952178
1 0.797559 1
1 0.857771 1
0 0.506279 0
0 0.505928 0
0 0.505577 0
0 0.505226 0
0 0.504875 0
0 0.504509 0
0 0.504036 0
0 0.503395 0
0 0.502541 0
0 0.500191 0
0 0.495811 0
0.0974289 0.490806 0
0.296971 0.48513 0
0.436774 0.478889 0
0.5561 0.471672 0
0.664683 0.463066 0
0.765911 0.452384 0
0.861219 0.438926 0
0.951446 0.422049 0
1 0.402579 0
1 0.38439 0
1 0.374548 0
1 0.38085 0
1 0.405783 0.056611
1 0.444617 0.301381
1 0.490837 0.458274
1 0.539773 0.581338
1 0.589319 0.686519
1 0.639155 0.780575
1 0.692714 0.867979
1 0.755093 0.950393
1 0.81648 1
1 0.872557 1
0 0.589288 0
0 0.589029 0
0 0.588754 0
0 0.588495 0
0 0.588235 0
0 0.587961 0
0 0.58761 0
0 0.587137 0
0 0.586511 0
0 0.585687 0
0 0.583062 0
0 0.577752 0
0.21088 0.572091 0
0.388907 0.566186 0
0.523796 0.559899 0
0.641505 0.552728 0
0.748562 0.544244 0
0.847791 0.533867 0
0.940627 0.521141 0
1 0.506645 0
1 0.493019 0
1 0.484962 0
1 0.487785 0
1 0.503456 0.0212406
1 0.530221 0.276417
1 0.564187 0.444327
1 0.60209 0.572106
1 0.641825 0.680064
1 0.683497 0.775982
1 0.729305 0.864668
1 0.783902 0.948119
1 0.839414 1
1 0.890929 1
0 0.670924 0
0 0.670741 0
0 0.670542 0
0 0.670344 0
0 0.670161 0
0 0.669947 0
0 0.669688 0
0 0.669352 0
0 0.668894 0
0 0.668284 0
0 0.66746 0
0 0.66424 0
0.0606699 0.657984 0
0.313024 0.651759 0
0.477394 0.645762 0
0.610132 0.639445 0
0.726177 0.632334 0
0.831296 0.623972 0
0.928054 0.614023 0
1 0.602762 0
1 0.591959 0
1 0.584909 0
1 0.585641 0
1 0.595361 0
1 0.613642 0.241398
1 0.638331 0.426307
1 0.667308 0.560449
1 0.69865 0.671962
1 0.732616 0.77023
1 0.770916 0.860533
1 0.817853 0.945235
1 0.86659 1
1 0.913054 1
0 0.751156 0
0 0.751019 0
0 0.750866 0
0 0.750729 0
0 0.750576 0
0 0.750423 0
0 0.750225 0
0 0.749966 0
0 0.74963 0
0 0.749172 0
0 0.748562 0
0 0.747768 0
0 0.743725 0
0.154513 0.7364 0
0.404959 0.729854 0
0.564645 0.723796 0
0.695628 0.717494 0
0.809827 0.71046 0
0.912413 0.702358 0
1 0.693233 0
1 0.684382 0
1 0.67805 0
1 0.677363 0
1 0.683009 0
1 0.695171 0.185183
1 0.71284 0.402014
1 0.734539 0.545296
1 0.758968 0.661631
1 0.785779 0.76289
1 0.817151 0.855283
1 0.856397 0.941588
1 0.898695 1
1 0.938567 1
0 0.829633 0
0 0.829526 0
0 0.829419 0
0 0.829313 0
0 0.829206 0
0 0.829099 0
0 0.828946 0
0 0.828763 0
0 0.828519 0
0 0.828183 0
0 0.827741 0
0 0.827161 0
0 0.826383 0
0 0.821332 0
0.270191 0.812894 0
0.49395 0.80618 0
0.651133 0.800122 0
0.780224 0.793881 0
0.891844 0.786999 0
0.990631 0.7794 0
1 0.771862 0
1 0.766003 0
1 0.764218 0
1 0.767376 0
1 0.774899 0.0974594
1 0.787091 0.367834
1 0.802899 0.524773
1 0.821454 0.648081
1 0.842466 0.753475
1 0.867308 0.848569
1 0.899702 0.936934
1 0.934264 1
1 0.968734 1
0 0.905989 0
0 0.905898 0
0 0.905821 0
0 0.905745 0
0 0.905669 0
0 0.905592 0
0 0.905486 0
0 0.905348 0
0 0.905165 0
0 0.904921 0
0 0.904585 0
0 0.904158 0
0 0.903593 0
0 0.902846 0
0 0.896574 0
0.366766 0.887098 0
0.581918 0.880339 0
0.736767 0.874327 0
0.863249 0.868162 0
0.971542 0.86154 0
1 0.854887 0
1 0.849363 0
1 0.846754 0
1 0.848249 0
1 0.852506 0.00178531
1 0.860441 0.315862
1 0.871626 0.496208
1 0.885344 0.629847
1 0.901518 0.741039
1 0.920607 0.839826
1 0.94548 0.930907
1 0.974136 1
1 0.999542 1
0 0.979141 0
0 0.97908 0
0 0.979034 0
0 0.978973 0
0 0.978927 0
0 0.978866 0
0 0.97879 0
0 0.978698 0
0 0.978561 0
0 0.978393 0
0 0.978164 0
0 0.977859 0
0 0.977447 0
0 0.976913 0
0 0.976211 0
0.0231632 0.968383 0
0.459159 0.958175 0
0.669413 0.951492 0
0.821332 0.945602 0
0.944411 0.939651 0
1 0.933608 0
1 0.928481 0
1 0.925216 0
1 0.925124 0
1 0.927596 0
1 0.931914 0.224537
1 0.939208 0.454551
1 0.948745 0.604242
1 0.960418 0.724239
1 0.975052 0.82826
1 0.992462 0.923033
1 1 1
1 1 1
0 1 0
0 1 0
0 1 0
0 1 0
0 1 0
0 1 0
0 1 0
0 1 0
0 1 0
0 1 0
0 1 0
0 1 0
0 1 0
0 1 0
0 1 0
0 1 0
0.114382 1 0
0.551904 1 0
0.756756 1 0
0.904387 1 0
1 1 0
1 1 0
1 0.997024 0
1 0.995804 0
1 0.996948 0
1 0.998383 0.0453498
1 1 0.388846
1 1 0.567269
1 1 0.700618
1 1 0.812589
1 1 0.912566
1 1 0.994049
1 1 1
0 1 0
0 1 0
0 1 0
0 1 0
0 1 0
0 1 0
0 1 0
0 1 0
0 1 0
0 1 0
0 1 0
0 1 0
0 1 0
0 1 0
0 1 0
0 1 0
0 1 0
0.267765 1 0
0.646143 1 0
0.84358 1 0
0.984878 1 0
1 1 0
1 1 0
1 1 0
1 1 0
1 1 0
1 1 0.266758
1 1 0.510231
1 1 0.666285
1 1 0.790524
1 1 0.898283
1 1 0.985687
1 1 1
0 1 0
0 1 0
0 1 0
0 1 0
0 1 0
0 1 0
0 1 0
0 1 0
0 1 0
0 1 0
0 1 0
0 1 0
0 1 0
0 1 0
0 1 0
0 1 0
0 1 0
0 1 0
0.397986 1 0
0.741283 1 0
0.929198 1 0
1 1 0
1 1 0
1 1 0
1 1 0
1 1 0
1 1 0
1 1 0.412085
1 1 0.613855
1 1 0.75816
1 1 0.878721
1 1 0.974914
1 1 1
0 1 0
0 1 0
0 1 0
0 1 0
0 1 0
0 1 0
0 1 0
0 1 0
0 1 0
0 1 0
0 1 0
0 1 0
0 1 0
0 1 0
0 1 0
0 1 0
0 1 0
0 1 0
0 1 0
0.521538 1 0
0.835004 1 0
1 1 0
1 1 0
1 1 0
1 1 0
1 1 0
1 1 0
1 1 0.168109
1 1 0.524926
1 1 0.709148
1 1 0.847791
1 1 0.958434
1 1 1
0 1 0
0 1 0
0 1 0
0 1 0
0 1 0
0 1 0
0 1 0
0 1 0
0 1 0
0 1 0
0 1 0
0 1 0
0 1 0
0 1 0
0 1 0
0 1 0
0 1 0
0 1 0
0 1 0
0 1 0
0.638071 1 0
0.925978 1 0
1 1 0
1 1 0
1 1 0
1 1 0
1 1 0
1 1 0
1 1 0.338521
1 1 0.62623
1 1 0.801495
1 1 0.930678
1 1 1
0 1 0
0 1 0
0 1 0
0 1 0
0 1 0
0 1 0
0 1 0
0 1 0
0 1 0
0 1 0
0 1 0
0 1 0
0 1 0
0 1 0
0 1 0
0 1 0
0 1 0
0 1 0
0 1 0
0 1 0
0 1 0
0.745953 1 0
1 1 0
1 1 0
1 1 0
1 1 0
1 1 0
1 1 0
1 1 0
1 1 0.45742
1 1 0.723644
1 1 0.888716
1 1 0.997269
0 1 0
0 1 0
0 1 0
0 1 0
0 1 0
0 1 0
0 1 0
0 1 0
0 1 0
0 1 0
0 1 0
0 1 0
0 1 0
0 1 0
0 1 0
0 1 0
0 1 0
0 1 0
0 1 0
0 1 0
0 1 0
0 1 0
0.845106 1 0
1 1 0
1 1 0
1 1 0
1 1 0
1 1 0
1 1 0
1 1 0
1 1 0.567437
1 1 0.816831
1 1 0.962585
0 1 0
0 1 0
0 1 0
0 1 0
0 1 0
0 1 0
0 1 0
0 1 0
0 1 0
