BBLuts/BB_102_0640_LUT.cube
TITLE "Generated by Resolve"
LUT_3D_SIZE 33
0 0 0
0 0 0
0 0 0
0 0 0
0 0 0
0.0493629 0 0
0.112139 0 0
0.159152 0 0
0.207294 0 0
0.263569 0 0
0.327962 0 0
0.397131 0 0
0.473564 0 0
0.546349 0 0
0.606195 0 0
0.66772 0 0
0.73167 0 0
0.796948 0 0
0.856352 0 0
0.904005 0 0
0.915831 0 0
0.916518 0 0
0.898909 0.281636 0
0.887037 0.486397 0.0120089
0.879835 0.613092 0.0582437
0.875502 0.691447 0.115648
0.871244 0.763317 0.185214
0.867704 0.820874 0.27361
0.864881 0.864591 0.382498
0.86247 0.898177 0.477195
0.860594 0.9234 0.54168
0.858976 0.943358 0.605219
0.857618 0.958938 0.662821
0 0 0
0 0 0
0 0 0
0 0 0
0 0 0
0.0610971 0 0
0.116121 0 0
0.162463 0 0
0.212665 0 0
0.269734 0 0
0.334295 0 0
0.401892 0 0
0.475044 0 0
0.547692 0 0
0.607156 0 0
0.668315 0 0
0.732189 0 0
0.796948 0 0
0.856291 0 0
0.9037 0 0
0.915816 0 0
0.915663 0 0
0.896834 0.314 0
0.885313 0.501579 0
0.879454 0.617563 0.0545052
0.875242 0.694743 0.113741
0.871107 0.765133 0.184588
0.867643 0.821805 0.273487
0.864836 0.865064 0.382177
0.862455 0.898436 0.477058
0.860578 0.923506 0.541619
0.858976 0.943435 0.605188
0.857618 0.958968 0.662791
0 0 0
0 0 0
0 0 0
0 0 0
0 0 0
0.0672465 0 0
0.11664 0 0
0.165042 0 0
0.217731 0 0
0.274037 0 0
0.33698 0 0
0.403006 0 0
0.476997 0 0
0.54934 0 0
0.608118 0 0
0.669154 0 0
0.732464 0 0
0.797192 0 0
0.856199 0 0
0.903365 0 0
0.915785 0 0
0.911879 0.0632486 0
0.894759 0.345861 0
0.883818 0.514595 0
0.879057 0.622156 0.0511177
0.875013 0.697688 0.112016
0.870985 0.766827 0.184009
0.867582 0.822675 0.273396
0.864805 0.865522 0.381872
0.86244 0.89868 0.476921
0.860563 0.923659 0.541558
0.858961 0.943511 0.605142
0.857618 0.959014 0.662791
0 0 0
0 0 0
0 0 0
0 0 0
0.0118715 0.000640879 0
0.068574 0 0
0.113909 0 0
0.162188 0 0
0.215869 0 0
0.27512 0 0
0.339513 0 0
0.40502 0 0
0.479347 0 0
0.551019 0 0
0.60911 0 0
0.669779 0 0
0.732998 0 0
0.797421 0 0
0.856107 0 0
0.903014 0 0
0.915755 0 0
0.907134 0.148135 0
0.893095 0.371191 0
0.88275 0.525216 0
0.878706 0.626215 0.0482185
0.874815 0.700343 0.110491
0.870863 0.768399 0.183459
0.867521 0.823514 0.273274
0.864775 0.86598 0.381582
0.862425 0.898924 0.476783
0.860563 0.923781 0.541497
0.858961 0.943572 0.605112
0.857618 0.95906 0.66276
0 0.05037 0
0 0.0538643 0
0 0.0572518 0
0 0.0605936 0
0 0.0619669 0
0.0501717 0.0603647 0
0.101915 0.0574807 0
0.15346 0.0510872 0
0.21062 0.0370031 0
0.274968 0 0
0.340673 0 0
0.407202 0 0
0.48159 0 0
0.552728 0 0
0.610361 0 0
0.670649 0 0
0.733516 0 0
0.797635 0 0
0.855985 0 0
0.902617 0 0
0.915724 0 0
0.904204 0.197055 0
0.891646 0.393088 0
0.882017 0.53611 0
0.878325 0.630503 0.0444648
0.874586 0.703059 0.108751
0.870756 0.769894 0.18294
0.86746 0.824323 0.273182
0.864744 0.866423 0.381277
0.862394 0.899153 0.476661
0.860548 0.923888 0.541436
0.858961 0.943648 0.605066
0.857618 0.959091 0.662745
0 0.090013 0
0 0.0928664 0
0 0.0958419 0
0 0.098146 0
0 0.099321 0
0.0228885 0.0988785 0
0.0872358 0.0977188 0
0.143694 0.0950027 0
0.20351 0.0895705 0
0.268681 0.0789349 0
0.337102 0.0584421 0
0.408194 0 0
0.483528 0 0
0.554543 0 0
0.611521 0 0
0.671397 0 0
0.734096 0 0
0.797864 0 0
0.855848 0 0
0.902205 0 0
0.914473 0 0
0.901686 0.237736 0
0.890425 0.411444 0
0.881392 0.545205 0
0.877958 0.634501 0.0408637
0.874372 0.705867 0.106813
0.870619 0.771572 0.182361
0.867399 0.825101 0.273091
0.864713 0.86685 0.380987
0.862379 0.899397 0.476539
0.860548 0.924025 0.541375
0.858961 0.943725 0.605035
0.857618 0.959121 0.662715
0 0.132342 0
0 0.134783 0
0 0.137179 0
0 0.138643 0
0 0.139681 0
0 0.140017 0
0.0592203 0.139406 0
0.128786 0.13817 0
0.193133 0.135271 0
0.261662 0.129458 0
0.33196 0.118853 0
0.403738 0.101778 0
0.481865 0.0700542 0
0.555886 0 0
0.612634 0 0
0.672526 0 0
0.734554 0 0
0.797894 0 0
0.855467 0 0
0.901701 0 0
0.910735 0.0685283 0
0.899138 0.27805 0
0.889082 0.431556 0
0.88069 0.555596 0
0.877546 0.638895 0.0369573
0.874113 0.709056 0.104616
0.870466 0.773571 0.181643
0.867308 0.826474 0.272984
0.864668 0.867353 0.380652
0.862364 0.899657 0.476387
0.860533 0.924178 0.541299
0.858946 0.943786 0.60499
0.857603 0.959167 0.662699
0 0.181109 0
0 0.183261 0
0 0.184863 0
0 0.186099 0
0 0.186831 0
0 0.187503 0
0 0.187594 0
0.0982376 0.186984 0
0.17612 0.185321 0
0.249592 0.181765 0
0.323766 0.174487 0
0.399283 0.164004 0
0.479057 0.148379 0
0.5514 0.122332 0
0.609888 0.0682231 0
0.672526 0.000854505 0
0.734554 0 0
0.798169 0 0
0.855222 0 0
0.898238 0.021912 0
0.905104 0.166842 0
0.896117 0.325048 0
0.887343 0.457633 0
0.879759 0.569162 0
0.87689 0.645167 0.0290837
0.873762 0.713268 0.101717
0.870268 0.776242 0.180713
0.867201 0.82797 0.272862
0.864607 0.868238 0.380133
0.862333 0.900053 0.476173
0.860517 0.924392 0.541207
0.858946 0.943923 0.604913
0.857603 0.959228 0.662669
0 0.238758 0
0 0.240375 0
0 0.241489 0
0 0.242344 0
0 0.242985 0
0 0.243671 0
0 0.243977 0
0.0442054 0.243748 0
0.143679 0.242359 0
0.22858 0.239445 0
0.309499 0.234668 0
0.390906 0.227451 0
0.475059 0.217227 0
0.548699 0.20145 0
0.605112 0.179614 0
0.665766 0.149477 0
0.72929 0.105165 0
0.796384 0.0184939 0
0.852079 0.0263676 0
0.890852 0.139223 0
0.899245 0.25951 0
0.892714 0.376913 0
0.885115 0.490333 0
0.87863 0.585855 0
0.875914 0.653437 0.0171969
0.873274 0.719295 0.0973068
0.870008 0.779797 0.179477
0.867048 0.829999 0.272679
0.864515 0.869413 0.3794
0.862287 0.900725 0.475822
0.860487 0.924697 0.541054
0.85893 0.944091 0.604837
0.857603 0.959335 0.662608
0 0.302998 0
0 0.303731 0
0 0.304204 0
0 0.30457 0
0 0.305135 0
0 0.305211 0
0 0.30515 0
0 0.304768 0
0.0794995 0.304189 0
0.19353 0.302541 0
0.28661 0.299702 0
0.376196 0.294926 0
0.467185 0.287678 0
0.544625 0.276661 0
0.601694 0.263645 0
0.661265 0.248402 0
0.722606 0.232563 0
0.784878 0.219791 0
0.839597 0.227054 0
0.8813 0.270451 0
0.89369 0.344198 0
0.88896 0.433402 0
0.882597 0.527504 0
0.877333 0.604959 0
0.874449 0.66424 0.00221256
0.872602 0.727321 0.091249
0.869627 0.784802 0.177752
0.86685 0.832746 0.272465
0.864393 0.871031 0.378408
0.862226 0.901625 0.475364
0.860456 0.925216 0.540795
0.858915 0.944335 0.6047
0.857588 0.959457 0.662531
0 0.371725 0
0 0.372457 0
0 0.372915 0
0 0.373297 0
0 0.373571 0
0 0.373754 0
0 0.373861 0
0 0.374105 0
0 0.373663 0
0.11931 0.373159 0
0.248951 0.371984 0
0.351949 0.369192 0
0.452323 0.364172 0
0.537331 0.356573 0
0.59704 0.34815 0
0.657252 0.3393 0
0.717556 0.331746 0
0.778088 0.328466 0
0.831373 0.33904 0
0.872358 0.372198 0
0.88809 0.426123 0
0.884703 0.496498 0
0.879942 0.566659 0
0.876051 0.624079 0
0.872419 0.677668 0
0.871717 0.737789 0.0841077
0.869123 0.791394 0.175463
0.866575 0.836515 0.272236
0.86424 0.873167 0.377081
0.862135 0.902861 0.474723
0.860395 0.925933 0.540444
0.858885 0.944747 0.604471
0.857572 0.959655 0.662425
0 0.449378 0
0 0.449699 0
0 0.450126 0
0 0.450813 0
0 0.451102 0
0 0.451316 0
0 0.451514 0
0 0.451621 0
0 0.451514 0
0 0.452018 0
0.17084 0.451514 0
0.310628 0.450614 0
0.426032 0.448234 0
0.523552 0.443976 0
0.588449 0.438132 0
0.651057 0.43267 0
0.711925 0.429786 0
0.771145 0.430823 0
0.822644 0.44184 0
0.862928 0.46772 0
0.882185 0.508598 0
0.880629 0.556527 0
0.877272 0.605737 0
0.874388 0.648371 0
0.871015 0.696559 0
0.870634 0.75079 0.0760357
0.868482 0.799893 0.17258
0.866194 0.841566 0.272038
0.864012 0.876188 0.376669
0.862013 0.904479 0.473899
0.860334 0.926909 0.539956
0.858839 0.945327 0.60412
0.857557 0.959991 0.662242
0 0.536629 0
0 0.536797 0
0 0.537118 0
0 0.537377 0
0 0.537606 0
0 0.53814 0
0 0.538338 0
0 0.538506 0
0 0.538643 0
0 0.53875 0
0.0403906 0.538949 0
0.230808 0.539681 0
0.381308 0.539178 0
0.499352 0.537438 0
0.573419 0.534279 0
0.640146 0.531151 0
0.703746 0.529076 0
0.763272 0.530419 0
0.813413 0.538582 0
0.852857 0.555123 0
0.877012 0.579889 0
0.877043 0.609293 0
0.874952 0.639963 0
0.872389 0.677119 0
0.869383 0.719478 0
0.86923 0.766949 0.0640879
0.867689 0.81033 0.169146
0.865721 0.848035 0.271962
0.863722 0.880186 0.377432
0.861845 0.906767 0.472831
0.860243 0.928206 0.539315
0.858778 0.946105 0.603677
0.857511 0.960449 0.661967
0 0.610529 0
0 0.610574 0
0 0.610727 0
0 0.610864 0
0 0.610971 0
0 0.611078 0
0 0.611185 0
0 0.611322 0
0 0.611627 0
0 0.611673 0
0 0.611612 0
0.0959335 0.610956 0
0.308797 0.611353 0
0.463111 0.610986 0
0.553185 0.609949 0
0.625071 0.608454 0
0.693019 0.607401 0
0.75462 0.607752 0
0.804608 0.611429 0
0.843168 0.62002 0
0.872236 0.633936 0
0.873945 0.653651 0
0.872236 0.67924 0
0.870024 0.71043 0
0.867491 0.745861 0
0.867521 0.785672 0.0492103
0.866728 0.823026 0.164813
0.865141 0.856062 0.272114
0.863355 0.885313 0.378622
0.861616 0.909773 0.471504
0.860105 0.930022 0.538445
0.858701 0.947143 0.603098
0.857481 0.961059 0.661616
0 0.669902 0
0 0.669902 0
0 0.669978 0
0 0.670085 0
0 0.670161 0
0 0.670222 0
0 0.670283 0
0 0.670359 0
0 0.670405 0
0 0.67039 0
0 0.670497 0
0 0.670161 0
0.176974 0.669764 0
0.403922 0.670253 0
0.527321 0.669474 0
0.605051 0.668147 0
0.678141 0.666682 0
0.742885 0.666468 0
0.794232 0.668971 0
0.83238 0.675486 0
0.862333 0.686442 0
0.870054 0.7019 0
0.869184 0.722271 0
0.867414 0.747021 0
0.865385 0.774792 0
0.865461 0.806256 0.0298924
0.865599 0.837827 0.161028
0.864424 0.86598 0.27274
0.862898 0.891585 0.380331
0.861341 0.913619 0.471473
0.859922 0.932448 0.537316
0.85861 0.948592 0.602274
0.85742 0.961883 0.661128
0 0.73109 0
0 0.73109 0
0 0.73109 0
0 0.731151 0
0 0.731167 0
0 0.731197 0
0 0.731212 0
0 0.731243 0
0 0.731212 0
0 0.731121 0
0 0.730907 0
0 0.730739 0
0 0.730465 0
0.291005 0.730159 0
0.489921 0.730465 0
0.578836 0.729274 0
0.657343 0.727901 0
0.725872 0.727047 0
0.779416 0.728405 0
0.819074 0.732723 0
0.848936 0.740505 0
0.865324 0.75198 0
0.865965 0.766583 0
0.864698 0.784314 0
0.863218 0.804532 0
0.862867 0.827955 0.00502022
0.864378 0.853941 0.157763
0.863584 0.87747 0.275029
0.862333 0.899229 0.38291
0.86099 0.918349 0.473289
0.859693 0.935576 0.53666
0.858457 0.950545 0.601175
0.857328 0.963027 0.660426
0 0.791455 0
0 0.791455 0
0 0.791455 0
0 0.791455 0
0 0.79144 0
0 0.79144 0
0 0.791394 0
0 0.791348 0
0 0.791241 0
0 0.791043 0
0 0.790722 0
0 0.790158 0
0 0.789487 0
0.162631 0.788937 0
0.428717 0.789456 0
0.548775 0.788815 0
0.63267 0.787167 0
0.704448 0.785824 0
0.761044 0.785611 0
0.803021 0.787533 0
0.834653 0.79173 0
0.857359 0.798627 0
0.862562 0.808118 0
0.862089 0.819776 0
0.861051 0.833799 0
0.859998 0.849302 0
0.863096 0.871427 0.157671
0.862669 0.890242 0.279438
0.861692 0.907942 0.38735
0.860563 0.924254 0.475807
0.859419 0.939437 0.536751
0.858289 0.953017 0.600015
0.857221 0.964569 0.659464
0 0.843275 0
0 0.843275 0
0 0.843275 0
0 0.843275 0
0 0.843275 0
0 0.843244 0
0 0.843168 0
0 0.843046 0
0 0.842832 0
0 0.842496 0
0 0.842023 0
0 0.841276 0
0 0.840208 0
0.0496529 0.839139 0
0.349386 0.839597 0
0.522301 0.839078 0
0.610986 0.837308 0
0.684642 0.835523 0
0.742672 0.834333 0
0.786969 0.834287 0
0.820462 0.835904 0
0.844785 0.839292 0
0.858763 0.844541 0
0.859678 0.85182 0
0.859022 0.860899 0
0.859068 0.872724 0
0.861845 0.889357 0.165545
0.861708 0.903777 0.287221
0.86099 0.917571 0.393805
0.860044 0.931151 0.479683
0.859068 0.944183 0.538842
0.858061 0.956054 0.598871
0.857084 0.966537 0.658289
0 0.883131 0
0 0.883131 0
0 0.883131 0
0 0.883131 0
0 0.883131 0
0 0.883131 0
0 0.883131 0
0 0.882979 0
0 0.882704 0
0 0.882246 0
0 0.881605 0
0 0.880735 0
0 0.879545 0
0 0.878843 0
0.289937 0.878187 0
0.505943 0.878141 0
0.596307 0.876371 0
0.669902 0.874266 0
0.727535 0.872648 0
0.77258 0.871702 0
0.807446 0.871748 0
0.833143 0.873182 0
0.852781 0.875959 0
0.857267 0.880217 0
0.857145 0.885939 0
0.859159 0.895994 0.0411688
0.860731 0.907073 0.184039
0.860746 0.917327 0.299184
0.860243 0.928038 0.402792
0.85948 0.938903 0.484871
0.858656 0.949691 0.542168
0.857786 0.959762 0.601007
0.856916 0.968978 0.65687
0 0.914382 0
0 0.914382 0
0 0.914382 0
0 0.914382 0
0 0.914382 0
0 0.914382 0
0 0.914382 0
0 0.914382 0
0 0.914244 0
0 0.913725 0
0 0.912902 0
0 0.91191 0
0 0.910674 0
0 0.909972 0
0.295552 0.909422 0
0.501579 0.909209 0
0.589471 0.907561 0
0.66041 0.905486 0
0.716228 0.903593 0
0.760601 0.90222 0
0.795636 0.901473 0
0.822431 0.901534 0
0.84329 0.902586 0
0.854612 0.904662 0
0.855497 0.907805 0
0.858656 0.91606 0.0838941
0.859739 0.923522 0.209644
0.859815 0.930983 0.316808
0.859449 0.938888 0.414588
0.858854 0.947311 0.490913
0.858198 0.955795 0.546731
0.85745 0.96408 0.604471
0.856687 0.971984 0.658289
0 0.937514 0
0 0.937514 0
0 0.937514 0
0 0.937514 0
0 0.937514 0
0 0.937514 0
0 0.937514 0
0 0.937514 0
0 0.937514 0
0 0.937484 0
0 0.936599 0
0 0.935439 0
0 0.934096 0
0 0.933043 0
0.351583 0.933501 0
0.510475 0.932937 0
0.592065 0.931243 0
0.657511 0.92932 0
0.709911 0.927443 0
0.752483 0.925811 0
0.786496 0.924666 0
0.813413 0.924086 0
0.835035 0.924102 0
0.851545 0.924941 0
0.85417 0.926772 0
0.858076 0.934066 0.1308
0.858839 0.939025 0.244266
0.858915 0.944198 0.340887
0.85864 0.949844 0.430762
0.858213 0.955917 0.498039
0.857694 0.962386 0.552956
0.857084 0.968963 0.609094
0.856413 0.975464 0.661128
0 0.955093 0
0 0.955093 0
0 0.955093 0
0 0.955093 0
0 0.955093 0
0 0.955093 0
0 0.955093 0
0 0.955093 0
0 0.955093 0
0 0.955093 0
0 0.955093 0
0 0.953933 0
0 0.952575 0
0.112184 0.95172 0
0.425071 0.952743 0
0.531518 0.951782 0
0.601938 0.950149 0
0.659846 0.948333 0
0.707607 0.946563 0
0.747524 0.944991 0
0.779782 0.943679 0
0.805966 0.942824 0
0.827558 0.942336 0
0.844694 0.942519 0
0.855619 0.947097 0.0846265
0.857618 0.950195 0.195621
0.85803 0.95314 0.287968
0.858076 0.956436 0.373342
0.857893 0.960204 0.450828
0.857588 0.964477 0.508751
0.857176 0.969192 0.561059
0.856672 0.974227 0.615259
0.856123 0.979324 0.665095
0 0.968338 0
0 0.968338 0
0 0.968338 0
0 0.968338 0
0 0.968338 0
0 0.968338 0
0 0.968338 0
0 0.968338 0
0 0.968338 0
0 0.968338 0
0 0.968338 0
0 0.968338 0
0 0.96701 0
0.338491 0.968048 0
0.489052 0.967803 0
0.559548 0.966628 0
0.618036 0.965103 0
0.667353 0.963455 0
0.709636 0.961837 0
0.745708 0.960296 0
0.775586 0.95906 0
0.800702 0.958053 0
0.821683 0.957366 0
0.841703 0.960555 0.0697948
0.855024 0.962417 0.173587
0.857069 0.963821 0.259617
0.857313 0.965408 0.336996
0.857313 0.967391 0.411643
0.857176 0.969802 0.4748
0.856962 0.972732 0.522728
0.856657 0.976059 0.572152
0.856245 0.979644 0.623056
0.855787 0.983444 0.670298
0.297658 0.98024 0
0.297658 0.98024 0
0.297658 0.98024 0
0.297658 0.98024 0
0.297642 0.98024 0
0.297642 0.98024 0
0.297642 0.98024 0
0.297642 0.98024 0
0.297612 0.98024 0
0.297597 0.98024 0
0.297597 0.98024 0
0.297551 0.98024 0
0.29752 0.98024 0
0.450355 0.980362 0
0.534417 0.979492 0
0.590646 0.978241 0
0.638148 0.976867 0
0.678874 0.975418 0
0.71548 0.973968 0
0.747265 0.97258 0
0.776074 0.973556 0.0242771
0.800702 0.974212 0.0840009
0.821378 0.974273 0.133471
0.838331 0.974533 0.192279
0.852216 0.974899 0.257847
0.856245 0.975357 0.324147
0.856641 0.976089 0.391409
0.856626 0.977111 0.450568
0.856535 0.978561 0.498177
0.856382 0.980377 0.540551
0.856138 0.982574 0.586343
0.855817 0.984985 0.633433
0.855451 0.98761 0.676783
0.530648 0.994751 0.166293
0.530648 0.994751 0.166293
0.530648 0.994751 0.166293
0.530648 0.994751 0.166293
0.530648 0.994751 0.166293
0.530648 0.994751 0.166293
0.530648 0.994751 0.166293
0.530648 0.994751 0.166293
0.530648 0.994751 0.166293
0.530632 0.994751 0.166293
0.530632 0.994751 0.166293
0.530632 0.994751 0.166293
0.530632 0.994751 0.166293
0.530617 0.994751 0.166293
0.577523 0.993896 0.170489
0.625681 0.992721 0.176333
0.663874 0.991562 0.182925
0.697826 0.990402 0.190677
0.728725 0.989227 0.200717
0.755825 0.988144 0.213062
0.779736 0.987182 0.228504
0.800977 0.986328 0.247608
0.819455 0.985687 0.271458
0.835111 0.985168 0.29958
0.84828 0.984955 0.340078
0.855177 0.984909 0.39205
0.856031 0.985031 0.44242
0.856016 0.985443 0.487953
0.85597 0.98613 0.523583
0.855848 0.987167 0.562387
0.855665 0.988434 0.60412
0.855406 0.98996 0.646143
0.855116 0.991714 0.685237
0.621973 0.998825 0.322087
0.621973 0.998825 0.322087
0.621973 0.998825 0.322087
0.621973 0.998825 0.322087
0.621973 0.998825 0.322087
0.621973 0.998825 0.322087
0.621973 0.998825 0.322087
0.621973 0.998825 0.322087
0.621973 0.998825 0.322087
0.621973 0.998825 0.322087
0.621973 0.998825 0.322087
0.621973 0.998825 0.322087
0.621958 0.998825 0.322087
0.621958 0.998825 0.322087
0.621942 0.998825 0.322087
0.652384 0.999222 0.325063
0.685878 0.999512 0.329351
0.714473 0.99855 0.334234
0.739712 0.997497 0.340078
0.762341 0.996506 0.347738
0.782849 0.99556 0.357336
0.80174 0.994675 0.369787
0.818341 0.993896 0.385367
0.832746 0.993271 0.404028
0.845106 0.992752 0.425025
0.854154 0.992416 0.455055
0.855512 0.992233 0.48896
0.855512 0.992233 0.518608
0.855467 0.992477 0.552102
0.85536 0.99295 0.587839
0.855207 0.993622 0.624949
0.855009 0.994492 0.661357
0.85478 0.995575 0.695598
0.682948 1 0.442466
0.682948 1 0.442466
0.682948 1 0.442466
0.682948 1 0.442466
0.682948 1 0.442466
0.682948 1 0.442466
0.682948 1 0.442466
0.682948 1 0.442466
0.682933 1 0.442466
0.682933 1 0.442466
0.682933 1 0.442466
0.682933 1 0.442466
0.682933 1 0.442466
0.682933 1 0.442466
0.682918 1 0.442466
0.682918 1 0.442466
0.705333 1 0.444617
0.730373 1 0.447761
0.751003 1 0.451316
0.769589 1 0.455528
0.787213 1 0.460929
0.80351 1 0.467582
0.818173 0.999969 0.475822
0.83125 0.999298 0.485679
0.842649 0.998749 0.495567
0.85214 0.998322 0.507866
0.854871 0.997986 0.527596
0.85507 0.997757 0.553414
0.855024 0.997681 0.583246
0.854932 0.997787 0.615595
0.85481 0.998047 0.647745
0.854643 0.998444 0.678553
0.854475 0.998993 0.707408
0.727764 1 0.519158
0.727764 1 0.519158
0.727764 1 0.519158
0.727764 1 0.519158
0.727764 1 0.519158
0.727764 1 0.519158
0.727764 1 0.519158
0.727764 1 0.519158
0.727764 1 0.519158
