BBLuts/BB_102_0310_LUT.cube
TITLE "Generated by Resolve"
LUT_3D_SIZE 9
0 0 0
0.00314336 0 0
0.294087 0 0
0.655848 0 0
0.953475 0 0
1 0 0
1 0.636347 0.012604
1 0.869871 0.482429
1 0.954787 0.776043
0 0.0733196 0
0 0.088777 0
0.281132 0.0582895 0
0.663401 0 0
0.955749 0 0
1 0 0
1 0.652766 0
1 0.871672 0.480858
1 0.95494 0.775952
0 0.314366 0
0 0.319722 0
0.175875 0.319036 0
0.510063 0.310826 0
0.92195 0.125109 0
0.928893 0.379858 0
1 0.676844 0
1 0.87454 0.478309
1 0.955184 0.775753
0 0.625971 0
0 0.626627 0
0 0.627344 0
0.494896 0.61445 0
0.856672 0.589151 0
1 0.611231 0
1 0.744472 0
1 0.884947 0.475181
1 0.956268 0.774838
0 0.862699 0
0 0.862684 0
0 0.862486 0
0 0.860716 0
0.760006 0.82855 0
1 0.817426 0
1 0.85536 0
1 0.91133 0.482567
1 0.960113 0.771557
0 1 0
0 1 0
0 1 0
0 1 0
0.70576 0.969451 0
0.948821 0.948135 0
1 0.944289 0
1 0.95053 0.51487
1 0.970535 0.772152
0.616693 1 0.183017
0.616693 1 0.183017
0.616693 1 0.183017
0.616663 1 0.183032
0.781338 1 0.200061
0.923888 0.997101 0.26334
1 0.986297 0.422507
1 0.9832 0.60737
1 0.985534 0.798596
0.887709 1 0.68545
0.887709 1 0.685466
0.887709 1 0.685466
0.887709 1 0.685466
0.887709 1 0.685466
0.936919 1 0.689662
0.988205 0.998215 0.707149
1 0.996231 0.758419
1 0.99469 0.854551
0.967575 0.996338 0.889418
0.967575 0.996338 0.889418
0.967575 0.996338 0.889418
0.967575 0.996338 0.889418
0.967575 0.996338 0.889418
0.967575 0.996338 0.889418
0.985992 0.995132 0.891051
1 0.993957 0.897566
1 0.993622 0.916777
0 0 0.0907454
0 0 0.0915999
0.288411 0 0.0933547
0.655619 0 0.0842756
0.954406 0 0.071809
1 0 0.0654765
1 0.638666 0.0501717
1 0.869841 0.482444
1 0.954772 0.776059
0 0.0283818 0.0680552
0.0310979 0.0511788 0.064271
0.311421 0 0.0810407
0.658839 0 0.0654765
0.956634 0 0.0106661
1 0 0.00527962
1 0.651576 0.0263523
1 0.871641 0.480888
1 0.95494 0.775952
0 0.298924 0
0 0.303349 0
0.204776 0.302968 0
0.490684 0.302464 0
0.929061 0.0769055 0
0.960266 0.349691 0
1 0.675319 0
1 0.87454 0.478309
1 0.955169 0.775753
0 0.622827 0
0 0.623407 0
0 0.624002 0
0.508095 0.610193 0
0.856077 0.58645 0
1 0.608988 0
1 0.743755 0
1 0.884947 0.475181
1 0.956268 0.774838
0 0.861357 0
0 0.861357 0
0 0.861128 0
0 0.859388 0
0.762341 0.82739 0
1 0.816693 0
1 0.855116 0
1 0.91133 0.482567
1 0.960113 0.771557
0 1 0
0 1 0
0 1 0
0 1 0
0.70782 0.969131 0
0.94905 0.947997 0
1 0.944228 0
1 0.95053 0.51487
1 0.970535 0.772152
0.619837 1 0.182574
0.619837 1 0.182574
0.619821 1 0.182574
0.619806 1 0.182574
0.78233 1 0.199619
0.924071 0.997055 0.26302
1 0.986282 0.422477
1 0.9832 0.60737
1 0.985534 0.798596
0.887938 1 0.68542
0.887938 1 0.68542
0.887938 1 0.68542
0.887938 1 0.68542
0.887922 1 0.68542
0.937011 1 0.689647
0.988235 0.998215 0.707118
1 0.996231 0.758419
1 0.99469 0.854551
0.96759 0.996338 0.889418
0.96759 0.996338 0.889418
0.96759 0.996338 0.889418
0.96759 0.996338 0.889418
0.96759 0.996338 0.889418
0.96759 0.996338 0.889418
0.986007 0.995132 0.891051
1 0.993957 0.897566
1 0.993622 0.916777
0 0 0.342123
0 0 0.342626
0.234882 0 0.343374
0.658793 0 0.325963
0.948089 0 0.320851
1 0 0.343633
0.926101 0.675364 0.189105
1 0.868894 0.512459
1 0.954772 0.776059
0 0 0.337758
0 0 0.338338
0.270573 0 0.337621
0.658045 0 0.320226
0.949538 0 0.31368
1 0 0.330587
0.929 0.691966 0.186481
1 0.870558 0.511406
1 0.95494 0.775952
0 0.249912 0.266835
0 0.25391 0.266514
0.179599 0.247471 0.26305
0.601099 0.204547 0.257649
0.942946 0 0.289601
1 0.201373 0.255787
0.967361 0.700938 0.201007
1 0.873564 0.50988
1 0.955169 0.775753
0 0.611719 0.0869459
0 0.612512 0.0874495
0 0.612985 0.0897688
0.502495 0.59942 0.0848707
0.848173 0.576242 0.0726635
1 0.624445 0.0270085
1 0.735607 0.198352
1 0.884123 0.502846
1 0.956268 0.774838
0 0.858885 0
0 0.858885 0
0 0.858656 0
0 0.85687 0
0.764752 0.824567 0
1 0.814557 0
1 0.852781 0
1 0.911177 0.484169
1 0.960113 0.771557
0 1 0
0 1 0
0 1 0
0 0.999786 0
0.711208 0.968673 0
0.949615 0.947723 0
1 0.944076 0
1 0.950484 0.514733
1 0.970535 0.772152
0.624277 1 0.18175
0.624277 1 0.18175
0.624277 1 0.18175
0.624262 1 0.18175
0.783658 1 0.198993
0.924498 0.996994 0.262608
1 0.986252 0.422187
1 0.9832 0.607294
1 0.985534 0.798596
0.888273 1 0.685374
0.888273 1 0.685374
0.888273 1 0.685374
0.888273 1 0.685374
0.888273 1 0.685374
0.937118 1 0.689586
0.988281 0.998215 0.707088
1 0.996231 0.758404
1 0.99469 0.854551
0.96762 0.996338 0.889418
0.96762 0.996338 0.889418
0.96762 0.996338 0.889418
0.96762 0.996338 0.889418
0.96762 0.996338 0.889418
0.96762 0.996338 0.889418
0.986023 0.995132 0.891051
1 0.993957 0.897566
1 0.993622 0.916777
0 0 0.699779
0 0 0.699855
0 0 0.700023
0.605478 0 0.688884
0.958831 0 0.674998
1 0 0.676005
1 0.587503 0.596231
1 0.863584 0.638865
1 0.954452 0.787793
0 0 0.698711
0 0 0.698787
0.0145724 0 0.700664
0.623056 0 0.686702
0.957183 0 0.673701
1 0 0.673838
1 0.610162 0.588342
1 0.865049 0.638636
1 0.954604 0.787686
0 0.0487678 0.678767
0 0.0526284 0.67805
0.00682078 0.0553292 0.679805
0.630793 0 0.684031
0.95169 0 0.671397
1 0 0.667247
1 0.638163 0.581262
1 0.867765 0.638331
1 0.954833 0.787533
0 0.558297 0.575204
0 0.559228 0.575174
0 0.561028 0.575387
0.468971 0.54815 0.569772
0.828183 0.520256 0.559136
1 0.56202 0.548577
0.991241 0.738537 0.496269
1 0.878706 0.634165
1 0.955779 0.786557
0 0.841138 0.435325
0 0.841138 0.435325
0 0.841276 0.436591
0 0.839536 0.441367
0.747219 0.808026 0.433677
0.999283 0.798749 0.452369
1 0.840009 0.514641
1 0.907012 0.619455
1 0.959777 0.783825
0 1 0.010132
0 1 0.010132
0 1 0.010132
0 0.997101 0.012665
0.703761 0.965927 0.00326543
0.941421 0.94258 0.188708
1 0.936004 0.408286
1 0.948791 0.585107
1 0.970443 0.775219
0.637232 1 0.178149
0.637232 1 0.178149
0.637232 1 0.178149
0.637232 1 0.178149
0.787533 1 0.197116
0.925612 0.996811 0.261219
1 0.986145 0.421714
1 0.983139 0.606928
1 0.985519 0.79852
0.889418 1 0.685191
0.889418 1 0.685191
0.889418 1 0.685191
0.889418 1 0.685191
0.889418 1 0.685191
0.937575 1 0.689448
0.988434 0.998199 0.706981
1 0.996231 0.758282
1 0.99469 0.85452
0.967712 0.996338 0.889403
0.967712 0.996338 0.889403
0.967712 0.996338 0.889403
0.967712 0.996338 0.889403
0.967712 0.996338 0.889403
0.967712 0.996338 0.889403
0.986068 0.995132 0.891035
1 0.993957 0.897551
1 0.993622 0.916777
0 0 0.974044
0 0 0.974044
0 0 0.974136
0.122103 0 0.976883
0.92015 0 0.945434
1 0 0.935637
1 0.336797 0.870436
1 0.845838 0.819821
1 0.951339 0.867002
0 0 0.973953
0 0 0.973953
0 0 0.974029
0.13228 0 0.976272
0.924056 0 0.944823
1 0 0.935256
1 0.444358 0.853651
1 0.848173 0.819348
1 0.951476 0.866972
0 0 0.972946
0 0 0.972946
0 0 0.973007
0.276692 0 0.972412
0.929778 0 0.943664
1 0 0.934157
1 0.536202 0.83888
1 0.851881 0.818448
1 0.95172 0.866911
0 0.253697 0.912352
0 0.253697 0.912352
0 0.259419 0.911574
0.2374 0.246662 0.913207
0.898222 0.0864729 0.907423
1 0.187732 0.876692
1 0.652033 0.816968
1 0.868376 0.804135
1 0.95285 0.866484
0 0.797192 0.804181
0 0.797192 0.804181
0 0.797223 0.804196
0 0.797055 0.804623
0.71693 0.767376 0.787335
0.988235 0.762417 0.775967
1 0.816846 0.778195
0.982345 0.911055 0.776364
1 0.95697 0.864439
0 0.985931 0.741604
0 0.985931 0.741604
0 0.986007 0.741543
0 0.983536 0.742443
0.642817 0.954543 0.730587
0.918456 0.930983 0.725994
1 0.927337 0.742473
1 0.943053 0.786694
1 0.967971 0.858625
0.607538 1 0.653803
0.607538 1 0.653803
0.607538 1 0.653803
0.607538 1 0.653803
0.761563 1 0.650813
0.908812 0.990738 0.655833
0.993896 0.981613 0.68452
1 0.980163 0.751736
1 0.984298 0.843412
0.893065 1 0.684291
0.893065 1 0.684291
0.893065 1 0.684291
0.893065 1 0.684291
0.893065 1 0.684291
0.938949 1 0.688975
0.988876 0.998184 0.706554
1 0.996231 0.758099
1 0.994705 0.854307
0.96817 0.996323 0.889326
0.96817 0.996323 0.889326
0.96817 0.996323 0.889326
0.96817 0.996323 0.889326
0.96817 0.996323 0.889326
0.968154 0.996323 0.889326
0.986236 0.995117 0.890974
1 0.993957 0.89752
1 0.993622 0.916762
0 0 1
0 0 1
0 0 1
0 0 1
0.716243 0 1
1 0 1
1 0 1
1 0.776593 0.958801
1 0.945006 0.93962
0 0 1
0 0 1
0 0 1
0 0 1
0.715587 0 1
1 0 1
1 0 1
1 0.781872 0.957885
1 0.945205 0.939544
0 0 1
0 0 1
0 0 1
0 0 1
0.725322 0 1
1 0 1
1 0 1
1 0.789822 0.956237
1 0.945541 0.939361
0 0 1
0 0 1
0 0 1
0 0 1
0.779767 0 1
1 0 1
1 0 1
1 0.815854 0.951034
1 0.947127 0.938216
0 0.595712 1
0 0.595712 1
0 0.595712 1
0 0.598062 1
0.665049 0.573724 1
1 0.564385 0.989929
1 0.7084 0.96463
1 0.870787 0.939422
0.999222 0.954894 0.928939
0 0.96875 0.95465
0 0.96875 0.95465
0 0.96875 0.95465
0 0.96875 0.95465
0.422599 0.949462 0.948699
0.897704 0.914275 0.927581
1 0.912688 0.92253
1 0.933486 0.924178
1 0.965667 0.931289
0.441032 1 0.924498
0.441032 1 0.924498
0.442329 1 0.924422
0.442329 1 0.924422
0.67335 1 0.914733
0.880537 0.985885 0.906065
0.977417 0.976547 0.904631
1 0.975662 0.911284
1 0.981964 0.927535
0.875776 1 0.875257
0.875776 1 0.875257
0.875776 1 0.875257
0.875776 1 0.875257
0.875776 1 0.875257
0.922286 0.99913 0.874372
0.975921 0.996033 0.877043
1 0.994278 0.889769
1 0.993652 0.915038
0.969619 0.996246 0.889082
0.969619 0.996246 0.889082
0.969619 0.996246 0.889082
0.969619 0.996246 0.889082
0.969619 0.996246 0.889082
0.969619 0.996246 0.889082
0.98677 0.995102 0.890761
1 0.993957 0.897414
1 0.993637 0.916701
0 0 1
0 0 1
0 0 1
0 0 1
0 0 1
1 0 1
1 0 1
1 0 1
1 0.920012 0.993545
0 0 1
0 0 1
0 0 1
0 0 1
0 0 1
1 0 1
1 0 1
1 0 1
1 0.920394 0.993545
0 0 1
0 0 1
0 0 1
0 0 1
0 0 1
1 0 1
1 0 1
1 0 1
1 0.921141 0.993408
0 0 1
0 0 1
0 0 1
0 0 1
0 0 1
1 0 1
1 0 1
1 0 1
1 0.923995 0.992798
0 0 1
0 0 1
0 0 1
0 0 1
0 0 1
1 0 1
1 0 1
1 0.503594 1
1 0.93344 0.990814
0 0.818341 1
0 0.818341 1
0 0.818341 1
0 0.818341 1
0 0.821164 1
0.897169 0.779538 1
1 0.814069 1
1 0.894072 0.995895
1 0.953826 0.98613
0 1 1
0 1 1
0 1 1
0 1 1
0 1 1
0.827848 0.983032 0.9879
0.968963 0.969879 0.981125
1 0.969741 0.979355
0.999466 0.979339 0.977127
0.840391 1 0.979141
0.840391 1 0.979141
0.840391 1 0.979141
0.840391 1 0.979141
0.840391 1 0.979141
0.892424 0.9991 0.976394
0.963897 0.995041 0.972854
0.999344 0.992966 0.972244
1 0.992782 0.975433
0.962219 0.9953 0.961791
0.962219 0.9953 0.961791
0.962219 0.9953 0.961791
0.962219 0.9953 0.961791
0.962219 0.9953 0.961791
0.962219 0.9953 0.961791
0.979446 0.994232 0.961349
0.998657 0.993164 0.962509
1 0.992905 0.967681
0 0.085893 1
0 0.085893 1
0 0.085893 1
0 0.085893 1
0 0.085893 1
0 0.0860151 1
1 0 1
1 0 1
1 0.684276 1
0 0.085893 1
0 0.085893 1
0 0.085893 1
0 0.085893 1
0 0.085893 1
0 0.0860151 1
1 0 1
1 0 1
1 0.684276 1
0 0.085893 1
0 0.085893 1
0 0.085893 1
0 0.085893 1
0 0.085893 1
0 0.0860151 1
1 0 1
1 0 1
1 0.684245 1
0 0.085893 1
0 0.085893 1
0 0.085893 1
0 0.085893 1
0 0.085893 1
0 0.0860151 1
1 0 1
1 0 1
1 0.684153 1
0 0.0857557 1
0 0.0857557 1
0 0.0857557 1
0 0.0857557 1
0 0.0857557 1
0 0.0858473 1
1 0 1
1 0 1
1 0.683925 1
0 0.0835279 1
0 0.0835279 1
0 0.0835279 1
0 0.0835279 1
0 0.0835279 1
0 0.08365 1
1 0 1
1 0.0133364 1
1 0.811734 1
0 0.96376 1
0 0.96376 1
0 0.96376 1
0 0.96376 1
0 0.96376 1
0 0.965286 1
0.972473 0.906142 1
1 0.932143 1
1 0.962814 1
0.529442 1 1
0.529442 1 1
0.529442 1 1
0.529442 1 1
0.529442 1 1
0.529442 1 1
0.943572 0.995529 1
0.996841 0.991287 1
1 0.991348 1
0.949096 0.995377 1
0.949096 0.995377 1
0.949096 0.995377 1
0.949096 0.995377 1
0.949096 0.995377 1
0.949096 0.995377 1
0.968429 0.994202 1
0.99411 0.992844 0.999054
0.999878 0.992264 0.998856
0 0.410132 1
0 0.410132 1
0 0.410132 1
0 0.410132 1
0 0.410132 1
0 0.410132 1
0 0.410239 1
1 0.101335 1
1 0.713436 1
0 0.410132 1
0 0.410132 1
0 0.410132 1
0 0.410132 1
0 0.410132 1
0 0.410132 1
0 0.410239 1
1 0.101335 1
1 0.713436 1
0 0.410132 1
0 0.410132 1
0 0.410132 1
0 0.410132 1
0 0.410132 1
0 0.410132 1
0 0.410239 1
1 0.101335 1
1 0.713436 1
0 0.410132 1
0 0.410132 1
0 0.410132 1
0 0.410132 1
0 0.410132 1
0 0.410132 1
0 0.410239 1
1 0.101335 1
1 0.713436 1
0 0.410132 1
0 0.410132 1
0 0.410132 1
0 0.410132 1
0 0.410132 1
0 0.410132 1
0 0.410239 1
1 0.101335 1
1 0.713436 1
0 0.410025 1
0 0.410025 1
0 0.410025 1
0 0.410025 1
0 0.410025 1
0 0.410025 1
0 0.410101 1
1 0.102754 1
1 0.714687 1
0 0.408453 1
0 0.408453 1
0 0.408453 1
0 0.408453 1
0 0.408453 1
0 0.408453 1
0 0.408515 1
1 0.276265 1
1 0.716869 1
0 1 1
0 1 1
0 1 1
0 1 1
0 1 1
0 1 1
0 1 1
0.995254 0.977432 1
1 0.981689 1
0.892943 0.99852 1
0.892943 0.99852 1
0.892943 0.99852 1
0.892943 0.99852 1
0.892943 0.99852 1
0.892943 0.99852 1
0.892943 0.99852 1
0.988342 0.993088 1
1 0.992569 1
