BBLuts/BB_106_0470_LUT.cube
TITLE "Generated by Resolve"
LUT_3D_SIZE 9
0.0129702 0.00956741 0.00527962
0.0129702 0.00956741 0.00527962
0.21355 0.0171817 0.0129702
0.425696 0.025864 0.0216373
0.624521 0.0332341 0.0289616
0.763867 0.0383764 0.0341039
0.848219 0.529595 0.208881
0.892989 0.750881 0.468986
0.913756 0.838468 0.678264
0.0235447 0.0692149 0.01355
0.0255436 0.0802777 0.0150759
0.233387 0.0656291 0.0204471
0.433524 0.0261845 0.0219577
0.626062 0.0332799 0.0290227
0.763867 0.0383764 0.0341039
0.852247 0.554559 0.201434
0.893507 0.753979 0.467918
0.913817 0.838849 0.678203
0.0552987 0.241077 0.037171
0.0559396 0.244617 0.0376593
0.2327 0.250767 0.0446784
0.477455 0.238041 0.0517128
0.645533 0.134813 0.043473
0.800824 0.261982 0.0651713
0.857282 0.586435 0.184237
0.894301 0.75874 0.466194
0.913924 0.839475 0.678096
0.099794 0.475517 0.0683452
0.0999619 0.476387 0.068452
0.100069 0.476875 0.0685283
0.484993 0.492012 0.084184
0.708278 0.491341 0.0914015
0.846448 0.534463 0.101228
0.865736 0.643519 0.11426
0.896376 0.771282 0.461006
0.914229 0.841245 0.67776
0.143587 0.679469 0.0928359
0.143572 0.679408 0.0928359
0.143526 0.679164 0.0928054
0.14316 0.677516 0.092607
0.710216 0.697368 0.114977
0.85713 0.706294 0.120958
0.882643 0.738369 0.125246
0.901061 0.79733 0.466621
0.915007 0.84593 0.676677
0.168399 0.793683 0.106142
0.168292 0.793194 0.106081
0.168109 0.79237 0.105989
0.167575 0.789883 0.105699
0.716121 0.808377 0.127291
0.847913 0.808179 0.131746
0.895613 0.811292 0.133639
0.908003 0.83241 0.499382
0.916716 0.855879 0.676051
0.661494 0.855817 0.302174
0.672282 0.855955 0.303273
0.68806 0.856168 0.305058
0.725414 0.856504 0.31014
0.788724 0.856703 0.32401
0.85774 0.856779 0.35906
0.906981 0.858274 0.441901
0.915373 0.862516 0.585077
0.919539 0.869566 0.691035
0.846159 0.872999 0.630747
0.847089 0.873045 0.630884
0.848585 0.873121 0.631098
0.852857 0.87332 0.631724
0.863813 0.873838 0.633494
0.884825 0.874876 0.638041
0.910567 0.87628 0.648157
0.920394 0.877363 0.673854
0.921935 0.878676 0.718425
0.90103 0.878202 0.731914
0.901152 0.878218 0.731929
0.90135 0.878218 0.73196
0.9019 0.878248 0.732036
0.903517 0.878325 0.732235
0.907851 0.878523 0.73283
0.915862 0.878859 0.73434
0.922606 0.87924 0.738018
0.922911 0.879515 0.74696
0.0138857 0.0103151 0.0473945
0.0138857 0.0103151 0.0476234
0.215442 0.0186313 0.0565652
0.427649 0.0273442 0.0663005
0.625864 0.0347601 0.0765087
0.766079 0.0407568 0.108965
0.848966 0.526223 0.264179
0.893568 0.75082 0.492744
0.913848 0.838453 0.681331
0.0202029 0.0442359 0.0451209
0.0678874 0.0590524 0.0475929
0.232547 0.0191196 0.0502022
0.431327 0.0271916 0.0565652
0.625803 0.0339666 0.0506905
0.765423 0.0400549 0.086183
0.853193 0.552254 0.257847
0.894087 0.753964 0.491829
0.913909 0.838834 0.68127
0.0536202 0.232013 0.0359503
0.0541695 0.235035 0.0363622
0.249165 0.242329 0.0441749
0.474434 0.228168 0.0503243
0.638056 0.100237 0.0386664
0.798062 0.245151 0.0628977
0.858534 0.585443 0.244617
0.894896 0.75877 0.490318
0.914015 0.83946 0.681178
0.0991379 0.47216 0.0679179
0.0993057 0.472999 0.0680247
0.0993668 0.473335 0.0680705
0.492348 0.488472 0.0840009
0.707408 0.487984 0.090959
0.846036 0.532067 0.100923
0.866758 0.643397 0.157351
0.897002 0.77145 0.485756
0.914321 0.841245 0.680873
0.143404 0.67866 0.0927443
0.143389 0.678584 0.0927443
0.143343 0.678325 0.0927138
0.142977 0.676646 0.0925154
0.711788 0.69662 0.114946
0.857084 0.705715 0.120897
0.882597 0.738048 0.125216
0.901198 0.79733 0.472114
0.915114 0.845945 0.679866
0.168353 0.793515 0.106126
0.168261 0.793011 0.106065
0.168078 0.792187 0.105974
0.167544 0.7897 0.105684
0.717266 0.808301 0.127321
0.848096 0.808087 0.131746
0.895598 0.811215 0.133639
0.907988 0.832364 0.499229
0.916732 0.855879 0.676341
0.663142 0.855802 0.302052
0.673793 0.855955 0.303166
0.689387 0.856153 0.304936
0.726329 0.856489 0.310002
0.789136 0.856687 0.323903
0.857862 0.856764 0.358968
0.906996 0.858259 0.441901
0.915358 0.862501 0.585031
0.919539 0.869566 0.69102
0.846296 0.873014 0.630747
0.847227 0.87306 0.630884
0.848722 0.873121 0.631083
0.852979 0.87332 0.631708
0.863905 0.873854 0.633494
0.884871 0.874876 0.638025
0.910582 0.876295 0.648142
0.920394 0.877363 0.673838
0.921935 0.878676 0.71841
0.901061 0.878202 0.731914
0.901167 0.878218 0.731945
0.90135 0.878218 0.73196
0.901915 0.878248 0.732021
0.903532 0.878325 0.732235
0.907866 0.878523 0.73283
0.915862 0.878859 0.73434
0.922606 0.87924 0.738018
0.922911 0.879515 0.74696
0.0180362 0.0138552 0.162448
0.0180514 0.0138552 0.162631
0.197467 0.0212406 0.169741
0.439429 0.0310521 0.176883
0.629007 0.0381628 0.188418
0.769192 0.0440375 0.217136
0.849546 0.518456 0.343282
0.894362 0.750607 0.527169
0.91397 0.838422 0.685939
0.0179294 0.0137636 0.159121
0.0179294 0.0137636 0.159442
0.224079 0.0222324 0.167376
0.438239 0.0308995 0.173556
0.630365 0.038117 0.184878
0.769024 0.0438697 0.211398
0.8542 0.546517 0.341695
0.894911 0.75378 0.526421
0.914046 0.838819 0.685893
0.0539101 0.209476 0.176455
0.0543374 0.211826 0.176516
0.236301 0.212802 0.179706
0.46331 0.203723 0.188876
0.629236 0.0377813 0.174929
0.793149 0.19089 0.220584
0.860105 0.581827 0.337392
0.895735 0.758679 0.525154
0.914153 0.839445 0.685817
0.0998703 0.464103 0.141176
0.100099 0.465126 0.142168
0.100237 0.465629 0.143435
0.492958 0.480293 0.161883
0.704936 0.479942 0.173175
0.847715 0.526513 0.209201
0.870619 0.644129 0.315816
0.897902 0.771557 0.521309
0.914458 0.841245 0.685557
0.143038 0.676966 0.092546
0.143023 0.676905 0.092546
0.142977 0.676631 0.0925154
0.142596 0.674937 0.0923171
0.712978 0.695018 0.114809
0.856764 0.704356 0.120729
0.884733 0.739269 0.205631
0.90222 0.797848 0.509896
0.915251 0.845975 0.684672
0.168292 0.793225 0.106096
0.168185 0.792737 0.106035
0.168017 0.791913 0.105928
0.167468 0.789425 0.105653
0.719112 0.808133 0.127367
0.848386 0.807935 0.131746
0.895582 0.811109 0.133623
0.907973 0.832303 0.499001
0.916899 0.85594 0.681544
0.665797 0.855817 0.301869
0.676219 0.85597 0.302983
0.691508 0.856153 0.304753
0.727794 0.856474 0.309819
0.789822 0.856657 0.32372
0.858045 0.856733 0.358801
0.907042 0.858244 0.441871
0.915358 0.862501 0.584939
0.919539 0.869551 0.69099
0.846525 0.873014 0.630732
0.847456 0.87306 0.630869
0.84892 0.873137 0.631067
0.853178 0.873335 0.631693
0.864057 0.873854 0.633478
0.884947 0.874891 0.63801
0.910613 0.876295 0.648142
0.920394 0.877363 0.673838
0.921935 0.878676 0.71841
0.901076 0.878202 0.731914
0.901198 0.878218 0.731929
0.901381 0.878218 0.73196
0.901946 0.878248 0.732021
0.903563 0.878325 0.732219
0.907881 0.878538 0.73283
0.915877 0.878859 0.73434
0.922606 0.87924 0.738018
0.922911 0.879515 0.74696
0.0244907 0.0192874 0.338811
0.0244907 0.0192721 0.338903
0.0244907 0.0192874 0.338964
0.428077 0.0358282 0.355215
0.645792 0.0439612 0.365728
0.774029 0.0491035 0.383719
0.847471 0.485481 0.482261
0.895827 0.748913 0.596582
0.91429 0.838285 0.697414
0.0244297 0.0192416 0.337362
0.0244297 0.0192416 0.337499
0.110857 0.022797 0.341131
0.439338 0.0362249 0.354131
0.644495 0.0438697 0.364065
0.773968 0.0490578 0.381888
0.853544 0.521904 0.484764
0.896406 0.752285 0.596368
0.914351 0.838682 0.697383
0.0390631 0.098146 0.346181
0.0401923 0.104234 0.347158
0.160006 0.103716 0.351385
0.443748 0.0363317 0.351736
0.640604 0.0436408 0.361303
0.773877 0.0489357 0.378424
0.860853 0.565087 0.486534
0.897307 0.757427 0.595987
0.914473 0.839323 0.697337
0.100999 0.432013 0.376593
0.101305 0.433555 0.377035
0.101534 0.434638 0.377676
0.485054 0.448188 0.394583
0.695033 0.448249 0.404334
0.848661 0.500954 0.427665
0.873487 0.637659 0.484138
0.899641 0.770977 0.59472
0.914778 0.841154 0.697185
0.150378 0.676188 0.342321
0.150393 0.676188 0.342855
0.150378 0.676005 0.343648
0.150118 0.67451 0.345785
0.716564 0.694667 0.375494
0.86215 0.705715 0.404028
0.891478 0.742351 0.468315
0.904326 0.79852 0.590112
0.915602 0.84596 0.696666
0.168124 0.792447 0.106004
0.168017 0.791943 0.105943
0.167834 0.791119 0.105852
0.1673 0.788632 0.105547
0.718883 0.807355 0.127275
0.851881 0.81091 0.274617
0.90341 0.817792 0.415198
0.910063 0.833753 0.573709
0.917296 0.856077 0.694621
0.673548 0.855817 0.30132
0.68336 0.855955 0.302434
0.697749 0.856123 0.304189
0.732128 0.856397 0.309224
0.791852 0.856565 0.32314
0.85861 0.856657 0.358343
0.907164 0.858183 0.441779
0.915343 0.86244 0.58468
0.919539 0.869535 0.690898
0.847211 0.873045 0.630686
0.848127 0.873091 0.630823
0.849592 0.873167 0.631022
0.853773 0.873365 0.631647
0.864515 0.873869 0.633433
0.885191 0.874891 0.637964
0.910674 0.876295 0.648096
0.920394 0.877363 0.673838
0.921935 0.878676 0.718379
0.901167 0.878218 0.731914
0.901289 0.878218 0.731929
0.901473 0.878218 0.731945
0.902037 0.878248 0.732021
0.903624 0.878325 0.732219
0.907942 0.878538 0.732815
0.915908 0.878859 0.73434
0.922606 0.87924 0.738018
0.922911 0.879515 0.74696
0.0323186 0.0255131 0.52253
0.0323186 0.0255131 0.52256
0.0323339 0.0255131 0.522622
0.304341 0.0367285 0.534554
0.643549 0.0497444 0.547936
0.779507 0.0548562 0.555611
0.814328 0.264073 0.592996
0.8963 0.738918 0.674296
0.914824 0.837522 0.719966
0.0323033 0.0254978 0.522225
0.0323033 0.0254978 0.522255
0.0323033 0.0254978 0.522332
0.329915 0.0377661 0.535332
0.646967 0.0498665 0.547768
0.779507 0.0548562 0.555291
0.832547 0.373068 0.60798
0.897032 0.743038 0.674556
0.914885 0.837934 0.719966
0.0322881 0.0254826 0.521737
0.0322881 0.0254826 0.521767
0.0322881 0.0254826 0.521843
0.360388 0.0389868 0.536095
0.649042 0.0499123 0.547311
0.779477 0.0548257 0.554742
0.84831 0.467735 0.620386
0.898116 0.749172 0.674952
0.915007 0.838621 0.719982
0.0794842 0.280278 0.5561
0.0800183 0.283131 0.556527
0.0806897 0.286778 0.557046
0.41004 0.291707 0.570336
0.67219 0.194369 0.566033
0.822141 0.311772 0.589105
0.871382 0.603235 0.636149
0.900877 0.764889 0.675807
0.915343 0.840543 0.719966
0.154574 0.656489 0.595285
0.15462 0.656687 0.595376
0.154635 0.656748 0.595453
0.154421 0.655695 0.595483
0.709529 0.67538 0.620493
0.859922 0.690181 0.630411
0.894591 0.733898 0.645747
0.906386 0.796292 0.676905
0.916228 0.845594 0.719875
0.185626 0.802869 0.595758
0.185519 0.802396 0.595789
0.185351 0.801572 0.595819
0.184833 0.799084 0.595911
0.715206 0.816709 0.620447
0.855833 0.816907 0.630777
0.909819 0.821317 0.645853
0.913054 0.834836 0.675624
0.918029 0.856107 0.719158
0.674647 0.861891 0.567163
0.684703 0.862013 0.567742
0.699474 0.862181 0.568658
0.734569 0.862425 0.571069
0.795026 0.862409 0.576761
0.861845 0.861952 0.589731
0.908965 0.862181 0.619181
0.917815 0.864134 0.66424
0.920317 0.869932 0.715373
0.849256 0.873137 0.630549
0.850141 0.873182 0.630671
0.85153 0.873243 0.630884
0.855543 0.873426 0.631495
0.865888 0.87393 0.633265
0.885908 0.874922 0.637812
0.910903 0.876295 0.647959
0.920394 0.877363 0.673808
0.921935 0.878676 0.718303
0.901442 0.878218 0.731914
0.901549 0.878233 0.731914
0.901732 0.878233 0.731945
0.902281 0.878264 0.732006
0.903853 0.87834 0.732204
0.90811 0.878538 0.732815
0.915984 0.878859 0.734325
0.922606 0.87924 0.738003
0.922911 0.879515 0.74696
0.0367895 0.0288701 0.610636
0.0367895 0.0288701 0.610651
0.0367895 0.0288701 0.610651
0.0367895 0.0288701 0.610681
0.579797 0.0505379 0.632563
0.782498 0.0579843 0.639231
0.782513 0.0579995 0.639673
0.888121 0.683513 0.724926
0.914977 0.833753 0.74786
0.0367742 0.0288548 0.610605
0.0367895 0.0288701 0.61062
0.0367895 0.0288548 0.61062
0.0367895 0.0288701 0.610636
0.584573 0.0507057 0.632685
0.782498 0.0579843 0.639185
0.782513 0.0579995 0.639628
0.88954 0.691539 0.725719
0.915068 0.834257 0.74789
0.0367742 0.0288701 0.610544
0.0367742 0.0288548 0.610559
0.0367742 0.0288548 0.610559
0.0367742 0.0288548 0.610574
0.592126 0.0509804 0.632868
0.782498 0.0579843 0.639124
0.782513 0.0579995 0.639567
0.891646 0.703395 0.726879
0.915206 0.83505 0.747936
0.036759 0.0288396 0.610361
0.0367742 0.0288548 0.610361
0.0367742 0.0288548 0.610376
0.036759 0.0288396 0.610224
0.608667 0.0515755 0.633204
0.782483 0.057969 0.638911
0.782483 0.057969 0.638636
0.896712 0.73196 0.729595
0.915618 0.837339 0.748089
0.132418 0.535714 0.677852
0.132616 0.53666 0.677974
0.132921 0.538201 0.678157
0.13341 0.540566 0.678203
0.67921 0.556466 0.700496
0.867247 0.578393 0.708919
0.885603 0.670008 0.7196
0.905303 0.780468 0.733837
0.916655 0.843244 0.748425
0.188891 0.796796 0.700954
0.188815 0.79649 0.700893
0.188693 0.795895 0.700786
0.188159 0.79353 0.700328
0.669902 0.808408 0.721172
0.849454 0.809384 0.728206
0.909056 0.81561 0.732158
0.91429 0.831464 0.737484
0.91873 0.85507 0.748913
0.593347 0.862089 0.718044
0.61738 0.862776 0.719081
0.642756 0.863294 0.720104
0.695811 0.864027 0.722225
0.776455 0.864347 0.725444
0.854887 0.863752 0.728893
0.905638 0.863447 0.732662
0.920119 0.864942 0.738094
0.92134 0.870115 0.748669
0.846036 0.875303 0.713405
0.846922 0.875349 0.713466
0.848356 0.87541 0.713558
0.852476 0.875593 0.713863
0.86302 0.876066 0.714672
0.883421 0.877012 0.716655
0.908858 0.878248 0.720989
0.922332 0.879011 0.729793
0.922835 0.879438 0.744686
0.90222 0.878248 0.731868
0.902327 0.878264 0.731884
0.902495 0.878264 0.731899
0.903029 0.878294 0.731975
0.904524 0.87837 0.732174
0.908629 0.878553 0.732769
0.916274 0.878874 0.734279
0.922606 0.87924 0.737942
0.922911 0.879515 0.746944
0.0380102 0.0297856 0.636332
0.0380102 0.0297856 0.636332
0.0380102 0.0297856 0.636332
0.0380102 0.0297856 0.636332
0.0380102 0.0297856 0.636332
0.772061 0.0587472 0.669139
0.783551 0.0590524 0.669596
0.783551 0.0590524 0.669596
0.9122 0.814343 0.768032
0.0380102 0.0297856 0.636332
0.0380102 0.0297856 0.636332
0.0380102 0.0297856 0.636332
0.0380102 0.0297856 0.636332
0.0380102 0.0297856 0.636332
0.772931 0.0587778 0.669184
0.783551 0.0590524 0.669596
0.783551 0.0590524 0.669596
0.912352 0.815259 0.768109
0.0380102 0.0297856 0.636332
0.0380102 0.0297856 0.636332
0.0380102 0.0297856 0.636332
0.0380102 0.0297856 0.636332
0.0380102 0.0297856 0.636332
0.774304 0.0588388 0.669245
0.783551 0.0590524 0.669596
0.783551 0.0590524 0.669596
0.912612 0.816724 0.768231
0.0380102 0.0297856 0.636332
0.0380102 0.0297856 0.636332
0.0380102 0.0297856 0.636332
0.0380102 0.0297856 0.636332
0.0380102 0.0297856 0.636332
0.778347 0.0589914 0.669429
0.783551 0.0590524 0.669596
0.783551 0.0590524 0.669596
0.913344 0.820829 0.768582
0.0380102 0.0297856 0.636332
0.0380102 0.0297856 0.636332
0.0380102 0.0297856 0.636332
0.0380102 0.0297856 0.636332
0.377951 0.0437629 0.65182
0.783551 0.0590524 0.669596
0.783551 0.0590524 0.669596
0.875456 0.608194 0.745937
0.915145 0.831006 0.769451
0.175402 0.72694 0.730861
0.175433 0.727138 0.730877
0.175509 0.727459 0.730907
0.175723 0.72845 0.730999
0.174914 0.724865 0.7299
0.84242 0.747143 0.757885
0.903716 0.766735 0.761608
0.911177 0.808865 0.765866
0.918318 0.849042 0.770916
0.201053 0.846479 0.740063
0.200946 0.845991 0.739956
0.200778 0.845197 0.739803
0.200275 0.842908 0.739361
0.712367 0.8607 0.761761
0.841367 0.860471 0.766476
0.902419 0.860197 0.768811
0.920653 0.862593 0.770138
0.921798 0.868818 0.772274
0.829236 0.87602 0.765301
0.830427 0.876066 0.765347
0.832319 0.876158 0.765423
0.837705 0.876387 0.765667
0.851255 0.876997 0.766262
0.876402 0.878111 0.767407
0.905074 0.879408 0.768872
0.92372 0.880186 0.770397
0.923781 0.880247 0.77232
0.900557 0.879026 0.762234
0.900664 0.879026 0.762234
0.900847 0.879042 0.762249
0.901381 0.879057 0.762295
0.902907 0.879133 0.762402
0.906798 0.879301 0.762707
0.914641 0.879667 0.763455
0.923506 0.880034 0.765011
0.923644 0.880125 0.768154
0.0501717 0.0945754 0.645975
0.0501717 0.0945754 0.645975
0.0501717 0.0945754 0.645975
0.0501717 0.0945907 0.645975
0.0501869 0.094667 0.645991
0.0502174 0.0948653 0.646021
0.783551 0.0590524 0.669596
0.783551 0.0590524 0.669596
0.880873 0.637751 0.752346
0.0501564 0.0945296 0.645975
0.0501564 0.0945296 0.645975
0.0501717 0.0945602 0.645975
0.0501717 0.0945754 0.645975
0.0501869 0.0946517 0.645991
0.0502327 0.0948501 0.646021
0.783551 0.0590524 0.669596
0.783551 0.0590524 0.669596
0.880873 0.637736 0.752346
0.0501564 0.0944839 0.64596
0.0501564 0.0944839 0.64596
0.0501564 0.0944991 0.64596
0.0501564 0.0945144 0.645975
0.0501717 0.0945754 0.645975
0.0502022 0.094789 0.646006
0.783551 0.0590524 0.669596
0.783551 0.0590524 0.669596
0.880858 0.637705 0.752346
0.0501259 0.094316 0.645945
0.0501259 0.0943008 0.645945
0.0501259 0.094316 0.645945
0.0501259 0.0943465 0.645945
0.0501411 0.0944228 0.64596
0.0442512 0.0619211 0.641199
0.783551 0.0590524 0.669596
0.783551 0.0590524 0.669596
0.880842 0.637613 0.752331
0.0500191 0.0937819 0.645869
0.0500191 0.0937819 0.645869
0.0500191 0.0937972 0.645869
0.0500343 0.0938125 0.645869
0.0500343 0.0938735 0.645884
0.407309 0.0449683 0.653147
0.783551 0.0590524 0.669596
0.783551 0.0590524 0.669596
0.880796 0.637324 0.752285
0.0497139 0.0921187 0.645624
0.0497139 0.0921187 0.645624
0.0497139 0.0921187 0.645624
0.0497139 0.0921492 0.645624
0.0497292 0.0922255 0.64564
0.658808 0.0544289 0.664164
0.783551 0.0590524 0.669596
0.794186 0.122362 0.678935
0.907057 0.784222 0.772259
0.196506 0.82327 0.749126
0.196506 0.823301 0.749126
0.196521 0.823331 0.749126
0.196536 0.823453 0.749157
0.196612 0.823819 0.749203
0.766125 0.835218 0.773327
0.900023 0.836332 0.778729
0.917662 0.843778 0.780331
0.920516 0.859876 0.782513
0.727428 0.871931 0.776486
0.732631 0.872145 0.776699
0.740475 0.872496 0.777035
0.760891 0.873396 0.777905
0.802609 0.875242 0.77966
0.856245 0.877623 0.781903
0.899992 0.879576 0.783749
0.923293 0.879728 0.784619
0.924117 0.880156 0.784817
0.894347 0.879286 0.782452
0.894499 0.879301 0.782467
0.894743 0.879316 0.782467
0.895445 0.879347 0.782498
0.897475 0.879438 0.782589
0.90251 0.879652 0.782803
0.912001 0.880079 0.78323
0.922103 0.880476 0.783688
0.924163 0.880568 0.784024
0.0960098 0.341543 0.681804
0.0960098 0.341543 0.681804
0.0960098 0.341543 0.681804
0.0960098 0.341558 0.681804
0.0960098 0.341558 0.681804
0.096025 0.341619 0.681819
0.0960403 0.341711 0.681834
0.833097 0.35729 0.712856
0.886336 0.668162 0.756481
0.0960098 0.341543 0.681804
0.0960098 0.341543 0.681804
0.0960098 0.341543 0.681804
0.0960098 0.341543 0.681804
0.0960098 0.341558 0.681804
0.096025 0.341588 0.681804
0.0960403 0.341711 0.681834
0.833143 0.357565 0.712901
0.886336 0.668208 0.756497
0.0960098 0.341527 0.681804
0.0960098 0.341527 0.681804
0.0960098 0.341527 0.681804
0.0960098 0.341543 0.681804
0.0960098 0.341543 0.681804
0.096025 0.341588 0.681804
0.0960403 0.341695 0.681819
0.833219 0.357992 0.712963
0.886351 0.668238 0.756497
0.0960098 0.341512 0.681804
0.0960098 0.341512 0.681804
0.0960098 0.341512 0.681804
0.0960098 0.341512 0.681804
0.0960098 0.341527 0.681804
0.0960098 0.341558 0.681804
0.0960403 0.341665 0.681819
0.833432 0.359335 0.713146
0.886381 0.668406 0.756512
0.0959945 0.341405 0.681788
0.0959945 0.341405 0.681788
0.0959945 0.341405 0.681788
0.0959945 0.341405 0.681788
0.0959945 0.341421 0.681788
0.0959945 0.341451 0.681788
0.45951 0.336248 0.695567
0.834104 0.363424 0.713741
0.886458 0.668864 0.756573
0.0959335 0.341115 0.681743
0.0959335 0.341115 0.681743
0.0959335 0.341115 0.681743
0.0959335 0.341131 0.681743
0.0959335 0.341131 0.681743
0.0959487 0.341161 0.681743
0.69012 0.149935 0.678767
0.836088 0.375387 0.71545
0.88658 0.669535 0.756664
0.0957656 0.340215 0.68162
0.0957656 0.340215 0.68162
0.0957656 0.340215 0.68162
0.0957809 0.340246 0.68162
0.0957809 0.340246 0.68162
0.0957809 0.340276 0.68162
0.783551 0.0590524 0.669596
0.839887 0.398352 0.718746
0.886809 0.670817 0.756848
0.201892 0.848142 0.752529
0.201892 0.848142 0.752529
0.201892 0.848142 0.752529
0.201892 0.848142 0.752529
0.201892 0.848142 0.752529
0.201892 0.848142 0.752529
0.872358 0.870634 0.78204
0.922438 0.870756 0.783993
0.922911 0.87332 0.784329
0.860868 0.877836 0.782513
0.861387 0.877867 0.782544
0.862211 0.877897 0.782574
0.864622 0.878004 0.782681
0.871 0.878294 0.782971
0.884749 0.878904 0.783597
0.904387 0.879789 0.784482
0.920409 0.880446 0.785153
0.924208 0.880598 0.785321
