BBLuts/BB_103_0230_LUT.cube
TITLE "Generated by Resolve"
LUT_3D_SIZE 5
0.00782788 0.0089723 0.00369268
0.155047 0.00672923 0.00125124
0.647684 0 0
0.786511 0.524651 0.0589151
0.756588 0.846784 0.585504
0 0.176303 0.00187686
0.11133 0.178668 0.000381476
0.649668 0.0762493 0
0.780957 0.579355 0.0299687
0.756573 0.847089 0.585321
0 0.710277 0
0 0.710063 0
0.569177 0.707485 0
0.76495 0.752636 0.00154116
0.756298 0.851225 0.582559
0.473121 0.887785 0.133028
0.473121 0.887785 0.133028
0.604166 0.879301 0.137392
0.752697 0.871565 0.253285
0.754452 0.872328 0.604898
0.731075 0.880293 0.668421
0.731075 0.880293 0.668421
0.731075 0.880293 0.668421
0.742702 0.8804 0.670329
0.753048 0.8804 0.68867
0.00929274 0.0108492 0.121706
0.131746 0.00944533 0.119722
0.649912 0 0.100557
0.789899 0.513939 0.178042
0.756588 0.846784 0.585504
0 0.14638 0.111116
0.116854 0.144442 0.107332
0.649424 0.00190738 0.09131
0.784817 0.573632 0.163668
0.756573 0.847089 0.585321
0 0.706432 0
0 0.706203 0
0.572641 0.703914 0
0.765988 0.752453 0.0260319
0.756298 0.851225 0.582559
0.480598 0.887358 0.132296
0.480598 0.887358 0.132296
0.605722 0.879164 0.13695
0.752743 0.871534 0.253071
0.754452 0.872328 0.604898
0.731106 0.880293 0.668421
0.731106 0.880293 0.668421
0.731106 0.880293 0.668421
0.742733 0.880415 0.670314
0.753048 0.8804 0.68867
0.000518807 0.00354009 0.590005
0.000503548 0.00354009 0.590082
0.63917 0 0.570977
0.807843 0.244434 0.605035
0.756115 0.844678 0.651118
0.000534066 0.00355535 0.589212
0.000518807 0.00355535 0.589258
0.64596 0 0.569802
0.798733 0.399893 0.60383
0.756085 0.844999 0.651026
0 0.664332 0.559014
0 0.664378 0.559045
0.551781 0.663645 0.561746
0.766674 0.730922 0.57644
0.755779 0.849348 0.649851
0.470771 0.884688 0.479316
0.470771 0.884688 0.479316
0.594491 0.876402 0.477775
0.746029 0.867903 0.51545
0.754208 0.871778 0.637125
0.731456 0.880293 0.668376
0.731456 0.880293 0.668376
0.731456 0.880293 0.668376
0.742855 0.880415 0.670268
0.753048 0.8804 0.688655
0 0.00195315 0.750271
0 0.00195315 0.750271
0 0.00195315 0.750271
0.805905 0 0.740795
0.757366 0.820279 0.735515
0 0.00195315 0.750271
0 0.00195315 0.750271
0 0.00195315 0.750271
0.805905 0 0.740795
0.757305 0.82121 0.735439
0 0.00195315 0.750271
0 0.00195315 0.750271
0 0.00195315 0.750271
0.805905 0 0.740795
0.756558 0.831266 0.734615
0 0.892744 0.748043
0 0.892744 0.748043
0 0.892744 0.748043
0.73254 0.859358 0.729427
0.753902 0.868223 0.731182
0.728527 0.88014 0.71783
0.728527 0.88014 0.71783
0.728527 0.88014 0.71783
0.739467 0.880262 0.718334
0.752865 0.880323 0.723522
0 0.245457 0.750973
0 0.245457 0.750973
0 0.245457 0.750973
0 0.245518 0.750973
0.777295 0.640528 0.756115
0 0.245457 0.750973
0 0.245457 0.750973
0 0.245457 0.750973
0 0.245518 0.750973
0.777295 0.640528 0.756115
0 0.245457 0.750973
0 0.245457 0.750973
0 0.245457 0.750973
0 0.245518 0.750973
0.777295 0.640528 0.756115
0 0.244373 0.750973
0 0.244373 0.750973
0 0.244373 0.750973
0 0.244419 0.750973
0.776852 0.643732 0.755871
0.685389 0.879576 0.746502
0.685389 0.879576 0.746502
0.685389 0.879576 0.746502
0.685389 0.879576 0.746502
0.752972 0.880522 0.747066
