BBLuts/BB_101_0280_LUT.cube
TITLE "Generated by Resolve"
LUT_3D_SIZE 9
0 0 0
0 0 0
0.160876 0 0
0.371054 0 0
0.726543 0 0
1 0 0
1 0.444434 0.124071
1 0.802533 0.403586
1 0.938781 0.759823
0 0.044419 0
0 0.0531777 0
0.163622 0.0343175 0
0.372198 0 0
0.715297 0 0
1 0 0
1 0.460441 0.106279
1 0.799435 0.386191
1 0.936431 0.749172
0 0.170352 0
0 0.172519 0
0.127596 0.171099 0
0.369375 0.150805 0
0.706218 0 0
1 0.100786 0
1 0.486442 0.0774243
1 0.798383 0.367636
1 0.934249 0.737881
0 0.376501 0
0 0.374609 0
0 0.372061 0
0.312276 0.366445 0
0.70248 0.349599 0
0.997803 0.384314 0
1 0.573007 0
1 0.810483 0.346242
1 0.933791 0.725246
0 0.698665 0
0 0.694987 0
0 0.691112 0
0 0.685786 0
0.622965 0.673808 0
0.949844 0.674571 0
1 0.741009 0
1 0.850095 0.337774
1 0.93846 0.709209
0 0.921813 0
0 0.919585 0
0 0.917037 0
0 0.9122 0
0.556069 0.900923 0
0.882826 0.887037 0
1 0.888106 0
1 0.912779 0.357107
1 0.953658 0.691844
0.416419 0.994461 0.0595712
0.441215 0.993362 0.0153811
0.470695 0.992096 0
0.551827 0.989334 0
0.70367 0.983398 0
0.869917 0.974975 0.112078
0.981674 0.968841 0.242039
1 0.969238 0.4589
1 0.978683 0.71548
0.838102 1 0.565438
0.838453 1 0.561349
0.839323 1 0.557305
0.845472 1 0.553735
0.866133 1 0.551843
0.912184 1 0.555291
0.971603 1 0.575036
1 1 0.643961
1 0.999527 0.786908
0.95198 1 0.844282
0.951553 1 0.84239
0.951186 1 0.840467
0.951492 1 0.83859
0.953994 1 0.836942
0.962158 1 0.836072
0.979644 1 0.837705
1 1 0.846693
1 1 0.874678
0 0 0.0479286
0 0 0.046952
0.159625 0 0.0464332
0.371435 0 0.0463874
0.724926 0 0.0475471
1 0 0.0775464
1 0.436835 0.178805
1 0.800565 0.43415
1 0.938338 0.765576
0 0.0184482 0.034638
0.0317388 0.0317388 0.0317388
0.172412 0 0.0331121
0.367102 0 0.0298772
0.711788 0 0
1 0 0.0361334
1 0.453727 0.159518
1 0.797452 0.41857
1 0.935973 0.755505
0 0.161868 0
0 0.163622 0
0.145449 0.161532 0
0.367956 0.141466 0
0.700923 0 0
1 0.0613107 0
1 0.480674 0.132342
1 0.796399 0.402106
1 0.933776 0.744854
0 0.371176 0
0 0.369223 0
0 0.366567 0
0.322332 0.360357 0
0.700313 0.34403 0
0.99678 0.379004 0
1 0.569085 0
1 0.808698 0.38024
1 0.933303 0.732921
0 0.695598 0
0 0.691875 0
0 0.687953 0
0 0.682567 0
0.626017 0.670588 0
0.949493 0.671824 0
1 0.739055 0
1 0.849104 0.342031
1 0.938003 0.7178
0 0.920989 0
0 0.91873 0
0 0.916167 0
0 0.911345 0
0.557763 0.900099 0
0.882811 0.886275 0
1 0.887449 0
1 0.912276 0.355367
1 0.953353 0.693431
0.418158 0.994202 0.0478065
0.442847 0.993088 0
0.472099 0.991821 0
0.55256 0.989075 0
0.703639 0.983154 0
0.869657 0.974746 0.1075
0.981537 0.968597 0.239994
1 0.969009 0.457282
1 0.978515 0.714275
0.837751 1 0.563943
0.838102 1 0.559853
0.838972 1 0.555795
0.845136 1 0.552239
0.865797 1 0.550347
0.911894 1 0.553796
0.971435 1 0.573556
1 1 0.642573
1 0.999466 0.786023
0.951782 1 0.843626
0.951354 1 0.841718
0.950973 1 0.83978
0.951293 1 0.837903
0.953796 1 0.836255
0.961975 1 0.83537
0.979522 1 0.837018
1 1 0.846036
1 1 0.874159
0 0 0.16733
0 0 0.16582
0.13994 0 0.163897
0.37998 0 0.159686
0.72314 0 0.162814
1 0 0.187793
1 0.424567 0.26009
1 0.798108 0.473014
1 0.937835 0.77348
0 0 0.157885
0 0 0.156558
0.159014 0 0.154391
0.369253 0 0.150713
0.71165 0 0.153048
1 0 0.174319
1 0.442618 0.244953
1 0.795026 0.458122
1 0.935439 0.763882
0 0.140841 0.142229
0 0.14197 0.14052
0.135729 0.135729 0.135729
0.354421 0.118914 0.136965
0.696071 0 0.137682
1 0 0.155917
1 0.470832 0.22681
1 0.794003 0.442527
1 0.933242 0.753735
0 0.359686 0.0614023
0 0.357992 0.0608988
0 0.355535 0.0608682
0.322683 0.349065 0.0619211
0.693111 0.332845 0.0622873
0.995972 0.367041 0.0842908
1 0.561776 0.185565
1 0.806546 0.422309
1 0.932769 0.742367
0 0.691463 0
0 0.687709 0
0 0.683772 0
0 0.678355 0
0.62858 0.666362 0
0.948882 0.668101 0
1 0.736217 0
1 0.847578 0.388373
1 0.937499 0.727977
0 0.920043 0
0 0.917769 0
0 0.915206 0
0 0.910369 0
0.560357 0.899184 0
0.882933 0.885451 0
1 0.886763 0
1 0.911757 0.353582
1 0.952956 0.704967
0.421241 0.993896 0.028809
0.445624 0.992782 0
0.474464 0.991516 0
0.553948 0.988785 0
0.703899 0.982895 0
0.869474 0.974502 0.102632
0.981399 0.968353 0.237949
1 0.968795 0.45565
1 0.978347 0.713039
0.837476 1 0.562432
0.837842 1 0.558343
0.838712 1 0.554284
0.844862 1 0.550729
0.865507 1 0.548837
0.91162 1 0.552285
0.971267 1 0.572061
1 0.999924 0.641184
1 0.999405 0.785153
0.951583 1 0.842969
0.951156 1 0.841047
0.950774 1 0.839109
0.951095 1 0.837217
0.953613 1 0.835554
0.961807 1 0.834669
0.9794 1 0.836316
1 1 0.84538
1 1 0.87364
0 0 0.375296
0 0 0.37232
0 0 0.369329
0.356451 0 0.364614
0.743069 0 0.364126
1 0 0.379461
1 0.386862 0.432639
1 0.792111 0.570947
1 0.936889 0.796124
0 0 0.362829
0 0 0.360006
0.0512856 0 0.356939
0.360937 0 0.35201
0.725658 0 0.351354
1 0 0.365728
1 0.409125 0.417441
1 0.78912 0.556588
1 0.934478 0.78764
0 0.0492714 0.34934
0 0.0539101 0.346593
0.0825055 0.0482795 0.343587
0.356451 0 0.339071
0.704646 0 0.338003
1 0 0.350622
1 0.441993 0.400809
1 0.788281 0.541695
1 0.93225 0.778668
0 0.320577 0.318669
0 0.319661 0.316304
0 0.318013 0.314153
0.312154 0.312154 0.312154
0.672602 0.296147 0.312215
0.995529 0.327657 0.322972
1 0.541665 0.374029
1 0.801556 0.523339
1 0.931792 0.768612
0 0.677012 0.227405
0 0.673365 0.225422
0 0.669505 0.223621
0 0.664271 0.223346
0.623652 0.652247 0.22768
0.945769 0.65539 0.247593
1 0.727703 0.316701
1 0.844297 0.495094
1 0.936614 0.755917
0 0.918151 0
0 0.915846 0
0 0.913252 0
0 0.908415 0
0.561166 0.897261 0
0.882445 0.883589 0
1 0.885191 0.192721
1 0.910475 0.443076
1 0.952285 0.735943
0.436973 0.993255 0
0.459693 0.992142 0
0.486717 0.99089 0
0.562295 0.988205 0
0.707286 0.982422 0
0.87013 0.974136 0.0966812
0.98146 0.968032 0.235828
1 0.968505 0.453742
1 0.978149 0.711681
0.838056 1 0.560845
0.838407 1 0.556741
0.839261 1 0.552697
0.84535 1 0.549126
0.865843 1 0.547234
0.911696 1 0.550698
0.971206 1 0.570489
1 0.999847 0.639765
1 0.999344 0.784207
0.951492 1 0.842283
0.951064 1 0.84036
0.950683 1 0.838407
0.951003 1 0.836515
0.953521 1 0.834852
0.961715 1 0.833967
0.979324 1 0.835615
1 1 0.844724
1 1 0.873121
0 0 0.711421
0 0 0.707698
0 0 0.704021
0.206714 0 0.699214
0.726589 0 0.691402
1 0 0.6925
1 0.20885 0.709087
1 0.773297 0.752377
1 0.934585 0.847486
0 0 0.697734
0 0 0.69398
0 0 0.690288
0.224353 0 0.685359
0.718685 0 0.677791
1 0 0.678752
1 0.264591 0.695155
1 0.770596 0.741405
1 0.932113 0.840833
0 0 0.683589
0 0 0.679835
0 0 0.676127
0.249134 0 0.671016
0.708064 0 0.663706
1 0 0.664576
1 0.326558 0.680201
1 0.770397 0.729717
1 0.929839 0.833844
0 0.172091 0.664363
0 0.173022 0.660594
0 0.174426 0.656825
0.248615 0.165347 0.652018
0.694774 0 0.645747
1 0.0525673 0.64535
1 0.46891 0.660151
1 0.786328 0.715496
1 0.929427 0.826154
0 0.628168 0.617426
0 0.624964 0.613901
0 0.621485 0.610437
0 0.616938 0.607263
0.604837 0.604837 0.604837
0.935347 0.612436 0.606561
1 0.69926 0.626078
1 0.834745 0.695125
1 0.934539 0.816785
0 0.912291 0.547173
0 0.909972 0.543389
0 0.907362 0.539696
0 0.90248 0.536675
0.521385 0.891127 0.535973
0.872496 0.876951 0.544259
1 0.879698 0.576669
1 0.906737 0.662348
1 0.950805 0.802945
0.430671 0.992081 0.416419
0.45388 0.990967 0.412284
0.481285 0.989715 0.40827
0.557305 0.987045 0.405493
0.702678 0.981292 0.406989
0.86595 0.973022 0.422354
0.977447 0.966888 0.475883
1 0.967468 0.598566
1 0.977432 0.776883
0.841428 1 0.558968
0.841733 1 0.554864
0.842527 1 0.550805
0.848356 1 0.54725
0.868177 1 0.545357
0.912886 1 0.548837
0.971511 1 0.568673
1 0.999741 0.638285
1 0.999252 0.783123
0.951751 1 0.841566
0.951324 1 0.839628
0.950942 1 0.837674
0.951247 1 0.835767
0.953735 1 0.834089
0.961868 1 0.833204
0.979385 1 0.834867
1 1 0.844022
1 1 0.872587
0 0 0.939849
0 0 0.938445
0 0 0.937026
0 0 0.935622
0.587045 0 0.927901
1 0 0.920501
1 0 0.920378
1 0.687861 0.90866
1 0.927642 0.918181
0 0 0.934905
0 0 0.933425
0 0 0.93193
0 0 0.930449
0.581003 0 0.922759
1 0 0.915358
1 0 0.915312
1 0.687419 0.903944
1 0.925017 0.914366
0 0 0.929641
0 0 0.928084
0 0 0.926513
0 0 0.924956
0.579217 0 0.91725
1 0 0.909911
1 0 0.909941
1 0.691402 0.898787
1 0.922621 0.910384
0 0 0.923781
0 0 0.922148
0 0 0.920485
0 0 0.918669
0.598093 0 0.910796
1 0 0.903792
1 0 0.90248
1 0.723171 0.891615
1 0.922408 0.906004
0 0.399344 0.905867
0 0.397421 0.904219
0 0.396017 0.902525
0 0.396765 0.900343
0.572229 0.382589 0.895018
0.978668 0.386664 0.888395
1 0.562234 0.88275
1 0.799664 0.880629
1 0.928542 0.900694
0 0.891157 0.864103
0 0.888838 0.862318
0 0.886259 0.860502
0 0.881651 0.858534
0.392859 0.869764 0.856077
0.854078 0.854078 0.854078
0.992264 0.861509 0.855283
1 0.895735 0.865278
1 0.946929 0.893217
0.122499 0.990753 0.833753
0.222507 0.989548 0.831662
0.295064 0.988174 0.829557
0.437263 0.985183 0.827436
0.644495 0.978607 0.825498
0.840467 0.969467 0.824933
0.962692 0.963165 0.82948
1 0.964446 0.84564
1 0.975692 0.881422
0.831525 1 0.767498
0.831861 1 0.764782
0.832654 1 0.762036
0.838544 1 0.759518
0.858564 1 0.757809
0.903761 1 0.758877
0.96318 1 0.768414
1 0.99881 0.798566
1 0.998672 0.857435
0.953094 1 0.840711
0.952667 1 0.838758
0.9523 1 0.836805
0.952575 1 0.834882
0.954971 1 0.833204
0.962829 1 0.832319
0.979873 1 0.833997
1 1 0.843198
1 1 0.872023
0 0 1
0 0 1
0 0 1
0 0 1
0 0 1
0.969406 0 1
1 0 1
1 0 1
1 0.897978 0.977859
0 0 1
0 0 1
0 0 1
0 0 1
0 0 1
0.961715 0 1
1 0 1
1 0 1
1 0.894926 0.976165
0 0 1
0 0 1
0 0 1
0 0 1
0 0 1
0.95465 0 1
1 0 1
1 0 0.999237
1 0.892332 0.97435
0 0 1
0 0 1
0 0 1
0 0 1
0 0 1
0.953033 0 1
1 0 0.999359
1 0 0.997238
1 0.893507 0.972183
0 0 1
0 0 1
0 0 1
0 0 1
0 0 1
0.962936 0 1
1 0 0.996948
1 0.452476 0.98764
1 0.904921 0.969162
0 0.729351 0.984955
0 0.726253 0.984466
0 0.723308 0.983948
0 0.721706 0.983352
0 0.717174 0.981567
0.861921 0.701457 0.976715
1 0.742855 0.972015
1 0.843732 0.966278
1 0.933654 0.964553
0 0.990524 0.960403
0 0.989029 0.959655
0 0.98735 0.958877
0 0.983688 0.957916
0.443534 0.974441 0.956466
0.80235 0.961303 0.954818
0.953979 0.953964 0.953964
1 0.957 0.954437
1 0.971267 0.958358
0.787961 1 0.947143
0.788693 1 0.946349
0.790066 1 0.945541
0.79852 1 0.944717
0.82504 1 0.943877
0.880888 1 0.943099
0.949767 0.999863 0.942855
0.997436 0.997177 0.944579
1 0.997482 0.95082
0.948226 1 0.921904
0.947753 1 0.920851
0.947341 1 0.919799
0.94757 1 0.918761
0.94992 1 0.9178
0.957778 1 0.917159
0.974945 1 0.917556
0.996857 1 0.921187
1 1 0.932845
0 0.0814984 1
0 0.0789044 1
0 0.0762341 1
0 0.0735027 1
0 0.0707103 1
0 0.0678874 1
1 0 1
1 0.105089 1
1 0.598047 1
0 0.0724498 1
0 0.0695811 1
0 0.0666056 1
0 0.063508 1
0 0.0602884 1
0 0.0569772 1
1 0 1
1 0 1
1 0.582681 1
0 0.0623026 1
0 0.0589761 1
0 0.0554513 1
0 0.051667 1
0 0.0476081 1
0 0.0431983 1
1 0 1
1 0 1
1 0.567163 1
0 0.0500649 1
0 0.0457771 1
0 0.0409552 1
0 0.0353246 1
0 0.028275 1
0 0.0177615 1
1 0 1
1 0 1
1 0.551354 1
0 0.0322728 1
0 0.0238651 1
0 0 1
0 0 1
0 0 1
0 0 1
1 0 1
1 0 1
1 0.535058 1
0 0 1
0 0 1
0 0 1
0 0 1
0 0 1
0.580133 0 1
1 0 1
1 0 1
1 0.796796 1
0 0.933867 1
0 0.932601 1
0 0.931334 1
0 0.930236 1
0 0.929641 1
0.570474 0.908843 1
0.958724 0.895674 1
1 0.911665 1
1 0.950362 0.998688
0.533532 1 0.997024
0.543648 1 0.996765
0.556237 1 0.996475
0.597971 1 0.996109
0.693126 1 0.99556
0.826444 1 0.994812
0.935073 0.996902 0.994125
0.993774 0.993774 0.993774
1 0.994873 0.993957
0.932219 1 0.99144
0.93167 1 0.99115
0.931182 1 0.990845
0.931563 1 0.990555
0.934707 1 0.990234
0.944869 1 0.989914
0.966079 1 0.989609
0.99147 1 0.989502
1 1 0.990158
0 0.286931 1
0 0.284276 1
0 0.281621 1
0 0.279011 1
0 0.276402 1
0 0.273838 1
0 0.271366 1
1 0.266697 1
1 0.652232 1
0 0.27805 1
0 0.275441 1
0 0.272862 1
0 0.270283 1
0 0.26775 1
0 0.265232 1
0 0.262806 1
1 0.241901 1
1 0.638163 1
0 0.269352 1
0 0.266804 1
0 0.264271 1
0 0.261753 1
0 0.259266 1
0 0.256809 1
0 0.254429 1
1 0.214511 1
1 0.623667 1
0 0.260807 1
0 0.25832 1
0 0.255848 1
0 0.253376 1
0 0.25095 1
0 0.248539 1
0 0.246204 1
1 0.18378 1
1 0.608896 1
0 0.252415 1
0 0.249973 1
0 0.247547 1
0 0.245136 1
0 0.242741 1
0 0.240391 1
0 0.238102 1
1 0.149432 1
1 0.59443 1
0 0.244038 1
0 0.241642 1
0 0.239261 1
0 0.236896 1
0 0.234562 1
0 0.232242 1
0 0.228855 1
1 0.117906 1
1 0.580392 1
0 0.235325 1
0 0.23299 1
0 0.230655 1
0 0.228336 1
0 0.226047 1
0 0.223774 1
0.952148 0 1
1 0.112779 1
1 0.567147 1
0 1 1
0 1 1
0 1 1
0 1 1
0 1 1
0 1 1
0.856382 0.976501 1
0.996048 0.970947 1
1 0.977539 1
0.8551 1 1
0.854719 1 1
0.854597 1 1
0.857435 1 1
0.869154 1 1
0.898939 1 1
0.945891 1 1
0.986603 1 1
1 1 1
