BBLuts/BB_104_0260_LUT.cube
TITLE "Generated by Resolve"
LUT_3D_SIZE 9
0 0 0
0 0 0
0.187594 0 0
0.453117 0 0
0.774502 0 0
0.911742 0 0
0.962707 0.520836 0.106462
0.965164 0.804852 0.395865
0.9635 0.875532 0.699153
0.00395209 0.0454108 0.00247196
0.00453193 0.0540169 0.00274662
0.202853 0.0308843 0
0.465766 0 0
0.776104 0 0
0.911742 0 0
0.963333 0.564263 0.0956741
0.965179 0.807767 0.39324
0.9635 0.875868 0.698985
0.00793469 0.186419 0.0034638
0.00787366 0.189654 0.00340276
0.175631 0.187503 0.00141909
0.498177 0.15761 0
0.791547 0.0459144 0
0.942748 0.173739 0
0.963455 0.617472 0.0742657
0.965194 0.812222 0.38909
0.9635 0.876432 0.698695
0 0.457801 0
0 0.459083 0
0 0.459785 0
0.445457 0.467628 0
0.822461 0.456275 0
0.959655 0.529351 0.00788891
0.961013 0.70338 0.00445563
0.965255 0.823911 0.376989
0.963516 0.878019 0.697871
0.0065156 0.764202 0
0.00650034 0.764141 0
0.00643931 0.763882 0
0.00602731 0.762127 0
0.790326 0.761028 0
0.940993 0.767819 0.00166323
0.961044 0.79852 0.00175479
0.965408 0.847303 0.380591
0.963561 0.882231 0.695384
0.0404517 0.88188 0.00408942
0.0403143 0.881392 0.00402838
0.0401007 0.880583 0.00392157
0.0394446 0.878096 0.00363165
0.780819 0.8692 0.000869764
0.91632 0.863539 0.000701915
0.962158 0.864958 0.00115969
0.965484 0.877287 0.428275
0.963623 0.891142 0.692439
0.69424 0.916152 0.168109
0.713603 0.915419 0.168078
0.73901 0.914351 0.168231
0.780972 0.911727 0.169787
0.848692 0.907698 0.180468
0.916152 0.904555 0.219821
0.961318 0.902342 0.33106
0.964889 0.900969 0.562844
0.963546 0.902831 0.71017
0.89398 0.911009 0.6271
0.894881 0.911009 0.627207
0.896315 0.911025 0.627359
0.90042 0.91104 0.627878
0.910903 0.911101 0.629496
0.930877 0.911223 0.63444
0.95491 0.911254 0.648417
0.963531 0.910842 0.684581
0.963012 0.91017 0.745266
0.942596 0.909972 0.764035
0.942702 0.909972 0.76405
0.942901 0.909972 0.764065
0.943435 0.909972 0.764126
0.944976 0.909987 0.764309
0.948898 0.910033 0.764874
0.956405 0.910109 0.766506
0.963027 0.910094 0.770901
0.963027 0.910079 0.782467
0 0.000228885 0.0336309
0 0.000213626 0.0338293
0.188861 0 0.0292058
0.455085 0 0.018204
0.775784 0 0.00274662
0.914061 0 0.0263218
0.96376 0.514641 0.164767
0.965087 0.804028 0.435813
0.96347 0.87541 0.703349
0.00326543 0.0259098 0.0292821
0.047013 0.0346227 0.0273594
0.206424 0 0.0225986
0.461326 0 0.00967422
0.775692 0 0
0.913436 0 0.00704967
0.964523 0.559319 0.154177
0.965087 0.806958 0.433509
0.96347 0.875746 0.703197
0.00805676 0.178256 0.00363165
0.00802625 0.180957 0.00357061
0.193851 0.178836 0.00128176
0.495155 0.148409 0
0.785657 0.0155337 0
0.940826 0.155795 0
0.964889 0.614862 0.134874
0.965087 0.81146 0.429816
0.963485 0.87631 0.702937
0 0.452857 0
0 0.454093 0
0 0.454597 0
0.458839 0.461769 0
0.822049 0.451438 0
0.959564 0.525292 0.00790417
0.962463 0.703365 0.0400092
0.965148 0.82324 0.41915
0.9635 0.877913 0.702144
0.00631724 0.763333 0
0.00630198 0.763256 0
0.00624094 0.762997 0
0.00581369 0.761212 0
0.792203 0.760189 0
0.941054 0.767254 0.00167849
0.961028 0.79823 0.00175479
0.965377 0.84712 0.390265
0.963531 0.882139 0.699794
0.0404059 0.881727 0.0040589
0.0402686 0.881224 0.00401312
0.0400549 0.8804 0.00390631
0.0393988 0.877913 0.00361639
0.782116 0.869047 0.000839246
0.916518 0.863462 0.000701915
0.962158 0.864897 0.00115969
0.965484 0.877256 0.428031
0.963623 0.891127 0.692821
0.697307 0.91603 0.167788
0.716197 0.915312 0.167788
0.740795 0.914244 0.167941
0.78201 0.911665 0.169558
0.849134 0.907668 0.180316
0.916259 0.90454 0.219715
0.961349 0.902312 0.331029
0.964889 0.900969 0.562783
0.963546 0.902815 0.710155
0.894118 0.911009 0.627085
0.895018 0.911009 0.627192
0.896437 0.911025 0.627344
0.900542 0.91104 0.627863
0.910994 0.911101 0.62948
0.930922 0.911223 0.634424
0.954925 0.911254 0.648402
0.963531 0.910842 0.684581
0.963012 0.910155 0.745266
0.942611 0.909972 0.764035
0.942718 0.909972 0.76405
0.942901 0.909972 0.764065
0.94345 0.909972 0.764126
0.944991 0.909987 0.764309
0.948898 0.910033 0.764874
0.956405 0.910109 0.766506
0.963027 0.910094 0.770901
0.963027 0.910079 0.782467
0.000701915 0.000732433 0.142901
0.000701915 0.000732433 0.143084
0.168002 0 0.138277
0.469902 0 0.120867
0.777722 0 0.105867
0.916152 0 0.13286
0.964752 0.500557 0.263386
0.964935 0.80267 0.49398
0.963439 0.875212 0.709682
0.000717174 0.000732433 0.139437
0.000717174 0.000732433 0.139757
0.194568 0 0.133883
0.468086 0 0.117601
0.779187 0 0.102113
0.91606 0 0.126467
0.965713 0.54699 0.25626
0.96492 0.805646 0.49189
0.963439 0.875563 0.709529
0.0109712 0.156619 0.133196
0.0110018 0.158663 0.132906
0.184054 0.1514 0.127565
0.478264 0.12668 0.12163
0.77818 0 0.0921492
0.938323 0.102129 0.142123
0.966445 0.607034 0.243778
0.96492 0.810208 0.488548
0.963439 0.876127 0.709285
0 0.440955 0.0526589
0 0.442435 0.0533913
0 0.443153 0.0544594
0.462516 0.450034 0.0639048
0.821164 0.440314 0.0708782
0.9626 0.515831 0.107195
0.965789 0.70251 0.202884
0.964965 0.822156 0.478874
0.963455 0.877729 0.708568
0.00588998 0.761547 0
0.00587472 0.761471 0
0.00581369 0.761196 0
0.00540169 0.759396 0
0.79379 0.75848 0
0.940963 0.765911 0.00169375
0.963088 0.799207 0.0705272
0.965179 0.846311 0.453681
0.963485 0.881971 0.706401
0.0403296 0.881437 0.00402838
0.0401923 0.880934 0.00396735
0.0399786 0.880125 0.00387579
0.0393225 0.877638 0.00358587
0.784192 0.868788 0.00077821
0.916823 0.86331 0.000717174
0.962158 0.86479 0.00115969
0.965484 0.877195 0.427649
0.963577 0.890974 0.700038
0.70219 0.915831 0.1673
0.720317 0.915129 0.167315
0.743435 0.914061 0.167498
0.783658 0.911543 0.169207
0.849836 0.907607 0.180072
0.916457 0.904509 0.219516
0.961395 0.902312 0.330999
0.964889 0.900954 0.562631
0.963546 0.902815 0.710109
0.894331 0.911009 0.627054
0.895232 0.911009 0.627161
0.896651 0.911025 0.627329
0.900725 0.91104 0.627848
0.911131 0.911101 0.62945
0.930999 0.911223 0.634394
0.95494 0.911254 0.648386
0.963531 0.910842 0.684581
0.963012 0.91017 0.745251
0.942641 0.909972 0.764035
0.942748 0.909972 0.764035
0.942931 0.909972 0.764065
0.943481 0.909972 0.764126
0.945022 0.909987 0.764309
0.948913 0.910033 0.764858
0.95642 0.910109 0.766506
0.963027 0.910094 0.770901
0.963027 0.910079 0.782467
0 0 0.379843
0 0 0.380026
0 0 0.380118
0.43978 0 0.360769
0.790249 0 0.342275
0.917052 0 0.368124
0.964736 0.447547 0.489265
0.96434 0.798444 0.605905
0.963363 0.874678 0.72546
0 0 0.377401
0 0 0.37763
0.0781415 0 0.375067
0.458 0 0.357061
0.788968 0 0.339544
0.917052 0 0.364965
0.965942 0.500618 0.485023
0.964309 0.801587 0.604791
0.963363 0.875029 0.725338
0.00341802 0.0586557 0.376913
0.00378424 0.0634775 0.377279
0.116609 0.0568093 0.374456
0.465492 0 0.352224
0.785031 0 0.33518
0.917052 0 0.35903
0.967346 0.573617 0.477852
0.964294 0.806363 0.603021
0.963363 0.875593 0.725139
0.00640879 0.392142 0.342321
0.00636301 0.394141 0.34258
0.00634775 0.395529 0.343282
0.45301 0.401526 0.353521
0.812665 0.392355 0.359869
0.964935 0.471214 0.392432
0.967239 0.692195 0.45333
0.964294 0.81883 0.598016
0.963378 0.877241 0.724559
0.0152743 0.758953 0.24358
0.0152895 0.758938 0.244312
0.015259 0.75874 0.245396
0.0149844 0.757092 0.248371
0.79617 0.755901 0.268833
0.944213 0.763912 0.30631
0.965194 0.796902 0.396811
0.964446 0.843915 0.584848
0.963409 0.881529 0.722835
0.040116 0.880659 0.00393683
0.0399939 0.880156 0.00387579
0.039765 0.879332 0.00378424
0.0391089 0.87686 0.00349432
0.78407 0.868055 0.00077821
0.919188 0.865049 0.130877
0.965698 0.866896 0.299977
0.964904 0.875792 0.551263
0.963485 0.890623 0.717906
0.715877 0.915236 0.16582
0.731975 0.914565 0.165896
0.750179 0.913558 0.166186
0.788525 0.911177 0.168139
0.851942 0.907454 0.179309
0.917021 0.904433 0.218921
0.961517 0.902235 0.330892
0.964889 0.900923 0.562234
0.963546 0.902785 0.710002
0.895003 0.911009 0.626978
0.895888 0.911025 0.627085
0.897292 0.911025 0.627253
0.901305 0.911055 0.627756
0.911574 0.911101 0.629374
0.931228 0.911223 0.634318
0.955016 0.911254 0.64831
0.963531 0.910842 0.68455
0.963012 0.91017 0.74522
0.942718 0.909972 0.764019
0.94284 0.909972 0.764035
0.943008 0.909972 0.76405
0.943557 0.909972 0.764111
0.945083 0.910002 0.764294
0.948974 0.910033 0.764858
0.956451 0.910109 0.766491
0.963027 0.910094 0.770901
0.963027 0.910079 0.782467
0 0 0.680201
0 0 0.680247
0 0 0.680339
0.253529 0 0.67335
0.779873 0 0.657008
0.916335 0 0.66302
0.948928 0.166949 0.698878
0.963729 0.785962 0.715175
0.963287 0.873259 0.755795
0 0 0.679774
0 0 0.679835
0 0 0.679911
0.283879 0 0.672068
0.783475 0 0.656565
0.916335 0 0.662577
0.959472 0.290837 0.704387
0.963638 0.789792 0.714565
0.963287 0.873625 0.755703
0 0 0.679088
0 0 0.679149
0 0 0.67924
0.3252 0 0.6701
0.785657 0 0.655787
0.916335 0 0.661799
0.964645 0.417456 0.704173
0.963531 0.795468 0.713664
0.963287 0.87422 0.755581
0.00386053 0.203494 0.682643
0.00396735 0.206317 0.682658
0.00408942 0.209964 0.682673
0.362203 0.203006 0.679942
0.806195 0.0894636 0.669535
0.95433 0.219684 0.687083
0.968078 0.63061 0.696635
0.963363 0.809888 0.711299
0.963302 0.875944 0.755184
0.0134127 0.730907 0.654887
0.0134432 0.731121 0.654978
0.0134585 0.731182 0.655085
0.0133059 0.730037 0.655299
0.785016 0.728893 0.659709
0.938781 0.740963 0.666102
0.963973 0.7823 0.676478
0.963287 0.838224 0.706065
0.963333 0.880446 0.754055
0.0463722 0.8813 0.634363
0.0462654 0.880842 0.634455
0.0460975 0.880049 0.634607
0.045594 0.877623 0.635035
0.767147 0.866728 0.631754
0.912795 0.859968 0.637705
0.963775 0.861631 0.656977
0.9635 0.872404 0.696239
0.963394 0.88983 0.751003
0.703456 0.913542 0.553887
0.720974 0.91284 0.553552
0.743725 0.911803 0.553155
0.782666 0.90901 0.552819
0.847333 0.905272 0.556344
0.912917 0.901915 0.572946
0.957137 0.899489 0.614572
0.96379 0.899001 0.674067
0.963455 0.902312 0.743191
0.897002 0.91104 0.626749
0.897841 0.91104 0.626856
0.899184 0.91104 0.627008
0.903029 0.91107 0.627527
0.912902 0.911116 0.629129
0.93193 0.911238 0.634073
0.955245 0.911254 0.648096
0.963531 0.910842 0.68452
0.963012 0.91017 0.745113
0.942992 0.909972 0.763989
0.943099 0.909972 0.764004
0.943267 0.909972 0.764035
0.943801 0.909987 0.76408
0.945312 0.910002 0.764263
0.949142 0.910033 0.764843
0.956527 0.910109 0.766476
0.963027 0.910094 0.770871
0.963027 0.910079 0.782467
0 0 0.796719
0 0 0.796719
0 0 0.796735
0 0 0.796765
0.705638 0 0.775753
0.917464 0 0.775921
0.917479 0 0.776501
0.965942 0.731212 0.796429
0.962982 0.869078 0.792844
0 0 0.796674
0 0 0.796674
0 0 0.796674
0 0 0.796719
0.71281 0 0.775464
0.917464 0 0.775876
0.917464 0 0.77644
0.965576 0.739116 0.795438
0.962982 0.86952 0.792782
0 0 0.796597
0 0 0.796597
0 0 0.796613
0 0 0.796628
0.72166 0 0.775006
0.917464 0 0.775784
0.917464 0 0.776364
0.965057 0.750652 0.793988
0.962982 0.870222 0.792691
0 0 0.796353
0 0 0.796353
0 0 0.796368
0 0 0.79617
0.739208 0 0.774029
0.917464 0 0.775509
0.917449 0 0.775143
0.964019 0.777798 0.7906
0.962997 0.872251 0.792416
0.0121614 0.538277 0.794461
0.012192 0.540063 0.794415
0.0122377 0.542916 0.794308
0.012314 0.547402 0.793881
0.770886 0.547295 0.79675
0.967071 0.587076 0.802075
0.966552 0.717845 0.79292
0.96318 0.822187 0.785397
0.963027 0.877501 0.791699
0.0453956 0.872343 0.782605
0.0453346 0.872038 0.782559
0.0452277 0.871458 0.782498
0.04477 0.8692 0.782208
0.70045 0.858991 0.777584
0.90428 0.849851 0.774762
0.960449 0.853544 0.776211
0.962966 0.867353 0.779843
0.963378 0.888029 0.790021
0.517845 0.914183 0.770657
0.563134 0.9131 0.769924
0.624628 0.91162 0.768994
0.729244 0.907729 0.766903
0.821637 0.902235 0.764553
0.900587 0.898329 0.765011
0.949432 0.896406 0.767865
0.963424 0.897169 0.774029
0.963455 0.901503 0.78674
0.890257 0.909545 0.742504
0.891127 0.909545 0.742535
0.8925 0.909545 0.742596
0.896483 0.909575 0.742763
0.90663 0.909667 0.743297
0.926177 0.90985 0.744884
0.950256 0.910094 0.74931
0.963012 0.910124 0.760204
0.963027 0.910094 0.779538
0.94374 0.909987 0.763912
0.943847 0.909987 0.763928
0.944015 0.909987 0.763943
0.944518 0.909987 0.764004
0.945968 0.910002 0.764187
0.94963 0.910033 0.764752
0.956802 0.910109 0.7664
0.963027 0.910094 0.770794
0.963027 0.910079 0.782452
0 0 0.82977
0 0 0.82977
0 0 0.82977
0 0 0.82977
0 0 0.82977
0.906416 0 0.815335
0.918029 0 0.815808
0.918029 0 0.815808
0.963149 0.851225 0.822904
0 0 0.82977
0 0 0.82977
0 0 0.82977
0 0 0.82977
0 0 0.82977
0.907286 0 0.815381
0.918029 0 0.815808
0.918029 0 0.815808
0.962875 0.852049 0.822828
0 0 0.82977
0 0 0.82977
0 0 0.82977
0 0 0.82977
0 0 0.82977
0.908675 0 0.815442
0.918029 0 0.815808
0.918029 0 0.815808
0.96289 0.85333 0.82269
0 0 0.82977
0 0 0.82977
0 0 0.82977
0 0 0.82977
0 0 0.82977
0.912779 0 0.815641
0.918029 0 0.815808
0.918029 0 0.815808
0.962905 0.856977 0.822339
0 0 0.82977
0 0 0.82977
0 0 0.82977
0 0 0.82977
0.340078 0 0.821485
0.918029 0 0.815808
0.918029 0 0.815808
0.969757 0.636545 0.843946
0.962951 0.865995 0.821454
0.0314031 0.802777 0.829999
0.0314641 0.802976 0.829999
0.0315404 0.803296 0.830014
0.031754 0.804303 0.830014
0.0309148 0.800656 0.828977
0.907286 0.79266 0.826032
0.963348 0.808957 0.82443
0.963134 0.846418 0.82118
0.963333 0.882002 0.819806
0.0524605 0.918669 0.826215
0.0524147 0.918227 0.826185
0.052369 0.917494 0.826108
0.0522011 0.915373 0.825925
0.750774 0.902327 0.817548
0.88687 0.894759 0.815122
0.946075 0.892576 0.81561
0.963424 0.894133 0.816098
0.96347 0.899657 0.817655
0.872053 0.90927 0.81091
0.873228 0.90927 0.81091
0.87509 0.909285 0.81091
0.880354 0.9093 0.81091
0.893553 0.909377 0.810971
0.917769 0.909606 0.811185
0.945312 0.909911 0.811704
0.963073 0.910048 0.812772
0.963073 0.910033 0.815274
0.941161 0.90988 0.803311
0.941268 0.90988 0.803311
0.941436 0.90988 0.803326
0.941955 0.909895 0.803342
0.943435 0.909911 0.803403
0.947173 0.909957 0.803616
0.954467 0.910018 0.804196
0.962829 0.910109 0.805829
0.963058 0.910048 0.809873
0 0.035996 0.834028
0 0.035996 0.834028
0 0.035996 0.834028
0 0.035996 0.834028
0 0.0360723 0.834043
0 0.0362249 0.834043
0.918029 0 0.815808
0.918029 0 0.815808
0.968688 0.683955 0.844816
0 0.0359503 0.834028
0 0.0359503 0.834028
0 0.0359808 0.834028
0 0.035996 0.834028
0 0.0360571 0.834043
0 0.0362097 0.834043
0.918029 0 0.815808
0.918029 0 0.815808
0.968688 0.68394 0.844816
0 0.0359197 0.834028
0 0.0359197 0.834028
0 0.0359197 0.834028
0 0.0359503 0.834028
0 0.035996 0.834028
0 0.0361639 0.834043
0.918029 0 0.815808
0.918029 0 0.815808
0.968688 0.683894 0.844816
0 0.0357824 0.834028
0 0.0357824 0.834028
0 0.0357824 0.834028
0 0.0357977 0.834028
0 0.0358587 0.834028
0 0.0101472 0.832319
0.918029 0 0.815808
0.918029 0 0.815808
0.968688 0.683772 0.844831
0 0.0353552 0.833997
0 0.0353552 0.833997
0 0.0353704 0.833997
0 0.0353857 0.833997
0 0.0354314 0.833997
0.381033 0 0.820371
0.918029 0 0.815808
0.918029 0 0.815808
0.968704 0.683406 0.844862
0 0.0340276 0.833921
0 0.0340276 0.833921
0 0.0340276 0.833921
0 0.0340429 0.833921
0 0.0341039 0.833921
0.792248 0 0.811276
0.918029 0 0.815808
0.930236 0.0238193 0.82623
0.963149 0.824414 0.834943
0.0502937 0.896452 0.842298
0.0502937 0.896483 0.842298
0.0502937 0.896513 0.842298
0.0503243 0.896635 0.842313
0.0503548 0.896971 0.842313
0.814435 0.875257 0.833478
0.947356 0.87097 0.83357
0.962997 0.877028 0.833204
0.963378 0.89134 0.833158
0.76437 0.911269 0.833249
0.77023 0.911086 0.833051
0.778973 0.910811 0.832761
0.801343 0.910231 0.832135
0.845106 0.90956 0.831052
0.897871 0.909346 0.830915
0.939941 0.909804 0.831159
0.962325 0.909224 0.83154
0.963516 0.909529 0.831632
0.934539 0.909743 0.82974
0.934691 0.909743 0.82974
0.93492 0.909758 0.82974
0.935607 0.909758 0.829755
0.93756 0.909789 0.829755
0.942397 0.909834 0.829801
0.951293 0.909941 0.829892
0.960891 0.910033 0.830045
0.963073 0.910002 0.830335
0.00723278 0.264256 0.839506
0.00723278 0.264256 0.839506
0.00723278 0.264256 0.839506
0.00723278 0.264286 0.839506
0.00723278 0.264286 0.839506
0.00723278 0.264347 0.839506
0.00723278 0.264454 0.839506
0.960281 0.271611 0.848905
0.967041 0.715145 0.842206
0.00723278 0.264256 0.839506
0.00723278 0.264256 0.839506
0.00723278 0.264256 0.839506
0.00723278 0.264256 0.839506
0.00723278 0.264286 0.839506
0.00723278 0.264317 0.839506
0.00723278 0.264454 0.839506
0.960311 0.271946 0.84892
0.967041 0.715175 0.842206
0.00721752 0.26424 0.839506
0.00721752 0.26424 0.839506
0.00721752 0.26424 0.839506
0.00723278 0.264256 0.839506
0.00723278 0.264256 0.839506
0.00723278 0.264317 0.839506
0.00723278 0.264439 0.839506
0.960342 0.27245 0.848936
0.967041 0.715221 0.842206
0.00721752 0.264225 0.839506
0.00721752 0.264225 0.839506
0.00721752 0.264225 0.839506
0.00721752 0.264225 0.839506
0.00721752 0.26424 0.839506
0.00723278 0.264286 0.839506
0.00723278 0.264393 0.839506
0.960449 0.274037 0.848997
0.967041 0.715389 0.842191
0.00721752 0.264103 0.839506
0.00721752 0.264103 0.839506
0.00721752 0.264103 0.839506
0.00721752 0.264103 0.839506
0.00723278 0.264118 0.839506
0.00723278 0.264164 0.839506
0.423957 0.247974 0.839963
0.960769 0.278874 0.84918
0.96701 0.715846 0.842145
0.00721752 0.263783 0.839506
0.00721752 0.263783 0.839506
0.00721752 0.263783 0.839506
0.00721752 0.263798 0.839506
0.00721752 0.263798 0.839506
0.00720226 0.263828 0.839506
0.824353 0.045243 0.824948
0.961654 0.293217 0.849638
0.966964 0.716533 0.842084
0.00717174 0.262776 0.839506
0.00717174 0.262776 0.839506
0.00717174 0.262776 0.839506
0.00717174 0.262806 0.839506
0.00717174 0.262806 0.839506
0.00717174 0.262837 0.839506
0.918029 0 0.815808
0.963195 0.321233 0.85034
0.966903 0.717815 0.841978
0.0522164 0.919966 0.842451
0.0522164 0.919966 0.842451
0.0522164 0.919966 0.842451
0.0522164 0.919966 0.842451
0.0522164 0.919966 0.842451
0.0522164 0.919966 0.842451
0.91487 0.902464 0.832486
0.962966 0.901106 0.83299
0.96347 0.903365 0.832883
0.902312 0.909377 0.831693
0.902815 0.909377 0.831708
0.903609 0.909377 0.831708
0.905928 0.909407 0.831724
0.912062 0.909468 0.831785
0.925261 0.909621 0.831922
0.944137 0.909834 0.832135
0.959182 0.910002 0.832273
0.963577 0.910521 0.832776
