BBLuts/BB_102_0410_LUT.cube
TITLE "Generated by Resolve"
LUT_3D_SIZE 33
0 0 0
0 0 0
0 0 0
0 0 0
0.0286564 0 0
0.0784466 0 0
0.116396 0 0
0.154971 0 0
0.200992 0 0
0.256275 0 0
0.319615 0 0
0.390539 0 0
0.47248 0 0
0.560876 0 0
0.648142 0 0
0.736049 0 0
0.820035 0 0
0.896254 0 0
0.960845 0 0
1 0 0
1 0 0
1 0.0510109 0
1 0.328313 0
1 0.509148 0.0122225
0.995666 0.645762 0.0577401
0.986954 0.7561 0.104646
0.979019 0.84863 0.164187
0.973205 0.917601 0.246876
0.968444 0.967147 0.35465
0.964309 1 0.463478
0.960647 1 0.560494
0.957427 1 0.652201
0.954971 1 0.730388
0 0 0
0 0 0
0 0 0
0 0 0
0.0344244 0 0
0.0798962 0 0
0.118273 0 0
0.158694 0 0
0.205081 0 0
0.259602 0 0
0.321584 0 0
0.392218 0 0
0.474403 0 0
0.56257 0 0
0.649287 0 0
0.736614 0 0
0.82031 0 0
0.89633 0 0
0.960616 0 0
1 0 0
1 0 0
1 0.104448 0
1 0.354925 0
1 0.521752 0.00474556
0.995026 0.652216 0.0551003
0.986542 0.75996 0.103273
0.978836 0.850706 0.163684
0.973129 0.918608 0.246754
0.968414 0.967666 0.35436
0.964294 1 0.46331
0.960632 1 0.560418
0.957412 1 0.65214
0.954971 1 0.730373
0 0 0
0 0 0
0 0 0
0 0 0
0.0374304 0 0
0.0771496 0 0
0.116152 0 0
0.158328 0 0
0.206409 0 0
0.261646 0 0
0.323674 0 0
0.394232 0 0
0.476417 0 0
0.564218 0 0
0.650477 0 0
0.737423 0 0
0.820737 0 0
0.896406 0 0
0.960388 0 0
1 0 0
1 0 0
1 0.169116 0
1 0.376959 0
1 0.532464 0
0.994446 0.657954 0.052781
0.986175 0.763485 0.102022
0.978653 0.852628 0.16321
0.973037 0.91957 0.246601
0.968383 0.968185 0.35407
0.964279 1 0.463142
0.960616 1 0.560311
0.957412 1 0.652094
0.954971 1 0.730358
0 0.0156405 0
0 0.0180514 0
0 0.0205081 0
0 0.0218509 0
0.0214084 0.0202487 0
0.0667735 0.0179904 0
0.108339 0.0135653 0
0.153429 0.00355535 0
0.205478 0 0
0.263035 0 0
0.325978 0 0
0.396567 0 0
0.478599 0 0
0.565942 0 0
0.651759 0 0
0.738323 0 0
0.82118 0 0
0.896483 0 0
0.960113 0 0
1 0 0
1 0.010544 0
1 0.212619 0
1 0.39646 0
1 0.543191 0
0.993835 0.663737 0.0500191
0.985809 0.766918 0.10071
0.978485 0.854444 0.162783
0.972961 0.920516 0.246464
0.968338 0.968688 0.35378
0.964263 1 0.462989
0.960616 1 0.560235
0.957412 1 0.652049
0.954971 1 0.730327
0 0.0522774 0
0 0.0547799 0
0 0.0569009 0
0 0.0579232 0
0.00459297 0.0574197 0
0.053666 0.0558938 0
0.0992905 0.0530404 0
0.146731 0.047013 0
0.200336 0.0345159 0
0.26006 0.0186313 0
0.326116 0 0
0.398596 0 0
0.481132 0 0
0.56817 0 0
0.653162 0 0
0.739071 0 0
0.821454 0 0
0.896437 0 0
0.959823 0 0
1 0 0
1 0.0378424 0
1 0.246571 0
1 0.413321 0
0.999466 0.552865 0
0.99324 0.669337 0.0472114
0.985428 0.770504 0.0992447
0.978317 0.856413 0.162295
0.9729 0.921416 0.246342
0.968307 0.969162 0.353521
0.964248 1 0.462837
0.960601 1 0.560159
0.957412 1 0.651987
0.954955 1 0.730297
0 0.0863508 0
0 0.0885176 0
0 0.0899519 0
0 0.0907301 0
0 0.0911879 0
0.0280613 0.0899519 0
0.0857404 0.0885023 0
0.138003 0.0856641 0
0.194049 0.0800336 0
0.255726 0.0694743 0
0.323079 0.0490578 0
0.397513 0.0241855 0
0.482506 0 0
0.57026 0 0
0.654978 0 0
0.740337 0 0
0.821942 0 0
0.896391 0 0
0.959289 0 0
1 0 0
1 0.0882429 0
1 0.27985 0
1 0.431327 0
0.998703 0.563378 0
0.992599 0.675303 0.0442054
0.985 0.774533 0.0975662
0.978103 0.858686 0.161746
0.972793 0.922591 0.246204
0.968277 0.969726 0.353216
0.964233 1 0.462654
0.960586 1 0.560052
0.957397 1 0.651926
0.954955 1 0.730266
0 0.124773 0
0 0.126375 0
0 0.127504 0
0 0.128145 0
0 0.128649 0
0 0.128481 0
0.0613565 0.127443 0
0.123247 0.125887 0
0.1841 0.122515 0
0.248875 0.115648 0
0.319234 0.104677 0
0.396185 0.0878004 0
0.482094 0.0595254 0
0.570474 0.0222171 0
0.655787 0 0
0.741161 0 0
0.822675 0 0
0.896742 0 0
0.958862 0 0
1 0.0238193 0
1 0.159655 0
1 0.318318 0
1 0.45391 0
0.997665 0.576974 0
0.991684 0.683268 0.0390478
0.984466 0.779644 0.0954452
0.977829 0.861692 0.161028
0.972671 0.924193 0.246021
0.968215 0.970611 0.352758
0.964202 1 0.462409
0.960586 1 0.559915
0.957397 1 0.65185
0.954955 1 0.73022
0 0.169894 0
0 0.170993 0
0 0.171847 0
0 0.172412 0
0 0.172961 0
0 0.173388 0
0.0209201 0.172854 0
0.095552 0.171908 0
0.165866 0.169512 0
0.236393 0.164614 0
0.311986 0.156817 0
0.393774 0.145647 0
0.48249 0.129778 0
0.571221 0.105226 0
0.655787 0.0721752 0
0.741024 0.0395209 0
0.822629 0 0
0.89633 0 0
0.958556 0.0126497 0
1 0.112734 0
1 0.236545 0
1 0.362325 0
1 0.482536 0
0.996231 0.594583 0
0.990387 0.693935 0.0309148
0.983719 0.786664 0.0924239
0.977478 0.865675 0.160082
0.972503 0.926375 0.245777
0.968124 0.971832 0.352102
0.964157 1 0.462043
0.960555 1 0.559731
0.957382 1 0.651743
0.95494 1 0.730159
0 0.222477 0
0 0.223209 0
0 0.223713 0
0 0.224079 0
0 0.224338 0
0 0.224414 0
0 0.224674 0
0.0423743 0.22385 0
0.132387 0.222965 0
0.214817 0.220127 0
0.297932 0.214649 0
0.386633 0.206256 0
0.48098 0.19498 0
0.57203 0.180957 0
0.657359 0.164034 0
0.742321 0.144152 0
0.823529 0.119631 0
0.897124 0.109361 0
0.959686 0.143969 0
1 0.219486 0
1 0.311986 0
1 0.412421 0
1 0.517357 0
0.994354 0.616526 0
0.988602 0.707927 0.019791
0.982712 0.796139 0.0882124
0.976989 0.871107 0.158785
0.972274 0.929259 0.245457
0.968002 0.97351 0.351232
0.964096 1 0.461524
0.960525 1 0.559396
0.957366 1 0.651576
0.95494 1 0.730068
0 0.282017 0
0 0.282521 0
0 0.282872 0
0 0.283268 0
0 0.283467 0
0 0.283528 0
0 0.283467 0
0 0.283787 0
0.0651865 0.283925 0
0.175357 0.283787 0
0.273228 0.280705 0
0.371221 0.274891 0
0.474006 0.266865 0
0.570153 0.257496 0
0.657923 0.247791 0
0.74316 0.239689 0
0.82385 0.235904 0
0.896773 0.242588 0
0.957504 0.269001 0
0.997543 0.319051 0
1 0.387854 0
1 0.469078 0
0.998291 0.557504 0
0.99205 0.641825 0
0.986221 0.725521 0.00613413
0.981445 0.808408 0.0830396
0.976364 0.87837 0.157076
0.971969 0.933196 0.24509
0.967865 0.975738 0.350088
0.964019 1 0.460792
0.960479 1 0.558938
0.957336 1 0.651286
0.954925 1 0.729946
0 0.352758 0
0 0.353155 0
0 0.353521 0
0 0.353902 0
0 0.354284 0
0 0.354498 0
0 0.354559 0
0 0.354467 0
0 0.355856 0
0.107195 0.357748 0
0.229007 0.357946 0
0.343145 0.354955 0
0.45745 0.34992 0
0.561883 0.34403 0
0.653925 0.338293 0
0.740841 0.33521 0
0.820966 0.337331 0
0.891997 0.348119 0
0.950286 0.372381 0
0.989487 0.411978 0
1 0.465888 0
1 0.531746 0
0.995026 0.602899 0
0.989242 0.673411 0
0.983658 0.748241 0
0.979904 0.823621 0.0771496
0.975555 0.887678 0.154971
0.971557 0.93846 0.24477
0.967651 0.978759 0.34931
0.963912 1 0.459861
0.960418 1 0.558312
0.957305 1 0.650874
0.95491 1 0.729747
0 0.43772 0
0 0.438071 0
0 0.438437 0
0 0.438712 0
0 0.439078 0
0 0.439338 0
0 0.439658 0
0 0.439796 0
0 0.440543 0
0.0167544 0.443244 0
0.15259 0.447196 0
0.293767 0.447761 0
0.426505 0.445274 0
0.543481 0.441901 0
0.64181 0.438361 0
0.732631 0.437217 0
0.813565 0.440772 0
0.883101 0.451575 0
0.939529 0.472572 0
0.979706 0.504875 0
0.997147 0.546258 0
0.99556 0.595773 0
0.991196 0.650538 0
0.985916 0.710674 0
0.980896 0.776089 0
0.978073 0.84213 0.069398
0.974609 0.899092 0.152453
0.971038 0.945205 0.244678
0.967346 0.982788 0.349416
0.96376 1 0.458656
0.960342 1 0.557473
0.957259 1 0.650309
0.954879 1 0.729427
0 0.536583 0
0 0.536873 0
0 0.537163 0
0 0.537408 0
0 0.537636 0
0 0.53785 0
0 0.538186 0
0 0.53843 0
0 0.538689 0
0 0.540276 0
0.0479591 0.544305 0
0.213153 0.548486 0
0.376211 0.547951 0
0.512245 0.545724 0
0.620325 0.542931 0
0.717494 0.542016 0
0.802258 0.545144 0
0.872572 0.553994 0
0.928038 0.570001 0
0.969543 0.593622 0
0.990845 0.623987 0
0.990097 0.659403 0
0.986603 0.703166 0
0.982025 0.753368 0
0.977844 0.808148 0
0.975982 0.863859 0.0594186
0.97348 0.912886 0.149462
0.970382 0.954009 0.244816
0.966964 0.987961 0.350103
0.963577 1 0.45716
0.960235 1 0.556359
0.957198 1 0.649592
0.954833 1 0.729015
0 0.633585 0
0 0.633753 0
0 0.633936 0
0 0.634089 0
0 0.634226 0
0 0.634363 0
0 0.634501 0
0 0.634638 0
0 0.634791 0
0 0.634867 0
0 0.636683 0
0.0930648 0.640635 0
0.29659 0.642451 0
0.466667 0.641062 0
0.590021 0.6392 0
0.695796 0.6383 0
0.786542 0.640345 0
0.859358 0.646525 0
0.914733 0.65774 0
0.956603 0.674647 0
0.981323 0.697139 0
0.983978 0.725338 0
0.98143 0.75996 0
0.977813 0.799756 0
0.974701 0.843046 0
0.973709 0.887953 0.046952
0.972229 0.928878 0.146517
0.969619 0.964279 0.245319
0.966491 0.994369 0.351293
0.963302 1 0.456321
0.960082 1 0.554894
0.957107 1 0.648585
0.954787 1 0.72845
0 0.725155 0
0 0.7252 0
0 0.725307 0
0 0.725399 0
0 0.725475 0
0 0.725536 0
0 0.725597 0
0 0.725628 0
0 0.725567 0
0 0.72549 0
0 0.725124 0
0 0.72813 0
0.180743 0.732082 0
0.399252 0.731884 0
0.551156 0.730343 0
0.666789 0.728908 0
0.764462 0.729747 0
0.841108 0.733974 0
0.897932 0.742061 0
0.940078 0.754437 0
0.967941 0.771267 0
0.977157 0.792355 0
0.975906 0.817823 0
0.973816 0.846952 0
0.971679 0.878996 0
0.971298 0.913451 0.0307927
0.970901 0.94667 0.144167
0.968734 0.976379 0.246815
0.965911 1 0.353353
0.962951 1 0.457282
0.959884 1 0.553582
0.956985 1 0.647242
0.954711 1 0.727672
0 0.815518 0
0 0.815518 0
0 0.815534 0
0 0.815564 0
0 0.815579 0
0 0.815579 0
0 0.815564 0
0 0.815473 0
0 0.815305 0
0 0.814984 0
0 0.814389 0
0 0.814786 0
0.0664073 0.818647 0
0.310491 0.820737 0
0.504326 0.81886 0
0.632563 0.816419 0
0.737606 0.815579 0
0.818616 0.817456 0
0.877989 0.822232 0
0.921614 0.829999 0
0.952987 0.841001 0
0.969497 0.855192 0
0.971344 0.87219 0
0.970367 0.891936 0
0.968933 0.914137 0
0.968887 0.939269 0.0137026
0.969497 0.966339 0.14342
0.967758 0.98996 0.250034
0.965225 1 0.356817
0.962478 1 0.45977
0.959609 1 0.553109
0.956832 1 0.64567
0.954604 1 0.726589
0 0.897459 0
0 0.897459 0
0 0.897444 0
0 0.897444 0
0 0.897414 0
0 0.897353 0
0 0.897246 0
0 0.897047 0
0 0.896727 0
0 0.896223 0
0 0.89543 0
0 0.89424 0
0 0.89688 0
0.220066 0.899733 0
0.451118 0.897108 0
0.599084 0.893156 0
0.710857 0.890257 0
0.795209 0.889754 0
0.857633 0.891493 0
0.903471 0.895262 0
0.937591 0.901213 0
0.959655 0.909468 0
0.96733 0.919905 0
0.967254 0.932555 0
0.966674 0.947738 0
0.96701 0.965759 0.0106508
0.968139 0.986389 0.146883
0.966705 1 0.255726
0.964446 1 0.362249
0.961913 1 0.4636
0.959243 1 0.554467
0.956634 1 0.644053
0.954482 1 0.725185
0 0.963455 0
0 0.963455 0
0 0.963455 0
0 0.963455 0
0 0.963439 0
0 0.963378 0
0 0.963226 0
0 0.962936 0
0 0.962463 0
0 0.961776 0
0 0.960784 0
0 0.959411 0
0 0.960159 0
0.15198 0.962386 0
0.405264 0.959335 0
0.573632 0.953933 0
0.689632 0.94931 0
0.775769 0.947036 0
0.839582 0.9467 0
0.88716 0.947799 0
0.92285 0.950423 0
0.948486 0.954711 0
0.962829 0.960662 0
0.964843 0.968399 0
0.96495 0.978286 0
0.966064 0.991684 0.0312505
0.966827 1 0.15729
0.965606 1 0.264729
0.963561 1 0.370123
0.961257 1 0.469261
0.95877 1 0.558145
0.956359 1 0.644373
0.95433 1 0.723522
0 1 0
0 1 0
0 1 0
0 1 0
0 1 0
0 1 0
0 1 0
0 1 0
0 1 0
0 1 0
0 1 0
0 1 0
0 1 0
0.124086 1 0
0.383902 1 0
0.560372 1 0
0.676173 0.994568 0
0.76141 0.99118 0
0.824857 0.989609 0
0.872892 0.989212 0
0.909575 0.989899 0
0.937392 0.991791 0
0.956252 0.994949 0
0.962493 0.999405 0
0.963561 1 0
0.965286 1 0.0645151
0.965576 1 0.175082
0.964446 1 0.278401
0.9626 1 0.381109
0.960494 1 0.477089
0.95819 1 0.563714
0.955962 1 0.648051
0.954116 1 0.723156
0 1 0
0 1 0
0 1 0
0 1 0
0 1 0
0 1 0
0 1 0
0 1 0
0 1 0
0 1 0
0 1 0
0 1 0
0 1 0
0.129458 1 0
0.399924 1 0
0.56141 1 0
0.671412 1 0
0.752743 1 0
0.814176 1 0
0.861341 1 0
0.898054 1 0
0.926665 1 0
0.948241 1 0
0.959945 1 0
0.962142 1 0.00164797
0.964385 1 0.0983139
0.96434 1 0.199847
0.963226 1 0.2981
0.961547 1 0.396017
0.95964 1 0.487587
0.957549 1 0.571237
0.955505 1 0.653468
0.953811 1 0.725719
0 1 0
0 1 0
0 1 0
0 1 0
0 1 0
0 1 0
0 1 0
0 1 0
0 1 0
0 1 0
0 1 0
0 1 0
0 1 0
0.17557 1 0
0.442939 1 0
0.577218 1 0
0.675883 1 0
0.750317 1 0
0.808042 1 0
0.853193 1 0
0.888914 1 0
0.917479 1 0
0.940536 1 0
0.956176 1 0
0.961593 1 0.0314031
0.963424 1 0.139971
0.963043 1 0.233127
0.961944 1 0.32401
0.960433 1 0.415702
0.958724 1 0.501381
0.956817 1 0.581216
0.954971 1 0.660609
0.953445 1 0.729946
0 1 0
0 1 0
0 1 0
0 1 0
0 1 0
0 1 0
0 1 0
0 1 0
0 1 0
0 1 0
0 1 0
0 1 0
0.0522469 1 0
0.305669 1 0
0.496834 1 0
0.603891 1 0
0.688106 1 0
0.753521 1 0
0.805997 1 0
0.848096 1 0
0.882094 1 0
0.909926 1 0
0.933074 1 0
0.951476 1 0.0221256
0.960967 1 0.107012
0.961975 1 0.193393
0.961685 1 0.275196
0.960601 1 0.35761
0.959274 1 0.440452
0.957717 1 0.518334
0.956024 1 0.594263
0.954376 1 0.66981
0.953033 1 0.735637
0.0125429 1 0
0.0125429 1 0
0.0125429 1 0
0.0125429 1 0
0.0125429 1 0
0.0125429 1 0
0.0125429 1 0
0.0125429 1 0
0.0125429 1 0
0.0125429 1 0
0.0125277 1 0
0.01355 1 0
0.197208 1 0
0.434119 1 0
0.550896 1 0
0.637201 1 0
0.706188 1 0
0.761761 1 0
0.808164 1 0
0.846448 1 0
0.87837 1 0
0.90544 1 0.00636301
0.928435 1 0.0307469
0.947295 1 0.100267
0.959014 1 0.177478
0.960601 1 0.250813
0.96025 1 0.324025
0.959228 1 0.398657
0.958038 1 0.470924
0.956649 1 0.540307
0.955154 1 0.611383
0.953735 1 0.681468
0.95259 1 0.74287
0.348608 1 0.026276
0.348608 1 0.026276
0.348608 1 0.026276
0.348608 1 0.026276
0.348608 1 0.026276
0.348592 1 0.026276
0.348592 1 0.026276
0.348592 1 0.026276
0.348577 1 0.026276
0.348562 1 0.026276
0.348547 1 0.026276
0.348516 1 0.026276
0.415061 1 0.0243534
0.519097 1 0.0212863
0.605798 1 0.0189212
0.674083 1 0.0178225
0.729229 1 0.0178073
0.775357 1 0.0186618
0.815396 1 0.0202792
0.849424 1 0.0331731
0.878645 1 0.0687724
0.903777 1 0.109178
0.925032 1 0.147723
0.94255 1 0.194644
0.955184 1 0.250874
0.958846 1 0.312871
0.95877 1 0.378103
0.957839 1 0.442954
0.956756 1 0.506249
0.95555 1 0.567605
0.954253 1 0.632654
0.953063 1 0.696193
0.952132 1 0.751827
0.571603 1 0.17322
0.571603 1 0.17322
0.571603 1 0.17322
0.571603 1 0.17322
0.571603 1 0.17322
0.571588 1 0.17322
0.571588 1 0.17322
0.571588 1 0.17322
0.571588 1 0.17322
0.571588 1 0.17322
0.571572 1 0.17322
0.571557 1 0.17322
0.571557 1 0.17322
0.599664 1 0.173251
0.655604 1 0.174228
0.709575 1 0.177081
0.753902 1 0.181674
0.791791 1 0.188144
0.825376 1 0.196872
0.8542 1 0.208057
0.879545 1 0.222232
0.901976 1 0.240085
0.92134 1 0.262272
0.937697 1 0.290639
0.950515 1 0.330129
0.956802 1 0.380331
0.95729 1 0.434669
0.956436 1 0.490364
0.955459 1 0.544167
0.954406 1 0.600229
0.953338 1 0.65832
0.952392 1 0.713802
0.951644 1 0.763073
0.686961 1 0.308888
0.686961 1 0.308888
0.686961 1 0.308888
0.686961 1 0.308888
0.686961 1 0.308888
0.686961 1 0.308888
0.686961 1 0.308888
0.686961 1 0.308888
0.686946 1 0.308888
0.686946 1 0.308888
0.686946 1 0.308888
0.686946 1 0.308888
0.686931 1 0.308904
0.686931 1 0.308904
0.703471 1 0.309468
0.739254 1 0.311803
0.775784 1 0.315251
0.80737 1 0.319875
0.834592 1 0.325902
0.858824 1 0.333745
0.880873 1 0.343694
0.900816 1 0.356252
0.918379 1 0.372274
0.933547 1 0.39205
0.946303 1 0.416693
0.954543 1 0.450706
0.955459 1 0.493141
0.955062 1 0.537697
0.954192 1 0.586374
0.953292 1 0.636912
0.952453 1 0.687175
0.951751 1 0.734157
0.951171 1 0.776196
0.75935 1 0.431373
0.75935 1 0.431373
0.75935 1 0.431373
0.75935 1 0.431373
0.75935 1 0.431373
0.75935 1 0.431373
0.75935 1 0.431373
0.75935 1 0.431373
0.75935 1 0.431373
0.75935 1 0.431373
0.75935 1 0.431373
0.75935 1 0.431373
0.75935 1 0.431373
0.759335 1 0.431373
0.759335 1 0.431373
0.770336 1 0.432151
0.795285 1 0.43447
0.821561 1 0.437934
0.843976 1 0.442191
0.864576 1 0.447852
0.883543 1 0.454627
0.900908 1 0.463127
0.916503 1 0.473762
0.930358 1 0.487098
0.942382 1 0.503426
0.951293 1 0.523003
0.953719 1 0.55201
0.953689 1 0.589166
0.952987 1 0.631418
0.95227 1 0.675319
0.951659 1 0.717494
0.951141 1 0.756344
0.950729 1 0.79118
0.809323 1 0.535225
0.809323 1 0.535225
0.809323 1 0.535225
0.809323 1 0.535225
0.809323 1 0.535225
0.809323 1 0.535225
0.809323 1 0.535225
0.809323 1 0.535225
0.809323 1 0.535225
