BBLuts/BB_102_0260_LUT.cube
TITLE "Generated by Resolve"
LUT_3D_SIZE 9
0 0 0
0 0 0
0.231205 0 0
0.524147 0 0
0.882872 0 0
1 0 0
1 0.601053 0.0733959
1 0.912154 0.415076
1 1 0.72311
0 0.0387732 0
0 0.0502632 0
0.236378 0.020798 0
0.529732 0 0
0.88307 0 0
1 0.0193027 0
1 0.621302 0.0539101
1 0.912917 0.410513
1 1 0.723018
0 0.243137 0
0 0.246464 0
0.184146 0.242069 0
0.537804 0.218601 0
0.882307 0.122484 0
1 0.297078 0
1 0.653498 0.0128328
1 0.916442 0.407553
1 1 0.722835
0 0.535409 0
0 0.535668 0
0 0.536217 0
0.485466 0.530388 0
0.893019 0.523064 0
1 0.570199 0
1 0.743954 0
1 0.930373 0.405509
1 1 0.721996
0.0191653 0.853483 0
0.019089 0.852674 0
0.0190433 0.852033 0
0.0676738 0.847761 0
0.830579 0.83151 0
1 0.836332 0
1 0.887098 0
1 0.965698 0.414115
1 1 0.718807
0.0350805 1 0
0.03505 1 0
0.0350195 1 0
0.0476844 1 0
0.801511 1 0
1 0.99913 0
1 1 0
1 1 0.456703
1 1 0.721645
0.7131 1 0.204929
0.710994 1 0.202487
0.709926 1 0.201266
0.709377 1 0.200656
0.901747 1 0.215091
1 1 0.260166
1 1 0.374685
1 1 0.559625
1 1 0.750973
1 1 0.634913
1 1 0.633753
1 1 0.633173
1 1 0.632883
1 1 0.632593
1 1 0.639735
1 1 0.660288
1 1 0.713634
1 1 0.809354
1 1 0.841718
1 1 0.841718
1 1 0.841718
1 1 0.841718
1 1 0.841718
1 1 0.841718
1 1 0.844541
1 1 0.852323
1 1 0.871504
0 0 0.0309148
0 0 0.0315862
0.228046 0 0.0365148
0.52311 0 0.0434882
0.881209 0 0.0530098
1 0 0.0674907
1 0.597971 0.110506
1 0.911955 0.41471
1 1 0.723125
0 0.000228885 0.0209201
0.00866712 0.0146487 0.0192264
0.240742 0 0.0250095
0.524025 0 0.0284581
0.879759 0 0.00857557
1 0.00999466 0.0169223
1 0.618631 0.0870069
1 0.912902 0.410529
1 1 0.723018
0 0.229175 0
0 0.232136 0
0.201266 0.228244 0
0.534234 0.205051 0
0.877928 0.0897078 0
1 0.280461 0
1 0.651164 0.0457618
1 0.916274 0.407156
1 1 0.72285
0 0.530755 0
0 0.530968 0
0 0.531426 0
0.494972 0.525322 0
0.891661 0.51873 0
1 0.566842 0
1 0.742351 0
1 0.93022 0.405112
1 1 0.722011
0.0189975 0.85153 0
0.0189212 0.850721 0
0.0188754 0.850111 0
0.0687724 0.845792 0
0.832898 0.829877 0
1 0.834974 0
1 0.886564 0
1 0.965576 0.413718
1 1 0.718822
0.0350195 1 0
0.0350042 1 0
0.0349889 1 0
0.0459754 1 0
0.803265 1 0
1 0.998886 0
1 0.999969 0
1 1 0.45623
1 1 0.72163
0.716213 1 0.204044
0.714137 1 0.201617
0.713085 1 0.200397
0.712551 1 0.199786
0.90219 1 0.213626
1 1 0.259312
1 1 0.374121
1 1 0.559197
1 1 0.750927
1 1 0.634607
1 1 0.633448
1 1 0.632868
1 1 0.632273
1 1 0.632273
1 1 0.639155
1 1 0.659953
1 1 0.713375
1 1 0.809216
1 1 0.841718
1 1 0.841718
1 1 0.841718
1 1 0.841718
1 1 0.841718
1 1 0.841718
1 1 0.844526
1 1 0.852293
1 1 0.871504
0 0 0.202533
0 0 0.202823
0.189609 0 0.204334
0.532525 0 0.20763
0.882078 0 0.22179
1 0 0.251804
1 0.586664 0.273457
1 0.911025 0.450019
1 1 0.723125
0 0 0.199451
0 0 0.199222
0.216098 0 0.200916
0.530205 0 0.202869
0.880293 0 0.215579
1 0 0.237766
1 0.607797 0.263066
1 0.911833 0.445563
1 1 0.723018
0 0.190509 0.183383
0 0.193286 0.183047
0.176852 0.185657 0.176837
0.519219 0.163943 0.179736
0.874128 0.0267491 0.194995
1 0.218067 0.204486
1 0.640955 0.249561
1 0.915389 0.442557
1 1 0.72285
0 0.516442 0.0929732
0 0.516609 0.0935378
0 0.517052 0.0948348
0.490074 0.510643 0.0898604
0.883696 0.504402 0.0927901
1 0.555077 0.112917
1 0.734981 0.20293
1 0.929381 0.434714
1 1 0.722011
0.0186923 0.848142 0
0.018616 0.847333 0
0.0185397 0.846418 0
0.0691386 0.842359 0
0.834745 0.826368 0
1 0.832059 0
1 0.883711 0.0273136
1 0.965209 0.419959
1 1 0.718822
0.0349737 1 0
0.0349432 1 0
0.0349432 1 0
0.0478065 1 0
0.806821 1 0
1 0.998474 0
1 0.99968 0
1 1 0.455711
1 1 0.721614
0.720821 1 0.202914
0.718761 1 0.200473
0.717739 1 0.199268
0.717296 1 0.198764
0.903655 1 0.21326
1 1 0.258503
1 1 0.373358
1 1 0.558831
1 1 0.750881
1 1 0.634272
1 1 0.633112
1 1 0.632532
1 1 0.632242
1 1 0.631952
1 1 0.638804
1 1 0.659663
1 1 0.7131
1 1 0.809155
1 1 0.841718
1 1 0.841718
1 1 0.841718
1 1 0.841718
1 1 0.841718
1 1 0.841718
1 1 0.844511
1 1 0.852293
1 1 0.871504
0 0 0.472114
0 0 0.472221
0 0 0.47277
0.497353 0 0.476463
0.90605 0 0.486305
1 0 0.50515
1 0.549538 0.513024
1 0.905196 0.58674
1 1 0.740795
0 0 0.470069
0 0 0.469902
0.0128481 0 0.469581
0.509483 0 0.473075
0.901793 0 0.48249
1 0 0.500511
1 0.572732 0.507805
1 0.906126 0.583566
1 1 0.73991
0 0.0323339 0.46392
0 0.0348058 0.463371
0.0191348 0.0337682 0.462348
0.513893 0 0.466941
0.894362 0 0.478126
1 0.0269322 0.489662
1 0.609476 0.502266
1 0.909911 0.581567
1 1 0.739422
0 0.465934 0.439796
0 0.465843 0.438987
0 0.467536 0.439353
0.46247 0.460578 0.435294
0.864149 0.452689 0.439017
1 0.515785 0.451987
1 0.713771 0.486473
1 0.924666 0.577386
1 1 0.73846
0.0176547 0.832197 0.360388
0.0175479 0.831144 0.358999
0.0175326 0.8309 0.359594
0.0564431 0.827314 0.361227
0.823957 0.810925 0.359838
1 0.818708 0.386236
1 0.87538 0.447257
1 0.962341 0.565866
1 1 0.735622
0.0339055 1 0.11841
0.033875 1 0.11487
0.0338598 1 0.114107
0.0430152 1 0.115236
0.799786 1 0.107469
1 0.994873 0.213306
1 0.996551 0.366323
1 1 0.537331
1 1 0.728115
0.736492 1 0.201144
0.734508 1 0.198703
0.733501 1 0.197482
0.732998 1 0.196872
0.907744 1 0.211383
1 1 0.257542
1 1 0.373556
1 1 0.558297
1 1 0.750729
1 1 0.63415
1 1 0.632975
1 1 0.632105
1 1 0.631815
1 1 0.631525
1 1 0.638666
1 1 0.659266
1 1 0.712734
1 1 0.80911
1 1 0.841703
1 1 0.841703
1 1 0.841703
1 1 0.841703
1 1 0.841703
1 1 0.841703
1 1 0.844495
1 1 0.852277
1 1 0.871504
0 0 0.756741
0 0 0.756741
0 0 0.757122
0.148241 0 0.756634
0.87187 0 0.760876
1 0 0.768261
1 0.31284 0.759945
1 0.886534 0.766522
1 1 0.820523
0 0 0.755901
0 0 0.755642
0 0 0.755718
0.156954 0 0.754467
0.873732 0 0.75877
1 0 0.765957
1 0.393454 0.754528
1 0.887831 0.76437
1 1 0.819791
0 0 0.755123
0 0 0.754376
0 0 0.754437
0.245365 0 0.753368
0.879591 0 0.757061
1 0 0.764126
1 0.480629 0.74963
1 0.892409 0.76318
1 1 0.819394
0 0.208164 0.743999
0 0.207538 0.743267
0 0.211521 0.743023
0.23447 0.198703 0.739376
0.873381 0.11165 0.742473
1 0.21387 0.742489
1 0.634348 0.739223
1 0.910201 0.76051
1 1 0.818845
0.0169528 0.781018 0.71223
0.0168612 0.780163 0.711528
0.0168307 0.779706 0.711086
0.0233768 0.778698 0.71104
0.789914 0.762448 0.703471
1 0.776562 0.706523
1 0.850278 0.719127
1 0.953964 0.753628
1 1 0.817243
0.0366979 1 0.674327
0.0366674 1 0.673579
0.0366522 1 0.673014
0.0365606 1 0.673304
0.746426 1 0.665644
1 0.988571 0.672633
1 0.991394 0.69485
1 1 0.739956
1 1 0.812284
0.710292 1 0.59617
0.7084 1 0.595117
0.707454 1 0.594598
0.706981 1 0.594339
0.888884 1 0.596765
1 1 0.608667
1 1 0.641642
1 1 0.70901
1 1 0.798733
1 1 0.633402
1 1 0.631952
1 1 0.631373
1 1 0.631083
1 1 0.630793
1 1 0.637827
1 1 0.658854
1 1 0.713115
1 1 0.80885
1 1 0.841657
1 1 0.841657
1 1 0.841657
1 1 0.841657
1 1 0.841657
1 1 0.841657
1 1 0.844434
1 1 0.852216
1 1 0.871473
0 0 0.934096
0 0 0.934157
0 0 0.934264
0 0 0.934478
0.626673 0 0.93312
1 0 0.934554
1 0 0.935317
1 0.7906 0.893706
1 1 0.892287
0 0 0.933883
0 0 0.9337
0 0 0.933791
0 0 0.933822
0.625727 0 0.932403
1 0 0.933837
1 0 0.934432
1 0.797009 0.892531
1 1 0.891661
0 0 0.933822
0 0 0.933639
0 0 0.933547
0 0 0.933577
0.637705 0 0.932174
1 0 0.933471
1 0 0.934005
1 0.808408 0.891432
1 1 0.891356
0 0 0.933486
0 0 0.933211
0 0 0.93312
0 0 0.933135
0.706172 0 0.931838
1 0 0.93286
1 0.0367285 0.926055
1 0.845777 0.88867
1 1 0.89102
0 0.51075 0.913405
0 0.510475 0.913161
0 0.510307 0.913008
0 0.513695 0.912871
0.692515 0.501335 0.903716
1 0.523003 0.899489
1 0.709255 0.890303
1 0.920928 0.882826
1 1 0.890074
0.0376745 1 0.882246
0.0376287 1 0.88188
0.0376135 1 0.881712
0.037583 1 0.881605
0.517723 0.98674 0.87303
1 0.969833 0.869307
1 0.976013 0.870268
1 1 0.874907
1 1 0.887633
0.529976 1 0.85922
0.528222 1 0.858869
0.528069 1 0.858656
0.526696 1 0.858595
0.795514 1 0.855833
1 1 0.855436
1 1 0.858351
1 1 0.866468
1 1 0.882734
1 1 0.827756
1 1 0.82742
1 1 0.827222
1 1 0.827131
1 1 0.827024
1 1 0.828489
1 1 0.833738
1 1 0.847379
1 1 0.872007
1 1 0.841489
1 1 0.841489
1 1 0.841489
1 1 0.841489
1 1 0.841489
1 1 0.841489
1 1 0.844251
1 1 0.852064
1 1 0.871641
0 0 0.980804
0 0 0.980804
0 0 0.980804
0 0 0.980804
0 0 0.980804
1 0 0.988983
1 0 0.990723
1 0.0145266 0.986709
1 0.98024 0.942184
0 0 0.980804
0 0 0.980804
0 0 0.980804
0 0 0.980804
0 0 0.980804
1 0 0.988998
1 0 0.990723
1 0.00788891 0.987381
1 0.981964 0.941772
0 0 0.980804
0 0 0.980804
0 0 0.980804
0 0 0.980804
0 0 0.980804
1 0 0.988998
1 0 0.990723
1 0.00674449 0.987472
1 0.983505 0.941527
0 0 0.980804
0 0 0.980804
0 0 0.980804
0 0 0.980804
0 0 0.980804
1 0 0.98912
1 0 0.990723
1 0.0114443 0.986877
1 0.9879 0.941131
0 0 0.980804
0 0 0.980804
0 0 0.980804
0 0 0.980804
0 0 0.980804
1 0 0.989761
1 0 0.990723
1 0.461814 0.96408
1 1 0.939971
0.0217136 0.797116 0.962493
0.0217594 0.797528 0.962493
0.0218204 0.798337 0.962478
0.0218509 0.798749 0.962478
0.0222171 0.803372 0.96231
1 0.784146 0.950668
1 0.839841 0.947051
1 0.951537 0.94078
1 1 0.937621
0.0669718 1 0.946075
0.0644999 1 0.945998
0.0632181 1 0.945968
0.0619211 1 0.945922
0.0637064 1 0.945815
0.970916 1 0.93283
1 1 0.932158
1 1 0.932555
1 1 0.934493
0.986877 1 0.927565
0.986084 1 0.927413
0.985794 1 0.927337
0.985733 1 0.92726
0.98558 1 0.92723
1 1 0.926909
1 1 0.926863
1 1 0.928023
1 1 0.931319
1 1 0.916762
1 1 0.916457
1 1 0.916335
1 1 0.916213
1 1 0.916152
1 1 0.916091
1 1 0.916686
1 1 0.918685
1 1 0.923858
0 0.0746777 0.975982
0 0.0746777 0.975982
0 0.0746777 0.975982
0 0.0753033 0.975967
0 0.0759136 0.975952
0 0.0763561 0.975952
1 0 0.990692
1 0.0586709 0.983108
1 0.675013 0.962768
0 0.0734264 0.976013
0 0.0728161 0.976028
0 0.0728161 0.976028
0 0.0731212 0.976028
0 0.0734264 0.976013
0 0.0738689 0.976013
1 0 0.990707
1 0.0450599 0.984085
1 0.674342 0.962783
0 0.0734264 0.976013
0 0.0724956 0.976043
0 0.0724956 0.976043
0 0.0724956 0.976043
0 0.0724956 0.976043
0 0.0729381 0.976028
1 0 0.990707
1 0.038941 0.984573
1 0.674022 0.962783
0 0.0734264 0.976013
0 0.0724956 0.976043
0 0.0721904 0.976043
0 0.0721904 0.976043
0 0.0721904 0.976043
0 0.0723125 0.976043
1 0 0.990707
1 0.0343328 0.984939
1 0.673701 0.962798
0 0.0735637 0.976013
0 0.0726329 0.976043
0 0.0720073 0.976059
0 0.0717021 0.976059
0 0.0717021 0.976059
0 0.0717937 0.976059
1 0 0.990707
1 0.0352331 0.984863
1 0.673243 0.962798
0 0.0720073 0.976059
0 0.0707561 0.976089
0 0.0704356 0.976089
0 0.0701305 0.976104
0 0.06981 0.976104
0 0.0666667 0.975875
1 0 0.990723
1 0.0758068 0.981964
1 0.843427 0.959808
0.037232 0.989044 0.969024
0.0374456 0.991714 0.969024
0.0375525 0.993103 0.969009
0.0376135 0.993805 0.969009
0.0376745 0.994522 0.969009
0.0655222 0.994583 0.968261
1 0.956481 0.958221
1 0.999359 0.95761
1 1 0.957076
0.607904 1 0.95964
0.6094 1 0.95964
0.610071 1 0.95964
0.610407 1 0.95964
0.610773 1 0.959625
0.644297 1 0.959274
1 1 0.955978
1 1 0.955795
1 1 0.955932
1 1 0.954574
1 1 0.954528
1 1 0.954513
1 1 0.954498
1 1 0.954482
1 1 0.954482
1 1 0.954391
1 1 0.954376
1 1 0.954696
0 0.333761 0.972396
0 0.333761 0.972396
0 0.333761 0.972396
0 0.333761 0.972396
0 0.333761 0.972396
0 0.333761 0.972396
0 0.333852 0.972396
1 0.158602 0.977554
1 0.711727 0.962066
0 0.333761 0.972396
0 0.333761 0.972396
0 0.333761 0.972396
0 0.333761 0.972396
0 0.333761 0.972396
0 0.333761 0.972396
0 0.333852 0.972396
1 0.147753 0.978058
1 0.711727 0.962066
0 0.333761 0.972396
0 0.333761 0.972396
0 0.333761 0.972396
0 0.333761 0.972396
0 0.333761 0.972396
0 0.333761 0.972396
0 0.333852 0.972396
1 0.143404 0.978256
1 0.711727 0.962066
0 0.333761 0.972396
0 0.333761 0.972396
0 0.333761 0.972396
0 0.333761 0.972396
0 0.333761 0.972396
0 0.333761 0.972396
0 0.333852 0.972396
1 0.141238 0.978363
1 0.711727 0.962066
0 0.333761 0.972396
0 0.333761 0.972396
0 0.333761 0.972396
0 0.333761 0.972396
0 0.333761 0.972396
0 0.333761 0.972396
0 0.333852 0.972396
1 0.139025 0.978469
1 0.711727 0.962066
0 0.333639 0.972396
0 0.333639 0.972396
0 0.333639 0.972396
0 0.333639 0.972396
0 0.333639 0.972396
0 0.333639 0.972396
0 0.333715 0.972396
1 0.146609 0.978103
1 0.713451 0.96202
0 0.33225 0.972412
0 0.332265 0.972412
0 0.332265 0.972412
0 0.332265 0.972412
0 0.332265 0.972412
0 0.332265 0.972412
0.0362402 0.324529 0.971435
1 0.268635 0.973342
1 0.71632 0.961975
0.045304 1 0.96878
0.045304 1 0.96878
0.045304 1 0.96878
0.045304 1 0.96878
0.045304 1 0.96878
0.045304 1 0.96878
0.134035 1 0.966613
1 1 0.956863
1 1 0.956771
1 1 0.956939
1 1 0.956939
1 1 0.956939
1 1 0.956939
1 1 0.956939
1 1 0.956939
1 1 0.956924
1 1 0.956649
1 1 0.956619
