BBLuts/BB_104_0250_LUT.cube
TITLE "Generated by Resolve"
LUT_3D_SIZE 9
0 0 0
0 0 0
0.147372 0 0
0.377798 0 0.0136263
0.648859 0.224384 0.27071
0.796826 0.509865 0.538979
0.796765 0.538674 0.538888
0.795697 0.674479 0.491966
0.793393 0.750103 0.621759
0 0.0245823 0
0 0.0319982 0
0.153323 0.018616 0
0.38793 0 0.0151064
0.650492 0.228046 0.274052
0.796826 0.509865 0.538979
0.79675 0.546212 0.538079
0.795651 0.677241 0.486259
0.793378 0.750469 0.621302
0 0.145129 0
0 0.148302 0
0.101686 0.148363 0
0.394751 0.140276 0.00460822
0.653147 0.259953 0.278004
0.796826 0.513924 0.53875
0.796689 0.559426 0.536385
0.79556 0.681514 0.47567
0.793332 0.751034 0.620539
0 0.386053 0
0 0.387076 0
0 0.38764 0
0.321904 0.385657 0
0.656794 0.406012 0.265766
0.79675 0.540658 0.536904
0.796521 0.596902 0.527962
0.795316 0.692897 0.433188
0.79321 0.752697 0.618219
0 0.641642 0
0 0.641596 0
0 0.641352 0
0 0.63975 0
0.608667 0.633722 0
0.775143 0.641993 0.441901
0.795743 0.671244 0.462287
0.79498 0.717006 0
0.792859 0.757061 0.611093
0 0.751797 0
0 0.751308 0
0 0.750515 0
0 0.748119 0
0 0.742092 0
0.739635 0.735729 0
0.794003 0.737804 0
0.793362 0.748745 0
0.792035 0.766369 0.596201
0 0.786358 0
0 0.786023 0
0 0.785534 0
0 0.784207 0
0.505241 0.78027 0
0.725475 0.776715 0
0.786191 0.774716 0
0.791165 0.775128 0
0.790936 0.779004 0.614664
0.68751 0.786343 0
0.689219 0.786358 0
0.69189 0.786358 0
0.699336 0.786374 0
0.71696 0.786435 0
0.746975 0.786572 0
0.779324 0.786862 0
0.789731 0.786679 0.482338
0.790677 0.787305 0.668803
0.766506 0.787488 0.69485
0.766644 0.787488 0.694881
0.766873 0.787488 0.694911
0.767559 0.787503 0.695033
0.769512 0.787518 0.695384
0.774411 0.787579 0.696391
0.783703 0.787701 0.699168
0.791608 0.787915 0.705715
0.792203 0.788327 0.721096
0 0 0.0364691
0 0 0.0366674
0.152636 0 0.0403449
0.379034 0.000122072 0.0549477
0.648798 0.226062 0.283421
0.796826 0.510033 0.540185
0.796765 0.537514 0.53994
0.795712 0.673915 0.502327
0.793454 0.750088 0.627573
0 0.0099794 0.0278782
0.0142061 0.0189975 0.0266575
0.167803 0 0.0342412
0.384115 0 0.0466468
0.649516 0.226688 0.278065
0.796826 0.509972 0.539818
0.79675 0.545007 0.539132
0.795666 0.676707 0.497307
0.793439 0.750439 0.627161
0 0.137057 0
0 0.139712 0
0.11957 0.140459 0
0.393072 0.132525 0.00492866
0.651255 0.248219 0.274617
0.796826 0.513573 0.538766
0.796704 0.558206 0.53753
0.795575 0.680995 0.488289
0.793393 0.751019 0.626459
0 0.382086 0
0 0.383093 0
0 0.383505 0
0.335897 0.381186 0
0.656489 0.403174 0.265797
0.796765 0.539986 0.536965
0.796536 0.596109 0.52903
0.795316 0.69247 0.451377
0.793256 0.752667 0.624338
0 0.640848 0
0 0.640787 0
0 0.640543 0
0 0.638911 0
0.611048 0.632944 0
0.775235 0.641489 0.443061
0.795743 0.670954 0.462959
0.79498 0.716884 0
0.792905 0.757046 0.617853
0 0.751614 0
0 0.751141 0
0 0.750347 0
0 0.747951 0
0 0.741955 0
0.739895 0.735637 0
0.794003 0.737743 0
0.793362 0.748699 0
0.792035 0.766354 0.596933
0 0.786282 0
0 0.785962 0
0 0.785473 0
0 0.784146 0
0.513313 0.780224 0
0.725643 0.776684 0
0.786221 0.774685 0
0.79118 0.775113 0
0.790936 0.779004 0.614633
0.68777 0.786343 0
0.689464 0.786358 0
0.692134 0.786358 0
0.699535 0.786374 0
0.717098 0.786435 0
0.747036 0.786572 0
0.779355 0.786862 0
0.789731 0.786679 0.482246
0.790677 0.787305 0.668788
0.766522 0.787488 0.69485
0.766659 0.787488 0.694881
0.766888 0.787488 0.694911
0.76759 0.787503 0.695033
0.769528 0.787518 0.695384
0.774426 0.787579 0.696391
0.783703 0.787701 0.699168
0.791608 0.787915 0.705715
0.792203 0.788327 0.721096
0 0 0.141619
0 0 0.141802
0.147265 0 0.143954
0.390997 0.0104372 0.155062
0.648722 0.230121 0.308873
0.796841 0.510307 0.542062
0.796765 0.535454 0.542733
0.795743 0.672999 0.519722
0.793545 0.750042 0.636118
0 0 0.138216
0 0 0.138521
0.168276 0 0.140948
0.389593 0.0099794 0.151965
0.650278 0.233234 0.310262
0.796841 0.510277 0.541924
0.79675 0.542702 0.541939
0.795697 0.675822 0.515648
0.793515 0.750393 0.635737
0 0.126955 0.118181
0 0.128649 0.1178
0.130282 0.125231 0.117128
0.380926 0.12311 0.133989
0.649363 0.23093 0.306706
0.796826 0.512871 0.541543
0.796719 0.555657 0.540368
0.795605 0.680171 0.508476
0.793469 0.750973 0.635126
0 0.370581 0
0 0.37174 0
0 0.372305 0
0.339849 0.36968 0.0122835
0.653162 0.394278 0.283299
0.796765 0.537881 0.538964
0.796536 0.594095 0.533013
0.795346 0.691783 0.481102
0.793347 0.752636 0.633265
0 0.639231 0
0 0.639155 0
0 0.638895 0
0 0.637247 0
0.613275 0.631357 0
0.775158 0.640314 0.444785
0.795758 0.670176 0.468528
0.79472 0.716167 0.214755
0.792996 0.757031 0.627604
0 0.751354 0
0 0.750866 0
0 0.750088 0
0 0.747692 0
0 0.741741 0
0.740291 0.735485 0
0.794003 0.737636 0
0.793378 0.748638 0
0.792126 0.766339 0.609934
0 0.786191 0
0 0.78587 0
0 0.785382 0
0 0.78407 0
0.524788 0.780148 0
0.725933 0.776669 0
0.786282 0.77467 0
0.79118 0.775113 0
0.790951 0.778988 0.614572
0.688182 0.786343 0
0.689876 0.786358 0
0.692515 0.786358 0
0.69987 0.786374 0
0.717342 0.786435 0
0.747143 0.786572 0
0.779385 0.786862 0
0.789731 0.786679 0.482246
0.790677 0.787305 0.668772
0.766552 0.787488 0.69485
0.76669 0.787488 0.694865
0.766934 0.787488 0.694926
0.767605 0.787503 0.695033
0.769558 0.787518 0.695369
0.774441 0.787579 0.696391
0.783719 0.787701 0.699168
0.791608 0.787915 0.705715
0.792203 0.788327 0.721096
0.0904555 0.0569314 0.35462
0.0905928 0.057023 0.354772
0.0906691 0.0570535 0.354849
0.380331 0.066804 0.355917
0.661295 0.275456 0.40885
0.796857 0.512184 0.55407
0.796826 0.531029 0.560769
0.79588 0.670344 0.570245
0.79382 0.74992 0.656672
0.0884718 0.0556649 0.35259
0.0886549 0.0557717 0.352773
0.158282 0.0565957 0.352911
0.392737 0.0668803 0.35407
0.659968 0.272709 0.406622
0.796857 0.512123 0.553765
0.796796 0.537285 0.559884
0.795819 0.673274 0.568109
0.79379 0.750271 0.656397
0.0772259 0.10573 0.347982
0.0767834 0.10985 0.348089
0.171389 0.107347 0.348241
0.397589 0.0653086 0.350622
0.655894 0.264897 0.401709
0.796857 0.512016 0.553216
0.796765 0.54905 0.558251
0.795727 0.67776 0.564446
0.793744 0.750866 0.65594
0 0.336965 0.316609
0 0.338491 0.316823
0 0.33959 0.317418
0.346777 0.337499 0.32076
0.642405 0.367651 0.376394
0.796796 0.532296 0.550103
0.796613 0.588281 0.551522
0.795468 0.689769 0.552056
0.793606 0.752544 0.654582
0 0.632151 0
0 0.63212 0
0 0.631937 0
0 0.630442 0
0.611521 0.624689 0
0.773556 0.635126 0.471183
0.795819 0.667033 0.503471
0.794705 0.714855 0.496696
0.793256 0.75697 0.650523
0 0.750607 0
0 0.750118 0
0 0.74931 0
0 0.746914 0
0 0.740978 0
0.739879 0.734768 0
0.794049 0.737041 0
0.793454 0.748226 0
0.792386 0.766354 0.638636
0 0.785885 0
0 0.785595 0
0 0.785107 0
0 0.783841 0
0.551141 0.779965 0
0.726802 0.776577 0
0.786435 0.774609 0
0.79118 0.775067 0
0.790951 0.778973 0.614374
0.689433 0.786358 0
0.691096 0.786358 0
0.69369 0.786358 0
0.700877 0.786374 0
0.718044 0.786435 0
0.747463 0.786572 0
0.779461 0.786862 0
0.789731 0.786679 0.482048
0.790677 0.787305 0.668711
0.766659 0.787488 0.69485
0.766812 0.787488 0.694865
0.767025 0.787488 0.694896
0.767712 0.787503 0.695018
0.76965 0.787518 0.695369
0.774517 0.787579 0.696376
0.783749 0.787701 0.699153
0.791608 0.787915 0.705699
0.792203 0.788327 0.721096
0.471214 0.42182 0.622629
0.471305 0.421912 0.62269
0.471458 0.422065 0.622766
0.48249 0.421134 0.622156
0.657053 0.438117 0.621592
0.797238 0.541527 0.637812
0.797314 0.548104 0.645502
0.796658 0.663706 0.658701
0.794644 0.749599 0.694377
0.470436 0.421042 0.622202
0.470527 0.421134 0.622263
0.470695 0.421302 0.622354
0.484047 0.420203 0.621622
0.66041 0.438666 0.621256
0.797238 0.541344 0.637461
0.797299 0.54992 0.644724
0.796597 0.666957 0.65803
0.794614 0.749966 0.694209
0.469169 0.41976 0.621515
0.469276 0.419867 0.621576
0.469444 0.42005 0.621668
0.486809 0.418738 0.620768
0.66244 0.438331 0.620584
0.797238 0.541009 0.636866
0.797269 0.554314 0.643427
0.796506 0.67187 0.656962
0.794568 0.750576 0.69395
0.46038 0.426505 0.617441
0.460395 0.42678 0.617456
0.460349 0.4271 0.617456
0.480964 0.425635 0.616815
0.661418 0.43949 0.61735
0.797192 0.542596 0.633646
0.797131 0.578958 0.639307
0.796216 0.684825 0.653758
0.79443 0.752316 0.693156
0 0.61059 0.593606
0 0.610788 0.593668
0 0.610834 0.593759
0 0.609918 0.594095
0.610101 0.604837 0.595361
0.768582 0.62034 0.611444
0.796353 0.658061 0.624613
0.795392 0.712016 0.644495
0.794064 0.756863 0.690867
0 0.748348 0
0 0.747875 0
0 0.747097 0
0 0.744686 0
0 0.738552 0
0.733471 0.731685 0.457679
0.794003 0.7346 0.575494
0.793591 0.746761 0.619883
0.793164 0.76643 0.684703
0 0.785367 0
0 0.785061 0
0 0.784588 0
0 0.783322 0
0.515145 0.779477 0
0.722606 0.776043 0
0.783017 0.77409 0
0.791104 0.774365 0.508202
0.791623 0.779156 0.669367
0.693126 0.786358 0
0.694667 0.786358 0
0.697093 0.786374 0
0.703868 0.786389 0
0.720134 0.786435 0
0.74844 0.786587 0
0.779767 0.786877 0
0.789731 0.786679 0.481544
0.790677 0.787305 0.668559
0.766979 0.787488 0.69482
0.767117 0.787488 0.694835
0.767346 0.787488 0.694881
0.768017 0.787503 0.695003
0.769924 0.787518 0.695338
0.774716 0.787579 0.696361
0.783856 0.787701 0.699123
0.791608 0.787915 0.705669
0.792203 0.788327 0.721096
0.632624 0.605417 0.748913
0.632624 0.605417 0.748913
0.632654 0.605447 0.748928
0.632685 0.605478 0.748959
0.651164 0.602274 0.745357
0.800015 0.615 0.744549
0.800046 0.615473 0.745159
0.799435 0.645869 0.73933
0.796582 0.74789 0.738537
0.632578 0.605371 0.748852
0.632578 0.605371 0.748867
0.632593 0.605386 0.748867
0.632624 0.605417 0.748913
0.652689 0.602182 0.745235
0.800015 0.614954 0.744488
0.800046 0.615427 0.745098
0.799374 0.649226 0.738857
0.796551 0.748318 0.738445
0.632486 0.60528 0.748775
0.632502 0.605295 0.748775
0.632502 0.605295 0.748791
0.632532 0.605325 0.748806
0.655314 0.602045 0.745037
0.800015 0.614878 0.744396
0.800046 0.615366 0.745022
0.799268 0.654673 0.738125
0.796506 0.749004 0.738293
0.632212 0.605005 0.748501
0.632227 0.60502 0.748516
0.632227 0.60502 0.748516
0.632013 0.604807 0.748302
0.661952 0.601709 0.744518
0.8 0.614649 0.744121
0.799969 0.614328 0.743725
0.798947 0.670176 0.736095
0.796353 0.750957 0.73785
0.622858 0.605615 0.740032
0.622827 0.605692 0.740001
0.622751 0.605798 0.739956
0.622324 0.605722 0.739544
0.651438 0.603662 0.737545
0.797559 0.617456 0.737423
0.799268 0.638285 0.734569
0.798001 0.703487 0.731548
0.795956 0.756069 0.736614
0 0.742748 0.716518
0 0.742458 0.716518
0 0.741924 0.716533
0 0.739788 0.716579
0.484779 0.73228 0.715572
0.731884 0.726604 0.717052
0.794034 0.731167 0.720195
0.795956 0.745098 0.723568
0.795026 0.76643 0.733639
0 0.786023 0.69398
0 0.785672 0.694102
0 0.785122 0.694286
0 0.783642 0.694835
0.458991 0.7794 0.694972
0.714229 0.775586 0.697948
0.777203 0.773663 0.703944
0.793301 0.774853 0.712596
0.793484 0.779843 0.727871
0.688975 0.786694 0.658824
0.690471 0.786694 0.658915
0.692851 0.786694 0.659052
0.699519 0.786709 0.659495
0.715587 0.78677 0.660838
0.743786 0.786908 0.664576
0.775372 0.787213 0.673533
0.791165 0.787625 0.690852
0.792035 0.788205 0.71725
0.767926 0.787488 0.694743
0.768063 0.787488 0.694774
0.768277 0.787503 0.694804
0.768917 0.787503 0.694911
0.770733 0.787518 0.695262
0.775326 0.787579 0.696269
0.784176 0.787701 0.699031
0.791608 0.787915 0.705577
0.792203 0.788312 0.72108
0.669322 0.642176 0.785412
0.669322 0.642176 0.785412
0.669322 0.642176 0.785412
0.669322 0.642176 0.785412
0.669322 0.642176 0.785412
0.792676 0.649149 0.786374
0.803326 0.650614 0.786572
0.803326 0.650614 0.786572
0.799878 0.73547 0.773129
0.669322 0.642176 0.785412
0.669322 0.642176 0.785412
0.669322 0.642176 0.785412
0.669322 0.642176 0.785412
0.669322 0.642176 0.785412
0.793484 0.649256 0.786389
0.803326 0.650614 0.786572
0.803326 0.650614 0.786572
0.799832 0.736156 0.773022
0.669322 0.642176 0.785412
0.669322 0.642176 0.785412
0.669322 0.642176 0.785412
0.669322 0.642176 0.785412
0.669322 0.642176 0.785412
0.794781 0.649424 0.786419
0.803326 0.650614 0.786572
0.803326 0.650614 0.786572
0.799771 0.73727 0.772869
0.669322 0.642176 0.785412
0.669322 0.642176 0.785412
0.669322 0.642176 0.785412
0.669322 0.642176 0.785412
0.669322 0.642176 0.785412
0.798566 0.649943 0.78648
0.803326 0.650614 0.786572
0.803326 0.650614 0.786572
0.799573 0.740429 0.772442
0.669322 0.642176 0.785412
0.669322 0.642176 0.785412
0.669322 0.642176 0.785412
0.669322 0.642176 0.785412
0.670146 0.642191 0.785428
0.803326 0.650614 0.786572
0.803326 0.650614 0.786572
0.802884 0.654459 0.783154
0.799054 0.748425 0.771298
0.651789 0.696025 0.777661
0.651759 0.696132 0.777661
0.651667 0.69633 0.77763
0.651408 0.696925 0.777554
0.651026 0.694408 0.776715
0.747936 0.69041 0.775265
0.801114 0.702419 0.774243
0.799878 0.730953 0.771237
0.797864 0.763165 0.768917
0 0.789639 0.763165
0 0.789212 0.763165
0 0.788495 0.76318
0 0.786419 0.76318
0.507362 0.78024 0.761959
0.711345 0.774929 0.762219
0.778012 0.772763 0.763195
0.79649 0.774487 0.764035
0.796094 0.780041 0.765499
0.683192 0.789181 0.756191
0.684779 0.789197 0.756207
0.687266 0.789181 0.756207
0.69427 0.789197 0.756222
0.711315 0.789242 0.756313
0.741405 0.789349 0.756603
0.774166 0.789578 0.757397
0.794446 0.789853 0.75903
0.79469 0.790021 0.762051
0.768215 0.789044 0.74699
0.768353 0.789044 0.747005
0.768551 0.789044 0.747005
0.769177 0.789044 0.747051
0.770932 0.789059 0.747158
0.775372 0.78912 0.747463
0.783978 0.789227 0.748333
0.79379 0.789425 0.750546
0.794171 0.78967 0.755535
0.669306 0.642283 0.785412
0.669306 0.642283 0.785412
0.669306 0.642283 0.785412
0.669306 0.642283 0.785412
0.669306 0.642283 0.785412
0.669306 0.642283 0.785412
0.803326 0.650614 0.786572
0.803326 0.650614 0.786572
0.803189 0.66099 0.78648
0.669306 0.642283 0.785412
0.669306 0.642283 0.785412
0.669306 0.642283 0.785412
0.669306 0.642283 0.785412
0.669306 0.642283 0.785412
0.669306 0.642283 0.785412
0.803326 0.650614 0.786572
0.803326 0.650614 0.786572
0.803189 0.660975 0.78648
0.669306 0.642283 0.785412
0.669306 0.642283 0.785412
0.669306 0.642283 0.785412
0.669306 0.642283 0.785412
0.669306 0.642283 0.785412
0.669306 0.642283 0.785412
0.803326 0.650614 0.786572
0.803326 0.650614 0.786572
0.803189 0.660975 0.78648
0.669306 0.642283 0.785412
0.669306 0.642283 0.785412
0.669306 0.642283 0.785412
0.669306 0.642283 0.785412
0.669306 0.642283 0.785412
0.669306 0.642222 0.785412
0.803326 0.650614 0.786572
0.803326 0.650614 0.786572
0.803189 0.66096 0.78648
0.669306 0.642283 0.785412
0.669306 0.642283 0.785412
0.669306 0.642283 0.785412
0.669306 0.642283 0.785412
0.669306 0.642283 0.785412
0.670405 0.642191 0.785428
0.803326 0.650614 0.786572
0.803326 0.650614 0.786572
0.803189 0.660914 0.78648
0.669306 0.642283 0.785412
0.669306 0.642283 0.785412
0.669306 0.642283 0.785412
0.669306 0.642283 0.785412
0.669306 0.642283 0.785412
0.708171 0.643137 0.78555
0.803326 0.650614 0.786572
0.803326 0.650721 0.786572
0.801923 0.716777 0.78555
0.602731 0.769177 0.782284
0.60267 0.769207 0.782284
0.602609 0.769223 0.782284
0.602365 0.769345 0.782284
0.601633 0.76965 0.782254
0.671626 0.75761 0.782956
0.784176 0.754543 0.783932
0.799664 0.760311 0.783948
0.798566 0.773587 0.783169
0.587549 0.790707 0.780636
0.592706 0.790707 0.780621
0.600809 0.790692 0.780575
0.62269 0.790677 0.780499
0.667369 0.790677 0.780362
0.724483 0.790768 0.780331
0.771206 0.791012 0.780545
0.795789 0.790539 0.780987
0.796551 0.79089 0.781125
0.76492 0.790845 0.778881
0.765087 0.790845 0.778881
0.765332 0.790845 0.778881
0.76611 0.79086 0.778897
0.768277 0.790875 0.778912
0.773678 0.790921 0.778973
0.783536 0.790997 0.779126
0.794141 0.791119 0.7794
0.796368 0.79118 0.779812
0.669245 0.642893 0.785412
0.669245 0.642893 0.785412
0.669245 0.642893 0.785412
0.669245 0.642893 0.785412
0.669245 0.642893 0.785412
0.669245 0.642893 0.785412
0.669245 0.642893 0.785412
0.803311 0.651179 0.786572
0.803113 0.66685 0.786419
0.669245 0.642893 0.785412
0.669245 0.642893 0.785412
0.669245 0.642893 0.785412
0.669245 0.642893 0.785412
0.669245 0.642893 0.785412
0.669245 0.642893 0.785412
0.669245 0.642893 0.785412
0.803311 0.651194 0.786572
0.803113 0.666865 0.786419
0.669245 0.642893 0.785412
0.669245 0.642893 0.785412
0.669245 0.642893 0.785412
0.669245 0.642893 0.785412
0.669245 0.642893 0.785412
0.669245 0.642893 0.785412
0.669245 0.642893 0.785412
0.803311 0.651194 0.786572
0.803113 0.66688 0.786419
0.669245 0.642893 0.785412
0.669245 0.642893 0.785412
0.669245 0.642893 0.785412
0.669245 0.642893 0.785412
0.669245 0.642893 0.785412
0.669245 0.642893 0.785412
0.669245 0.642893 0.785412
0.803311 0.651194 0.786572
0.803098 0.666911 0.786419
0.669245 0.642893 0.785412
0.669245 0.642893 0.785412
0.669245 0.642893 0.785412
0.669245 0.642893 0.785412
0.669245 0.642893 0.785412
0.669245 0.642893 0.785412
0.670359 0.642817 0.785412
0.803311 0.651209 0.786572
0.803098 0.667018 0.786404
0.669245 0.642893 0.785412
0.669245 0.642893 0.785412
0.669245 0.642893 0.785412
0.669245 0.642893 0.785412
0.669245 0.642893 0.785412
0.669245 0.642893 0.785412
0.716625 0.64361 0.78558
0.803311 0.65127 0.786572
0.803098 0.667185 0.786404
0.669245 0.642893 0.785412
0.669245 0.642893 0.785412
0.669245 0.642893 0.785412
0.669245 0.642893 0.785412
0.669245 0.642893 0.785412
0.669245 0.642893 0.785412
0.803326 0.650614 0.786572
0.803311 0.651392 0.786572
0.803098 0.667491 0.786404
0 0.792096 0.782086
0 0.792096 0.782086
0 0.792096 0.782086
0 0.792096 0.782086
0 0.792096 0.782086
0 0.792096 0.782086
0.745357 0.7841 0.781659
0.797589 0.782818 0.782498
0.79736 0.785016 0.782315
0.729641 0.790845 0.780972
0.73019 0.790845 0.780972
0.731075 0.790845 0.780987
0.733639 0.79086 0.781003
0.740444 0.790875 0.781048
0.755093 0.790951 0.781186
0.775998 0.791104 0.78143
0.792554 0.791272 0.781704
0.796582 0.791333 0.781781
