BBLuts/BB_106_0350_LUT.cube
TITLE "Generated by Resolve"
LUT_3D_SIZE 9
0.0195773 0.0195773 0.0195773
0.0195773 0.0195773 0.0195773
0.169635 0.0189822 0.0189822
0.390707 0.0107424 0.0107424
0.692164 0 0
0.849989 0.00141909 0
0.885893 0.514672 0.152941
0.887968 0.773007 0.461799
0.883116 0.849882 0.744579
0.0195163 0.0637675 0.0195315
0.0195315 0.0718395 0.0195315
0.178729 0.0567483 0.0189975
0.401572 0.0101625 0.0101625
0.69575 0 0
0.849943 0.00143435 0
0.88069 0.544167 0.142702
0.887968 0.775799 0.460105
0.884169 0.84979 0.745174
0.0178073 0.185977 0.0178073
0.0171054 0.189288 0.0176242
0.14966 0.189364 0.0187991
0.414618 0.165179 0.0135348
0.703746 0.0593271 0
0.857023 0.212604 0.0203861
0.870619 0.583215 0.125124
0.887968 0.779828 0.457572
0.884184 0.850233 0.744976
0.00437934 0.415732 0.00466926
0.0033875 0.417288 0.00457771
0.00337224 0.417838 0.00456245
0.36321 0.425864 0.0153506
0.724437 0.417411 0.0181888
0.855192 0.496651 0.0260319
0.859556 0.6607 0.0239567
0.888014 0.790906 0.449866
0.883879 0.851759 0.744106
0.00250248 0.720546 0.0121767
0 0.72549 0.010544
0 0.727092 0.00987259
0 0.720516 0.0109407
0.67599 0.714656 0.0198062
0.821622 0.736294 0.0199893
0.858442 0.769818 0.0229343
0.887602 0.814603 0.4486
0.880964 0.856809 0.740063
0.0398108 0.861921 0.0399786
0.0301671 0.864393 0.0386053
0.0242313 0.865293 0.0376745
0.0241245 0.862104 0.0372168
0.658244 0.849592 0.0281376
0.806027 0.847608 0.0237736
0.858793 0.848844 0.122652
0.887144 0.847776 0.488426
0.884001 0.864622 0.737224
0.611261 0.894636 0.263172
0.622797 0.894408 0.262791
0.637613 0.894194 0.262226
0.679042 0.891356 0.263355
0.751888 0.886763 0.271717
0.829007 0.882002 0.30399
0.880507 0.878523 0.398642
0.885618 0.874556 0.595224
0.884123 0.876966 0.754665
0.809186 0.884962 0.66096
0.80798 0.886137 0.659815
0.806409 0.887251 0.658228
0.810025 0.887358 0.658549
0.814359 0.889769 0.656413
0.838865 0.888579 0.663294
0.870344 0.886854 0.680842
0.883986 0.884031 0.724483
0.883543 0.883909 0.792004
0.863722 0.883879 0.813092
0.863828 0.883864 0.813107
0.863966 0.883879 0.813107
0.864408 0.883879 0.813153
0.860777 0.886198 0.809567
0.865888 0.885695 0.811017
0.877424 0.883894 0.815335
0.883787 0.883818 0.819898
0.883818 0.883833 0.832776
0.0191958 0.0191958 0.0624857
0.0191958 0.0192111 0.0624247
0.169421 0.0189975 0.0630961
0.391623 0.0107118 0.0558785
0.695918 0 0.0433509
0.859571 0.00109865 0.0753185
0.893858 0.507179 0.212863
0.887633 0.772091 0.491859
0.884169 0.849378 0.748913
0.01944 0.0451514 0.0553445
0.0542916 0.0543374 0.0542916
0.185214 0.0187686 0.0558175
0.397009 0.0104372 0.0458534
0.698894 0 0.0192721
0.860487 0.000701915 0.0546578
0.893919 0.535866 0.203342
0.887648 0.774899 0.490394
0.884153 0.849699 0.74876
0.0180819 0.17847 0.0180819
0.0178683 0.181109 0.0179904
0.16524 0.18146 0.018967
0.412253 0.156847 0.0133211
0.70103 0 0
0.861387 0.196277 0.0195163
0.879088 0.577615 0.182589
0.887648 0.778958 0.488182
0.884169 0.850156 0.748577
0.00450141 0.411475 0.00479133
0.00355535 0.41294 0.00469978
0.00350958 0.413367 0.00468452
0.374594 0.420859 0.0153506
0.723888 0.413306 0.0181888
0.856275 0.493065 0.026154
0.868925 0.657221 0.118151
0.887694 0.790112 0.481392
0.883864 0.851667 0.747753
0.00204471 0.71957 0.0119936
0 0.724437 0.0103761
0 0.725475 0.00987259
0 0.719326 0.0107881
0.678447 0.713588 0.0197757
0.823285 0.735058 0.0202029
0.860029 0.768917 0.0231479
0.887922 0.81413 0.461479
0.88043 0.856931 0.74345
0.039765 0.861723 0.0399481
0.0301366 0.864179 0.0385748
0.0242161 0.86508 0.037644
0.024094 0.861906 0.037171
0.6598 0.849393 0.0280766
0.806424 0.84744 0.0238041
0.858808 0.848768 0.122148
0.88716 0.84773 0.488258
0.883635 0.864713 0.739513
0.613138 0.89456 0.262928
0.624537 0.894331 0.262547
0.639216 0.894041 0.262028
0.680095 0.891279 0.263172
0.752377 0.886717 0.271595
0.829129 0.881987 0.303899
0.880537 0.878508 0.398627
0.885664 0.87454 0.595193
0.884108 0.876982 0.754635
0.809262 0.884993 0.660899
0.807538 0.886351 0.659449
0.8065 0.887266 0.658198
0.810147 0.887358 0.658534
0.814466 0.889754 0.656413
0.840772 0.887861 0.664378
0.870451 0.886809 0.680888
0.883986 0.884031 0.724483
0.883467 0.88394 0.791959
0.862013 0.884535 0.81181
0.863844 0.883864 0.813107
0.863981 0.883879 0.813107
0.864424 0.883879 0.813153
0.860777 0.886198 0.809567
0.867033 0.884901 0.811856
0.877424 0.883894 0.815335
0.883787 0.883818 0.819898
0.883818 0.883833 0.832776
0.0191348 0.0191958 0.170932
0.0191501 0.0192721 0.168887
0.15108 0.0191196 0.171939
0.40209 0.0100557 0.161379
0.700664 0 0.151324
0.863066 0.00148013 0.179522
0.894469 0.497795 0.300145
0.88719 0.770687 0.530373
0.880079 0.850782 0.751202
0.0191348 0.0191501 0.169131
0.0191501 0.0191806 0.168536
0.174319 0.0187991 0.168902
0.400702 0.0101472 0.157961
0.701213 0 0.146517
0.863935 0.00131228 0.173495
0.894682 0.527916 0.293828
0.887205 0.773541 0.529137
0.883665 0.849729 0.753567
0.0179446 0.158846 0.158083
0.0144656 0.162478 0.153826
0.152636 0.157656 0.153338
0.398062 0.136156 0.152895
0.699168 0 0.136156
0.862699 0.156161 0.173968
0.892973 0.566674 0.282795
0.887205 0.777646 0.52726
0.884138 0.850019 0.753719
0.00601205 0.400717 0.0749981
0.00396735 0.402838 0.075349
0.00360113 0.403571 0.0764324
0.376013 0.409873 0.090074
0.722896 0.402289 0.0975204
0.859297 0.484001 0.12987
0.889403 0.64744 0.247761
0.887221 0.788937 0.521599
0.883833 0.851545 0.752911
0.0012665 0.717693 0.0116426
0 0.722377 0.0101015
0 0.723033 0.00973526
0 0.716762 0.0106508
0.680812 0.711528 0.0197299
0.826154 0.73257 0.0205844
0.871992 0.764401 0.137728
0.887419 0.813199 0.505318
0.879942 0.856992 0.748409
0.0397192 0.861402 0.0399023
0.0305791 0.863706 0.0385901
0.0277104 0.8636 0.038056
0.129229 0.863706 0.0410468
0.662058 0.849119 0.0279698
0.8065 0.847379 0.0237583
0.861418 0.84773 0.121965
0.887663 0.847501 0.488273
0.883589 0.864622 0.745266
0.615961 0.894453 0.262531
0.62707 0.89427 0.262165
0.642069 0.89366 0.261936
0.682261 0.890929 0.263157
0.753262 0.886595 0.271458
0.829892 0.881758 0.30399
0.880659 0.878462 0.398642
0.885939 0.874434 0.595239
0.884108 0.876966 0.754604
0.806607 0.886458 0.659159
0.80267 0.888319 0.656397
0.80618 0.887465 0.657862
0.810407 0.887327 0.658564
0.81622 0.889128 0.657343
0.842832 0.887098 0.665553
0.870359 0.886854 0.680797
0.883986 0.884031 0.724498
0.880613 0.885039 0.789899
0.861967 0.884565 0.811765
0.862013 0.884581 0.811734
0.863981 0.883879 0.813092
0.864454 0.883879 0.813153
0.862303 0.885618 0.810681
0.869535 0.88394 0.813687
0.87744 0.883894 0.815335
0.883787 0.883818 0.819898
0.878859 0.886091 0.829023
0.0166018 0.0167391 0.384665
0.0166781 0.0169223 0.378958
0.0166629 0.0168917 0.379889
0.376471 0.00875868 0.38262
0.715053 0 0.373281
0.863142 0.000671397 0.391546
0.89485 0.462028 0.494087
0.886137 0.766522 0.615442
0.879591 0.850538 0.764858
0.0166323 0.0167849 0.382467
0.0166323 0.0167849 0.382666
0.0754406 0.016907 0.382925
0.392493 0.00790417 0.381567
0.71368 0 0.371267
0.868498 0 0.395544
0.894881 0.498268 0.490852
0.886122 0.769497 0.614649
0.876005 0.852201 0.762203
0.016434 0.0694133 0.385412
0.0151369 0.0751507 0.376486
0.100404 0.0711833 0.375814
0.395727 0.00814832 0.370962
0.709438 0 0.368215
0.864317 0.000518807 0.385321
0.893812 0.542657 0.48484
0.886091 0.773785 0.613458
0.883299 0.849912 0.767224
0.00424201 0.361578 0.350347
0 0.369314 0.337072
0 0.37113 0.336126
0.354208 0.373907 0.356985
0.712734 0.360861 0.374548
0.894057 0.433783 0.404089
0.890074 0.633173 0.464836
0.886061 0.785504 0.609964
0.883696 0.851179 0.76701
0.0136721 0.707713 0.271778
0.00877394 0.7093 0.270283
0.00932326 0.708827 0.271534
0.00872816 0.706798 0.274083
0.682048 0.703197 0.292287
0.865217 0.712398 0.328527
0.888518 0.75288 0.420569
0.886122 0.810605 0.600519
0.879622 0.856748 0.762615
0.0395666 0.860517 0.0397498
0.030457 0.862806 0.0384375
0.0276036 0.862699 0.0379187
0.154269 0.862837 0.0417487
0.665675 0.847181 0.0283513
0.825467 0.839811 0.15079
0.889372 0.835615 0.337057
0.886519 0.845869 0.572992
0.883528 0.864363 0.760662
0.624598 0.894087 0.261372
0.633494 0.894255 0.260685
0.646738 0.894041 0.259983
0.684825 0.891463 0.261418
0.758038 0.885084 0.27187
0.833906 0.8804 0.304921
0.886259 0.876509 0.401007
0.886152 0.874311 0.595041
0.884092 0.876951 0.754498
0.805798 0.887007 0.658213
0.803113 0.88838 0.656184
0.804913 0.888182 0.656657
0.813947 0.886183 0.660258
0.819455 0.88806 0.658946
0.844388 0.886595 0.666255
0.873747 0.885588 0.68275
0.884016 0.884016 0.724483
0.880247 0.885176 0.789609
0.858732 0.886198 0.809308
0.858793 0.886213 0.809293
0.8607 0.885176 0.810605
0.86453 0.883879 0.813153
0.865614 0.884001 0.813077
0.869703 0.883894 0.813764
0.87747 0.883879 0.815335
0.883818 0.883818 0.819913
0.875441 0.887404 0.826444
0.0113222 0.0115053 0.680461
0.0115511 0.011841 0.672053
0.0115663 0.0118715 0.671183
0.213596 0.0108492 0.669841
0.697017 0 0.659236
0.863172 0 0.673335
0.894362 0.2934 0.722072
0.88484 0.754772 0.741588
0.875959 0.850706 0.792325
0.0113222 0.0115053 0.679957
0.0114595 0.0117189 0.674922
0.0114595 0.0117037 0.67512
0.240955 0.00978103 0.674678
0.703639 0 0.663767
0.8645 0 0.675181
0.895338 0.360525 0.721843
0.884779 0.758221 0.7411
0.877394 0.850492 0.793301
0.0113527 0.0115358 0.678782
0.01178 0.0121767 0.662654
0.0117342 0.0121004 0.664576
0.27451 0.0090486 0.665415
0.705913 0 0.66212
0.862425 0 0.670512
0.893599 0.436988 0.718318
0.884688 0.763165 0.740398
0.877119 0.851072 0.793011
0.00944533 0.193606 0.679637
0.00331121 0.200122 0.659953
0.00242618 0.203906 0.657725
0.284047 0.198398 0.66772
0.707439 0.0717937 0.659236
0.880308 0.22916 0.686152
0.890944 0.58085 0.710445
0.884504 0.776593 0.73843
0.880964 0.851102 0.795529
0 0.6757 0.652186
0 0.684962 0.632227
0 0.680781 0.641825
0 0.678767 0.643229
0.65182 0.674739 0.655039
0.857237 0.684016 0.673533
0.883803 0.736599 0.689693
0.884306 0.804837 0.733577
0.884047 0.854093 0.796796
0.0378271 0.857435 0.640986
0.00891127 0.866667 0.624765
0.00363165 0.867475 0.621958
0.0138857 0.860853 0.628382
0.6448 0.838239 0.633082
0.825986 0.827039 0.642588
0.884794 0.828702 0.668864
0.884321 0.842283 0.723079
0.883223 0.863783 0.793271
0.617777 0.890486 0.544961
0.62649 0.890715 0.543206
0.63975 0.890486 0.54168
0.677882 0.887861 0.541756
0.751293 0.881376 0.547997
0.827405 0.876692 0.565164
0.879774 0.873213 0.610559
0.884504 0.872526 0.696178
0.884031 0.876616 0.78558
0.807782 0.887007 0.657938
0.803189 0.889113 0.654795
0.802197 0.889967 0.65362
0.813703 0.886946 0.658793
0.825132 0.886397 0.66125
0.847761 0.885603 0.667582
0.876143 0.884413 0.683833
0.884016 0.884016 0.724453
0.879164 0.885954 0.788724
0.858976 0.886198 0.809293
0.859007 0.886229 0.809247
0.859129 0.886229 0.809247
0.860533 0.885863 0.809995
0.862486 0.885649 0.810575
0.86923 0.884138 0.813275
0.877577 0.883879 0.815335
0.883818 0.883818 0.819898
0.875441 0.887404 0.826444
0.0106813 0.0110018 0.824048
0.0109407 0.0114443 0.813169
0.0109865 0.0115206 0.811307
0.0109712 0.0115206 0.811444
0.599329 0 0.79736
0.861234 0.00280766 0.804166
0.86598 0.00164797 0.815732
0.887114 0.705348 0.835065
0.87599 0.846998 0.832227
0.0106813 0.0110018 0.823987
0.0108492 0.0113069 0.816602
0.0108492 0.0112917 0.81677
0.0108339 0.0112612 0.817578
0.608103 0 0.804959
0.863737 0.00218204 0.809857
0.86685 0.00143435 0.81767
0.886778 0.712047 0.834348
0.875975 0.847364 0.832166
0.0106966 0.011017 0.823438
0.0111696 0.0118868 0.802518
0.0112001 0.0119326 0.801465
0.0111849 0.0119173 0.801801
0.614206 0 0.789227
0.857694 0.00367742 0.795911
0.863355 0.00230411 0.809552
0.886198 0.72137 0.833234
0.877134 0.847501 0.833005
0.010605 0.0108492 0.827146
0.0111543 0.0118563 0.802991
0.0111849 0.011902 0.801877
0.0111696 0.0118868 0.802029
0.638758 0 0.787564
0.860609 0.00296025 0.802319
0.862089 0.00256352 0.805097
0.883207 0.745174 0.829404
0.880919 0.847745 0.835782
0.00401312 0.474723 0.820172
0 0.484428 0.79443
0 0.487602 0.791485
0 0.490974 0.793439
0.635981 0.486488 0.812467
0.881132 0.520989 0.827085
0.886641 0.659953 0.830381
0.88275 0.788602 0.825757
0.879545 0.85301 0.83415
0.0370947 0.847684 0.828504
0.00863661 0.857206 0.806531
0.0034638 0.858259 0.802472
0.00323491 0.85536 0.802014
0.54406 0.841047 0.794675
0.792615 0.82417 0.797055
0.878965 0.821225 0.813046
0.883848 0.836957 0.821805
0.883207 0.862058 0.835477
0.511559 0.892073 0.81268
0.521309 0.895415 0.802655
0.557321 0.891279 0.806149
0.620905 0.88661 0.804288
0.715679 0.87982 0.801297
0.806989 0.874495 0.801495
0.86978 0.869932 0.807904
0.884016 0.870741 0.815778
0.884031 0.875883 0.832761
0.801892 0.886229 0.77174
0.797314 0.88835 0.767895
0.796246 0.88925 0.766278
0.799954 0.88925 0.766445
0.810956 0.888914 0.767651
0.83917 0.886076 0.774746
0.869551 0.884489 0.782696
0.883803 0.883803 0.798474
0.879149 0.885969 0.820798
0.859678 0.886198 0.809201
0.859693 0.886229 0.809171
0.859815 0.886244 0.809171
0.860288 0.886229 0.809247
0.862318 0.885954 0.809903
0.866667 0.885679 0.810941
0.876631 0.884352 0.814359
0.883818 0.883818 0.819821
0.875441 0.887404 0.826429
0.0106355 0.0110018 0.859541
0.0109407 0.0115663 0.845899
0.0109865 0.0116426 0.844236
0.010956 0.0116121 0.845029
0.0109407 0.0115511 0.846235
0.850813 0.00427253 0.839857
0.859022 0.00462348 0.840894
0.863035 0.00358587 0.850706
0.872587 0.83183 0.862898
0.0106661 0.0110475 0.858366
0.0108949 0.0114595 0.848417
0.0109255 0.0115511 0.846433
0.0109255 0.0115511 0.846433
0.0109255 0.0115358 0.846632
0.852827 0.00408942 0.842359
0.861402 0.00401312 0.846723
0.863874 0.00337224 0.85275
0.872709 0.832471 0.862959
0.0110018 0.0116732 0.843259
0.0111543 0.0119783 0.83624
0.0111696 0.0120089 0.835157
0.0111696 0.0119936 0.835569
0.0111543 0.0119783 0.836164
0.849653 0.00540169 0.830839
0.856809 0.00518807 0.835492
0.858122 0.00485237 0.838697
0.86569 0.836149 0.857053
0.0108492 0.0113832 0.850462
0.0112459 0.0121309 0.832349
0.0113069 0.0122683 0.829267
0.0113069 0.0122683 0.829297
0.0113069 0.012253 0.829358
0.852125 0.00628672 0.825757
0.854948 0.0056611 0.830945
0.858549 0.00474556 0.839734
0.864561 0.839567 0.85594
0.0108644 0.0114443 0.849042
0.0111543 0.0119783 0.835996
0.0111849 0.0120394 0.834714
0.0111543 0.0119783 0.83595
0.191775 0.01178 0.835584
0.855207 0.00560006 0.831571
0.861326 0.00402838 0.84654
0.869825 0.601511 0.865812
0.870619 0.845151 0.860426
0 0.766033 0.856931
0 0.773693 0.837232
0 0.774289 0.836759
0 0.775418 0.837217
0 0.768887 0.843153
0.791074 0.752987 0.84799
0.856428 0.774182 0.849058
0.876707 0.815183 0.864668
0.867765 0.861708 0.856992
0.0261387 0.906569 0.870314
0.00120546 0.915267 0.851011
0 0.916197 0.848325
0 0.913603 0.84802
0.595331 0.895689 0.835218
0.752728 0.885847 0.83122
0.83447 0.877821 0.840558
0.878965 0.869429 0.86215
0.881132 0.87512 0.866011
0.777584 0.887984 0.853635
0.772076 0.890608 0.848219
0.774655 0.890242 0.848966
0.780926 0.889708 0.850034
0.794965 0.889326 0.850736
0.820798 0.889311 0.850904
0.852598 0.889113 0.851774
0.878737 0.886183 0.858747
0.87863 0.886229 0.861769
0.857237 0.886336 0.846586
0.851118 0.888731 0.841749
0.849607 0.889372 0.840467
0.850034 0.889372 0.840482
0.851514 0.889311 0.840665
0.857984 0.888212 0.843091
0.870527 0.886259 0.84773
0.878859 0.886122 0.849805
0.874601 0.88777 0.851865
0.00901808 0.0919051 0.853773
0.00675975 0.0943008 0.827756
0.00674449 0.0943313 0.827527
0.00674449 0.0943313 0.827527
0.00674449 0.0943618 0.827527
0.00674449 0.0944533 0.827527
0.850858 0.00672923 0.82092
0.863096 0.252476 0.843076
0.855497 0.664393 0.855116
0.00827039 0.092668 0.845197
0.00679026 0.094255 0.828
0.00675975 0.0943008 0.82768
0.00675975 0.0943008 0.827741
0.00679026 0.0943008 0.828
0.0069276 0.0942397 0.829633
0.855985 0.00540169 0.833478
0.874235 0.248341 0.861295
0.856977 0.663844 0.856611
0.00741588 0.0935683 0.835325
0.00698863 0.0940414 0.830243
0.00674449 0.0942855 0.827527
0.00674449 0.0943008 0.827527
0.00674449 0.094316 0.827527
0.00674449 0.0944228 0.827527
0.850858 0.00671397 0.82092
0.863783 0.25304 0.844236
0.843473 0.668666 0.842954
0.00747692 0.093431 0.835966
0.00706493 0.0938735 0.831159
0.00674449 0.0942092 0.827543
0.00674449 0.0942397 0.827527
0.00674449 0.094255 0.827527
0.00675975 0.0943313 0.827665
0.851225 0.00662242 0.82182
0.861845 0.255406 0.841123
0.835157 0.671565 0.834546
0.0068513 0.093904 0.82858
0.00683604 0.093904 0.828443
0.00675975 0.0939956 0.827543
0.00675975 0.0939956 0.827527
0.00675975 0.0940414 0.827527
0.00675975 0.0941329 0.827543
0.850889 0.00671397 0.821027
0.862242 0.258137 0.841886
0.83621 0.670909 0.835584
0.00679026 0.0932784 0.827512
0.00679026 0.0932937 0.827527
0.00679026 0.0932937 0.827512
0.00679026 0.0933089 0.827512
0.00679026 0.0933242 0.827512
0.656214 0 0.8168
0.853834 0.00595102 0.828214
0.865171 0.261662 0.846799
0.819425 0.816953 0.827665
0 0.899229 0.841947
0 0.89926 0.841947
0 0.899306 0.841947
0 0.899443 0.841947
0 0.899855 0.841962
0.628214 0.871397 0.828931
0.803372 0.863493 0.829511
0.839094 0.863828 0.846662
0.814664 0.891768 0.827253
0.611307 0.912932 0.828733
0.616342 0.912764 0.828565
0.62359 0.912551 0.828336
0.64329 0.912062 0.827817
0.68513 0.911391 0.827039
0.741268 0.911284 0.826688
0.788571 0.911528 0.826703
0.813107 0.91191 0.826932
0.813107 0.91191 0.826932
0.800504 0.905699 0.837613
0.785626 0.911528 0.825406
0.785809 0.911528 0.825406
0.786358 0.911543 0.825406
0.788037 0.911543 0.825406
0.792523 0.911574 0.825406
0.80499 0.910231 0.828305
0.868833 0.889586 0.871534
0.862547 0.892439 0.86569
0 0.309209 0.828016
0 0.309209 0.828016
0 0.309209 0.828016
0 0.309209 0.828016
0 0.309209 0.828016
0 0.309255 0.828016
0 0.309361 0.828016
0.859144 0.378454 0.843442
0.83035 0.708309 0.831998
0 0.309194 0.828016
0 0.309194 0.828016
0 0.309194 0.828016
0 0.309209 0.828016
0 0.309209 0.828016
0 0.309255 0.828016
0 0.309361 0.828016
0.859129 0.378653 0.843458
0.83035 0.708339 0.831998
0 0.309178 0.828016
0 0.309194 0.828016
0 0.309194 0.828016
0 0.309194 0.828016
0 0.309209 0.828016
0 0.309239 0.828016
0 0.309346 0.828016
0.859129 0.378943 0.843458
0.83035 0.70837 0.831998
0 0.309163 0.828016
0 0.309163 0.828016
0 0.309163 0.828016
0 0.309163 0.828016
0 0.309178 0.828016
0 0.309209 0.828016
0 0.309331 0.828016
0.859083 0.379843 0.843442
0.83032 0.708507 0.831983
0 0.309071 0.828016
0 0.309071 0.828016
0 0.309071 0.828016
0 0.309071 0.828016
0 0.309087 0.828016
0 0.309117 0.828016
0 0.309239 0.828016
0.858961 0.382696 0.843442
0.830274 0.708934 0.831968
0 0.308782 0.828031
0 0.308782 0.828016
0 0.308782 0.828031
0 0.308782 0.828016
0 0.308797 0.828016
0 0.308843 0.828031
0 0.30663 0.828046
0.858564 0.391379 0.843442
0.830182 0.709682 0.831922
0 0.307881 0.828031
0 0.307881 0.828031
0 0.307881 0.828031
0 0.307881 0.828031
0 0.307897 0.828031
0 0.307927 0.828031
0.850858 0.00672923 0.82092
0.857572 0.411719 0.843351
0.83003 0.710948 0.831846
0 0.926284 0.84268
0 0.926284 0.84268
0 0.926284 0.84268
0 0.926284 0.84268
0 0.926284 0.84268
0 0.926284 0.84268
0.755291 0.90428 0.826978
0.813672 0.902083 0.826917
0.813474 0.905074 0.826902
0.752178 0.91133 0.826688
0.75259 0.91133 0.826688
0.753231 0.91133 0.826688
0.755169 0.911345 0.826688
0.760723 0.911376 0.826688
0.773754 0.911437 0.826688
0.793347 0.911559 0.826703
0.80943 0.911635 0.826703
0.813107 0.91191 0.826932
