BBLuts/BB_106_0250_LUT.cube
TITLE "Generated by Resolve"
LUT_3D_SIZE 9
0.0123293 0.0218662 0.038529
0.0123293 0.0218662 0.038529
0.207813 0.0240635 0.0394903
0.475593 0.0348363 0.0578012
0.776837 0.296681 0.37232
0.982803 0.614893 0.668452
0.982437 0.64271 0.668559
0.979202 0.821958 0.623316
0.974441 0.929747 0.779675
0.00531014 0.0677653 0.0349889
0.00402838 0.0761578 0.0343328
0.214878 0.0608072 0.0368505
0.487846 0.0360113 0.059556
0.779126 0.300954 0.376532
0.982803 0.614893 0.668452
0.982345 0.650416 0.667735
0.979095 0.8262 0.618158
0.974395 0.930266 0.778988
0 0.20531 0.0243534
0 0.208957 0.024033
0.151843 0.209613 0.0271458
0.495247 0.200092 0.0488594
0.782666 0.338643 0.381796
0.982757 0.618677 0.668238
0.982132 0.664363 0.666041
0.978912 0.832273 0.609049
0.974334 0.931075 0.777859
0 0.490455 0.00190738
0 0.491691 0.00192264
0 0.492378 0.00192264
0.403326 0.491295 0.0024567
0.786816 0.515175 0.367819
0.982406 0.644724 0.666468
0.981445 0.711803 0.657588
0.978454 0.848478 0.572656
0.974136 0.93344 0.774411
0 0.77351 0.00399786
0 0.773449 0.00399786
0 0.773114 0.00399786
0 0.770855 0.0039826
0.716854 0.763973 0.00503548
0.95079 0.775845 0.581064
0.979355 0.81738 0.597986
0.97789 0.882551 0.00656138
0.973587 0.939666 0.763806
0 0.929839 0.0052491
0 0.929168 0.0052491
0 0.928038 0.00523384
0 0.924636 0.00520333
0 0.916075 0.00514229
0.89955 0.909163 0.00660716
0.97615 0.912139 0.00679026
0.975082 0.927687 0.00691234
0.97232 0.952941 0.741588
0 0.978912 0.00564584
0 0.978439 0.00564584
0 0.977752 0.00563058
0 0.975845 0.00561532
0.597803 0.972198 0.00645457
0.878874 0.967468 0.00701915
0.964523 0.96466 0.007187
0.971527 0.965255 0.00721752
0.97052 0.970932 0.769268
0.825269 0.981155 0.00701915
0.827665 0.98117 0.00701915
0.831434 0.98117 0.00703441
0.841901 0.981216 0.00704967
0.866728 0.981308 0.0071107
0.90901 0.981537 0.00720226
0.954635 0.981964 0.00730907
0.968978 0.981949 0.615457
0.969848 0.982681 0.850492
0.935653 0.982879 0.889418
0.935836 0.982895 0.889464
0.936156 0.982895 0.889509
0.937133 0.98291 0.889693
0.939879 0.98294 0.890227
0.946792 0.983017 0.891737
0.959884 0.983215 0.895918
0.971008 0.98352 0.905715
0.971786 0.98407 0.928756
0.0185092 0.0258793 0.085832
0.0185397 0.0258946 0.0860609
0.213031 0.0282444 0.0870527
0.476997 0.0390936 0.107317
0.776715 0.298634 0.388266
0.982788 0.615045 0.669749
0.982452 0.64155 0.669657
0.979202 0.821164 0.632944
0.974502 0.929702 0.788357
0.0134737 0.0512551 0.0756542
0.0547189 0.0615396 0.0743725
0.23125 0.0278172 0.0783856
0.483131 0.0387732 0.0973373
0.777737 0.299351 0.381552
0.982788 0.615 0.669352
0.982345 0.649165 0.668864
0.979095 0.825422 0.628244
0.974456 0.93022 0.787747
0 0.196048 0.0251011
0 0.1991 0.0248569
0.175341 0.20029 0.0262303
0.493339 0.191135 0.0491646
0.780087 0.324727 0.377447
0.982757 0.618326 0.668254
0.982162 0.66305 0.667262
0.978927 0.83154 0.620005
0.974395 0.931029 0.786694
0 0.485725 0.00189212
0 0.486915 0.00189212
0 0.487404 0.00189212
0.420218 0.48603 0.0024567
0.786419 0.51194 0.367819
0.982422 0.644038 0.666529
0.981476 0.710628 0.658671
0.978439 0.847868 0.589746
0.974182 0.93341 0.783536
0 0.772412 0.0039826
0 0.772305 0.0039826
0 0.771969 0.0039826
0 0.769665 0.00396735
0.720211 0.762875 0.00503548
0.950927 0.775158 0.582177
0.979355 0.816983 0.598505
0.97789 0.882353 0.00656138
0.973632 0.939635 0.773892
0 0.929595 0.0052491
0 0.928923 0.0052491
0 0.92781 0.00523384
0 0.924392 0.00520333
0 0.915892 0.00514229
0.899916 0.909041 0.00660716
0.976165 0.912047 0.00679026
0.975082 0.927642 0.00691234
0.972335 0.952926 0.742718
0 0.978821 0.00564584
0 0.978363 0.00564584
0 0.977661 0.00563058
0 0.975784 0.00561532
0.605005 0.972152 0.00646983
0.879118 0.967453 0.00701915
0.964569 0.96463 0.007187
0.971542 0.96524 0.00721752
0.97052 0.970916 0.769223
0.825635 0.981155 0.00701915
0.828016 0.98117 0.00701915
0.831769 0.981186 0.00703441
0.842176 0.981216 0.00704967
0.866926 0.981308 0.0071107
0.909102 0.981537 0.00720226
0.954665 0.981964 0.00730907
0.968978 0.981949 0.615381
0.969848 0.982681 0.850477
0.935668 0.982879 0.889418
0.935866 0.982895 0.889464
0.936187 0.982895 0.889509
0.937163 0.98291 0.889693
0.93991 0.98294 0.890227
0.946807 0.983017 0.891737
0.959884 0.983215 0.895918
0.971008 0.98352 0.905715
0.971786 0.98407 0.928756
0.0351263 0.0366827 0.212604
0.0351568 0.0367132 0.212833
0.204944 0.0387121 0.215412
0.491218 0.0506752 0.228458
0.776577 0.303349 0.420417
0.982803 0.615305 0.671748
0.982467 0.639475 0.672648
0.979232 0.819867 0.649836
0.974594 0.929641 0.801114
0.0345617 0.0363317 0.208484
0.0346075 0.036347 0.208865
0.228901 0.0386969 0.211719
0.48954 0.0501717 0.224704
0.778714 0.307012 0.422217
0.982803 0.615274 0.671611
0.982376 0.646799 0.671839
0.979126 0.82417 0.645823
0.974548 0.930144 0.800549
0.0101778 0.184482 0.18468
0.00982681 0.186435 0.184237
0.188617 0.182818 0.173526
0.478416 0.18027 0.20441
0.777462 0.304295 0.41767
0.982757 0.617685 0.671214
0.982193 0.660319 0.670253
0.978943 0.830365 0.638865
0.974487 0.930968 0.799634
0 0.471901 0.0370642
0 0.473335 0.0371862
0 0.474037 0.038056
0.425193 0.472236 0.0594034
0.781781 0.50161 0.38967
0.982452 0.641917 0.66862
0.981506 0.707591 0.662776
0.978439 0.846876 0.613764
0.974289 0.933349 0.796857
0 0.770108 0.00396735
0 0.770001 0.00396735
0 0.76965 0.00396735
0 0.767315 0.00395209
0.723384 0.760632 0.00502022
0.95082 0.77348 0.583764
0.979385 0.815869 0.602991
0.977493 0.88159 0.307927
0.973724 0.939605 0.788449
0 0.929229 0.0052491
0 0.928542 0.00523384
0 0.927413 0.00523384
0 0.92401 0.00520333
0 0.915572 0.00514229
0.900481 0.908812 0.00660716
0.976165 0.911879 0.00679026
0.975097 0.92755 0.00691234
0.972412 0.952895 0.762142
0 0.978683 0.00564584
0 0.978225 0.00564584
0 0.977523 0.00563058
0 0.975677 0.00561532
0.615778 0.972076 0.00648508
0.879545 0.967407 0.00701915
0.964645 0.964614 0.007187
0.971542 0.965225 0.00721752
0.970535 0.970901 0.769131
0.8262 0.981155 0.00701915
0.828595 0.98117 0.00701915
0.832303 0.981186 0.00703441
0.842664 0.981216 0.00706493
0.867262 0.981308 0.0071107
0.909255 0.981537 0.00720226
0.954696 0.981964 0.00730907
0.968978 0.981949 0.615381
0.969848 0.982681 0.850462
0.935714 0.982879 0.889418
0.935912 0.982895 0.889448
0.936248 0.982895 0.889525
0.937194 0.98291 0.889693
0.939956 0.98294 0.890196
0.946822 0.983017 0.891737
0.959899 0.983215 0.895903
0.971008 0.98352 0.905715
0.971786 0.98407 0.928756
0.13904 0.104021 0.478019
0.139193 0.104128 0.478202
0.139269 0.104158 0.478309
0.477363 0.114977 0.479622
0.793744 0.356924 0.543328
0.982773 0.617029 0.684901
0.982544 0.635065 0.692561
0.979339 0.816052 0.704601
0.974914 0.929442 0.83212
0.136797 0.102571 0.47541
0.137011 0.102693 0.475639
0.216251 0.103639 0.475868
0.492454 0.115023 0.477256
0.791897 0.353643 0.540825
0.982773 0.616968 0.68455
0.982452 0.641291 0.6916
0.979217 0.820203 0.702113
0.974868 0.929946 0.831693
0.123507 0.160006 0.469841
0.122957 0.164752 0.470008
0.230747 0.161944 0.470359
0.498222 0.113222 0.472816
0.786252 0.344366 0.535271
0.982773 0.616876 0.683955
0.9823 0.653346 0.68983
0.979049 0.826902 0.697917
0.974807 0.930785 0.831022
0.00422675 0.430289 0.429511
0.00306706 0.432135 0.42977
0.00260929 0.433463 0.430518
0.443214 0.431891 0.411582
0.766735 0.469383 0.506737
0.982528 0.636332 0.680644
0.981659 0.69865 0.682612
0.9785 0.843976 0.684031
0.974594 0.933181 0.828992
0 0.760098 0.00389105
0 0.760067 0.00389105
0 0.759808 0.00389105
0 0.757687 0.00386053
0.721019 0.751171 0.00494392
0.948608 0.76611 0.604913
0.979461 0.811368 0.633967
0.977142 0.879683 0.62797
0.974029 0.939483 0.822675
0 0.928145 0.00523384
0 0.927459 0.00523384
0 0.926329 0.00521859
0 0.922927 0.00518807
0 0.914504 0.00512703
0.899916 0.90779 0.0065919
0.976242 0.91104 0.00679026
0.975219 0.92694 0.00691234
0.972686 0.952865 0.80499
0 0.978256 0.00564584
0 0.977829 0.00563058
0 0.977142 0.00563058
0 0.975341 0.00561532
0.642069 0.971862 0.00654612
0.880766 0.967269 0.00703441
0.964858 0.964508 0.007187
0.971542 0.965164 0.00721752
0.970535 0.970871 0.768841
0.82797 0.98117 0.00701915
0.830304 0.98117 0.00703441
0.833951 0.981186 0.00703441
0.844083 0.981216 0.00706493
0.868254 0.981308 0.0071107
0.909712 0.981537 0.00720226
0.954818 0.981964 0.00730907
0.968978 0.981949 0.615213
0.969848 0.982681 0.85037
0.935866 0.982879 0.889403
0.936065 0.982895 0.889448
0.93637 0.982895 0.889479
0.937346 0.98291 0.889677
0.940078 0.98294 0.890196
0.946929 0.983017 0.891722
0.959945 0.983215 0.895888
0.971008 0.98352 0.905699
0.971786 0.98407 0.928756
0.571878 0.532296 0.778531
0.571969 0.532403 0.778607
0.572106 0.53257 0.778729
0.582773 0.531563 0.777813
0.78613 0.549554 0.777173
0.982773 0.645472 0.802014
0.982773 0.652232 0.813535
0.980255 0.8065 0.834501
0.975952 0.928923 0.888502
0.57113 0.531456 0.77789
0.571221 0.531563 0.777966
0.571374 0.531746 0.778103
0.584192 0.530556 0.77702
0.790845 0.550134 0.776684
0.982773 0.645274 0.80148
0.982742 0.654124 0.812375
0.980117 0.811109 0.833524
0.975906 0.929458 0.888243
0.569924 0.530068 0.776852
0.570016 0.53019 0.776928
0.570184 0.530388 0.777081
0.586648 0.528969 0.775753
0.793698 0.549767 0.775677
0.982757 0.644938 0.800595
0.982651 0.658763 0.810483
0.979919 0.818112 0.831968
0.97583 0.930327 0.887861
0.561349 0.537362 0.770794
0.561349 0.537652 0.770825
0.561303 0.538003 0.770825
0.581338 0.536446 0.769879
0.792279 0.550988 0.770855
0.982712 0.646555 0.795789
0.982223 0.685924 0.804517
0.979324 0.83682 0.827283
0.975616 0.932799 0.886687
0 0.729488 0.733898
0 0.729763 0.734005
0 0.729824 0.734173
0 0.728527 0.734676
0.723598 0.722866 0.725978
0.941466 0.745007 0.763272
0.980026 0.79852 0.783246
0.977768 0.875502 0.813336
0.975021 0.939284 0.883299
0 0.924941 0.00521859
0 0.924285 0.00520333
0 0.923171 0.00520333
0 0.919768 0.00517281
0 0.911055 0.00509651
0.890593 0.903624 0.594781
0.975677 0.907729 0.711238
0.974777 0.924987 0.776852
0.973632 0.952911 0.874128
0 0.977523 0.00563058
0 0.977066 0.00563058
0 0.97641 0.00563058
0 0.974594 0.00561532
0.606714 0.971099 0.00645457
0.874861 0.966522 0.00700389
0.960037 0.96379 0.00717174
0.971084 0.964385 0.639246
0.971313 0.971084 0.851286
0.833173 0.981186 0.00703441
0.83534 0.981186 0.00703441
0.838758 0.981201 0.00704967
0.84828 0.981231 0.00706493
0.871199 0.981323 0.00712596
0.91107 0.981552 0.00721752
0.95523 0.981979 0.00730907
0.968978 0.981949 0.614771
0.969833 0.982681 0.850141
0.936324 0.982895 0.889372
0.936507 0.982895 0.889387
0.936828 0.982895 0.889464
0.937774 0.98291 0.889632
0.940459 0.98294 0.89015
0.947219 0.983017 0.891691
0.960098 0.983215 0.895857
0.971008 0.98352 0.905653
0.971786 0.98407 0.928756
0.749599 0.723568 0.968826
0.749615 0.723583 0.968826
0.74963 0.723613 0.968856
0.749691 0.723659 0.968902
0.775708 0.719127 0.963516
0.985382 0.737163 0.962554
0.985412 0.73785 0.96347
0.984131 0.781018 0.955001
0.978561 0.926436 0.954604
0.749523 0.723507 0.96875
0.749538 0.723507 0.96875
0.749554 0.723522 0.968765
0.749599 0.723568 0.968826
0.777859 0.719005 0.963333
0.985382 0.737102 0.962478
0.985412 0.737789 0.963378
0.983993 0.785794 0.954314
0.978515 0.927047 0.954467
0.749416 0.723384 0.968612
0.749432 0.7234 0.968627
0.749432 0.7234 0.968643
0.749477 0.723445 0.968673
0.781537 0.718822 0.963043
0.985367 0.736996 0.962325
0.985397 0.737697 0.963256
0.98378 0.793515 0.953262
0.978424 0.928008 0.954238
0.749035 0.722988 0.9682
0.74905 0.723003 0.968215
0.749065 0.723018 0.968231
0.74876 0.722713 0.967895
0.790875 0.718349 0.96228
0.985351 0.736675 0.961913
0.985321 0.736217 0.961318
0.983093 0.815564 0.950347
0.978195 0.930816 0.953597
0.735943 0.723857 0.955505
0.735882 0.723964 0.955459
0.735775 0.724132 0.955383
0.73518 0.724025 0.954772
0.776089 0.721111 0.951812
0.981903 0.740673 0.951904
0.984009 0.77026 0.947814
0.981292 0.863233 0.943816
0.977554 0.938079 0.951797
0 0.916793 0.918502
0 0.916396 0.918502
0 0.915618 0.918532
0 0.912596 0.918593
0.579629 0.903822 0.919356
0.887739 0.896132 0.922164
0.975296 0.902647 0.927001
0.977783 0.922484 0.932158
0.976089 0.95285 0.947402
0 0.978332 0.884886
0 0.977813 0.885084
0 0.977035 0.885359
0 0.974929 0.886168
0.55314 0.970855 0.888685
0.862135 0.965881 0.893858
0.950927 0.963195 0.902953
0.973587 0.964889 0.915938
0.973724 0.971969 0.938842
0.82652 0.981735 0.83534
0.828641 0.981735 0.835492
0.831998 0.98175 0.835706
0.841367 0.981781 0.836393
0.863996 0.981872 0.838437
0.903731 0.982101 0.844083
0.948226 0.982544 0.857542
0.970459 0.983124 0.883482
0.971572 0.983917 0.922988
0.937652 0.982895 0.88925
0.937835 0.982895 0.889296
0.938125 0.98291 0.889342
0.93904 0.982925 0.889509
0.941604 0.982956 0.890043
0.948089 0.983017 0.891554
0.96054 0.983215 0.895705
0.971008 0.98352 0.905516
0.971786 0.984054 0.928725
0.800443 0.775662 1
0.800443 0.775662 1
0.800443 0.775662 1
0.800443 0.775662 1
0.800443 0.775662 1
0.974365 0.785595 1
0.989364 0.787671 1
0.989364 0.787671 1
0.983276 0.90869 1
0.800443 0.775662 1
0.800443 0.775662 1
0.800443 0.775662 1
0.800443 0.775662 1
0.800443 0.775662 1
0.975509 0.785748 1
0.989364 0.787671 1
0.989364 0.787671 1
0.9832 0.909667 1
0.800443 0.775662 1
0.800443 0.775662 1
0.800443 0.775662 1
0.800443 0.775662 1
0.800443 0.775662 1
0.977325 0.785977 1
0.989364 0.787671 1
0.989364 0.787671 1
0.983093 0.911254 1
0.800443 0.775662 1
0.800443 0.775662 1
0.800443 0.775662 1
0.800443 0.775662 1
0.800443 0.775662 1
0.982666 0.786709 1
0.989364 0.787671 1
0.989364 0.787671 1
0.982773 0.915755 1
0.800443 0.775662 1
0.800443 0.775662 1
0.800443 0.775662 1
0.800443 0.775662 1
0.801617 0.775677 1
0.989364 0.787671 1
0.989364 0.787671 1
0.988708 0.793133 1
0.981918 0.927138 1
0.77499 0.852445 1
0.774929 0.852613 1
0.774807 0.852903 1
0.774441 0.853727 1
0.773953 0.850156 1
0.910704 0.844541 1
0.985519 0.861646 1
0.983368 0.902266 1
0.980026 0.94815 1
0 0.983337 0.98851
0 0.982727 0.98851
0 0.98172 0.988525
0 0.978775 0.98854
0.598459 0.97203 0.989151
0.857862 0.964858 0.990127
0.951873 0.961807 0.991714
0.97792 0.964294 0.993027
0.977264 0.972198 0.995239
0.817716 0.985122 0.981109
0.819944 0.985138 0.981125
0.823743 0.985138 0.98114
0.8336 0.985168 0.981186
0.857603 0.985245 0.981369
0.899992 0.985428 0.981872
0.946197 0.985794 0.983124
0.974792 0.986191 0.985626
0.975128 0.986435 0.990143
0.93785 0.985031 0.967514
0.938033 0.985031 0.967544
0.938323 0.985031 0.967544
0.939193 0.985046 0.967605
0.94168 0.985077 0.967773
0.947936 0.985153 0.968246
0.960082 0.985306 0.969558
0.973907 0.985595 0.972885
0.974426 0.985931 0.980362
0.800427 0.77583 1
0.800427 0.77583 1
0.800427 0.77583 1
0.800427 0.77583 1
0.800427 0.77583 1
0.800427 0.77583 1
0.989364 0.787671 1
0.989364 0.787671 1
0.989029 0.802411 1
0.800427 0.77583 1
0.800427 0.77583 1
0.800427 0.77583 1
0.800427 0.77583 1
0.800427 0.77583 1
0.800427 0.77583 1
0.989364 0.787671 1
0.989364 0.787671 1
0.989029 0.802396 1
0.800427 0.77583 1
0.800427 0.77583 1
0.800427 0.77583 1
0.800427 0.77583 1
0.800427 0.77583 1
0.800427 0.77583 1
0.989364 0.787671 1
0.989364 0.787671 1
0.989029 0.802396 1
0.800427 0.77583 1
0.800427 0.77583 1
0.800427 0.77583 1
0.800427 0.77583 1
0.800427 0.77583 1
0.800427 0.775738 1
0.989364 0.787671 1
0.989364 0.787671 1
0.989029 0.802365 1
0.800427 0.775814 1
0.800427 0.775814 1
0.800427 0.775814 1
0.800427 0.775814 1
0.800427 0.775814 1
0.801968 0.775677 1
0.989364 0.787671 1
0.989364 0.787671 1
0.989029 0.802304 1
0.800427 0.775814 1
0.800427 0.775814 1
0.800427 0.775814 1
0.800427 0.775814 1
0.800427 0.775814 1
0.85539 0.777066 1
0.989364 0.787671 1
0.989364 0.787808 1
0.986404 0.882063 1
0.704845 0.956436 1
0.704768 0.956481 1
0.704662 0.956512 1
0.704326 0.956664 1
0.703304 0.957107 1
0.801862 0.940093 1
0.960784 0.935821 1
0.982559 0.944045 1
0.980789 0.962982 1
0.6822 0.987076 1
0.690013 0.987076 1
0.701778 0.987091 1
0.732509 0.987121 1
0.795316 0.987198 1
0.876051 0.987411 1
0.941909 0.987793 1
0.976608 0.987137 1
0.977691 0.98764 1
0.933059 0.987564 1
0.933272 0.987564 1
0.933639 0.987564 1
0.934722 0.987579 1
0.937789 0.987594 1
0.945388 0.987671 1
0.959319 0.987793 1
0.974289 0.987976 1
0.977417 0.988052 1
0.800336 0.776684 1
0.800336 0.776684 1
0.800336 0.776684 1
0.800336 0.776684 1
0.800336 0.776684 1
0.800336 0.776684 1
0.800336 0.776684 1
0.989349 0.788479 1
0.988815 0.810742 1
0.800336 0.776684 1
0.800336 0.776684 1
0.800336 0.776684 1
0.800336 0.776684 1
0.800336 0.776684 1
0.800336 0.776684 1
0.800336 0.776684 1
0.989349 0.788495 1
0.988815 0.810758 1
0.800336 0.776684 1
0.800336 0.776684 1
0.800336 0.776684 1
0.800336 0.776684 1
0.800336 0.776684 1
0.800336 0.776684 1
0.800336 0.776684 1
0.989349 0.788495 1
0.988815 0.810788 1
0.800336 0.776684 1
0.800336 0.776684 1
0.800336 0.776684 1
0.800336 0.776684 1
0.800336 0.776684 1
0.800336 0.776684 1
0.800336 0.776684 1
0.989349 0.788495 1
0.9888 0.810834 1
0.800336 0.776684 1
0.800336 0.776684 1
0.800336 0.776684 1
0.800336 0.776684 1
0.800336 0.776684 1
0.800336 0.776684 1
0.801892 0.776577 1
0.989349 0.78851 1
0.9888 0.810987 1
0.800336 0.776684 1
0.800336 0.776684 1
0.800336 0.776684 1
0.800336 0.776684 1
0.800336 0.776684 1
0.800336 0.776684 1
0.867277 0.777722 1
0.989349 0.788602 1
0.9888 0.811215 1
0.800336 0.776684 1
0.800336 0.776684 1
0.800336 0.776684 1
0.800336 0.776684 1
0.800336 0.776684 1
0.800336 0.776684 1
0.989364 0.787671 1
0.989334 0.788769 1
0.9888 0.811643 1
0 0.986801 1
0 0.986801 1
0 0.986801 1
0 0.986801 1
0 0.986801 1
0 0.986801 1
0.905577 0.977935 1
0.979263 0.976135 1
0.978912 0.979263 1
0.883299 0.987503 1
0.884077 0.987503 1
0.885328 0.987503 1
0.88893 0.987533 1
0.898528 0.987579 1
0.919173 0.987701 1
0.948669 0.987945 1
0.97203 0.98819 1
0.977707 0.988266 1
