BBLuts/BB_103_0940_LUT.cube
TITLE "Generated by Resolve"
LUT_3D_SIZE 33
0.0699626 0.0676738 0.0522469
0.0699626 0.0676738 0.0522469
0.0699626 0.0676738 0.0522469
0.0699626 0.0676738 0.0522469
0.0699626 0.0676738 0.0522469
0.134722 0.067628 0.0518654
0.206485 0.0681773 0.0519875
0.258595 0.0688487 0.0523079
0.309163 0.0696422 0.0527657
0.368643 0.0707408 0.0534371
0.437583 0.0721599 0.0543679
0.510567 0.0738842 0.0555428
0.577218 0.0759289 0.0569314
0.63447 0.0783703 0.0585794
0.700404 0.0812695 0.0605783
0.771038 0.0845045 0.0628367
0.843275 0.0879072 0.0652323
0.914672 0.091371 0.067689
0.977172 0.0944839 0.0699016
1 0.0968948 0.0716411
1 0.09691 0.0716564
1 0.09691 0.0716564
1 0.408774 0.13341
0.986557 0.590753 0.180026
0.977188 0.685313 0.234806
0.96878 0.771435 0.302037
0.960983 0.849607 0.3953
0.95436 0.91107 0.51754
0.949233 0.956588 0.616159
0.945174 0.991623 0.694942
0.941924 1 0.77348
0.939223 1 0.846372
0.937087 1 0.904646
0.0699626 0.0676738 0.0522469
0.0699626 0.0676738 0.0522469
0.0699626 0.0676738 0.0522469
0.0699626 0.0676738 0.0522469
0.0699626 0.0676738 0.0522469
0.150881 0.0677043 0.0518502
0.212146 0.0682536 0.052018
0.262669 0.0689097 0.0523537
0.315587 0.0697642 0.052842
0.376135 0.0708782 0.0535439
0.445151 0.0723278 0.05449
0.516182 0.0740368 0.0556497
0.579858 0.0760357 0.0570077
0.636011 0.0784314 0.0586252
0.701732 0.0813306 0.0606241
0.771954 0.0845502 0.0628672
0.843809 0.0879377 0.0652476
0.914885 0.0913863 0.067689
0.97705 0.0944686 0.0699016
1 0.0968795 0.0716259
1 0.09691 0.0716564
1 0.09691 0.0716564
0.99794 0.440909 0.120089
0.985656 0.599512 0.174105
0.976623 0.691386 0.231586
0.968399 0.775586 0.300298
0.960754 0.852277 0.393439
0.954238 0.912566 0.51664
0.949157 0.957443 0.615839
0.945129 0.992111 0.694743
0.941909 1 0.773342
0.939208 1 0.846296
0.937087 1 0.904601
0.0699626 0.0676738 0.0522469
0.0699626 0.0676738 0.0522469
0.0699626 0.0676738 0.0522469
0.0699626 0.0676738 0.0522469
0.0699626 0.0676738 0.0522469
0.160449 0.0677653 0.0518502
0.214588 0.0682841 0.0520333
0.266606 0.0689708 0.0523842
0.322286 0.0698711 0.052903
0.383337 0.0710307 0.0536202
0.45124 0.0724651 0.0545815
0.519265 0.0741283 0.0556954
0.581781 0.076112 0.0570535
0.637675 0.0785077 0.0586709
0.703059 0.0813916 0.0606699
0.772824 0.084596 0.0628824
0.844327 0.087953 0.0652628
0.915084 0.0914015 0.0677043
0.976898 0.0944686 0.0699016
1 0.096849 0.0716106
1 0.09691 0.0716564
1 0.09691 0.0716564
0.995911 0.46981 0.101457
0.984787 0.608331 0.167819
0.976059 0.697307 0.228336
0.968017 0.77969 0.298573
0.960525 0.854887 0.391562
0.954101 0.914046 0.515785
0.949081 0.958297 0.615534
0.945083 0.992599 0.694545
0.941878 1 0.773205
0.939193 1 0.84622
0.937072 1 0.90457
0.0699626 0.0676738 0.0522469
0.0699626 0.0676738 0.0522469
0.0699626 0.0676738 0.0522469
0.068864 0.0784772 0.0522316
0.10161 0.0857099 0.0518654
0.167529 0.0678264 0.0518654
0.215808 0.0682994 0.0520333
0.267185 0.0689708 0.0523842
0.323537 0.0699016 0.0529183
0.386038 0.0710765 0.053666
0.455009 0.0725414 0.0546273
0.521904 0.0742046 0.0557565
0.583566 0.0761883 0.0570993
0.639353 0.078584 0.058732
0.704402 0.0814527 0.0607004
0.773739 0.0846265 0.0629129
0.844846 0.0879835 0.0652781
0.915251 0.0914015 0.0677043
0.976745 0.0944533 0.0698863
1 0.0968338 0.0715953
1 0.09691 0.0716564
1 0.230686 0.0647898
0.993988 0.494514 0.0583963
0.983948 0.616922 0.161089
0.975525 0.703075 0.22504
0.967651 0.783703 0.296818
0.960296 0.857435 0.3897
0.953979 0.915496 0.514916
0.949004 0.959136 0.615213
0.945052 0.993057 0.694347
0.941863 1 0.773083
0.939178 1 0.846143
0.937057 1 0.904524
0.06215 0.146792 0.0523995
0.061738 0.15111 0.0524147
0.061326 0.155291 0.0524453
0.0609445 0.159304 0.0524605
0.0607919 0.160876 0.0524758
0.147234 0.159304 0.0513466
0.200565 0.156558 0.0511482
0.254826 0.150271 0.0512245
0.314794 0.136034 0.0516365
0.387076 0.071107 0.0536812
0.457267 0.0725872 0.0546578
0.524208 0.0742657 0.0558022
0.585229 0.0762646 0.0571603
0.641062 0.078645 0.0587778
0.705776 0.0815137 0.0607462
0.774639 0.0846723 0.0629435
0.84535 0.088014 0.0652934
0.915404 0.0914168 0.0677195
0.976562 0.0944533 0.0698863
1 0.0968185 0.0715801
1 0.09691 0.0716564
1 0.305379 0.0623789
0.992447 0.515496 0.0580148
0.983139 0.625162 0.153811
0.975006 0.708705 0.221698
0.9673 0.787655 0.295079
0.960082 0.859953 0.387854
0.953857 0.91693 0.514046
0.948943 0.959976 0.614908
0.945006 0.99353 0.694148
0.941833 1 0.772961
0.939162 1 0.846067
0.937057 1 0.904479
0.0577249 0.192859 0.0526741
0.0574044 0.196277 0.0527047
0.057084 0.199619 0.0527352
0.0568246 0.202304 0.0527504
0.0567025 0.203555 0.0527657
0.117494 0.202747 0.0516823
0.186465 0.20148 0.0511025
0.244495 0.198901 0.0509651
0.30602 0.193469 0.0510872
0.374273 0.182574 0.051545
0.447715 0.160723 0.052491
0.526146 0.0743267 0.0558328
0.586816 0.0763256 0.0572061
0.642817 0.0787213 0.0588235
0.707195 0.0815747 0.0607919
0.775586 0.0847181 0.0629892
0.845869 0.0880293 0.0653086
0.915572 0.0914168 0.0677195
0.976364 0.0944381 0.0698711
1 0.096788 0.0715648
1 0.09691 0.0716564
1 0.354742 0.0610971
0.991028 0.533944 0.0576944
0.982361 0.633143 0.145769
0.974487 0.714229 0.218265
0.966949 0.791562 0.293355
0.959869 0.862425 0.385992
0.953735 0.918334 0.513161
0.948867 0.9608 0.614603
0.944961 0.994003 0.69395
0.941817 1 0.772824
0.939147 1 0.845975
0.937041 1 0.904433
0.0533608 0.238682 0.0530556
0.0530861 0.24155 0.0530861
0.0528115 0.244388 0.0531014
0.0526589 0.246036 0.0531167
0.0525521 0.247089 0.0531319
0.0525216 0.247425 0.0531319
0.162615 0.245686 0.0513008
0.230396 0.244312 0.0509041
0.295872 0.241459 0.0508583
0.366567 0.235798 0.0511025
0.440375 0.224765 0.051667
0.514656 0.206149 0.0526131
0.581537 0.168795 0.0543221
0.644907 0.0788128 0.0588846
0.708919 0.081651 0.060853
0.77673 0.0847791 0.0630198
0.84651 0.0880598 0.0653391
0.91574 0.0914321 0.0677195
0.976104 0.0944228 0.0698711
1 0.0967575 0.0715496
1 0.09691 0.0716564
1 0.401984 0.0600595
0.989471 0.55378 0.0573281
0.98146 0.642527 0.134493
0.973877 0.720821 0.213977
0.966522 0.796262 0.291218
0.959609 0.8654 0.383703
0.953597 0.920027 0.512093
0.948775 0.961791 0.614237
0.944915 0.994583 0.693706
0.941787 1 0.772671
0.939132 1 0.845899
0.937041 1 0.904372
0.0483711 0.290959 0.0535439
0.048127 0.293446 0.0535744
0.0479438 0.29543 0.0535897
0.047837 0.296635 0.0536049
0.0477455 0.29749 0.0536049
0.047715 0.297932 0.0536202
0.090425 0.297047 0.0525368
0.205692 0.295521 0.0510719
0.280049 0.29395 0.050782
0.354711 0.290272 0.0508278
0.431205 0.282918 0.051194
0.509316 0.272129 0.0518654
0.577432 0.255314 0.0528878
0.635981 0.225025 0.0544594
0.705333 0.149874 0.0579843
0.778286 0.0848402 0.0630655
0.847364 0.0881056 0.0653697
0.915999 0.0914473 0.0677348
0.975723 0.0944076 0.0698558
1 0.0967269 0.071519
1 0.280293 0.0631113
0.996841 0.453666 0.0590829
0.987594 0.576638 0.0569009
0.980285 0.654459 0.115068
0.973098 0.729366 0.208087
0.965972 0.80238 0.28838
0.959274 0.869245 0.381979
0.953399 0.922255 0.510674
0.948669 0.963119 0.613733
0.944854 0.995315 0.693385
0.941741 1 0.772457
0.939116 1 0.845762
0.937026 1 0.904311
0.0425269 0.352041 0.0542
0.0423285 0.35407 0.0542153
0.042237 0.355108 0.0542306
0.0421302 0.356161 0.0542458
0.0420691 0.356878 0.0542458
0.0420233 0.357351 0.0542611
0.0419928 0.357656 0.0542611
0.150484 0.355474 0.0518502
0.252064 0.353094 0.0509346
0.334783 0.349859 0.0507362
0.417044 0.345037 0.0508888
0.501183 0.337911 0.0513771
0.573831 0.327276 0.0521401
0.632929 0.310796 0.0532235
0.698009 0.287053 0.0547799
0.766751 0.251026 0.057023
0.839933 0.186267 0.0607767
0.916304 0.0914626 0.0677501
0.975189 0.094377 0.0698405
1 0.251774 0.0638743
1 0.383932 0.060441
0.992996 0.508125 0.0581521
0.985458 0.598932 0.0563973
0.978653 0.669184 0.0549783
0.972091 0.740291 0.199863
0.965255 0.810315 0.284596
0.958831 0.874189 0.380667
0.953155 0.925139 0.508782
0.948516 0.964843 0.613077
0.944762 0.996307 0.692958
0.941695 1 0.772183
0.939086 1 0.845609
0.937011 1 0.904219
0.0358434 0.421439 0.0550088
0.0357977 0.421988 0.0550088
0.0357366 0.422507 0.055024
0.0356909 0.42298 0.055024
0.0356756 0.423239 0.055024
0.0356603 0.423301 0.0550393
0.0356756 0.423163 0.055024
0.0357214 0.422705 0.055024
0.198306 0.418601 0.0515755
0.303593 0.416205 0.0508736
0.395239 0.413001 0.050782
0.487739 0.408118 0.0510719
0.567697 0.400656 0.0516518
0.629969 0.389456 0.0524758
0.695201 0.37641 0.0536202
0.761654 0.360479 0.0550698
0.829801 0.34258 0.0568399
0.897246 0.328115 0.0587778
0.954025 0.339574 0.0600595
0.994644 0.392142 0.06009
0.995453 0.473884 0.0587472
0.989075 0.558679 0.0572366
0.982986 0.624277 0.055848
0.976867 0.687907 0.0546578
0.970825 0.754131 0.188113
0.96434 0.820645 0.279652
0.958267 0.880507 0.379049
0.95285 0.928817 0.506279
0.948318 0.967086 0.612222
0.944656 0.997589 0.692378
0.941634 1 0.771817
0.93904 1 0.84538
0.93698 1 0.904097
0.0286717 0.494789 0.0559548
0.0286107 0.495293 0.0559548
0.0285649 0.495796 0.0559701
0.0285191 0.496178 0.0559701
0.0284886 0.496452 0.0559701
0.0284733 0.49659 0.0559701
0.0284733 0.496651 0.0559701
0.0284886 0.496529 0.0559701
0.0285344 0.49604 0.0559701
0.249241 0.491203 0.0514534
0.36112 0.489097 0.0508888
0.465171 0.486091 0.0509194
0.555871 0.481132 0.0513161
0.624598 0.473793 0.051957
0.691936 0.465354 0.052842
0.758068 0.456779 0.0539559
0.824338 0.449516 0.0552529
0.88922 0.447166 0.0566567
0.944121 0.461463 0.0577096
0.98468 0.499657 0.0580911
0.989685 0.550973 0.0573739
0.985092 0.602579 0.0563211
0.980087 0.654185 0.0552529
0.974716 0.710781 0.0543069
0.969238 0.771405 0.17055
0.963226 0.833112 0.27332
0.957549 0.888411 0.377081
0.952453 0.933501 0.502953
0.948074 0.969985 0.611078
0.944518 0.999268 0.69163
0.941543 1 0.771328
0.938994 1 0.845075
0.93695 1 0.903914
0.0204318 0.566171 0.0570535
0.0203861 0.566567 0.0570535
0.0203403 0.566934 0.0570687
0.0202945 0.567224 0.0570687
0.020264 0.567437 0.0570687
0.0202487 0.567605 0.057084
0.0202335 0.567727 0.057084
0.0202182 0.567788 0.057084
0.0202487 0.567651 0.057084
0.0202945 0.567239 0.0570687
0.302098 0.562188 0.0513619
0.426337 0.560571 0.0509346
0.535653 0.558358 0.0510872
0.614176 0.555016 0.0514992
0.685161 0.550866 0.0522011
0.753368 0.547173 0.0531014
0.819226 0.545525 0.054139
0.881987 0.548043 0.0552377
0.934783 0.559747 0.0560922
0.974746 0.582803 0.0565347
0.984421 0.609506 0.0561685
0.980941 0.645396 0.0554208
0.976791 0.688777 0.0546578
0.972137 0.73814 0.0539101
0.967315 0.792569 0.1411
0.961868 0.84828 0.265293
0.95668 0.898161 0.374807
0.951965 0.939422 0.498512
0.947753 0.973678 0.609583
0.944335 1 0.690608
0.941436 1 0.770657
0.938918 1 0.844678
0.936919 1 0.9037
0.0109255 0.62829 0.0583352
0.0108644 0.628565 0.0583352
0.0108339 0.628809 0.0583352
0.0108034 0.629007 0.0583505
0.0107729 0.629175 0.0583505
0.0107424 0.629313 0.0583505
0.0107271 0.62945 0.0583505
0.0107118 0.629541 0.0583658
0.0106966 0.629618 0.0583658
0.0106966 0.629694 0.0583658
0.148363 0.626383 0.0537728
0.360967 0.624704 0.0512551
0.501015 0.62388 0.0509346
0.596277 0.622385 0.0511025
0.672343 0.620401 0.0515602
0.744625 0.618647 0.0522621
0.812818 0.618128 0.0531167
0.874662 0.620386 0.0540169
0.925536 0.627802 0.0547341
0.964477 0.6421 0.0551766
0.979202 0.663371 0.0550851
0.976471 0.69218 0.0545968
0.973083 0.728069 0.0540475
0.969162 0.770245 0.0534981
0.964797 0.817853 0.0529793
0.960281 0.866224 0.255482
0.955642 0.909819 0.372427
0.951308 0.946731 0.49633
0.947356 0.978317 0.607599
0.944106 1 0.689296
0.941283 1 0.769787
0.938842 1 0.844144
0.936858 1 0.903395
0 0.695857 0.0600137
0 0.696071 0.060029
0 0.696269 0.060029
0 0.696437 0.060029
0 0.696574 0.0600443
0 0.696712 0.0600443
0 0.696818 0.0600443
0 0.696941 0.0600443
0 0.697032 0.0600443
0 0.697063 0.0600443
0 0.696956 0.0600443
0.227558 0.691676 0.0529488
0.439353 0.690181 0.0511482
0.570596 0.688945 0.0509346
0.652522 0.687312 0.0510872
0.730144 0.685649 0.0515755
0.802686 0.684733 0.0522774
0.865843 0.686091 0.0530251
0.915343 0.691859 0.0536507
0.952956 0.703059 0.0540627
0.973861 0.719799 0.0541695
0.971725 0.742657 0.0538491
0.969009 0.771832 0.0534829
0.965759 0.80708 0.0530861
0.962173 0.846647 0.0527199
0.958465 0.886717 0.24416
0.954421 0.923354 0.370321
0.950515 0.95555 0.497047
0.946868 0.983993 0.604913
0.943816 1 0.687541
0.9411 1 0.768612
0.93872 1 0.843427
0.936797 1 0.902998
0 0.766247 0.0619974
0 0.766369 0.0619974
0 0.766491 0.0620127
0 0.766583 0.0620127
0 0.766659 0.0620127
0 0.76672 0.0620127
0 0.766781 0.0620127
0 0.766812 0.0620127
0 0.766842 0.0620127
0 0.766781 0.0620127
0 0.766613 0.0620127
0 0.766186 0.0619974
0.33492 0.758785 0.0521553
0.527184 0.757321 0.0510719
0.625818 0.755856 0.0508888
0.70927 0.754238 0.0511177
0.787015 0.752911 0.0516213
0.852995 0.753262 0.0522469
0.902983 0.757137 0.052781
0.939864 0.765499 0.0531624
0.968399 0.778485 0.0534066
0.966751 0.796338 0.0532082
0.964614 0.819806 0.0529641
0.962112 0.847318 0.0527047
0.959365 0.877546 0.0524605
0.956481 0.909133 0.232425
0.953063 0.938506 0.369192
0.949554 0.965972 0.498543
0.946288 0.990799 0.601984
0.943465 1 0.685237
0.940871 1 0.767071
0.938582 1 0.842496
0.936706 1 0.90248
0 0.837385 0.0638285
0 0.837446 0.0638285
0 0.837491 0.0638285
0 0.837522 0.0638285
0 0.837537 0.0638285
0 0.837552 0.0638285
0 0.837552 0.0638285
0 0.837522 0.0638285
0 0.837461 0.0638285
0 0.837339 0.0638132
0 0.837064 0.0638132
0 0.836561 0.063798
0 0.83563 0.0637827
0.45388 0.826612 0.0516823
0.592432 0.825071 0.0509957
0.682658 0.823453 0.0509041
0.765148 0.821881 0.0511788
0.834791 0.821454 0.0516365
0.886656 0.823651 0.052079
0.924483 0.829313 0.05243
0.952804 0.838621 0.0526741
0.96173 0.851499 0.0526741
0.96025 0.867735 0.0525368
0.958495 0.88716 0.0523842
0.956527 0.908965 0.0522316
0.954421 0.932357 0.223285
0.951537 0.955337 0.369772
0.948455 0.977844 0.50132
0.945571 0.998611 0.603983
0.943038 1 0.682216
0.940581 1 0.765042
0.938399 1 0.841245
0.936584 1 0.901778
0 0.90576 0.0654154
0 0.905745 0.0654154
0 0.905715 0.0654154
0 0.905699 0.0654002
0 0.905653 0.0654002
0 0.905608 0.0654002
0 0.905547 0.0654002
0 0.905455 0.0654002
0 0.905303 0.0654002
0 0.905043 0.0654002
0 0.904646 0.0653849
0 0.903975 0.0653697
0 0.902922 0.0653391
0.337453 0.893339 0.0531319
0.553613 0.891173 0.0514229
0.653346 0.889204 0.0509346
0.740368 0.88719 0.0509651
0.812787 0.885817 0.0512398
0.867124 0.886091 0.0515755
0.907393 0.888594 0.0518959
0.936965 0.89369 0.0521248
0.957183 0.90161 0.0522774
0.956268 0.911803 0.0522011
0.955139 0.924376 0.0521248
0.953841 0.938903 0.0520333
0.952316 0.955856 0.2206
0.949889 0.973312 0.373526
0.94725 0.990784 0.506172
0.944747 1 0.606851
0.942504 1 0.680705
0.940246 1 0.762356
0.938186 1 0.839597
0.936446 1 0.900832
0 0.962371 0.0666819
0 0.96228 0.0666819
0 0.962219 0.0666819
0 0.962127 0.0666819
0 0.962036 0.0666819
0 0.961944 0.0666819
0 0.961822 0.0666819
0 0.961639 0.0666667
0 0.961379 0.0666667
0 0.960998 0.0666514
0 0.960449 0.0666361
0 0.959594 0.0666209
0 0.958389 0.0666056
0.20621 0.949279 0.055787
0.512505 0.945617 0.0519722
0.630091 0.943221 0.051133
0.719936 0.940734 0.0509346
0.792874 0.938674 0.0510414
0.848386 0.937621 0.0512856
0.890852 0.937865 0.051545
0.92221 0.939818 0.0517739
0.944762 0.943771 0.0519265
0.95288 0.949599 0.0519722
0.952193 0.957397 0.0519265
0.951324 0.967132 0.0518807
0.950195 0.97911 0.229129
0.948196 0.991516 0.382605
0.945968 1 0.514061
0.943832 1 0.610849
0.941833 1 0.684153
0.939849 1 0.758846
0.937926 1 0.8374
0.936278 1 0.89958
0 1 0.067628
0 1 0.067628
0 1 0.067628
0 1 0.067628
0 1 0.067628
0 1 0.0676127
0 1 0.0676127
0 1 0.0676127
0 1 0.0675975
0 1 0.0675975
0 1 0.0675822
0 1 0.0675517
0 1 0.0675212
0.153216 0.991745 0.0575418
0.495964 0.987121 0.0523384
0.619471 0.984527 0.0513313
0.707942 0.981888 0.0509804
0.77879 0.979553 0.0509804
0.833173 0.97792 0.051133
0.876265 0.977096 0.0513313
0.908751 0.977447 0.0515297
0.932799 0.979156 0.0516976
0.949966 0.982315 0.0518044
0.949569 0.986862 0.0517891
0.94902 0.992905 0.0517586
0.94815 1 0.253529
0.946517 1 0.399649
0.944656 1 0.525979
0.942824 1 0.616617
0.94107 1 0.688975
0.93933 1 0.761547
0.937621 1 0.834485
0.936065 1 0.897932
0 1 0.0683604
0 1 0.0683452
0 1 0.0683452
0 1 0.0683452
0 1 0.0683452
0 1 0.0683452
0 1 0.0683299
0 1 0.0683299
0 1 0.0683146
0 1 0.0682994
0 1 0.0682841
0 1 0.0682689
0 1 0.0682383
0.2551 1 0.0555734
0.512718 1 0.0524147
0.622965 1 0.0514229
0.704692 1 0.0510414
0.770474 1 0.0509804
0.822385 1 0.0510719
0.864378 1 0.0512093
0.89691 1 0.0513771
0.922087 1 0.0515145
0.941512 1 0.0516518
0.947372 1 0.0516823
0.947082 1 0.051667
0.946242 1 0.294087
0.944854 1 0.42652
0.943267 1 0.54258
0.941756 1 0.625299
0.940261 1 0.695674
0.93872 1 0.766659
0.937224 1 0.834806
0.935821 1 0.89575
0 1 0.0688792
0 1 0.068864
0 1 0.068864
0 1 0.068864
0 1 0.0688487
0 1 0.0688487
0 1 0.0688487
0 1 0.0688487
0 1 0.0688334
0 1 0.0688182
0 1 0.0688029
0 1 0.0687877
0 1 0.0687572
0.398993 1 0.053666
0.557443 1 0.0521706
0.640894 1 0.0514076
0.711208 1 0.0510872
0.76939 1 0.0509957
0.817075 1 0.0510414
0.856657 1 0.0511482
0.887861 1 0.0512856
0.913146 1 0.0514076
0.933227 1 0.0515297
0.945541 1 0.051606
0.945357 1 0.201099
0.944381 1 0.347158
0.943191 1 0.464668
0.941894 1 0.564614
0.940658 1 0.637415
0.939406 1 0.704906
0.938064 1 0.773587
0.936736 1 0.839338
0.935515 1 0.894774
0 1 0.0692607
0 1 0.0692607
0 1 0.0692607
0 1 0.0692454
0 1 0.0692454
0 1 0.0692454
0 1 0.0692454
0 1 0.0692302
0 1 0.0692302
0 1 0.0692149
0 1 0.0691997
0.185992 1 0.057557
0.396902 1 0.0538643
0.527489 1 0.0525673
0.604379 1 0.0517739
0.668223 1 0.0513161
0.724987 1 0.0510872
0.773709 1 0.0510262
0.816236 1 0.0510414
0.852277 1 0.0511177
0.881376 1 0.0512245
0.905791 1 0.0513313
0.925795 1 0.0514382
0.941482 1 0.106996
0.943435 1 0.300359
0.94258 1 0.410742
0.941573 1 0.510872
0.940551 1 0.592203
0.939574 1 0.653758
0.938506 1 0.717327
0.937362 1 0.782925
0.936202 1 0.84535
0.935134 1 0.898283
0 1 0.0695506
0 1 0.0695354
0 1 0.0695354
0 1 0.0695354
0 1 0.0695354
0 1 0.0695201
0.0878614 1 0.0607767
0.203876 1 0.0572976
0.28632 1 0.0556039
0.361685 1 0.0544442
0.436652 1 0.0535592
0.506386 1 0.0528725
0.563546 1 0.0522927
0.6094 1 0.0518044
0.655909 1 0.0514382
0.701442 1 0.0512093
0.744305 1 0.0510719
0.783764 1 0.0510414
0.819852 1 0.0510567
0.851392 1 0.0511177
0.877791 1 0.051194
0.900755 1 0.0512856
0.919982 1 0.153979
0.93492 1 0.291066
0.941649 1 0.389029
0.940871 1 0.481407
0.940078 1 0.558984
0.9393 1 0.619715
0.938506 1 0.674983
0.937606 1 0.7337
0.936629 1 0.795178
0.935637 1 0.853208
0.934737 1 0.902907
0.493034 1 0.0531014
0.503838 1 0.0529946
0.513848 1 0.0528878
0.523171 1 0.0527962
0.531868 1 0.0527047
0.540078 1 0.0526284
0.549493 1 0.0525368
0.55996 1 0.0524147
0.571099 1 0.0522774
0.585733 1 0.0521096
0.603449 1 0.0519265
0.62443 1 0.0517281
0.648692 1 0.051545
0.675914 1 0.0513619
0.705379 1 0.0512245
0.736095 1 0.117159
0.766812 1 0.147143
0.797803 1 0.174701
0.827039 1 0.202914
0.853223 1 0.233204
0.876478 1 0.266453
0.897231 1 0.303548
0.914794 1 0.34548
0.929198 1 0.407004
0.939925 1 0.479591
0.939315 1 0.546914
0.938704 1 0.605173
0.938125 1 0.651713
0.937453 1 0.701473
0.936706 1 0.754742
0.935882 1 0.810712
0.935073 1 0.863279
0.93431 1 0.908843
0.645167 1 0.381567
0.648203 1 0.381765
0.651179 1 0.381949
0.654093 1 0.382162
0.656962 1 0.382345
0.65977 1 0.382559
0.663142 1 0.382803
0.667552 1 0.383139
0.673228 1 0.383581
0.680446 1 0.384207
0.689525 1 0.385046
0.700694 1 0.386175
0.714153 1 0.387717
0.729854 1 0.389853
0.747814 1 0.392721
0.768063 1 0.396628
0.790326 1 0.401877
0.813153 1 0.408911
0.835584 1 0.418219
0.856611 1 0.430442
0.876677 1 0.446311
0.895018 1 0.466911
0.910918 1 0.491905
0.924605 1 0.520211
0.935805 1 0.560998
0.937942 1 0.605509
0.937514 1 0.644526
0.937026 1 0.68748
0.936461 1 0.73283
0.935836 1 0.780789
0.935164 1 0.829725
0.934493 1 0.876143
0.933867 1 0.916472
0.727596 1 0.544457
0.729076 1 0.544564
0.73051 1 0.544671
0.731945 1 0.544778
0.733364 1 0.5449
0.734752 1 0.545022
0.736446 1 0.545159
0.738689 1 0.545342
0.741604 1 0.545586
0.745403 1 0.545922
0.750271 1 0.54638
0.756481 1 0.54699
0.764233 1 0.547814
0.773739 1 0.548898
0.785412 1 0.550378
0.798642 1 0.552361
0.813443 1 0.555016
0.829328 1 0.558556
0.845624 1 0.563226
0.862409 1 0.569345
0.879026 1 0.577249
0.894652 1 0.587366
0.90869 1 0.599802
0.921233 1 0.612528
0.931899 1 0.628565
0.936782 1 0.654856
0.936431 1 0.688457
0.936019 1 0.726436
0.935531 1 0.767681
0.935012 1 0.810437
0.934462 1 0.85182
0.933928 1 0.891081
0.933425 1 0.92604
0.783948 1 0.643565
0.784741 1 0.64361
0.78555 1 0.643687
0.786328 1 0.643748
0.787121 1 0.643793
0.7879 1 0.64387
0.788846 1 0.643946
0.790097 1 0.644038
0.79173 1 0.644175
0.793866 1 0.644358
0.796643 1 0.644587
0.800214 1 0.644907
0.80473 1 0.64535
0.810361 1 0.64593
0.817227 1 0.646693
0.82536 1 0.64773
0.83473 1 0.649119
0.845487 1 0.650965
0.85745 1 0.653437
0.870253 1 0.656718
0.883314 1 0.661036
0.895979 1 0.666728
0.907988 1 0.674159
0.919066 1 0.683772
0.92871 1 0.696086
0.935668 1 0.71165
0.935424 1 0.736751
0.935073 1 0.768978
0.934676 1 0.804852
0.934249 1 0.841108
0.933822 1 0.876081
0.93341 1 0.907897
0.932998 1 0.937621
0.82356 1 0.726116
0.823987 1 0.726177
0.824399 1 0.726207
0.824811 1 0.726268
0.825223 1 0.726299
0.82565 1 0.72636
0.826154 1 0.726406
0.82681 1 0.726467
0.827695 1 0.726574
