BBLuts/BB_103_0770_LUT.cube
TITLE "Generated by Resolve"
LUT_3D_SIZE 5
0.00477607 0 0.0194705
0.139254 0.00572213 0.0323491
0.915251 0 0
1 0.581506 0.243671
1 1 0.946975
0 0.214298 0
0.0709087 0.228748 0.00595102
0.898726 0.0943008 0
1 0.681437 0.190509
1 1 0.946624
0 0.912413 0
0 0.911818 0
0.689815 0.931411 0.0315709
1 0.996246 0.0468452
1 1 0.943862
0.40763 1 0.369177
0.492561 1 0.369162
0.800992 1 0.384314
1 1 0.580087
1 1 0.960632
1 1 1
1 1 1
1 1 1
1 1 1
1 1 1
0 0 0.313466
0.115084 0 0.324147
0.905455 0 0.313176
1 0.557733 0.471351
1 1 0.957473
0 0.173388 0.2663
0.0765393 0.181567 0.272694
0.90779 0 0.290761
1 0.664958 0.446555
1 1 0.957168
0 0.907332 0
0 0.906645 0
0.700298 0.926497 0.0310674
1 0.991226 0.195377
1 1 0.954833
0.421286 1 0.367987
0.503624 1 0.368093
0.804257 1 0.383688
1 1 0.580011
1 1 0.960586
1 1 1
1 1 1
1 1 1
1 1 1
1 1 1
0 0 0.92845
0 0 0.928588
0.905638 0 0.941802
1 0.213977 0.937026
1 1 1
0 0 0.927291
0 0 0.927459
0.922438 0 0.940475
1 0.472282 0.933059
1 1 1
0 0.833875 0.866651
0 0.834424 0.86688
0.655116 0.856199 0.899794
1 0.952163 0.915892
1 1 1
0.414755 1 0.823972
0.494072 1 0.82388
0.786816 1 0.825025
1 1 0.86215
1 1 0.993271
1 1 1
1 1 1
1 1 1
1 1 1
1 1 1
0 0 1
0 0 1
0 0 1
1 0 1
1 1 1
0 0 1
0 0 1
0 0 1
1 0 1
1 1 1
0 0 1
0 0 1
0.260746 0 1
1 0 1
1 1 1
0 1 1
0 1 1
0.514183 1 1
1 1 1
1 1 1
1 1 1
1 1 1
1 1 1
1 1 1
1 1 1
0 0.293523 1
0 0.293523 1
0 0.293538 1
0 0.293721 1
1 0.826383 1
0 0.293492 1
0 0.293492 1
0 0.293523 1
0 0.293706 1
1 0.826535 1
0 0.293355 1
0 0.293355 1
0 0.29337 1
0.242969 0.298238 1
1 0.827726 1
0 0.291966 1
0 0.291966 1
0 0.291981 1
1 0 1
1 0.83151 1
0.940505 1 1
0.944213 1 1
0.969116 1 1
1 1 1
1 1 1
