BBLuts/BB_101_0310_LUT.cube
TITLE "Generated by Resolve"
LUT_3D_SIZE 9
0.0111696 0.0111696 0.0111696
0.0112764 0.0112306 0.0111696
0.0355077 0.0155184 0.0117952
0.15227 0.0194247 0.0117952
0.637964 0.0128176 0.0128176
0.970535 0.0138857 0.0138857
0.893248 0.39086 0.011841
0.902327 0.732998 0.359792
0.9234 0.869978 0.752132
0.0139467 0.0166476 0.0124056
0.0147707 0.017258 0.0126955
0.0353704 0.0195773 0.0121309
0.160174 0.0193637 0.0116884
0.641154 0.0128176 0.0128176
0.97052 0.0138857 0.0138857
0.887083 0.418891 0.0117952
0.902632 0.735531 0.363378
0.923461 0.870222 0.752361
0.011368 0.0802167 0.019852
0.0112459 0.0832227 0.0199741
0.0413214 0.0862745 0.0234073
0.221469 0.0996567 0.0120851
0.625666 0.0128328 0.0127718
0.945968 0.0140993 0.0138094
0.880323 0.453223 0.0117494
0.903136 0.739727 0.36936
0.923522 0.870466 0.752529
0.0116884 0.304479 0.0261997
0.0116884 0.305241 0.0262455
0.0116884 0.306127 0.0262913
0.202457 0.290867 0.0725567
0.551324 0.302129 0.01149
0.88629 0.353414 0.0118868
0.878019 0.54049 0.0130312
0.905043 0.754681 0.391928
0.923903 0.871931 0.753796
0.020676 0.616922 0.116533
0.020676 0.616922 0.116533
0.0205234 0.616571 0.116274
0.0196078 0.614343 0.11458
0.535897 0.603937 0.171176
0.833051 0.627512 0.149767
0.896452 0.690501 0.18291
0.911345 0.793515 0.452537
0.925353 0.877455 0.758495
0.381842 0.843214 0.276173
0.381842 0.843214 0.276173
0.381842 0.843214 0.276173
0.374166 0.837446 0.272236
0.650019 0.808148 0.395865
0.824323 0.818128 0.329656
0.919387 0.825742 0.315831
0.922133 0.852827 0.552483
0.929274 0.891768 0.775738
0.662837 0.906844 0.478172
0.662837 0.906844 0.478172
0.662837 0.906844 0.478172
0.662837 0.906844 0.478172
0.776913 0.895994 0.538643
0.86273 0.893431 0.55877
0.925399 0.899474 0.545846
0.93402 0.903578 0.696376
0.937835 0.913024 0.813016
0.856062 0.917556 0.742519
0.856062 0.917556 0.742519
0.856062 0.917556 0.742519
0.856062 0.917556 0.742519
0.856062 0.917556 0.742519
0.896147 0.918044 0.782635
0.929778 0.922911 0.795468
0.943038 0.927047 0.809232
0.945724 0.92665 0.849363
0.92163 0.925307 0.856306
0.92163 0.925307 0.856306
0.92163 0.925307 0.856306
0.92163 0.925307 0.856306
0.92163 0.925307 0.856306
0.92163 0.925307 0.856306
0.935027 0.927337 0.859983
0.946365 0.929763 0.864713
0.948394 0.929839 0.872358
0.0112306 0.0116884 0.012253
0.0112306 0.0116884 0.0122683
0.0282444 0.0154726 0.0182345
0.173922 0.0153658 0.0227665
0.679698 0.0129397 0.0129397
0.988922 0.0139467 0.0139467
0.899306 0.386526 0.0118563
0.902327 0.732998 0.359792
0.9234 0.869978 0.752132
0.0120394 0.0148775 0.0147707
0.0152285 0.0164645 0.016083
0.0333562 0.01561 0.0175174
0.17464 0.0153353 0.0193484
0.650462 0.0128481 0.0128481
0.975769 0.013901 0.013901
0.890013 0.416419 0.0117952
0.902632 0.735531 0.363378
0.923461 0.870222 0.752361
0.0123445 0.0718395 0.0197147
0.0120546 0.0742962 0.0200046
0.0472877 0.0796521 0.0236057
0.216663 0.0918288 0.0117342
0.627115 0.0127718 0.0127718
0.948302 0.0139315 0.0138094
0.881865 0.451453 0.0117494
0.903136 0.739727 0.36936
0.923522 0.870466 0.752529
0.0116732 0.300282 0.0259709
0.0116732 0.30106 0.0260166
0.0116732 0.301839 0.0260471
0.207065 0.287709 0.0688029
0.550546 0.29839 0.01149
0.88658 0.34963 0.011902
0.877974 0.539605 0.0128939
0.905043 0.754681 0.391928
0.923903 0.871931 0.753796
0.0199435 0.615167 0.115206
0.0199435 0.615167 0.115206
0.0198062 0.614816 0.114931
0.0188449 0.612467 0.113146
0.537209 0.602716 0.168246
0.832853 0.626505 0.148699
0.896406 0.690242 0.182589
0.911345 0.793515 0.452537
0.925353 0.877455 0.758495
0.381033 0.842603 0.275761
0.381231 0.842756 0.275868
0.381231 0.842756 0.275868
0.373754 0.83714 0.272023
0.651331 0.807904 0.396658
0.824414 0.817884 0.329168
0.919387 0.825742 0.315831
0.922133 0.852827 0.552483
0.929274 0.891768 0.775738
0.664897 0.906722 0.478767
0.664897 0.906722 0.478767
0.664897 0.906722 0.478767
0.664897 0.906722 0.478767
0.777554 0.89601 0.539071
0.862776 0.893324 0.55819
0.925399 0.899474 0.545846
0.93402 0.903578 0.696376
0.937835 0.913024 0.813016
0.856245 0.917556 0.742611
0.856245 0.917556 0.742611
0.856245 0.917556 0.742611
0.856245 0.917556 0.742611
0.856245 0.917556 0.742611
0.896223 0.918044 0.782696
0.929778 0.922911 0.795407
0.943038 0.927047 0.809232
0.945724 0.92665 0.849363
0.92163 0.925307 0.856306
0.92163 0.925307 0.856306
0.92163 0.925307 0.856306
0.92163 0.925307 0.856306
0.92163 0.925307 0.856306
0.92163 0.925307 0.856306
0.935027 0.927337 0.859983
0.946365 0.929763 0.864713
0.948394 0.929839 0.872358
0.012314 0.0117647 0.0191806
0.0123293 0.0117647 0.0191958
0.0220035 0.0157015 0.0283055
0.136309 0.0286259 0.079469
0.603845 0.0126497 0.121477
0.968887 0.0137942 0.118975
0.938521 0.353491 0.0326848
0.903258 0.732876 0.370947
0.9234 0.869978 0.752132
0.0122225 0.0117494 0.0189059
0.0122377 0.0117494 0.0189517
0.0245212 0.016083 0.0290532
0.135576 0.0284886 0.0780652
0.613581 0.0126802 0.117144
0.976501 0.0138247 0.11017
0.927062 0.391241 0.0228428
0.903502 0.73547 0.374685
0.923461 0.870222 0.752361
0.0117342 0.0598764 0.076112
0.01149 0.0616007 0.0777295
0.0324254 0.066453 0.0833143
0.215763 0.0652171 0.10071
0.634913 0.0127413 0.104417
0.993088 0.013901 0.0684977
0.914641 0.432563 0.0150149
0.903929 0.739727 0.380789
0.923522 0.870466 0.752529
0.0116121 0.28954 0.0687266
0.0116121 0.290623 0.0689403
0.0116121 0.291295 0.0697185
0.205081 0.277745 0.103807
0.550835 0.289631 0.0151827
0.906844 0.331014 0.0119631
0.88687 0.536965 0.0218662
0.905486 0.75491 0.401907
0.923903 0.871931 0.753796
0.0186007 0.611887 0.112688
0.0186007 0.611887 0.112688
0.0184634 0.611536 0.112428
0.0175479 0.609308 0.110735
0.537331 0.59939 0.162966
0.831937 0.623438 0.145632
0.895796 0.688182 0.182071
0.91133 0.793301 0.452964
0.925353 0.877455 0.758495
0.380224 0.842008 0.275349
0.380224 0.842008 0.275349
0.380224 0.842008 0.275349
0.372717 0.836362 0.271504
0.653513 0.807385 0.397833
0.824826 0.817685 0.328527
0.919341 0.825483 0.315801
0.922103 0.852689 0.552239
0.929274 0.891768 0.775738
0.667704 0.906554 0.48011
0.667704 0.906554 0.48011
0.667704 0.906554 0.48011
0.667704 0.906554 0.48011
0.778378 0.895888 0.539467
0.86305 0.89337 0.55761
0.925399 0.899474 0.545571
0.93402 0.903578 0.6963
0.937835 0.913024 0.813016
0.856504 0.917571 0.742794
0.856504 0.917571 0.742794
0.856504 0.917571 0.742794
0.856504 0.917571 0.742794
0.856504 0.917571 0.742794
0.8963 0.918044 0.782757
0.929854 0.922942 0.795346
0.943038 0.927047 0.809232
0.945724 0.92665 0.849363
0.92163 0.925307 0.856306
0.92163 0.925307 0.856306
0.92163 0.925307 0.856306
0.92163 0.925307 0.856306
0.92163 0.925307 0.856306
0.92163 0.925307 0.856306
0.935027 0.927337 0.859983
0.946365 0.929763 0.864713
0.948394 0.929839 0.872358
0.0186007 0.0162356 0.0491646
0.018616 0.0162356 0.0491951
0.0186465 0.0162356 0.0492561
0.11873 0.032166 0.159792
0.513863 0.0497902 0.280751
0.823713 0.0133364 0.317479
0.910735 0.308003 0.334829
0.916243 0.728908 0.44419
0.923568 0.869718 0.758144
0.0184787 0.0162051 0.0488289
0.0184939 0.0162051 0.0488594
0.0190127 0.0162509 0.0508125
0.128832 0.0327153 0.165072
0.512474 0.0491798 0.27924
0.824262 0.0133364 0.315328
0.927947 0.335271 0.326223
0.915877 0.731945 0.447547
0.923629 0.869963 0.758373
0.0180667 0.0215915 0.0674449
0.0180362 0.0219272 0.0688029
0.0188296 0.0220645 0.0711528
0.133257 0.0329747 0.166293
0.50634 0.0486305 0.275868
0.82533 0.0133364 0.311223
0.947219 0.370306 0.3131
0.915297 0.736751 0.453071
0.923705 0.870207 0.758587
0.0115053 0.25304 0.269947
0.0115053 0.253712 0.269978
0.0115053 0.255268 0.270466
0.168246 0.252781 0.267201
0.556207 0.237079 0.270191
0.93109 0.245228 0.26894
0.937713 0.493721 0.258518
0.913314 0.753841 0.473106
0.924086 0.871672 0.759915
0.0157015 0.601038 0.263478
0.0157015 0.601038 0.263478
0.0159457 0.601267 0.264149
0.0144808 0.599023 0.265095
0.533349 0.586954 0.330159
0.830533 0.621332 0.257237
0.901274 0.690166 0.308049
0.912978 0.794476 0.535332
0.925505 0.87718 0.764736
0.376806 0.839414 0.283635
0.376806 0.839414 0.283635
0.376806 0.839414 0.283635
0.369528 0.833951 0.280018
0.648478 0.805447 0.39823
0.822324 0.815152 0.377539
0.916503 0.826932 0.460304
0.921279 0.853239 0.608118
0.92929 0.89163 0.777173
0.676051 0.905699 0.481697
0.676051 0.905699 0.481697
0.676051 0.905699 0.481697
0.676051 0.905699 0.481697
0.780682 0.895491 0.54049
0.863447 0.893202 0.555642
0.925475 0.899245 0.544656
0.933974 0.903456 0.695827
0.937835 0.913039 0.81297
0.857481 0.917601 0.743465
0.857481 0.917601 0.743465
0.857481 0.917601 0.743465
0.857481 0.917601 0.743465
0.857481 0.917601 0.743465
0.89662 0.918029 0.782971
0.929931 0.922957 0.795224
0.943038 0.927047 0.809186
0.945724 0.92665 0.849332
0.921721 0.925307 0.856306
0.921721 0.925307 0.856306
0.921721 0.925307 0.856306
0.921721 0.925307 0.856306
0.921721 0.925307 0.856306
0.921721 0.925307 0.856306
0.935103 0.927337 0.859998
0.946349 0.929763 0.864668
0.948394 0.929839 0.872358
0.016968 0.0278782 0.208042
0.016968 0.0278782 0.208042
0.016968 0.0278782 0.208042
0.017258 0.027985 0.225849
0.448798 0.0864881 0.538628
0.750134 0.0813764 0.57847
0.770535 0.193439 0.588617
0.923461 0.698238 0.694789
0.928222 0.868833 0.794675
0.0169833 0.027863 0.207919
0.0169833 0.027863 0.207919
0.0169833 0.027863 0.207919
0.0174258 0.027985 0.227131
0.452522 0.0875715 0.538354
0.75021 0.081178 0.577951
0.783963 0.243809 0.592065
0.924758 0.701717 0.693858
0.928237 0.86894 0.794766
0.0171359 0.0278477 0.206607
0.0171359 0.0278477 0.206607
0.0171206 0.0278477 0.206744
0.0228885 0.0293431 0.273442
0.458579 0.0888838 0.537682
0.750393 0.080705 0.576684
0.801358 0.307622 0.599207
0.926696 0.707012 0.692363
0.928283 0.869291 0.795117
0.0115206 0.101472 0.478492
0.0115206 0.101472 0.478492
0.0115206 0.104311 0.481941
0.0115511 0.100099 0.496696
0.462104 0.106264 0.53257
0.760616 0.129473 0.564294
0.84303 0.448417 0.620798
0.931243 0.727398 0.685817
0.928527 0.870771 0.796689
0.0120546 0.554055 0.591134
0.0120546 0.554055 0.591134
0.0120546 0.554055 0.591134
0.0120546 0.553948 0.591577
0.477256 0.552636 0.585351
0.822782 0.573419 0.611261
0.926085 0.648371 0.630991
0.927581 0.783749 0.674754
0.929397 0.876127 0.802258
0.404532 0.836454 0.647608
0.404532 0.836454 0.647608
0.404746 0.836606 0.647684
0.39855 0.832441 0.645869
0.576272 0.815335 0.645014
0.812573 0.812345 0.689311
0.916671 0.828031 0.673335
0.921553 0.853651 0.734874
0.931884 0.890272 0.816312
0.670253 0.907134 0.657435
0.670253 0.907134 0.657435
0.670253 0.907134 0.657435
0.670253 0.907134 0.657435
0.753643 0.903243 0.671595
0.860471 0.896605 0.734997
0.92047 0.899443 0.74406
0.933944 0.904875 0.780255
0.939788 0.912352 0.831937
0.86041 0.917678 0.745357
0.86041 0.917678 0.745357
0.86041 0.917678 0.745357
0.86041 0.917678 0.745357
0.86041 0.917678 0.745357
0.897642 0.918029 0.783688
0.930251 0.923018 0.794751
0.943038 0.927047 0.809094
0.945724 0.92665 0.849302
0.922057 0.925338 0.856428
0.922057 0.925338 0.856428
0.922057 0.925338 0.856428
0.922057 0.925338 0.856428
0.922057 0.925338 0.856428
0.922057 0.925338 0.856428
0.93518 0.927337 0.859983
0.946349 0.929763 0.864668
0.948379 0.929839 0.872328
0.0120699 0.0185855 0.700954
0.0120699 0.018555 0.701244
0.0120699 0.018555 0.701244
0.0120699 0.018555 0.701244
0.0623941 0.0564126 0.864286
0.743786 0.0946517 0.843198
0.745708 0.0943008 0.843915
0.853147 0.6336 0.802777
0.931945 0.862608 0.843015
0.0120699 0.018555 0.701244
0.0120699 0.018555 0.701244
0.0120699 0.018555 0.701244
0.0120699 0.018555 0.701244
0.0600443 0.0562142 0.86421
0.743786 0.0946517 0.843198
0.745708 0.0943008 0.843748
0.855207 0.640482 0.803052
0.932036 0.862837 0.842954
0.0120699 0.018555 0.701244
0.0120699 0.018555 0.701244
0.0120699 0.018555 0.701244
0.0120699 0.018555 0.701244
0.0923018 0.0588998 0.864851
0.743923 0.0946517 0.843
0.745708 0.094316 0.84358
0.85832 0.650889 0.803616
0.932158 0.863203 0.843
0.0120699 0.0186618 0.700084
0.0120699 0.0186618 0.700084
0.0120699 0.0186618 0.700084
0.0120699 0.0186618 0.700084
0.210651 0.0678569 0.865538
0.744305 0.0946517 0.8421
0.745647 0.0946822 0.840909
0.868727 0.685466 0.806531
0.932769 0.865019 0.843061
0.0118868 0.313817 0.838178
0.0118868 0.313817 0.838178
0.0118868 0.313817 0.838178
0.0118868 0.316869 0.837888
0.240223 0.315114 0.830915
0.769802 0.361089 0.805386
0.828962 0.546456 0.793729
0.894209 0.76054 0.816846
0.934203 0.872053 0.844862
0.398077 0.818494 0.819425
0.398077 0.818494 0.819425
0.398077 0.818494 0.819425
0.398077 0.818494 0.819425
0.437522 0.798154 0.811032
0.783078 0.797879 0.812894
0.915267 0.813748 0.81915
0.930037 0.844236 0.826688
0.936751 0.889906 0.851362
0.624872 0.908019 0.829541
0.624872 0.908019 0.829541
0.625162 0.908019 0.829557
0.625162 0.908019 0.829557
0.716762 0.902708 0.831098
0.840146 0.898528 0.837522
0.913695 0.900481 0.847517
0.937957 0.904952 0.850752
0.94313 0.914076 0.8645
0.854597 0.919554 0.834058
0.854597 0.919554 0.834058
0.854597 0.919554 0.834058
0.854597 0.919554 0.834058
0.854597 0.919554 0.834058
0.886381 0.921736 0.84007
0.927855 0.924605 0.856138
0.945998 0.928969 0.861448
0.948211 0.929839 0.871672
0.923217 0.925429 0.856794
0.923217 0.925429 0.856794
0.923217 0.925429 0.856794
0.923217 0.925429 0.856794
0.923217 0.925429 0.856794
0.923217 0.925429 0.856794
0.935531 0.927382 0.859983
0.946334 0.929763 0.864622
0.948379 0.929839 0.872328
0.0122225 0.0129854 0.765393
0.0122225 0.0129854 0.765393
0.0122225 0.0129854 0.765393
0.0122225 0.0129854 0.765393
0.0122225 0.0129854 0.765393
0.602411 0.111604 0.917098
0.742275 0.0896162 0.910048
0.742275 0.0896162 0.910048
0.911467 0.835431 0.876402
0.0122225 0.0129854 0.765393
0.0122225 0.0129854 0.765393
0.0122225 0.0129854 0.765393
0.0122225 0.0129854 0.765393
0.0122225 0.0129854 0.765393
0.602411 0.111604 0.917098
0.742275 0.0896162 0.910048
0.742275 0.0896162 0.910048
0.91162 0.835904 0.876463
0.0122225 0.0129854 0.765393
0.0122225 0.0129854 0.765393
0.0122225 0.0129854 0.765393
0.0122225 0.0129854 0.765393
0.0122225 0.0129854 0.765393
0.602411 0.111604 0.917098
0.742275 0.0896162 0.910048
0.742275 0.0896162 0.910048
0.911955 0.836988 0.876478
0.0122225 0.0129854 0.765393
0.0122225 0.0129854 0.765393
0.0122225 0.0129854 0.765393
0.0122225 0.0129854 0.765393
0.0122225 0.0129854 0.765393
0.6112 0.111055 0.917113
0.742275 0.0896162 0.910048
0.742275 0.0896162 0.910048
0.913115 0.840711 0.876677
0.0122225 0.0129854 0.765393
0.0122225 0.0129854 0.765393
0.0122225 0.0129854 0.765393
0.0122225 0.0129854 0.765393
0.0122225 0.0129854 0.765393
0.67834 0.103182 0.914366
0.742275 0.0896162 0.910048
0.769482 0.30486 0.900771
0.917418 0.853498 0.878294
0.0122377 0.614771 0.889403
0.0122377 0.614771 0.889403
0.0122377 0.614771 0.889403
0.0122377 0.614771 0.889403
0.0122377 0.618341 0.889235
0.642359 0.627939 0.875319
0.864836 0.692897 0.869398
0.900252 0.799649 0.871519
0.928038 0.880903 0.882383
0.620493 0.918135 0.888411
0.620493 0.918135 0.888411
0.620493 0.918135 0.888411
0.620493 0.918135 0.888411
0.620493 0.918135 0.888411
0.802197 0.893141 0.877852
0.903807 0.895018 0.881544
0.938903 0.901686 0.883864
0.943465 0.912337 0.88957
0.84181 0.921111 0.882383
0.84181 0.921111 0.882383
0.84181 0.921111 0.882383
0.84181 0.921111 0.882383
0.84181 0.921111 0.882383
0.875288 0.923674 0.885267
0.923445 0.928435 0.890013
0.950759 0.929625 0.894209
0.951812 0.929747 0.89572
0.92108 0.927428 0.885023
0.92108 0.927428 0.885023
0.92108 0.927428 0.885023
0.92108 0.927428 0.885023
0.92108 0.927428 0.885023
0.92108 0.927428 0.885023
0.933898 0.928328 0.887266
0.948943 0.929458 0.890196
0.950988 0.929595 0.892561
0.0122225 0.0308385 0.833997
0.0122225 0.0308385 0.833997
0.0122225 0.0308385 0.833997
0.0122225 0.0308385 0.833997
0.0122225 0.0308385 0.833997
0.0122225 0.0308385 0.833997
0.742275 0.0896162 0.910048
0.742245 0.0930953 0.910018
0.813657 0.528496 0.891325
0.0122225 0.0308385 0.833997
0.0122225 0.0308385 0.833997
0.0122225 0.0308385 0.833997
0.0122225 0.0308385 0.833997
0.0122225 0.0308385 0.833997
0.0122225 0.0308385 0.833997
0.742275 0.0896162 0.910048
0.742245 0.0930953 0.910018
0.813657 0.528496 0.891325
0.0122225 0.0308385 0.833997
0.0122225 0.0308385 0.833997
0.0122225 0.0308385 0.833997
0.0122225 0.0308385 0.833997
0.0122225 0.0308385 0.833997
0.0122225 0.0308385 0.833997
0.742275 0.0896162 0.910048
0.742245 0.0930953 0.910018
0.813642 0.528389 0.891325
0.0122225 0.0308385 0.833997
0.0122225 0.0308385 0.833997
0.0122225 0.0308385 0.833997
0.0122225 0.0308385 0.833997
0.0122225 0.0308385 0.833997
0.0122225 0.0308385 0.833997
0.742275 0.0896162 0.910048
0.742245 0.0930953 0.910018
0.813611 0.528267 0.89134
0.0122225 0.0307622 0.833875
0.0122225 0.0307622 0.833875
0.0122225 0.0307622 0.833875
0.0122225 0.0307622 0.833875
0.0122225 0.0307622 0.833875
0.0122225 0.0307622 0.833875
0.742275 0.0896162 0.910048
0.742245 0.09337 0.910018
0.813519 0.527932 0.891356
0.0122225 0.0298772 0.832563
0.0122225 0.0298772 0.832563
0.0122225 0.0298772 0.832563
0.0122225 0.0298772 0.832563
0.0122225 0.0298772 0.832563
0.0122225 0.0299535 0.832685
0.742275 0.0896162 0.910048
0.74374 0.100114 0.909972
0.862211 0.693172 0.884916
0.377722 0.82359 0.896834
0.377722 0.82359 0.896834
0.377722 0.82359 0.896834
0.377722 0.82359 0.896834
0.377722 0.82359 0.896834
0.383734 0.826001 0.897002
0.857633 0.812345 0.889006
0.915755 0.85481 0.893034
0.931762 0.896178 0.89868
0.689281 0.91606 0.900374
0.689281 0.91606 0.900374
0.689281 0.91606 0.900374
0.689281 0.91606 0.900374
0.689281 0.91606 0.900374
0.689281 0.91606 0.900374
0.911833 0.927031 0.903853
0.948028 0.930541 0.905638
0.950744 0.931365 0.905791
0.915373 0.927443 0.90338
0.915373 0.927443 0.90338
0.915373 0.927443 0.90338
0.915373 0.927443 0.90338
0.915373 0.927443 0.90338
0.915373 0.927443 0.90338
0.928344 0.929625 0.905287
0.94725 0.931731 0.905409
0.951308 0.932189 0.905455
0.0119326 0.195865 0.901366
0.0119326 0.195865 0.901366
0.0119326 0.195865 0.901366
0.0119326 0.195865 0.901366
0.0119326 0.195865 0.901366
0.0119326 0.195865 0.901366
0.0119326 0.195865 0.901366
0.746258 0.118273 0.90985
0.82417 0.566079 0.888472
0.0119326 0.195865 0.901366
0.0119326 0.195865 0.901366
0.0119326 0.195865 0.901366
0.0119326 0.195865 0.901366
0.0119326 0.195865 0.901366
0.0119326 0.195865 0.901366
0.0119326 0.195865 0.901366
0.746258 0.118273 0.90985
0.82417 0.566079 0.888472
0.0119326 0.195865 0.901366
0.0119326 0.195865 0.901366
0.0119326 0.195865 0.901366
0.0119326 0.195865 0.901366
0.0119326 0.195865 0.901366
0.0119326 0.195865 0.901366
0.0119326 0.195865 0.901366
0.746258 0.118273 0.90985
0.82417 0.566079 0.888472
0.0119326 0.195865 0.901366
0.0119326 0.195865 0.901366
0.0119326 0.195865 0.901366
0.0119326 0.195865 0.901366
0.0119326 0.195865 0.901366
0.0119326 0.195865 0.901366
0.0119326 0.195865 0.901366
0.746258 0.118273 0.90985
0.82417 0.566079 0.888472
0.0119326 0.195865 0.901366
0.0119326 0.195865 0.901366
0.0119326 0.195865 0.901366
0.0119326 0.195865 0.901366
0.0119326 0.195865 0.901366
0.0119326 0.195865 0.901366
0.0119326 0.195865 0.901366
0.746258 0.118273 0.90985
0.82417 0.566079 0.888472
0.0119326 0.195758 0.901366
0.0119326 0.195758 0.901366
0.0119326 0.195758 0.901366
0.0119326 0.195758 0.901366
0.0119326 0.195758 0.901366
0.0119326 0.195758 0.901366
0.0119326 0.195865 0.901366
0.746288 0.118669 0.90985
0.824613 0.56759 0.88835
0.0119326 0.194934 0.90135
0.0119326 0.194934 0.90135
0.0119326 0.194934 0.90135
0.0119326 0.194934 0.90135
0.0119326 0.194934 0.90135
0.0119326 0.194934 0.90135
0.0119326 0.194934 0.90135
0.753368 0.181155 0.909529
0.825467 0.570504 0.888121
0.624704 0.917708 0.907042
0.624704 0.917708 0.907042
0.624704 0.917708 0.907042
0.624704 0.917708 0.907042
0.624704 0.917708 0.907042
0.624704 0.917708 0.907042
0.625025 0.917845 0.907057
0.9355 0.913497 0.902022
0.944045 0.919676 0.903532
0.879408 0.92459 0.90454
0.879408 0.92459 0.90454
0.879408 0.92459 0.90454
0.879408 0.92459 0.90454
0.879408 0.92459 0.90454
0.879408 0.92459 0.90454
0.879408 0.92459 0.90454
0.942916 0.931456 0.9066
0.951278 0.932403 0.90631
