BBLuts/BB_104_0095_LUT.cube
TITLE "Generated by Resolve"
LUT_3D_SIZE 9
0 0 0
0 0 0
0.184131 0 0
0.421347 0 0
0.691081 0 0
0.865431 0 0
0.841276 0.552056 0.0569772
0.831159 0.785138 0.332189
0.828275 0.869459 0.606561
0 0.0390173 0
0 0.0499275 0
0.189487 0.0285649 0
0.428962 0 0
0.692836 0 0
0.865324 0 0
0.840238 0.573938 0.0424048
0.831067 0.78677 0.331197
0.828275 0.869596 0.6065
0 0.210056 0
0 0.213748 0
0.132464 0.212894 0
0.426734 0.193164 0
0.690455 0.101045 0
0.853849 0.237949 0
0.838941 0.599908 0.0119783
0.830945 0.789425 0.329641
0.82826 0.86981 0.606409
0 0.474922 0
0 0.475929 0
0 0.477012 0
0.351293 0.476402 0
0.67747 0.466621 0
0.840589 0.519051 0
0.835904 0.660655 0
0.830488 0.798993 0.327932
0.828214 0.870787 0.605905
0 0.729 0
0 0.728985 0
0 0.728801 0
0 0.727199 0
0.616983 0.722301 0
0.805524 0.725673 0
0.831037 0.762966 0
0.829343 0.823575 0.3355
0.828031 0.874403 0.603952
0 0.860777 0
0 0.860777 0
0 0.860777 0
0 0.85771 0
0.583581 0.851392 0
0.764324 0.844327 0
0.827039 0.84567 0
0.827695 0.860853 0.373007
0.827588 0.883986 0.605142
0.522667 0.903655 0.153704
0.52253 0.9037 0.153658
0.521706 0.903975 0.153368
0.521675 0.903975 0.153368
0.648737 0.89984 0.165866
0.755703 0.89482 0.2038
0.818982 0.891966 0.296407
0.826551 0.892897 0.478309
0.827008 0.898375 0.623514
0.737911 0.907073 0.54461
0.737911 0.907073 0.544625
0.737911 0.907073 0.54461
0.737911 0.907073 0.54461
0.737896 0.907073 0.544625
0.77467 0.907195 0.549996
0.812879 0.907347 0.563836
0.826429 0.907546 0.597848
0.826764 0.907851 0.661143
0.801419 0.907897 0.682765
0.801419 0.907897 0.682765
0.801419 0.907897 0.682765
0.801419 0.907897 0.682765
0.801419 0.907897 0.682765
0.801404 0.907897 0.682765
0.81503 0.907927 0.684474
0.826917 0.907988 0.689464
0.826993 0.908049 0.702022
0 0 0.0314336
0 0 0.032105
0.181308 0 0.0341192
0.420691 0 0.032105
0.690593 0 0.0308843
0.865599 0 0.0328832
0.841443 0.549966 0.0825513
0.831159 0.785122 0.332204
0.828275 0.869444 0.606577
0 0.00834669 0.0240482
0.0153964 0.0227512 0.0234531
0.195727 0 0.0270542
0.423133 0 0.0219577
0.691142 0 0
0.865385 0 0
0.840375 0.57232 0.0637522
0.831067 0.786755 0.331212
0.828275 0.869596 0.6065
0 0.198718 0
0 0.202136 0
0.151644 0.201175 0
0.426169 0.181109 0
0.689067 0.0682231 0
0.854459 0.223636 0
0.839048 0.598856 0.0310826
0.830945 0.789425 0.329641
0.82826 0.869795 0.606409
0 0.469749 0
0 0.470665 0
0 0.471641 0
0.361517 0.47068 0
0.677073 0.461845 0
0.84062 0.515953 0
0.835935 0.659998 0
0.830488 0.798993 0.327932
0.828214 0.870787 0.605905
0 0.727794 0
0 0.727779 0
0 0.727581 0
0 0.725963 0
0.618799 0.721309 0
0.805554 0.725032 0
0.831052 0.762737 0
0.829343 0.823575 0.3355
0.828031 0.874403 0.603952
0 0.860471 0
0 0.860548 0
0 0.860548 0
0 0.857511 0
0.585077 0.851209 0
0.764492 0.844205 0
0.827039 0.845624 0
0.827695 0.860853 0.373007
0.827588 0.883986 0.605142
0.524941 0.903853 0.153216
0.525902 0.903532 0.153536
0.524773 0.903899 0.153155
0.524773 0.903899 0.153155
0.649439 0.899809 0.165652
0.75584 0.894789 0.203632
0.819013 0.891951 0.296391
0.826551 0.892897 0.478309
0.827008 0.898375 0.623514
0.738079 0.907073 0.544594
0.738079 0.907073 0.544594
0.738079 0.907073 0.544594
0.738079 0.907073 0.544594
0.738064 0.907073 0.544594
0.774746 0.907195 0.549981
0.812894 0.907347 0.563806
0.826429 0.907546 0.597848
0.826764 0.907851 0.661143
0.801419 0.907897 0.682765
0.801419 0.907897 0.682765
0.801419 0.907897 0.682765
0.801419 0.907897 0.682765
0.801419 0.907897 0.682765
0.801419 0.907897 0.682765
0.81503 0.907927 0.684474
0.826917 0.907988 0.689464
0.826993 0.908049 0.702022
0 0 0.164523
0 0 0.165026
0.148974 0 0.166522
0.430167 0 0.16054
0.690822 0 0.163317
0.866026 0 0.180697
0.842298 0.540276 0.214618
0.831266 0.784695 0.359731
0.828275 0.869444 0.606577
0 0 0.162142
0 0 0.162524
0.1738 0 0.168597
0.429175 0 0.157473
0.691722 0 0.159579
0.865843 0 0.173678
0.841199 0.564065 0.207919
0.831189 0.786343 0.35874
0.828275 0.869596 0.6065
0 0.167254 0.149081
0 0.170138 0.149035
0.135134 0.164843 0.147112
0.414923 0.147143 0.148836
0.689784 0.00114443 0.149126
0.857359 0.169329 0.15819
0.839857 0.59266 0.198016
0.831052 0.789029 0.357046
0.82826 0.869795 0.606409
0 0.454597 0.0767071
0 0.455955 0.0770123
0 0.456703 0.0783551
0.361135 0.45539 0.079057
0.673564 0.448066 0.0790112
0.841337 0.504738 0.0895094
0.836698 0.656657 0.160021
0.830564 0.798672 0.350591
0.828214 0.870787 0.605905
0 0.725505 0
0 0.725505 0
0 0.725292 0
0 0.723674 0
0.620447 0.718868 0
0.805493 0.723079 0
0.831235 0.761761 0.00703441
0.829343 0.823468 0.336736
0.828031 0.874403 0.603952
0 0.860121 0
0 0.860121 0
0 0.860121 0
0 0.85713 0
0.587671 0.850919 0
0.764889 0.843992 0
0.827054 0.845472 0
0.827695 0.860807 0.372839
0.827588 0.883986 0.605142
0.528878 0.903777 0.15285
0.528878 0.903777 0.15285
0.528878 0.903777 0.15285
0.528862 0.903777 0.15285
0.650385 0.899733 0.165347
0.75613 0.894759 0.203433
0.819043 0.89192 0.296193
0.826551 0.892897 0.478248
0.827008 0.898375 0.623514
0.738308 0.907073 0.544564
0.738537 0.906981 0.544701
0.738308 0.907073 0.544564
0.738308 0.907073 0.544564
0.738308 0.907073 0.544564
0.774838 0.907195 0.549935
0.812924 0.907347 0.56379
0.826429 0.907546 0.597833
0.826764 0.907851 0.661143
0.80145 0.907897 0.682765
0.80145 0.907897 0.682765
0.80145 0.907897 0.682765
0.80145 0.907897 0.682765
0.80145 0.907897 0.682765
0.80145 0.907897 0.682765
0.815045 0.907927 0.684474
0.826917 0.907988 0.689464
0.826993 0.908049 0.702022
0 0 0.380667
0 0 0.380758
0 0 0.381659
0.392538 0 0.378973
0.706096 0 0.379309
0.866667 0 0.392081
0.844678 0.502022 0.417762
0.831922 0.781231 0.498604
0.828336 0.869337 0.614313
0 0 0.379355
0 0 0.379461
0.00468452 0 0.380011
0.406821 0 0.377447
0.70489 0 0.377661
0.866545 0 0.389731
0.84332 0.532311 0.414633
0.831846 0.782986 0.49807
0.828321 0.869459 0.614252
0 0.0310826 0.375677
0 0.0336767 0.375738
0.00738537 0.0345464 0.375708
0.413138 0 0.374029
0.700755 0 0.374533
0.865721 0 0.385626
0.841718 0.567315 0.410147
0.831693 0.785824 0.497169
0.828305 0.869673 0.614176
0 0.404562 0.351049
0 0.405432 0.35111
0 0.407355 0.351644
0.345922 0.404715 0.355322
0.664759 0.398016 0.35436
0.844068 0.459236 0.362829
0.838102 0.643183 0.395468
0.831205 0.796033 0.493843
0.82826 0.870665 0.613733
0 0.716716 0.276188
0 0.716716 0.276188
0 0.716869 0.27686
0 0.715129 0.279911
0.616449 0.710689 0.284306
0.804578 0.71635 0.304204
0.832532 0.758038 0.358526
0.829923 0.822065 0.482506
0.828077 0.874281 0.612024
0 0.859419 0.0518044
0 0.859419 0.0518044
0 0.859419 0.0518044
0 0.85655 0.0533761
0.584573 0.850263 0.0538338
0.764523 0.843549 0.161135
0.827939 0.845594 0.284855
0.827985 0.860471 0.451377
0.827588 0.883955 0.607111
0.540429 0.90341 0.151339
0.540429 0.90341 0.151339
0.540429 0.90341 0.151339
0.540429 0.90341 0.151339
0.653284 0.899519 0.164385
0.756893 0.894636 0.202701
0.819196 0.891829 0.295903
0.826551 0.892836 0.477882
0.827008 0.898375 0.623468
0.739132 0.907073 0.544457
0.739132 0.907073 0.544457
0.739132 0.907073 0.544457
0.739132 0.907073 0.544457
0.739132 0.907073 0.544457
0.775143 0.907195 0.549828
0.813046 0.907347 0.563729
0.826429 0.907546 0.597757
0.826764 0.907851 0.661112
0.801526 0.907897 0.68275
0.801526 0.907897 0.68275
0.801526 0.907897 0.68275
0.801526 0.907897 0.68275
0.801526 0.907897 0.68275
0.801526 0.907897 0.68275
0.815076 0.907927 0.684459
0.826917 0.907988 0.689448
0.826993 0.908049 0.702022
0 0 0.620325
0 0 0.620325
0 0 0.620371
0.0865034 0 0.62005
0.683726 0 0.616037
0.868223 0 0.617212
0.855741 0.275319 0.621302
0.839139 0.766751 0.632074
0.828687 0.867903 0.666346
0 0 0.620264
0 0 0.620264
0 0 0.62031
0.0935836 0 0.620508
0.686671 0 0.616007
0.868223 0 0.616968
0.852125 0.353491 0.61941
0.838697 0.76907 0.631617
0.828687 0.86804 0.666316
0 0 0.620066
0 0 0.619623
0 0 0.619669
0.186465 0 0.618738
0.690776 0 0.61503
0.868223 0 0.616281
0.848554 0.43444 0.617319
0.835187 0.773617 0.629114
0.830396 0.867628 0.667338
0 0.17969 0.614908
0 0.179812 0.614466
0 0.183871 0.614435
0.182925 0.176471 0.61355
0.68632 0.0873426 0.611246
0.859236 0.168444 0.610712
0.841611 0.589136 0.611566
0.833661 0.786114 0.62707
0.831357 0.868269 0.66772
0 0.681819 0.591211
0 0.682338 0.590143
0 0.682368 0.590158
0 0.682216 0.590402
0.603769 0.675883 0.593225
0.802762 0.687449 0.592065
0.834318 0.741207 0.598825
0.830869 0.816785 0.621927
0.830655 0.872297 0.666484
0 0.857206 0.563928
0 0.85771 0.563241
0 0.857786 0.56321
0 0.855528 0.563577
0.551675 0.848463 0.563851
0.757443 0.840955 0.568215
0.828443 0.843229 0.582528
0.828824 0.858808 0.612818
0.828824 0.882872 0.662455
0.525002 0.903517 0.506081
0.523888 0.903883 0.50547
0.523888 0.903883 0.50547
0.523888 0.903883 0.50547
0.642344 0.900023 0.508446
0.751965 0.894896 0.518776
0.817639 0.89102 0.547799
0.827482 0.892454 0.592447
0.827298 0.8981 0.653071
0.741741 0.907088 0.543893
0.741741 0.907088 0.543893
0.741741 0.907088 0.543893
0.741741 0.907088 0.543893
0.741741 0.907088 0.543893
0.77612 0.907195 0.549447
0.817029 0.905959 0.565148
0.828061 0.906935 0.598489
0.826764 0.907851 0.66099
0.801862 0.907897 0.682719
0.801862 0.907897 0.682719
0.801862 0.907897 0.682719
0.801862 0.907897 0.682719
0.801862 0.907897 0.682719
0.801846 0.907897 0.682719
0.818814 0.906538 0.686702
0.82829 0.907469 0.690288
0.826993 0.908049 0.702007
0 0 0.738903
0 0 0.73843
0 0 0.73843
0 0 0.738445
0.526375 0 0.734646
0.865446 0 0.729519
0.869337 0 0.730892
0.852399 0.70164 0.726726
0.862654 0.85069 0.736507
0 0 0.741375
0 0 0.73843
0 0 0.73843
0 0 0.738445
0.525704 0 0.734661
0.865446 0 0.729519
0.870207 0 0.732479
0.852659 0.706249 0.726741
0.862654 0.850858 0.736477
0 0 0.746578
0 0 0.738399
0 0 0.738399
0 0 0.738399
0.536065 0 0.735485
0.867277 0 0.732418
0.870695 0 0.733333
0.848585 0.714885 0.723247
0.862654 0.851133 0.736446
0 0 0.746303
0 0 0.738109
0 0 0.738109
0 0 0.738125
0.584298 0 0.734279
0.869535 0 0.735073
0.87187 0 0.734707
0.84683 0.739116 0.720928
0.862638 0.852323 0.736309
0 0.451499 0.737224
0 0.455406 0.727749
0 0.455833 0.726741
0 0.459876 0.726619
0.555535 0.455161 0.723049
0.838926 0.476478 0.718547
0.839551 0.644541 0.713054
0.863401 0.782803 0.730373
0.862577 0.856764 0.735775
0 0.84126 0.710491
0 0.845106 0.702968
0 0.845624 0.70193
0 0.845624 0.70193
0.332937 0.837369 0.700633
0.752041 0.825284 0.703914
0.858549 0.820371 0.721828
0.862715 0.839933 0.725124
0.840284 0.876478 0.719402
0.367636 0.899184 0.698466
0.352468 0.903288 0.691341
0.351263 0.903899 0.690288
0.351263 0.903899 0.690288
0.581552 0.900206 0.689677
0.736873 0.8934 0.690196
0.815274 0.88751 0.696422
0.837552 0.887648 0.70338
0.836667 0.893904 0.714107
0.736217 0.90634 0.672526
0.734447 0.907027 0.671412
0.73286 0.907652 0.670405
0.73286 0.907652 0.670405
0.73286 0.907652 0.670405
0.767376 0.907744 0.671443
0.809003 0.90724 0.675929
0.834897 0.904906 0.689143
0.82797 0.907668 0.701549
0.805722 0.906798 0.684398
0.803388 0.907698 0.682933
0.802884 0.907897 0.682612
0.802884 0.907897 0.682612
0.802884 0.907897 0.682612
0.802884 0.907897 0.682612
0.817594 0.907164 0.685573
0.837171 0.904082 0.695766
0.831937 0.906157 0.70515
0 0 0.773571
0 0 0.771481
0 0 0.770443
0 0 0.770443
0 0 0.770443
0.79704 0 0.768444
0.869017 0 0.7682
0.872328 0 0.774914
0.863096 0.82858 0.771206
0 0 0.775219
0 0 0.770443
0 0 0.770443
0 0 0.770443
0 0 0.770443
0.79704 0 0.768444
0.8692 0 0.768566
0.871107 0 0.772442
0.863096 0.828946 0.771191
0 0 0.776013
0 0 0.770443
0 0 0.770443
0 0 0.770443
0 0 0.770443
0.797192 0 0.768795
0.870588 0 0.771389
0.871107 0 0.772442
0.863081 0.829602 0.77113
0 0 0.77705
0 0 0.770443
0 0 0.770443
0 0 0.770443
0 0 0.770443
0.801511 0 0.769482
0.870588 0 0.771389
0.872847 0 0.775982
0.86305 0.83212 0.770947
0 0 0.777401
0 0 0.771481
0 0 0.770443
0 0 0.770443
0 0 0.770443
0.829602 0 0.769039
0.872145 0 0.774563
0.857038 0.403616 0.769345
0.862943 0.841001 0.770275
0 0.703975 0.765209
0 0.706783 0.757763
0 0.706783 0.757763
0 0.706783 0.757763
0 0.709377 0.757671
0.740078 0.703639 0.753933
0.837247 0.742138 0.752819
0.863371 0.80499 0.770855
0.862715 0.859586 0.76878
0 0.899931 0.753323
0 0.90399 0.745403
0 0.90457 0.744274
0 0.90457 0.744274
0 0.90457 0.744274
0.698558 0.889723 0.741527
0.807706 0.883223 0.744503
0.862531 0.874037 0.765301
0.862455 0.881682 0.766674
0.717784 0.904341 0.744091
0.71043 0.907286 0.738796
0.708843 0.907912 0.737652
0.708843 0.907912 0.737652
0.708843 0.907912 0.737652
0.747387 0.908019 0.737469
0.801511 0.907729 0.738201
0.839292 0.903304 0.746944
0.838895 0.903746 0.748455
0.801694 0.907057 0.731945
0.800641 0.907469 0.731212
0.798993 0.90811 0.730098
0.798993 0.90811 0.730098
0.798993 0.90811 0.730098
0.798993 0.90811 0.730098
0.81178 0.908141 0.73048
0.828717 0.907073 0.733822
0.831861 0.906401 0.738582
0 0.0650034 0.775219
0 0.0656443 0.770306
0 0.0657359 0.769604
0 0.0657359 0.769604
0 0.0657359 0.769604
0 0.0658274 0.769604
0.869017 0 0.7682
0.868269 0.0106661 0.768658
0.847913 0.621088 0.768124
0 0.0653239 0.772763
0 0.0655985 0.770657
0 0.0657359 0.769604
0 0.0657359 0.769604
0 0.0657359 0.769604
0 0.0658274 0.769604
0.869017 0 0.7682
0.867903 0.0107881 0.767956
0.843976 0.622446 0.764355
0 0.0657359 0.769604
0 0.0657359 0.769604
0 0.0657359 0.769604
0 0.0657359 0.769604
0 0.0657359 0.769604
0 0.0658274 0.769604
0.869017 0 0.7682
0.867903 0.0107881 0.767956
0.840818 0.623514 0.761349
0 0.0657359 0.769604
0 0.0657359 0.769604
0 0.0657359 0.769604
0 0.0657359 0.769604
0 0.0657359 0.769604
0 0.0657206 0.77052
0.870588 0 0.771389
0.868986 0.0103914 0.770077
0.840833 0.623423 0.761364
0 0.0656291 0.769604
0 0.0656291 0.769604
0 0.0656291 0.769604
0 0.0656291 0.769604
0 0.0656291 0.769604
0 0.0657054 0.769604
0.869551 0 0.769268
0.870008 0.0120546 0.772183
0.841627 0.622904 0.762112
0 0.0639963 0.769619
0 0.0639963 0.769619
0 0.0639963 0.769619
0 0.0639963 0.769619
0 0.0639963 0.769619
0 0.0640726 0.769619
0.869368 0 0.768917
0.869627 0.0501564 0.773938
0.836164 0.740673 0.760372
0 0.84097 0.763745
0 0.842557 0.760296
0 0.842557 0.760296
0 0.842557 0.760296
0 0.842557 0.760296
0 0.844099 0.760281
0.806806 0.824643 0.761425
0.86302 0.840101 0.782742
0.862699 0.868086 0.782422
0.461753 0.904723 0.763287
0.452766 0.907362 0.758221
0.452766 0.907362 0.758221
0.452766 0.907362 0.758221
0.452766 0.907362 0.758221
0.452766 0.907362 0.758221
0.786007 0.908171 0.756725
0.830014 0.905196 0.760098
0.862394 0.894102 0.781643
0.798886 0.904799 0.761929
0.790127 0.908202 0.755673
0.790127 0.908202 0.755673
0.790127 0.908202 0.755673
0.790127 0.908202 0.755673
0.790127 0.908202 0.755673
0.804456 0.908248 0.755611
0.824384 0.907866 0.756374
0.837308 0.904448 0.762844
0 0.296086 0.772992
0 0.29778 0.767269
0 0.29778 0.767269
0 0.29778 0.767269
0 0.29778 0.767269
0 0.29778 0.767269
0 0.297856 0.767269
0.864149 0.111788 0.768032
0.846906 0.647807 0.767742
0 0.297154 0.769421
0 0.29778 0.767269
0 0.29778 0.767269
0 0.29778 0.767269
0 0.29778 0.767269
0 0.29778 0.767269
0 0.297856 0.767269
0.863478 0.112078 0.766934
0.839551 0.650385 0.760952
0 0.297154 0.769421
0 0.297475 0.768338
0 0.29778 0.767269
0 0.29778 0.767269
0 0.29778 0.767269
0 0.29778 0.767269
0 0.297856 0.767269
0.863478 0.112078 0.766934
0.839948 0.650248 0.761334
0 0.29778 0.767269
0 0.29778 0.767269
0 0.29778 0.767269
0 0.29778 0.767269
0 0.29778 0.767269
0 0.29778 0.767269
0 0.297856 0.767269
0.863478 0.112078 0.766934
0.839551 0.650385 0.760952
0 0.29778 0.767269
0 0.29778 0.767269
0 0.29778 0.767269
0 0.29778 0.767269
0 0.29778 0.767269
0 0.29778 0.767269
0 0.297444 0.768704
0.864759 0.111513 0.76907
0.839551 0.650385 0.760952
0 0.297719 0.767269
0 0.297719 0.767269
0 0.297719 0.767269
0 0.297719 0.767269
0 0.297719 0.767269
0 0.297719 0.767269
0 0.297765 0.767269
0.863874 0.11284 0.767636
0.840314 0.651209 0.7617
0 0.296574 0.767285
0 0.296574 0.767285
0 0.296574 0.767285
0 0.296574 0.767285
0 0.296574 0.767285
0 0.296574 0.767285
0 0.29662 0.767285
0.860365 0.234379 0.768948
0.840635 0.653086 0.762036
0 0.902266 0.76286
0 0.904005 0.75938
0 0.904005 0.75938
0 0.904005 0.75938
0 0.904005 0.75938
0 0.904005 0.75938
0 0.904173 0.75938
0.834318 0.890043 0.765179
0.862501 0.885206 0.782223
0.748547 0.90811 0.757366
0.748547 0.90811 0.757366
0.748547 0.90811 0.757366
0.748547 0.90811 0.757366
0.748547 0.90811 0.757366
0.748547 0.90811 0.757366
0.748547 0.90811 0.757366
0.819104 0.908293 0.757137
0.828962 0.907668 0.758297
