BBLuts/BB_103_0800_LUT.cube
TITLE "Generated by Resolve"
LUT_3D_SIZE 9
0.037583 0.0376135 0.0376745
0.037583 0.0376135 0.0376745
0.220203 0.0378729 0.0378119
0.46099 0.0389563 0.037995
0.805341 0.0407721 0.0383001
1 0.0420691 0.0385138
0.997559 0.604013 0.195285
0.968246 0.940078 0.543008
0.956634 1 0.876951
0.0331731 0.0963455 0.0376135
0.0322728 0.107118 0.0376135
0.226383 0.0885634 0.0377661
0.472877 0.0390021 0.037995
0.807965 0.0408026 0.0383001
1 0.0420691 0.0385138
0.995178 0.632151 0.184436
0.967895 0.944274 0.541299
0.956588 1 0.876753
0.0196231 0.257282 0.0375067
0.0193027 0.261143 0.0375067
0.178286 0.260929 0.0375982
0.4663 0.238804 0.0378424
0.806653 0.119112 0.0382391
1 0.276967 0.0383154
0.991989 0.67071 0.166125
0.967391 0.950347 0.538766
0.956527 1 0.876463
0 0.528374 0.0375067
0 0.529564 0.0375067
0 0.530159 0.0375067
0.388434 0.529625 0.0375525
0.785763 0.5187 0.0379187
1 0.57673 0.0380713
0.984314 0.766232 0.0378729
0.966003 0.967102 0.531014
0.956344 1 0.875532
0 0.864836 0.0375067
0 0.864713 0.0375067
0 0.864271 0.0375067
0 0.861387 0.0375067
0.697734 0.853941 0.0375219
0.94931 0.860227 0.0377661
0.971695 0.916503 0.0377203
0.962951 1 0.529931
0.95584 1 0.872587
0 1 0.0373083
0 1 0.0373083
0 1 0.0373083
0 1 0.0373083
0.661891 1 0.0375067
0.88687 1 0.0375372
0.961318 1 0.168963
0.958404 1 0.570062
0.954681 1 0.865675
0.578897 1 0.320546
0.594781 1 0.321309
0.614893 1 0.322469
0.666331 1 0.326207
0.762753 1 0.338323
0.873823 1 0.375143
0.95169 1 0.479423
0.954284 1 0.680964
0.952956 1 0.890364
0.845258 1 0.763806
0.84654 1 0.763928
0.848432 1 0.764157
0.854109 1 0.764813
0.869444 1 0.766903
0.900649 1 0.773541
0.940566 1 0.793393
0.952224 1 0.848051
0.951858 1 0.946258
0.9234 1 0.977539
0.923552 1 0.977554
0.923751 1 0.977584
0.924422 1 0.977661
0.926452 1 0.97789
0.931945 1 0.978622
0.943023 1 0.980972
0.951705 1 0.987976
0.951644 1 1
0.0375067 0.0375372 0.0934005
0.0375067 0.0375372 0.0936904
0.21973 0.0379187 0.0945754
0.461753 0.0390021 0.0961471
0.805035 0.0408331 0.100816
1 0.0421454 0.139788
0.997803 0.598779 0.26424
0.968215 0.939147 0.573404
0.956619 1 0.882094
0.0350958 0.071519 0.0838636
0.0759747 0.0838941 0.0823072
0.238102 0.037995 0.085481
0.46772 0.0390173 0.0835431
0.806256 0.0408026 0.0686809
1 0.0421302 0.112047
0.995377 0.627558 0.253285
0.967865 0.943404 0.571893
0.956588 1 0.881895
0.0204318 0.247684 0.0375067
0.0201572 0.250996 0.0375067
0.197192 0.251102 0.0376287
0.464912 0.22858 0.0378424
0.808911 0.0408026 0.0383001
1 0.261265 0.0383307
0.992111 0.666941 0.235355
0.967361 0.949538 0.569635
0.956527 1 0.881621
0 0.523812 0.0375067
0 0.524956 0.0375067
0 0.525399 0.0375067
0.400336 0.524468 0.0375677
0.785321 0.514382 0.0379187
1 0.573419 0.0380713
0.984131 0.764187 0.159747
0.965957 0.96643 0.562753
0.956344 1 0.880735
0 0.863462 0.0375067
0 0.863325 0.0375067
0 0.862867 0.0375067
0 0.859937 0.0375067
0.700771 0.852567 0.0375372
0.949462 0.859281 0.0377661
0.97174 0.915984 0.0377356
0.962936 1 0.542672
0.955825 1 0.877943
0 1 0.0373083
0 1 0.0373083
0 1 0.0373083
0 1 0.0373083
0.663813 1 0.0375067
0.887205 1 0.0375372
0.961318 1 0.168307
0.958419 1 0.569894
0.954681 1 0.869245
0.581369 1 0.320409
0.596918 1 0.321172
0.616724 1 0.322332
0.667659 1 0.32607
0.763409 1 0.338186
0.874006 1 0.375036
0.951736 1 0.479408
0.954284 1 0.680888
0.952956 1 0.890333
0.845457 1 0.763775
0.846723 1 0.763912
0.848615 1 0.764126
0.854276 1 0.764782
0.869566 1 0.766888
0.900725 1 0.773541
0.940597 1 0.793378
0.952224 1 0.848051
0.951858 1 0.946242
0.92343 1 0.977539
0.923568 1 0.977554
0.923781 1 0.977584
0.924437 1 0.977646
0.926467 1 0.977874
0.93196 1 0.978622
0.943038 1 0.980957
0.951705 1 0.987976
0.951644 1 1
0.0374151 0.0375067 0.234028
0.0374151 0.0375067 0.234257
0.198245 0.0379339 0.234058
0.472801 0.0391546 0.230945
0.804517 0.04094 0.237415
1 0.0422522 0.270436
0.998322 0.588785 0.362249
0.9682 0.937758 0.612177
0.956603 1 0.889448
0.0374304 0.0375067 0.229679
0.0374304 0.0375067 0.230076
0.225254 0.038056 0.229557
0.471305 0.0391546 0.226688
0.807019 0.04094 0.232624
1 0.042237 0.262577
0.995804 0.618997 0.355337
0.967849 0.942061 0.610986
0.956573 1 0.889281
0.021973 0.221775 0.216968
0.0217746 0.224216 0.216587
0.188052 0.218784 0.212634
0.451148 0.201526 0.215747
0.805463 0.0409247 0.220386
1 0.215167 0.247913
0.992416 0.659525 0.344656
0.96733 0.948257 0.609186
0.956512 1 0.888991
0 0.51107 0.125978
0 0.512383 0.127153
0 0.512978 0.128695
0.401022 0.511559 0.132357
0.780575 0.502205 0.138521
1 0.56257 0.176394
0.984131 0.759075 0.309438
0.965896 0.965393 0.603784
0.956329 1 0.888151
0 0.860899 0.0375067
0 0.860731 0.0375067
0 0.860258 0.0375067
0 0.857313 0.0375067
0.703578 0.850004 0.0375372
0.949493 0.857237 0.0377661
0.97142 0.914717 0.185458
0.962829 1 0.587396
0.95581 1 0.885512
0 1 0.0373083
0 1 0.0373083
0 1 0.0373083
0.0655528 1 0.0374151
0.666728 1 0.0375067
0.887709 1 0.0375372
0.961334 1 0.167239
0.958419 1 0.569635
0.95465 1 0.87744
0.585077 1 0.32018
0.600076 1 0.320943
0.619516 1 0.322103
0.669688 1 0.325856
0.764416 1 0.338003
0.874311 1 0.374853
0.951797 1 0.479377
0.954284 1 0.680766
0.952956 1 0.890303
0.845747 1 0.763745
0.846998 1 0.763882
0.84889 1 0.764096
0.85452 1 0.764752
0.86978 1 0.766842
0.900832 1 0.773495
0.940627 1 0.793347
0.952224 1 0.848051
0.951873 1 0.946227
0.923445 1 0.977539
0.923598 1 0.977554
0.923812 1 0.977569
0.924483 1 0.977646
0.926497 1 0.977874
0.931975 1 0.978622
0.943053 1 0.980957
0.951705 1 0.987976
0.951644 1 1
0.0364843 0.0375067 0.480446
0.0364843 0.0375067 0.480598
0.0364843 0.0375067 0.480705
0.447623 0.0392462 0.479377
0.822751 0.0412299 0.483009
1 0.0424353 0.505425
1 0.552422 0.566613
0.968246 0.933181 0.705699
0.956588 1 0.909819
0.0364843 0.0375067 0.47805
0.0364843 0.0375067 0.478279
0.108782 0.0377203 0.478233
0.464134 0.0393225 0.476829
0.820493 0.0412146 0.480339
1 0.0424353 0.502464
0.997665 0.589578 0.563241
0.967865 0.937667 0.704738
0.956542 1 0.909667
0.0306554 0.107652 0.473747
0.0301213 0.114015 0.473945
0.135988 0.108919 0.473884
0.470558 0.039353 0.472801
0.814237 0.0411841 0.47628
1 0.0424353 0.497169
0.993896 0.634318 0.558129
0.96733 0.944167 0.703334
0.956481 1 0.909438
0.00108339 0.463386 0.447211
0.00108339 0.465324 0.447547
0.00108339 0.46659 0.448264
0.392157 0.464866 0.450187
0.765637 0.455894 0.454582
1 0.523201 0.474861
0.984894 0.741772 0.54226
0.965835 0.96202 0.699077
0.956298 1 0.908705
0 0.849134 0.351232
0 0.849073 0.35198
0 0.848707 0.353079
0 0.845991 0.356374
0.699245 0.838788 0.3673
0.946685 0.847944 0.401846
0.970962 0.908843 0.500435
0.962646 1 0.687175
0.955779 1 0.906462
0 1 0.0373083
0 1 0.0373083
0 1 0.0373083
0.0935225 1 0.0374304
0.667674 1 0.0375067
0.886748 1 0.199222
0.960708 1 0.409598
0.958175 1 0.656092
0.954604 1 0.899626
0.596094 1 0.319448
0.609476 1 0.320211
0.628092 1 0.321401
0.675883 1 0.32517
0.767529 1 0.337362
0.875212 1 0.374334
0.951995 1 0.479271
0.954284 1 0.6804
0.952956 1 0.89015
0.846662 1 0.763638
0.847898 1 0.763775
0.84976 1 0.763973
0.855329 1 0.76463
0.87039 1 0.766751
0.901183 1 0.773388
0.940734 1 0.793256
0.952224 1 0.84802
0.951873 1 0.946181
0.923568 1 0.977523
0.923705 1 0.977539
0.923919 1 0.977554
0.924575 1 0.97763
0.926589 1 0.977859
0.932036 1 0.978607
0.943084 1 0.980941
0.951705 1 0.987961
0.951644 1 1
0.0349737 0.037705 0.814221
0.0349737 0.037705 0.814313
0.0349737 0.037705 0.814466
0.280217 0.0388037 0.81355
0.808865 0.0414588 0.809888
1 0.0427253 0.814572
1 0.37026 0.831678
0.968994 0.917205 0.870848
0.956573 1 0.955093
0.0349737 0.037705 0.813504
0.0349737 0.037705 0.813611
0.0349737 0.037705 0.813733
0.309636 0.038941 0.81265
0.814832 0.0415045 0.80914
1 0.0427253 0.813825
1 0.443214 0.829999
0.968566 0.922423 0.870268
0.956527 1 0.954971
0.0349737 0.037705 0.812421
0.0349737 0.037705 0.812497
0.0349737 0.037705 0.81265
0.347723 0.0391089 0.811307
0.81828 0.0415198 0.807935
1 0.0427253 0.812573
1 0.525628 0.827482
0.967941 0.929915 0.869413
0.956466 1 0.954818
0.0153964 0.272206 0.805844
0.0151369 0.275349 0.805859
0.0148013 0.279286 0.805844
0.337087 0.271015 0.804837
0.811215 0.133669 0.802533
1 0.296025 0.805386
0.989471 0.675792 0.819928
0.966217 0.950408 0.866865
0.956268 1 0.954314
0 0.804059 0.771176
0 0.804395 0.771313
0 0.804456 0.771496
0 0.802655 0.771862
0.684047 0.795819 0.773373
0.93991 0.812299 0.779019
0.971664 0.888197 0.800931
0.96257 0.994018 0.860334
0.955734 1 0.952819
0 1 0.722515
0 1 0.722713
0 1 0.723003
0 1 0.723888
0.63621 1 0.727443
0.875151 1 0.739528
0.959823 1 0.773205
0.957717 1 0.845716
0.954498 1 0.948425
0.590204 1 0.621241
0.603998 1 0.621592
0.622446 1 0.622141
0.670161 1 0.623896
0.761852 1 0.629602
0.869596 1 0.647684
0.946456 1 0.699763
0.953887 1 0.80914
0.952834 1 0.93608
0.8495 1 0.763287
0.850706 1 0.763409
0.852491 1 0.763622
0.857832 1 0.764294
0.872358 1 0.7664
0.902235 1 0.773068
0.94107 1 0.792981
0.952224 1 0.847974
0.951873 1 0.946029
0.923888 1 0.977478
0.924025 1 0.977493
0.924239 1 0.977523
0.924895 1 0.9776
0.926879 1 0.977829
0.932265 1 0.978576
0.943206 1 0.980911
0.951705 1 0.98793
0.951644 1 1
0.0339513 0.0379034 1
0.0339513 0.0379034 1
0.0339513 0.0379034 1
0.0339513 0.0379034 1
0.685695 0.0409857 1
1 0.0429236 1
1 0.0429236 1
0.97467 0.843671 1
0.956832 1 1
0.0339513 0.0379034 1
0.0339513 0.0379034 1
0.0339513 0.0379034 1
0.0339513 0.0379034 1
0.694194 0.0410315 1
1 0.0429236 1
1 0.0429236 1
0.973861 0.853391 1
0.956786 1 1
0.0339513 0.0379034 1
0.0339513 0.0379034 1
0.0339513 0.0379034 1
0.0339513 0.0379034 1
0.706737 0.0411078 1
1 0.0429236 1
1 0.0429236 1
0.972717 0.866957 1
0.95671 1 1
0.0339513 0.0379034 1
0.0339513 0.0379034 1
0.0339513 0.0379034 1
0.0339513 0.0379034 1
0.73753 0.0412757 1
1 0.0429236 1
1 0.0429236 1
0.969818 0.901396 1
0.956497 1 1
0 0.578347 1
0 0.579828 1
0 0.582086 1
0 0.586236 1
0.681376 0.576654 1
0.994873 0.604181 1
0.980209 0.778073 1
0.964233 0.968353 0.998123
0.955871 1 1
0 1 0.981582
0 1 0.981552
0 1 0.981476
0 1 0.981155
0.550393 1 0.980667
0.861921 1 0.980606
0.959976 1 0.982727
0.957855 1 0.990753
0.954498 1 1
0.462882 1 0.96347
0.490013 1 0.96347
0.524575 1 0.96347
0.602075 1 0.9635
0.721828 1 0.963668
0.848966 1 0.964843
0.933593 1 0.969375
0.953429 1 0.981384
0.952667 1 1
0.841596 1 0.921294
0.842817 1 0.921355
0.844602 1 0.921416
0.849973 1 0.921691
0.864576 1 0.92256
0.894713 1 0.925292
0.934157 1 0.933654
0.951827 1 0.955642
0.95169 1 0.994568
0.92491 1 0.977356
0.925032 1 0.977386
0.925246 1 0.977401
0.925872 1 0.977462
0.927794 1 0.977707
0.932982 1 0.978439
0.943572 1 0.980789
0.951705 1 0.987823
0.951644 1 1
0.0336919 0.0379644 1
0.0336919 0.0379644 1
0.0336919 0.0379644 1
0.0336919 0.0379644 1
0.0336919 0.0379644 1
1 0.0429236 1
1 0.0429847 1
1 0.0429847 1
0.958816 1 1
0.0336919 0.0379644 1
0.0336919 0.0379644 1
0.0336919 0.0379644 1
0.0336919 0.0379644 1
0.0336919 0.0379644 1
1 0.0429389 1
1 0.0429847 1
1 0.0429847 1
0.958724 1 1
0.0336919 0.0379644 1
0.0336919 0.0379644 1
0.0336919 0.0379644 1
0.0336919 0.0379644 1
0.0336919 0.0379644 1
1 0.0429541 1
1 0.0429847 1
1 0.0429847 1
0.958587 1 1
0.0336919 0.0379644 1
0.0336919 0.0379644 1
0.0336919 0.0379644 1
0.0336919 0.0379644 1
0.0336919 0.0379644 1
1 0.0429847 1
1 0.0429847 1
1 0.0429847 1
0.95819 1 1
0.0336919 0.0379644 1
0.0336919 0.0379644 1
0.0336919 0.0379644 1
0.0336919 0.0379644 1
0.255924 0.0389715 1
1 0.0429847 1
1 0.0429847 1
0.987427 0.688884 1
0.957153 1 1
0 0.9093 1
0 0.909636 1
0 0.91017 1
0 0.912215 1
0 0.906889 1
0.878706 0.896864 1
0.967132 0.930831 1
0.9608 1 1
0.955139 1 1
0 1 1
0 1 1
0 1 1
0 1 1
0.612146 1 1
0.82472 1 1
0.927977 1 1
0.953582 1 1
0.952712 1 1
0.81268 1 1
0.814267 1 1
0.816632 1 1
0.823697 1 1
0.842573 1 1
0.879698 1 1
0.925063 1 1
0.951476 1 1
0.951461 1 1
0.921508 1 1
0.921645 1 1
0.921859 1 1
0.922469 1 1
0.924392 1 1
0.92958 1 1
0.940215 1 1
0.951522 1 1
0.951492 1 1
0.0250401 0.142931 1
0.0250401 0.142947 1
0.0250401 0.142947 1
0.0250401 0.142947 1
0.0250401 0.142977 1
0.0250248 0.143099 1
1 0.0429847 1
1 0.307591 1
0.980758 0.768048 1
0.0250401 0.142901 1
0.0250401 0.142901 1
0.0250401 0.142931 1
0.0250401 0.142931 1
0.0250401 0.142962 1
0.0250248 0.143099 1
1 0.0429847 1
1 0.307942 1
0.980758 0.768017 1
0.0250553 0.142885 1
0.0250553 0.142885 1
0.0250553 0.142885 1
0.0250401 0.142901 1
0.0250401 0.142947 1
0.0250401 0.143053 1
1 0.0429847 1
1 0.308476 1
0.980758 0.767987 1
0.0250553 0.142794 1
0.0250553 0.142794 1
0.0250553 0.142794 1
0.0250553 0.142809 1
0.0250553 0.142855 1
0.0250401 0.142962 1
1 0.0429847 1
1 0.31017 1
0.980774 0.767865 1
0.0250858 0.142519 1
0.0250858 0.142519 1
0.0250706 0.142535 1
0.0250706 0.142535 1
0.0250706 0.142565 1
0.0250706 0.142687 1
1 0.0429847 1
1 0.313237 1
0.980804 0.767468 1
0.0251469 0.141634 1
0.0251469 0.141634 1
0.0251469 0.141634 1
0.0251469 0.141649 1
0.0251469 0.141665 1
0.762798 0.041474 1
1 0.0429847 1
1 0.318242 1
0.963333 0.975448 1
0 1 1
0 1 1
0 1 1
0 1 1
0 1 1
0.686641 1 1
0.93492 1 1
0.956222 1 1
0.953841 1 1
0.663279 1 1
0.669871 1 1
0.679408 1 1
0.705715 1 1
0.763668 1 1
0.845319 1 1
0.915938 1 1
0.951354 1 1
0.951354 1 1
0.910979 1 1
0.911162 1 1
0.911421 1 1
0.912642 1 1
0.915145 1 1
0.921767 1 1
0.934859 1 1
0.949844 1 1
0.95137 1 1
0.00404364 0.392554 1
0.00404364 0.392554 1
0.00404364 0.392554 1
0.00404364 0.392554 1
0.00404364 0.392569 1
0.00404364 0.392599 1
0.00402838 0.392737 1
1 0.440208 1
0.976593 0.817533 1
0.00404364 0.392523 1
0.00404364 0.392523 1
0.00404364 0.392523 1
0.00404364 0.392554 1
0.00404364 0.392554 1
0.00404364 0.392584 1
0.00402838 0.392706 1
1 0.440421 1
0.976593 0.817563 1
0.00404364 0.392523 1
0.00404364 0.392523 1
0.00404364 0.392523 1
0.00404364 0.392523 1
0.00404364 0.392554 1
0.00404364 0.392584 1
0.00402838 0.392706 1
1 0.440711 1
0.976577 0.817624 1
0.0040589 0.392493 1
0.0040589 0.392493 1
0.0040589 0.392493 1
0.0040589 0.392508 1
0.0040589 0.392508 1
0.00404364 0.392554 1
0.00404364 0.392676 1
1 0.441672 1
0.976562 0.817807 1
0.0040589 0.392401 1
0.0040589 0.392401 1
0.0040589 0.392401 1
0.0040589 0.392401 1
0.0040589 0.392416 1
0.0040589 0.392447 1
0.00404364 0.392584 1
1 0.444709 1
0.976516 0.818387 1
0.00408942 0.392081 1
0.00408942 0.392081 1
0.00408942 0.392111 1
0.00408942 0.392111 1
0.00408942 0.392111 1
0.00407416 0.392157 1
0.00428778 0.389761 1
1 0.454337 1
0.976425 0.819425 1
0.00416571 0.391104 1
0.00416571 0.391104 1
0.00416571 0.391104 1
0.00416571 0.391135 1
0.00416571 0.391135 1
0.00416571 0.391165 1
1 0.0429847 1
1 0.476677 1
0.976287 0.82118 1
0 1 1
0 1 1
0 1 1
0 1 1
0 1 1
0 1 1
0.865919 1 1
0.952544 1 1
0.952163 1 1
0.861479 1 1
0.862104 1 1
0.86305 1 1
0.865934 1 1
0.874189 1 1
0.893538 1 1
0.923033 1 1
0.946731 1 1
0.951354 1 1
