BBLuts/BB_104_0120_LUT.cube
TITLE "Generated by Resolve"
LUT_3D_SIZE 9
0 0 0
0 0 0
0.202701 0 0
0.456992 0 0
0.730755 0 0
0.919707 0 0
0.894057 0.588327 0.0649271
0.883421 0.832135 0.361822
0.880308 0.923476 0.639811
0 0.0456092 0
0 0.0574197 0
0.208484 0.0342718 0
0.465339 0 0
0.732677 0 0
0.9196 0 0
0.893095 0.607492 0.0491493
0.883345 0.833906 0.360754
0.880308 0.923613 0.63975
0 0.230961 0
0 0.234913 0
0.146624 0.234012 0
0.462837 0.212726 0
0.730083 0.112779 0
0.907179 0.260822 0
0.891905 0.630594 0.0161898
0.883192 0.836774 0.359091
0.880293 0.923842 0.639643
0 0.512901 0
0 0.513863 0
0 0.5149 0
0.381125 0.514412 0
0.716167 0.505043 0
0.893187 0.55584 0
0.888579 0.697215 0
0.882689 0.847456 0.357244
0.880247 0.92491 0.639094
0 0.771328 0
0 0.771313 0
0 0.771115 0
0 0.769375 0
0.651316 0.764019 0
0.855634 0.767681 0
0.883299 0.808087 0
0.881453 0.874098 0.36527
0.880049 0.928832 0.636988
0 0.914137 0
0 0.914137 0
0 0.914137 0
0 0.910811 0
0.615122 0.903914 0
0.811322 0.896254 0
0.878965 0.897719 0
0.879683 0.914168 0.404425
0.879561 0.939208 0.638285
0.551446 0.960571 0.169787
0.551339 0.960616 0.169741
0.550652 0.960906 0.169436
0.550622 0.960906 0.169436
0.685725 0.956436 0.183017
0.801968 0.951003 0.223926
0.870253 0.94789 0.323415
0.878431 0.948898 0.512627
0.878935 0.954818 0.658183
0.782681 0.964248 0.573983
0.782681 0.964248 0.573983
0.782681 0.964248 0.573983
0.782681 0.964248 0.573983
0.782666 0.964248 0.573983
0.822217 0.96437 0.578714
0.863615 0.964538 0.593011
0.878294 0.964752 0.630365
0.878676 0.965087 0.69897
0.851194 0.965133 0.722408
0.851194 0.965133 0.722408
0.851194 0.965133 0.722408
0.851194 0.965133 0.722408
0.851194 0.965133 0.722408
0.851179 0.965133 0.722408
0.86595 0.965179 0.724269
0.878843 0.965225 0.729671
0.878904 0.965301 0.743282
0 0 0.0371557
0 0 0.0378882
0.199634 0 0.0400702
0.456275 0 0.0378882
0.730236 0 0.0365759
0.91989 0 0.0387427
0.89424 0.586282 0.0926375
0.883436 0.832105 0.361837
0.880308 0.923461 0.639826
0 0.0123598 0.02916
0.0197299 0.0279698 0.0285039
0.215244 0 0.0324102
0.458976 0 0.0268864
0.730831 0 0
0.919676 0 0.00231937
0.893233 0.606226 0.0722667
0.883345 0.833875 0.360769
0.880308 0.923613 0.63975
0 0.218753 0
0 0.222431 0
0.167407 0.221408 0
0.462242 0.199634 0
0.728588 0.0772106 0
0.90782 0.245487 0
0.892012 0.629465 0.0368963
0.883192 0.836774 0.359091
0.880293 0.923842 0.639643
0 0.507942 0
0 0.508827 0
0 0.509758 0
0.391867 0.508934 0
0.715724 0.500359 0
0.893202 0.552804 0
0.888609 0.696498 0
0.882689 0.847456 0.357244
0.880247 0.92491 0.639094
0 0.770016 0
0 0.770016 0
0 0.769787 0
0 0.768032 0
0.653284 0.762951 0
0.85568 0.766979 0
0.883314 0.807843 0
0.881453 0.874098 0.36527
0.880049 0.928832 0.636988
0 0.913817 0
0 0.913878 0
0 0.913878 0
0 0.910597 0
0.616739 0.903731 0
0.81149 0.896132 0
0.878965 0.897658 0
0.879683 0.914168 0.404425
0.879561 0.939208 0.638285
0.553384 0.960769 0.169253
0.554223 0.960433 0.169604
0.553262 0.96083 0.169207
0.553246 0.96083 0.169207
0.686488 0.95639 0.182773
0.802106 0.950957 0.223758
0.870268 0.947875 0.3234
0.878431 0.948898 0.512627
0.878935 0.954818 0.658183
0.782849 0.964248 0.573968
0.782849 0.964248 0.573968
0.782849 0.964248 0.573968
0.782849 0.964248 0.573968
0.782849 0.964248 0.573968
0.822278 0.96437 0.578698
0.863645 0.964538 0.592981
0.878294 0.964752 0.630365
0.878676 0.965087 0.69897
0.851209 0.965133 0.722408
0.851209 0.965133 0.722408
0.851209 0.965133 0.722408
0.851209 0.965133 0.722408
0.851209 0.965133 0.722408
0.851209 0.965133 0.722408
0.865965 0.965179 0.724269
0.878843 0.965225 0.729671
0.878904 0.965301 0.743282
0 0 0.18143
0 0 0.181964
0.164508 0 0.183597
0.466636 0 0.177096
0.73048 0 0.180117
0.920363 0 0.199023
0.895109 0.576745 0.235492
0.883543 0.831647 0.390158
0.880308 0.923461 0.639826
0 0 0.178836
0 0 0.179248
0.19147 0 0.185855
0.465568 0 0.17377
0.731456 0 0.176059
0.920165 0 0.191394
0.894041 0.599634 0.228321
0.883467 0.833432 0.389136
0.880308 0.923613 0.63975
0 0.184588 0.164675
0 0.187716 0.16463
0.149523 0.181979 0.162539
0.450034 0.162799 0.164401
0.729366 0.00450141 0.164721
0.910964 0.186801 0.174563
0.892866 0.623468 0.217762
0.883314 0.836347 0.387381
0.880293 0.923842 0.639643
0 0.493004 0.086244
0 0.494408 0.0865797
0 0.495155 0.0880293
0.391379 0.493874 0.0887922
0.711894 0.486137 0.0887617
0.893935 0.541817 0.10016
0.889448 0.692882 0.176669
0.88278 0.847105 0.380713
0.880247 0.92491 0.639094
0 0.767529 0
0 0.767529 0
0 0.767315 0
0 0.76556 0
0.655085 0.760296 0
0.855619 0.764874 0
0.883513 0.80679 0.0108186
0.881453 0.873976 0.366537
0.880049 0.928832 0.636988
0 0.91342 0
0 0.91342 0
0 0.91342 0
0 0.91017 0
0.619547 0.90341 0
0.811917 0.895903 0
0.878996 0.897505 0
0.879683 0.914122 0.404242
0.879561 0.939208 0.638285
0.556832 0.960708 0.168872
0.556832 0.960708 0.168872
0.556832 0.960708 0.168872
0.556817 0.960708 0.168872
0.687526 0.956313 0.182452
0.802426 0.950912 0.223529
0.870298 0.947845 0.323201
0.878431 0.948882 0.512566
0.878935 0.954818 0.658183
0.783108 0.964248 0.573938
0.783352 0.964157 0.57406
0.783108 0.964248 0.573938
0.783108 0.964248 0.573938
0.783108 0.964248 0.573938
0.822385 0.96437 0.578668
0.863676 0.964538 0.592966
0.878294 0.964752 0.630365
0.878676 0.965087 0.69897
0.851225 0.965133 0.722408
0.851225 0.965133 0.722408
0.851225 0.965133 0.722408
0.851225 0.965133 0.722408
0.851225 0.965133 0.722408
0.851225 0.965133 0.722408
0.865965 0.965179 0.724254
0.878843 0.965225 0.729671
0.878904 0.965301 0.743282
0 0 0.412619
0 0 0.412711
0 0 0.413687
0.425391 0 0.410773
0.747051 0 0.41117
0.92105 0 0.425025
0.897551 0.539208 0.453346
0.88426 0.827878 0.532616
0.880369 0.923339 0.648219
0 0 0.411185
0 0 0.411322
0.00813306 0 0.411902
0.44094 0 0.40914
0.745739 0 0.409369
0.920928 0 0.422461
0.896193 0.568933 0.449958
0.884169 0.829786 0.532082
0.880354 0.923476 0.648157
0 0.0369879 0.407202
0 0.0398108 0.407279
0.0110475 0.0407416 0.407248
0.447929 0 0.405417
0.741253 0 0.405982
0.920043 0 0.418021
0.894621 0.602396 0.445106
0.884016 0.832853 0.531197
0.880354 0.923705 0.648066
0 0.43856 0.381216
0 0.439475 0.381277
0 0.441566 0.381826
0.375677 0.438697 0.385595
0.702358 0.431373 0.384619
0.896681 0.497826 0.393347
0.890959 0.678264 0.428901
0.883467 0.844236 0.527916
0.880293 0.924773 0.647593
0 0.758007 0.301701
0 0.758007 0.301701
0 0.758175 0.302434
0 0.756283 0.305715
0.650752 0.751431 0.310445
0.854627 0.75758 0.331792
0.884916 0.802747 0.388907
0.882078 0.872435 0.516777
0.880095 0.928695 0.645731
0 0.912673 0.0593423
0 0.912673 0.0593423
0 0.912673 0.0593423
0 0.90956 0.0610361
0.61619 0.902693 0.0615396
0.811521 0.89543 0.177874
0.879942 0.897627 0.311025
0.880003 0.913741 0.486442
0.879576 0.939178 0.640406
0.567605 0.960311 0.167224
0.567605 0.960311 0.167224
0.567605 0.960311 0.167224
0.567605 0.960311 0.167224
0.690669 0.956085 0.181399
0.80325 0.95079 0.222766
0.870466 0.947738 0.322881
0.878431 0.948821 0.5122
0.878935 0.954803 0.658137
0.783993 0.964248 0.573861
0.783993 0.964248 0.573861
0.783993 0.964248 0.573861
0.783993 0.964248 0.573861
0.783993 0.964248 0.573861
0.822721 0.96437 0.578576
0.863798 0.964538 0.592889
0.878294 0.964752 0.630274
0.878676 0.965087 0.69894
0.851316 0.965133 0.722393
0.851316 0.965133 0.722393
0.851316 0.965133 0.722393
0.851316 0.965133 0.722393
0.851316 0.965133 0.722393
0.851316 0.965133 0.722393
0.865995 0.965179 0.724254
0.878843 0.965225 0.729656
0.878904 0.965301 0.743282
0 0 0.654612
0 0 0.654612
0 0 0.654673
0.096788 0 0.654322
0.722789 0 0.649989
0.922744 0 0.651255
0.909239 0.300984 0.65568
0.892073 0.812177 0.667475
0.880751 0.921782 0.704616
0 0 0.654551
0 0 0.654551
0 0 0.654597
0.104494 0 0.65481
0.725994 0 0.649958
0.922744 0 0.650996
0.905348 0.384924 0.653651
0.8916 0.814679 0.666972
0.880751 0.921935 0.70457
0 0 0.654337
0 0 0.653849
0 0 0.653895
0.205219 0 0.652903
0.730434 0 0.64889
0.922728 0 0.650248
0.901534 0.471183 0.651392
0.8878 0.819608 0.664256
0.882612 0.921477 0.705684
0 0.198077 0.648737
0 0.198199 0.64828
0 0.202625 0.648234
0.201373 0.194568 0.647272
0.725612 0.0979019 0.644785
0.912993 0.185809 0.644221
0.894728 0.620432 0.645228
0.886152 0.833158 0.662043
0.88365 0.922194 0.706096
0 0.72015 0.623148
0 0.720714 0.622003
0 0.72076 0.622019
0 0.720592 0.622293
0.636988 0.71368 0.62536
0.852644 0.726223 0.624109
0.886854 0.784482 0.631418
0.883101 0.866697 0.656458
0.882902 0.926543 0.704768
0 0.910231 0.593057
0 0.91078 0.592248
0 0.910857 0.592218
0 0.908415 0.59263
0.580224 0.90071 0.592996
0.803845 0.892576 0.598108
0.880491 0.895033 0.613764
0.880903 0.911925 0.646586
0.880903 0.938018 0.700389
0.553475 0.960403 0.53994
0.552499 0.9608 0.53933
0.552499 0.9608 0.53933
0.552499 0.9608 0.53933
0.678798 0.956619 0.542275
0.797894 0.951049 0.552422
0.868772 0.946853 0.576776
0.879438 0.948394 0.624506
0.87924 0.954513 0.690211
0.786831 0.964248 0.573358
0.786831 0.964248 0.573358
0.786831 0.964248 0.573358
0.786831 0.964248 0.573358
0.786831 0.964248 0.573358
0.823789 0.96437 0.578225
0.868116 0.963027 0.594553
0.880079 0.96408 0.631067
0.878676 0.965087 0.698802
0.851667 0.965133 0.722362
0.851667 0.965133 0.722362
0.851667 0.965133 0.722362
0.851667 0.965133 0.722362
0.851667 0.965133 0.722362
0.851667 0.965133 0.722362
0.870054 0.963668 0.726665
0.880323 0.96466 0.730571
0.878904 0.965301 0.743267
0 0 0.783139
0 0 0.78262
0 0 0.78262
0 0 0.782635
0.561227 0 0.778531
0.919722 0 0.772992
0.923949 0 0.774472
0.906447 0.741604 0.770062
0.917571 0.90312 0.780652
0 0 0.786099
0 0 0.78262
0 0 0.78262
0 0 0.782635
0.560571 0 0.778546
0.919722 0 0.772992
0.924895 0 0.776196
0.906737 0.746593 0.770077
0.917571 0.903304 0.780636
0 0 0.791745
0 0 0.782589
0 0 0.782589
0 0 0.782589
0.570794 0 0.779446
0.921706 0 0.77612
0.925429 0 0.777127
0.902312 0.755947 0.766293
0.917571 0.903609 0.780591
0 0 0.79144
0 0 0.782284
0 0 0.782284
0 0 0.7823
0.614633 0 0.778134
0.924163 0 0.779004
0.926696 0 0.778622
0.90042 0.782223 0.76376
0.917556 0.904891 0.780438
0 0.489815 0.781338
0 0.493874 0.771069
0 0.494301 0.76997
0 0.49839 0.769833
0.583383 0.493645 0.765988
0.891188 0.514687 0.76112
0.892531 0.679698 0.75523
0.918379 0.829572 0.774014
0.917494 0.909697 0.779873
0 0.892958 0.752453
0 0.897108 0.744289
0 0.897688 0.74316
0 0.897688 0.74316
0.362112 0.888731 0.741772
0.797986 0.875914 0.745327
0.9131 0.870588 0.764752
0.917632 0.891463 0.768322
0.893324 0.93109 0.762112
0.399268 0.955734 0.739406
0.382803 0.960174 0.731701
0.381506 0.96083 0.730556
0.381506 0.96083 0.730556
0.612909 0.956786 0.7299
0.781537 0.949416 0.730465
0.866224 0.943038 0.737209
0.890364 0.943191 0.744747
0.889403 0.949966 0.756374
0.780835 0.963439 0.711315
0.778927 0.964187 0.710109
0.777203 0.964874 0.70901
0.777203 0.964874 0.70901
0.777203 0.964874 0.70901
0.814603 0.964981 0.710124
0.859419 0.964416 0.714992
0.88748 0.961883 0.72932
0.879973 0.964889 0.742763
0.855863 0.963943 0.724178
0.85333 0.96492 0.722591
0.852796 0.965133 0.72224
0.852796 0.965133 0.72224
0.852796 0.965133 0.72224
0.852796 0.965133 0.72224
0.868727 0.96434 0.72546
0.889937 0.960998 0.736492
0.884276 0.963241 0.74667
0 0 0.820996
0 0 0.818738
0 0 0.817609
0 0 0.817609
0 0 0.817609
0.845899 0 0.815457
0.923613 0 0.815198
0.927184 0 0.822477
0.918044 0.879484 0.818555
0 0 0.822782
0 0 0.817609
0 0 0.817609
0 0 0.817609
0 0 0.817609
0.845899 0 0.815457
0.923796 0 0.815579
0.925872 0 0.819791
0.918029 0.879881 0.818524
0 0 0.823636
0 0 0.817609
0 0 0.817609
0 0 0.817609
0 0 0.817609
0.846067 0 0.815839
0.925307 0 0.818647
0.925872 0 0.819791
0.918029 0.880598 0.818463
0 0 0.824765
0 0 0.817609
0 0 0.817609
0 0 0.817609
0 0 0.817609
0.850752 0 0.816587
0.925307 0 0.818647
0.927749 0 0.823621
0.917998 0.88333 0.818265
0 0 0.825147
0 0 0.818738
0 0 0.817609
0 0 0.817609
0 0 0.817609
0.880888 0 0.816098
0.927001 0 0.822095
0.91075 0.437446 0.816449
0.917891 0.892638 0.817533
0 0.744183 0.812024
0 0.747219 0.803967
0 0.747219 0.803967
0 0.747219 0.803967
0 0.750027 0.803861
0.785016 0.74377 0.799832
0.890043 0.785489 0.798611
0.918334 0.85391 0.818173
0.917647 0.912764 0.815915
0 0.956542 0.799146
0 0.960937 0.79057
0 0.961563 0.789349
0 0.961563 0.789349
0 0.961563 0.789349
0.739727 0.945434 0.786374
0.858 0.938384 0.789609
0.917449 0.928435 0.812146
0.917357 0.936721 0.813626
0.760571 0.961288 0.789166
0.75259 0.964462 0.783413
0.750881 0.965148 0.782177
0.750881 0.965148 0.782177
0.750881 0.965148 0.782177
0.79295 0.965255 0.781979
0.851286 0.96495 0.782773
0.892241 0.960159 0.792248
0.891814 0.960632 0.793881
0.851499 0.964233 0.775708
0.850355 0.964675 0.774929
0.848569 0.965362 0.773709
0.848569 0.965362 0.773709
0.848569 0.965362 0.773709
0.848569 0.965362 0.773709
0.862425 0.965408 0.774121
0.880781 0.964233 0.777737
0.884199 0.963516 0.783185
0 0.0737316 0.822782
0 0.0744335 0.817456
0 0.0745251 0.816709
0 0.0745251 0.816709
0 0.0745251 0.816709
0 0.0746319 0.816709
0.923613 0 0.815198
0.922789 0.014786 0.815686
0.901579 0.654292 0.815198
0 0.0740826 0.820127
0 0.0743877 0.817838
0 0.0745251 0.816709
0 0.0745251 0.816709
0 0.0745251 0.816709
0 0.0746319 0.816709
0.923613 0 0.815198
0.922393 0.0149233 0.814923
0.897322 0.655772 0.811124
0 0.0745251 0.816709
0 0.0745251 0.816709
0 0.0745251 0.816709
0 0.0745251 0.816709
0 0.0745251 0.816709
0 0.0746319 0.816709
0.923613 0 0.815198
0.922393 0.0149233 0.814923
0.893904 0.656916 0.807874
0 0.0745251 0.816709
0 0.0745251 0.816709
0 0.0745251 0.816709
0 0.0745251 0.816709
0 0.0745251 0.816709
0 0.0745098 0.817685
0.925307 0 0.818647
0.923583 0.0144961 0.817227
0.893919 0.656825 0.807874
0 0.074403 0.816709
0 0.074403 0.816709
0 0.074403 0.816709
0 0.074403 0.816709
0 0.074403 0.816709
0 0.0744945 0.816709
0.924178 0 0.816342
0.924666 0.0162966 0.819501
0.894774 0.65626 0.808698
0 0.0726329 0.816724
0 0.0726329 0.816724
0 0.0726329 0.816724
0 0.0726329 0.816724
0 0.0726329 0.816724
0 0.0727245 0.816724
0.92398 0 0.815961
0.924269 0.0576028 0.821408
0.888853 0.783902 0.806806
0 0.892638 0.810452
0 0.894362 0.806714
0 0.894362 0.806714
0 0.894362 0.806714
0 0.894362 0.806714
0 0.896025 0.806683
0.857023 0.875227 0.80795
0.917967 0.891646 0.830747
0.917617 0.921981 0.830396
0.494926 0.961715 0.809949
0.486107 0.964584 0.804471
0.486107 0.964584 0.804471
0.486107 0.964584 0.804471
0.486107 0.964584 0.804471
0.486107 0.964584 0.804471
0.834485 0.965423 0.802853
0.882185 0.962203 0.806516
0.917281 0.950179 0.829557
0.848447 0.961776 0.808499
0.838956 0.965469 0.801709
0.838956 0.965469 0.801709
0.838956 0.965469 0.801709
0.838956 0.965469 0.801709
0.838956 0.965469 0.801709
0.85449 0.965515 0.801648
0.876097 0.965103 0.802472
0.890089 0.961395 0.809491
0 0.323339 0.820371
0 0.325154 0.814176
0 0.325154 0.814176
0 0.325154 0.814176
0 0.325154 0.814176
0 0.325154 0.814176
0 0.325231 0.814176
0.918318 0.124392 0.815015
0.900511 0.683253 0.814801
0 0.324468 0.816495
0 0.325154 0.814176
0 0.325154 0.814176
0 0.325154 0.814176
0 0.325154 0.814176
0 0.325154 0.814176
0 0.325231 0.814176
0.917601 0.124712 0.813809
0.892531 0.686046 0.807431
0 0.324468 0.816495
0 0.324819 0.815335
0 0.325154 0.814176
0 0.325154 0.814176
0 0.325154 0.814176
0 0.325154 0.814176
0 0.325231 0.814176
0.917601 0.124712 0.813809
0.892973 0.685893 0.807843
0 0.325154 0.814176
0 0.325154 0.814176
0 0.325154 0.814176
0 0.325154 0.814176
0 0.325154 0.814176
0 0.325154 0.814176
0 0.325231 0.814176
0.917601 0.124712 0.813809
0.892531 0.686046 0.807431
0 0.325154 0.814176
0 0.325154 0.814176
0 0.325154 0.814176
0 0.325154 0.814176
0 0.325154 0.814176
0 0.325154 0.814176
0 0.324773 0.815717
0.91899 0.124102 0.816144
0.892531 0.686046 0.807431
0 0.325078 0.814176
0 0.325078 0.814176
0 0.325078 0.814176
0 0.325078 0.814176
0 0.325078 0.814176
0 0.325078 0.814176
0 0.325139 0.814176
0.918029 0.125536 0.814588
0.893355 0.686946 0.80824
0 0.323857 0.814191
0 0.323857 0.814191
0 0.323857 0.814191
0 0.323857 0.814191
0 0.323857 0.814191
0 0.323857 0.814191
0 0.323919 0.814191
0.914244 0.256962 0.815991
0.893706 0.68896 0.808621
0 0.959075 0.809491
0 0.960952 0.805722
0 0.960952 0.805722
0 0.960952 0.805722
0 0.960952 0.805722
0 0.960952 0.805722
0 0.961135 0.805722
0.88687 0.945785 0.812009
0.917403 0.940551 0.830198
0.794202 0.965362 0.803555
0.794202 0.965362 0.803555
0.794202 0.965362 0.803555
0.794202 0.965362 0.803555
0.794202 0.965362 0.803555
0.794202 0.965362 0.803555
0.794202 0.965362 0.803555
0.870359 0.96556 0.803311
0.881041 0.964889 0.804547
