BBLuts/BB_102_0530_LUT.cube
TITLE "Generated by Resolve"
LUT_3D_SIZE 5
0 0 0
0.168414 0 0
0.749752 0 0
1 0.5449 0.0487831
0.971252 1 0.688319
0 0.193515 0
0.11902 0.196704 0
0.755184 0.0889448 0
0.999573 0.609918 0.0171054
0.971206 1 0.687999
0 0.81915 0
0 0.81883 0
0.632212 0.813779 0
0.978027 0.88423 0
0.970657 1 0.683207
0.474586 1 0.128832
0.474586 1 0.128832
0.677424 1 0.142
0.956664 1 0.270924
0.967453 1 0.722484
0.923766 1 0.8421
0.923766 1 0.8421
0.923766 1 0.8421
0.946075 1 0.845838
0.965316 1 0.882567
0 0.000167849 0.135348
0.1411 0 0.131991
0.751919 0 0.122271
1 0.532097 0.184573
0.971252 1 0.688334
0 0.15845 0.122881
0.125307 0.156756 0.118898
0.75201 0.00373846 0.11162
1 0.601694 0.170016
0.971206 1 0.687999
0 0.813321 0
0 0.81297 0
0.637964 0.808042 0
0.97995 0.88394 0.0153658
0.970657 1 0.683207
0.484154 1 0.12845
0.484154 1 0.12845
0.68011 1 0.141558
0.956741 1 0.27071
0.967453 1 0.722484
0.923827 1 0.8421
0.923827 1 0.8421
0.923827 1 0.8421
0.946105 1 0.845808
0.965316 1 0.882567
0 0 0.693584
0 0 0.69369
0.735882 0 0.676936
1 0.250645 0.70132
0.97084 1 0.808316
0 0 0.69221
0 0 0.692302
0.747112 0 0.67483
1 0.412192 0.699031
0.970794 1 0.808133
0 0.745281 0.643061
0 0.745357 0.643091
0.607156 0.743435 0.648402
0.987076 0.852384 0.670634
0.970199 1 0.80589
0.47776 1 0.508598
0.47776 1 0.508598
0.667155 1 0.514702
0.950057 1 0.573007
0.967178 1 0.781735
0.924498 1 0.842008
0.924498 1 0.842008
0.924498 1 0.842008
0.946349 1 0.845731
0.965316 1 0.882536
0 0 0.99762
0 0 0.99762
0 0 0.99762
1 0 0.983001
0.972961 1 0.975296
0 0 0.99762
0 0 0.99762
0 0 0.99762
1 0 0.983001
0.972824 1 0.975174
0 0 0.99762
0 0 0.99762
0 0 0.99762
1 0 0.983001
0.97145 1 0.973556
0 1 0.955322
0 1 0.955322
0 1 0.955322
0.925856 1 0.962997
0.966339 1 0.966705
0.918654 1 0.940383
0.918654 1 0.940383
0.918654 1 0.940383
0.939635 1 0.94139
0.964782 1 0.951873
0 0.269261 1
0 0.269261 1
0 0.269261 1
0 0.269322 1
0.995163 0.695598 0.999481
0 0.269261 1
0 0.269261 1
0 0.269261 1
0 0.269322 1
0.995163 0.695598 0.999481
0 0.269261 1
0 0.269261 1
0 0.269261 1
0 0.269322 1
0.995163 0.695598 0.999481
0 0.268101 1
0 0.268101 1
0 0.268101 1
0 0.268147 1
0.994812 0.700862 0.999481
0.835325 1 0.996719
0.835325 1 0.996719
0.835325 1 0.996719
0.835325 1 0.996719
0.964416 1 0.997497
