BBLuts/BB_106_0250_LUT.cube
TITLE "Generated by Resolve"
LUT_3D_SIZE 33
0.0123293 0.0218662 0.038529
0.0123293 0.0218662 0.038529
0.0123293 0.0218662 0.038529
0.0123293 0.0218662 0.038529
0.0123293 0.0218662 0.038529
0.0621805 0.0224308 0.0389868
0.121553 0.0230869 0.038117
0.164065 0.0235752 0.0387884
0.207813 0.0240635 0.0394903
0.25948 0.0250248 0.0433204
0.323033 0.026566 0.0456092
0.393698 0.0293278 0.0496834
0.475593 0.0348363 0.0578012
0.558724 0.0472114 0.0760052
0.630152 0.0776837 0.120684
0.702663 0.154208 0.230671
0.776837 0.296681 0.37232
0.851804 0.431449 0.507347
0.919524 0.541009 0.599527
0.972946 0.604715 0.657725
0.982803 0.614893 0.668452
0.982803 0.614893 0.668452
0.982757 0.618097 0.668956
0.982666 0.625711 0.669108
0.982437 0.64271 0.668559
0.981994 0.674876 0.666209
0.981262 0.72314 0.659571
0.980285 0.776272 0.645304
0.979202 0.821958 0.623316
0.977996 0.859373 0.603876
0.976715 0.888533 0.627466
0.975464 0.911208 0.703395
0.974441 0.929747 0.779675
0.0123293 0.0218662 0.038529
0.0123293 0.0218662 0.038529
0.0123293 0.0218662 0.038529
0.0123293 0.0218662 0.038529
0.0123293 0.0218662 0.038529
0.0745251 0.0225681 0.0378119
0.125658 0.0231327 0.0381781
0.167437 0.0236057 0.0388342
0.213458 0.024155 0.0395819
0.266117 0.0251621 0.0435187
0.329778 0.0267643 0.0459144
0.399634 0.029633 0.0501259
0.479255 0.0351568 0.0583047
0.560708 0.0476997 0.0766766
0.631495 0.078584 0.121981
0.703593 0.155718 0.232532
0.777417 0.297765 0.373388
0.852079 0.431922 0.507774
0.919448 0.540887 0.599451
0.972595 0.604349 0.657343
0.982803 0.614893 0.668452
0.982803 0.614893 0.668452
0.982757 0.618799 0.668681
0.982651 0.626902 0.66894
0.982422 0.644556 0.66836
0.981964 0.677211 0.665904
0.981231 0.72546 0.658961
0.980255 0.777935 0.644388
0.979156 0.822965 0.622049
0.977981 0.859998 0.602304
0.976715 0.888869 0.626398
0.975448 0.911437 0.702953
0.974441 0.929885 0.779507
0.0123293 0.0218662 0.038529
0.0123293 0.0218662 0.038529
0.0123293 0.0218662 0.038529
0.0123293 0.0218662 0.038529
0.0123293 0.0218662 0.038529
0.0816968 0.0226444 0.037583
0.127062 0.0231479 0.0381933
0.170626 0.0236515 0.0388952
0.219348 0.0242313 0.0396887
0.272267 0.0252842 0.0437018
0.334936 0.0269474 0.0461585
0.402808 0.0297856 0.0503853
0.482246 0.035462 0.058732
0.562814 0.048188 0.0774243
0.632868 0.0794995 0.123339
0.704524 0.157198 0.234333
0.777996 0.298848 0.374456
0.852338 0.43238 0.508217
0.919341 0.540749 0.599329
0.972229 0.603983 0.656931
0.982803 0.614893 0.668452
0.982803 0.614893 0.668452
0.982742 0.619532 0.668193
0.98262 0.628168 0.668772
0.982376 0.646464 0.668162
0.981933 0.679561 0.665583
0.981186 0.727764 0.658351
0.980224 0.779538 0.643442
0.979141 0.824247 0.620768
0.977966 0.860609 0.600717
0.976699 0.88922 0.625315
0.975433 0.911635 0.70251
0.974426 0.930007 0.779339
0.0123293 0.0218662 0.038529
0.0123293 0.0218662 0.038529
0.0123293 0.0218662 0.038529
0.0115663 0.0268254 0.0381476
0.0342565 0.0316014 0.0382239
0.087129 0.0227054 0.037583
0.127718 0.0231479 0.0382239
0.170901 0.0236515 0.0388952
0.220356 0.0242466 0.039704
0.274769 0.0253452 0.0437781
0.338277 0.027039 0.0463111
0.405707 0.0299535 0.0506142
0.485115 0.0357366 0.0591287
0.564935 0.0487068 0.0782025
0.634241 0.0804456 0.124712
0.70547 0.158755 0.236194
0.778561 0.299886 0.375509
0.852567 0.432792 0.508583
0.919219 0.540566 0.599207
0.971832 0.603571 0.656504
0.982803 0.614893 0.668452
0.982803 0.614893 0.668452
0.982727 0.620356 0.668132
0.982605 0.629496 0.668589
0.982361 0.648432 0.667964
0.981903 0.681941 0.665248
0.98114 0.730022 0.657771
0.980179 0.78114 0.642496
0.97911 0.825238 0.619471
0.977951 0.861219 0.599145
0.976684 0.889555 0.624216
0.975433 0.911864 0.702068
0.974411 0.930144 0.779171
0.00531014 0.0677653 0.0349889
0.00491341 0.0703441 0.0347906
0.00453193 0.0728161 0.0345922
0.00418097 0.075227 0.0344091
0.00402838 0.0761578 0.0343328
0.0709544 0.0763256 0.0335241
0.115618 0.074876 0.0341192
0.161334 0.0708019 0.0351873
0.214878 0.0608072 0.0368505
0.275883 0.0253605 0.0438239
0.340185 0.0271 0.0464179
0.408331 0.0300908 0.0508278
0.487846 0.0360113 0.059556
0.567071 0.0492409 0.0789807
0.635645 0.0814221 0.126162
0.706432 0.160311 0.238071
0.779126 0.300954 0.376532
0.852781 0.433173 0.508919
0.919066 0.540368 0.599054
0.97142 0.603159 0.656062
0.982803 0.614893 0.668452
0.982788 0.6159 0.668391
0.982712 0.621256 0.668086
0.982589 0.630869 0.66836
0.982345 0.650416 0.667735
0.981857 0.684337 0.664912
0.981109 0.73225 0.65716
0.980148 0.782727 0.64152
0.979095 0.8262 0.618158
0.97792 0.861814 0.597589
0.976654 0.889891 0.623133
0.975418 0.912077 0.701625
0.974395 0.930266 0.778988
0.000976577 0.0961624 0.0327916
0.000656138 0.0982071 0.032639
0.000366217 0.100237 0.0324865
0.000106813 0.101808 0.0323644
0 0.102586 0.0323033
0.0458991 0.103166 0.0331273
0.104021 0.102998 0.0317998
0.15256 0.101671 0.0327153
0.207614 0.0983139 0.033875
0.273259 0.0915084 0.0359197
0.338094 0.0780041 0.0425422
0.410651 0.0302281 0.0510262
0.490578 0.0363012 0.0599832
0.569329 0.049836 0.0798352
0.637156 0.0824903 0.127749
0.707454 0.162036 0.240085
0.779706 0.302037 0.3776
0.85301 0.43357 0.509285
0.918914 0.540169 0.598901
0.970977 0.602686 0.655589
0.982803 0.614893 0.668452
0.982773 0.617472 0.668299
0.982696 0.622248 0.668025
0.982574 0.63238 0.668101
0.9823 0.652552 0.667491
0.981826 0.686824 0.664546
0.981079 0.734554 0.656519
0.980117 0.784344 0.640497
0.979065 0.827207 0.616754
0.977905 0.862425 0.595956
0.976638 0.890257 0.621958
0.975402 0.912291 0.701152
0.97438 0.930404 0.77882
0 0.12607 0.0305028
0 0.127779 0.0303655
0 0.129473 0.0302129
0 0.130434 0.0301366
0 0.131044 0.0301061
0 0.131273 0.0300755
0.0814984 0.132097 0.031632
0.140093 0.131701 0.0302281
0.19794 0.130282 0.0312963
0.268101 0.127245 0.0330816
0.335134 0.121645 0.0391699
0.409537 0.112337 0.044892
0.492348 0.0944381 0.0560464
0.572229 0.0506142 0.0809796
0.639109 0.0839094 0.129824
0.708766 0.164279 0.242664
0.780468 0.303456 0.379034
0.853284 0.434058 0.509728
0.9187 0.539834 0.598657
0.970382 0.602075 0.654932
0.982803 0.614893 0.668452
0.982757 0.618479 0.668254
0.982681 0.623621 0.667948
0.982544 0.634409 0.667613
0.982269 0.655344 0.667185
0.981781 0.690059 0.664042
0.981018 0.737499 0.65568
0.980072 0.786404 0.639155
0.979034 0.828473 0.614923
0.977874 0.863218 0.593835
0.976623 0.8907 0.620462
0.975372 0.912581 0.700526
0.974365 0.930556 0.778576
0 0.15996 0.0278935
0 0.161456 0.0277714
0 0.16257 0.0276646
0 0.163302 0.0276341
0 0.163821 0.0275883
0 0.164111 0.0275425
0.0230106 0.164569 0.0281376
0.115755 0.165316 0.0298161
0.182254 0.164736 0.0284428
0.258152 0.163043 0.0301061
0.329503 0.160037 0.0360571
0.408667 0.155917 0.0415961
0.494301 0.151324 0.0522316
0.574456 0.146593 0.0751049
0.641169 0.139147 0.128496
0.710536 0.16733 0.246128
0.781491 0.305394 0.380941
0.853666 0.434714 0.510353
0.918379 0.539406 0.598337
0.969543 0.601205 0.654017
0.982773 0.616693 0.668345
0.982727 0.619821 0.668177
0.982666 0.625605 0.667826
0.982513 0.637263 0.667033
0.982223 0.659175 0.666712
0.98172 0.694362 0.66334
0.980957 0.741314 0.654505
0.980011 0.789059 0.637339
0.978973 0.830121 0.612451
0.977844 0.864256 0.59089
0.976593 0.891295 0.618402
0.975341 0.912963 0.699748
0.97435 0.9308 0.778271
0 0.20531 0.0243534
0 0.20676 0.0242313
0 0.207584 0.024155
0 0.208392 0.024094
0 0.208957 0.024033
0 0.209354 0.0240177
0 0.209598 0.0239872
0.0687266 0.210361 0.0255131
0.151843 0.209613 0.0271458
0.238865 0.207385 0.0262455
0.318242 0.205112 0.0321508
0.404059 0.202121 0.0377813
0.495247 0.200092 0.0488594
0.577585 0.202869 0.0724804
0.643687 0.220478 0.125841
0.712184 0.26363 0.244221
0.782666 0.338643 0.381796
0.854154 0.435584 0.511116
0.917891 0.53872 0.597833
0.968322 0.602243 0.652598
0.982757 0.618677 0.668238
0.982712 0.621897 0.668055
0.98262 0.62855 0.667643
0.982452 0.641367 0.666728
0.982132 0.664363 0.666041
0.981628 0.700053 0.662364
0.980865 0.746242 0.652903
0.979934 0.792477 0.634867
0.978912 0.832273 0.609049
0.977798 0.865583 0.586679
0.976562 0.892073 0.615641
0.975326 0.913436 0.69865
0.974334 0.931075 0.777859
0 0.262989 0.0182956
0 0.263447 0.0182345
0 0.26389 0.0181735
0 0.264256 0.018143
0 0.264485 0.0180972
0 0.264546 0.0180972
0 0.264424 0.0181125
0 0.264027 0.0181582
0.101946 0.264012 0.0205844
0.19794 0.262943 0.0224613
0.297093 0.261097 0.0256199
0.39263 0.258701 0.031342
0.492042 0.256611 0.0429084
0.579675 0.257954 0.0682078
0.646815 0.271412 0.124468
0.714839 0.306432 0.245701
0.784298 0.371267 0.383093
0.854566 0.462623 0.510781
0.917052 0.54786 0.596674
0.966552 0.603372 0.650553
0.982712 0.621118 0.668101
0.982666 0.625177 0.667857
0.982559 0.632975 0.667353
0.982376 0.647257 0.66627
0.982055 0.671489 0.665034
0.981506 0.707576 0.660929
0.980758 0.752544 0.650675
0.979843 0.796811 0.631479
0.978836 0.835019 0.604364
0.977737 0.867323 0.580102
0.976516 0.893095 0.611856
0.97528 0.914076 0.69723
0.974304 0.931472 0.77731
0 0.325917 0.00796521
0 0.326345 0.0078584
0 0.326818 0.00776684
0 0.327138 0.00769055
0 0.327398 0.00764477
0 0.327565 0.00761425
0 0.327611 0.00761425
0 0.327504 0.00762951
0 0.327016 0.00773632
0.130602 0.326787 0.0110781
0.256641 0.325628 0.0140688
0.369772 0.323751 0.0196231
0.481239 0.321569 0.0313268
0.578332 0.321706 0.0580453
0.648844 0.330159 0.117739
0.717556 0.355016 0.24477
0.786221 0.404868 0.384298
0.85507 0.481392 0.510689
0.915801 0.554528 0.595117
0.964004 0.605142 0.647562
0.982666 0.625299 0.667842
0.982605 0.630426 0.667521
0.982467 0.639735 0.666865
0.982269 0.655695 0.665522
0.981903 0.681163 0.66334
0.981353 0.717494 0.658824
0.980606 0.760494 0.647517
0.979706 0.802258 0.62678
0.978744 0.838529 0.597894
0.977661 0.86952 0.569772
0.976455 0.894392 0.606668
0.975235 0.9149 0.695323
0.974258 0.93196 0.776608
0 0.400854 0.00146487
0 0.401312 0.00148013
0 0.401709 0.00148013
0 0.402045 0.00148013
0 0.402289 0.00148013
0 0.402502 0.00148013
0 0.402655 0.00148013
0 0.402716 0.00148013
0 0.402548 0.00148013
0 0.402182 0.00148013
0.158663 0.401694 0.00169375
0.323415 0.400412 0.00190738
0.456336 0.39884 0.00808728
0.569665 0.398169 0.0347601
0.646738 0.40209 0.0962692
0.718563 0.417426 0.232486
0.787686 0.452445 0.38204
0.8551 0.508827 0.508949
0.913695 0.56672 0.592371
0.960357 0.60972 0.643168
0.982574 0.632471 0.667369
0.982483 0.639017 0.666911
0.98233 0.650095 0.666026
0.982086 0.667796 0.664286
0.98172 0.694286 0.660761
0.981155 0.73019 0.655634
0.980407 0.770382 0.642985
0.979553 0.808957 0.620554
0.978607 0.842969 0.588922
0.977569 0.872328 0.554177
0.976379 0.896086 0.599435
0.975158 0.915984 0.692744
0.974197 0.932601 0.775677
0 0.490455 0.00190738
0 0.490837 0.00190738
0 0.491188 0.00190738
0 0.491463 0.00192264
0 0.491691 0.00192264
0 0.49189 0.00192264
0 0.492073 0.00192264
0 0.492226 0.00192264
0 0.492378 0.00192264
0 0.49247 0.00192264
0 0.49247 0.00192264
0.191562 0.49218 0.00218204
0.403326 0.491295 0.0024567
0.547845 0.490043 0.00265507
0.637415 0.490562 0.0426642
0.714519 0.497017 0.182177
0.786816 0.515175 0.367819
0.854032 0.547936 0.502846
0.910628 0.587396 0.587686
0.95555 0.620111 0.637003
0.982406 0.644724 0.666468
0.9823 0.652842 0.665766
0.982132 0.66566 0.664515
0.981857 0.68481 0.662165
0.981445 0.711803 0.657588
0.98088 0.745861 0.650782
0.980163 0.782361 0.636362
0.979355 0.817029 0.611673
0.978454 0.848478 0.572656
0.977447 0.875837 0.528817
0.976272 0.898238 0.589532
0.975067 0.917342 0.689281
0.974136 0.93344 0.774411
0 0.575479 0.00241093
0 0.575738 0.00241093
0 0.575952 0.00241093
0 0.576135 0.00241093
0 0.576288 0.00241093
0 0.57644 0.00241093
0 0.576593 0.00241093
0 0.57673 0.00242618
0 0.576837 0.00242618
0 0.576867 0.00242618
0 0.57673 0.00242618
0 0.576349 0.00241093
0.249989 0.57557 0.00274662
0.50045 0.574258 0.00308232
0.618463 0.57319 0.00329595
0.703655 0.574166 0.0616922
0.781323 0.580728 0.31928
0.85066 0.594568 0.485695
0.906126 0.615442 0.578103
0.94931 0.640238 0.627955
0.982132 0.664714 0.664607
0.98201 0.674159 0.663539
0.981811 0.688212 0.661677
0.981506 0.708003 0.658351
0.981079 0.734173 0.652186
0.980529 0.764584 0.643153
0.979858 0.796414 0.626429
0.979095 0.826947 0.598489
0.978256 0.855161 0.543862
0.977325 0.88014 0.481224
0.97615 0.900954 0.571633
0.974945 0.919081 0.684581
0.974044 0.934508 0.772763
0 0.641703 0.00292973
0 0.641825 0.00294499
0 0.641932 0.00294499
0 0.642023 0.00294499
0 0.6421 0.00294499
0 0.642161 0.00294499
0 0.642222 0.00294499
0 0.642267 0.00294499
0 0.642267 0.00294499
0 0.642222 0.00294499
0 0.642054 0.00294499
0 0.641642 0.00292973
0 0.640833 0.00292973
0.350484 0.639704 0.00340276
0.584604 0.638392 0.0037232
0.683665 0.637522 0.00393683
0.769329 0.638666 0.105684
0.842451 0.644602 0.430991
0.898909 0.656703 0.555703
0.941207 0.673075 0.613245
0.975036 0.692103 0.652796
0.981567 0.704677 0.658961
0.981338 0.718868 0.656062
0.981018 0.737652 0.651148
0.980621 0.760357 0.642954
0.980102 0.78587 0.630869
0.979477 0.812268 0.611078
0.97879 0.838285 0.576379
0.978027 0.863096 0.491585
0.977249 0.885344 0.362371
0.976013 0.904341 0.53875
0.974807 0.921294 0.678111
0.973922 0.935866 0.770565
0 0.708232 0.0034638
0 0.708293 0.0034638
0 0.708324 0.0034638
0 0.70837 0.00347906
0 0.708385 0.00347906
0 0.708385 0.00347906
0 0.7084 0.00347906
0 0.708385 0.00347906
0 0.708324 0.0034638
0 0.708202 0.0034638
0 0.707927 0.0034638
0 0.707439 0.0034638
0 0.706554 0.0034638
0 0.705303 0.00344854
0.463493 0.703899 0.00407416
0.649454 0.702358 0.0043946
0.748684 0.701488 0.00460822
0.827924 0.703044 0.125841
0.886839 0.708583 0.487922
0.930205 0.718212 0.584298
0.963638 0.730953 0.62884
0.980911 0.743893 0.649195
0.980697 0.755901 0.644816
0.980407 0.770962 0.637919
0.980026 0.788846 0.626886
0.979568 0.808698 0.610269
0.979019 0.82974 0.586511
0.978424 0.851194 0.525536
0.977874 0.872282 0.338994
0.977462 0.891569 0.00663767
0.975875 0.908492 0.465934
0.974624 0.923995 0.669062
0.973785 0.93756 0.767681
0 0.77351 0.00399786
0 0.77351 0.00399786
0 0.773495 0.00399786
0 0.773449 0.00399786
0 0.773449 0.00399786
0 0.773404 0.00399786
0 0.773342 0.00399786
0 0.773266 0.00399786
0 0.773114 0.00399786
0 0.772885 0.00399786
0 0.772473 0.0039826
0 0.771847 0.0039826
0 0.770855 0.0039826
0 0.769482 0.00396735
0 0.767742 0.00395209
0.574044 0.765896 0.00474556
0.716854 0.763973 0.00503548
0.805844 0.763165 0.00521859
0.870085 0.764752 0.00537118
0.915969 0.768872 0.466758
0.95079 0.775845 0.581064
0.97612 0.785092 0.622446
0.979919 0.794049 0.622889
0.97966 0.804715 0.613138
0.979355 0.81738 0.597986
0.978988 0.83209 0.570504
0.978531 0.848234 0.521828
0.978134 0.865385 0.352956
0.97789 0.882551 0.00656138
0.977081 0.898466 0.00668345
0.976043 0.913603 0.130968
0.974395 0.927291 0.656168
0.973587 0.939666 0.763806
0 0.829252 0.00444038
0 0.82919 0.00444038
0 0.829129 0.00444038
0 0.829053 0.00444038
0 0.828962 0.00444038
0 0.828885 0.00444038
0 0.828763 0.00444038
0 0.828595 0.00444038
0 0.828336 0.00444038
0 0.827985 0.00444038
0 0.82742 0.00442512
0 0.826596 0.00442512
0 0.825452 0.00440986
0 0.823957 0.0043946
0 0.821698 0.00437934
0 0.819318 0.00436408
0.670924 0.816953 0.00535592
0.78024 0.814923 0.0055848
0.850248 0.814282 0.00573739
0.900664 0.815412 0.00584421
0.937819 0.818311 0.246387
0.964309 0.823041 0.529503
0.979049 0.829404 0.577569
0.978866 0.83621 0.557916
0.978653 0.844892 0.520317
0.978408 0.855344 0.427222
0.978408 0.86743 0.101884
0.977981 0.880262 0.00654612
0.977325 0.893233 0.00663767
0.976608 0.906355 0.00674449
0.97583 0.919371 0.0068513
0.974105 0.931197 0.636896
0.973342 0.942245 0.758618
0 0.871885 0.00479133
0 0.871778 0.00479133
0 0.871672 0.00479133
0 0.871565 0.00477607
0 0.871443 0.00477607
0 0.871305 0.00477607
0 0.871138 0.00477607
0 0.870909 0.00477607
0 0.870573 0.00477607
0 0.8701 0.00477607
0 0.869429 0.00476081
0 0.868528 0.00476081
0 0.867292 0.00474556
0 0.86569 0.0047303
0 0.863661 0.00471504
0 0.861143 0.00469978
0.588754 0.858503 0.00550851
0.753475 0.856046 0.00585946
0.830732 0.854444 0.00601205
0.884749 0.853956 0.00611887
0.924666 0.854795 0.00622568
0.95349 0.857099 0.00630198
0.975464 0.860731 0.13695
0.978576 0.86511 0.0571145
0.978408 0.87071 0.00646983
0.978088 0.877623 0.0065156
0.977707 0.885695 0.00657664
0.977234 0.894652 0.00665293
0.976684 0.904509 0.00672923
0.976043 0.915038 0.00682078
0.975372 0.925765 0.00689708
0.9738 0.935683 0.610193
0.973053 0.945312 0.751614
0 0.905226 0.00505074
0 0.905074 0.00505074
0 0.904952 0.00505074
0 0.904799 0.00505074
0 0.904646 0.00505074
0 0.904494 0.00505074
0 0.90428 0.00505074
0 0.90399 0.00505074
0 0.903578 0.00503548
0 0.903059 0.00503548
0 0.902358 0.00503548
0 0.901411 0.00502022
0 0.900175 0.00502022
0 0.898558 0.00500496
0 0.896529 0.0049897
0 0.894026 0.00495918
0 0.891218 0.00494392
0.723842 0.888869 0.00605783
0.811856 0.886885 0.00622568
0.869429 0.885603 0.00634775
0.911208 0.885206 0.00643931
0.94197 0.885832 0.00650034
0.965774 0.887449 0.00657664
0.977478 0.889891 0.00662242
0.97731 0.892973 0.00663767
0.977081 0.897139 0.00666819
0.976776 0.902434 0.00671397
0.976394 0.908827 0.00677501
0.975921 0.916182 0.00682078
0.975402 0.924239 0.00689708
0.974838 0.932692 0.00695811
0.973404 0.940688 0.599573
0.972702 0.948898 0.742016
0 0.929839 0.0052491
0 0.929656 0.0052491
0 0.929503 0.0052491
0 0.929335 0.0052491
0 0.929168 0.0052491
0 0.928985 0.0052491
0 0.928756 0.0052491
0 0.928435 0.00523384
0 0.928038 0.00523384
0 0.927504 0.00523384
0 0.926787 0.00523384
0 0.925856 0.00521859
0 0.924636 0.00520333
0 0.923064 0.00520333
0 0.92108 0.00518807
0 0.918685 0.00515755
0 0.916075 0.00514229
0.696056 0.913832 0.00619516
0.796994 0.911772 0.00639353
0.857145 0.910155 0.0065156
0.89955 0.909163 0.00660716
0.931517 0.908873 0.00666819
0.956664 0.909285 0.00672923
0.975509 0.910506 0.00677501
0.97615 0.912139 0.00679026
0.975998 0.914687 0.00682078
0.975753 0.918166 0.00683604
0.975448 0.922515 0.00688182
0.975082 0.927687 0.00691234
0.974655 0.933547 0.00695811
0.974227 0.939895 0.00701915
0.972946 0.946197 0.590341
0.97232 0.952941 0.741588
0 0.948516 0.00540169
0 0.948333 0.00540169
0 0.94818 0.00540169
0 0.947997 0.00540169
0 0.947814 0.00540169
0 0.947662 0.00540169
0 0.947433 0.00538643
0 0.947097 0.00538643
0 0.9467 0.00538643
0 0.946197 0.00538643
0 0.945495 0.00537118
0 0.94461 0.00537118
0 0.94345 0.00535592
0 0.94197 0.00535592
0 0.940124 0.00534066
0 0.937987 0.00531014
0 0.935699 0.00529488
0.67451 0.93373 0.00630198
0.786511 0.931792 0.00653086
0.847715 0.930114 0.00665293
0.889815 0.928908 0.00674449
0.922072 0.928191 0.00680552
0.94786 0.927932 0.0068513
0.967605 0.928267 0.00691234
0.974929 0.929015 0.0069276
0.974838 0.930312 0.00694286
0.97467 0.932357 0.00695811
0.974456 0.935103 0.00697337
0.974197 0.938506 0.00700389
0.973892 0.94258 0.00703441
0.973571 0.947265 0.00706493
0.972412 0.952026 0.586404
0.971908 0.957336 0.743969
0 0.962386 0.00550851
0 0.962234 0.00550851
0 0.962066 0.00550851
0 0.961913 0.00550851
0 0.961746 0.00550851
0 0.961578 0.00550851
0 0.961349 0.00550851
0 0.961074 0.00550851
0 0.960693 0.00549325
0 0.960204 0.00549325
0 0.959579 0.00549325
0 0.958755 0.00547799
0 0.957671 0.00547799
0 0.956344 0.00546273
0 0.954757 0.00544747
0 0.952956 0.00543221
0 0.951049 0.00541695
0.673259 0.949432 0.00642405
0.783276 0.947662 0.00665293
0.842283 0.946059 0.00677501
0.882826 0.944793 0.0068513
0.914641 0.943832 0.00691234
0.940215 0.943206 0.00695811
0.960296 0.943023 0.00700389
0.973724 0.943175 0.00703441
0.973678 0.943603 0.00703441
0.973602 0.944625 0.00704967
0.973465 0.946258 0.00706493
0.973281 0.948455 0.00708019
0.973068 0.951247 0.00709544
0.972869 0.954559 0.00712596
0.971817 0.957931 0.594797
0.97145 0.961929 0.748821
0 0.972168 0.0055848
0 0.972045 0.0055848
0 0.971893 0.0055848
0 0.97174 0.0055848
0 0.971588 0.0055848
0 0.97145 0.0055848
0 0.971252 0.0055848
0 0.970993 0.0055848
0 0.970657 0.0055848
0 0.970214 0.00556954
0 0.96965 0.00556954
0 0.968948 0.00556954
0 0.968078 0.00555428
0 0.96701 0.00555428
0 0.965759 0.00553903
0 0.964355 0.00552377
0 0.962875 0.00552377
0.700267 0.961547 0.0065919
0.789075 0.960052 0.00677501
0.841581 0.958633 0.00686656
0.879118 0.957427 0.00694286
0.90956 0.95642 0.00700389
0.934249 0.955642 0.00704967
0.953948 0.955154 0.00709544
0.96994 0.954971 0.00712596
0.972564 0.954955 0.00712596
0.972534 0.955322 0.00712596
0.972488 0.956161 0.00714122
0.972381 0.957473 0.00715648
0.972274 0.959258 0.00717174
0.972168 0.961456 0.007187
0.971191 0.963638 0.620111
0.970993 0.966491 0.757061
0 0.978912 0.00564584
0 0.97879 0.00564584
0 0.978668 0.00564584
0 0.978561 0.00564584
0 0.978439 0.00564584
0 0.978332 0.00564584
0 0.97818 0.00564584
0 0.977996 0.00563058
0 0.977752 0.00563058
0 0.977417 0.00563058
0 0.977005 0.00563058
0 0.976486 0.00563058
0 0.975845 0.00561532
0 0.975082 0.00561532
0 0.974182 0.00560006
0 0.973144 0.00560006
0.597803 0.972198 0.00645457
0.740261 0.971008 0.00674449
0.802579 0.969772 0.00688182
0.845335 0.968582 0.00695811
0.878874 0.967468 0.00701915
0.906859 0.966476 0.00708019
0.929946 0.965667 0.00712596
0.948913 0.965042 0.00715648
0.964523 0.96466 0.007187
0.971511 0.964385 0.00720226
0.971557 0.96434 0.00720226
0.971557 0.964614 0.00720226
0.971527 0.965255 0.00721752
0.971527 0.966293 0.00721752
0.971542 0.967666 0.00723278
0.970565 0.968917 0.658305
0.97052 0.970932 0.769268
0 0.980377 0.0056611
0 0.980377 0.0056611
0 0.980377 0.0056611
0 0.980377 0.0056611
0 0.980377 0.0056611
0 0.980377 0.0056611
0 0.980377 0.0056611
0 0.980392 0.0056611
0 0.980392 0.0056611
0 0.980392 0.0056611
0 0.980392 0.0056611
0 0.980392 0.0056611
0 0.980407 0.0056611
0 0.980423 0.0056611
0 0.98027 0.0056611
0.622873 0.979721 0.00656138
0.725185 0.978912 0.00677501
0.780636 0.977981 0.00689708
0.82092 0.97702 0.00697337
0.853895 0.976074 0.00703441
0.882277 0.975097 0.00709544
0.906828 0.974182 0.00714122
0.927626 0.973388 0.007187
0.945342 0.972747 0.00721752
0.960281 0.972244 0.00724804
0.970626 0.971878 0.00726329
0.970703 0.971588 0.00726329
0.970748 0.971527 0.00726329
0.970794 0.971756 0.00726329
0.970871 0.97229 0.00726329
0.970993 0.973114 0.00727855
0.970001 0.973724 0.700893
0.970123 0.975082 0.785321
0 0.980453 0.0056611
0 0.980453 0.0056611
0 0.980453 0.0056611
0 0.980453 0.0056611
0 0.980453 0.0056611
0 0.980453 0.0056611
0 0.980468 0.0056611
0 0.980468 0.0056611
0 0.980468 0.0056611
0 0.980484 0.0056611
0.432868 0.980621 0.0062562
0.593851 0.980697 0.00650034
0.651377 0.980743 0.00663767
0.694286 0.980774 0.00672923
0.73019 0.980819 0.00680552
0.761944 0.98085 0.00688182
0.790768 0.980911 0.00694286
0.817182 0.980972 0.00700389
0.842496 0.981048 0.00704967
0.866316 0.981125 0.0071107
0.888701 0.98085 0.00715648
0.909178 0.980072 0.007187
0.927214 0.979355 0.00723278
0.943252 0.978714 0.00726329
0.957031 0.97818 0.00727855
0.968383 0.977798 0.00730907
0.96997 0.977417 0.00730907
0.970077 0.977172 0.00730907
0.970199 0.977172 0.00730907
0.970352 0.977371 0.00730907
0.969573 0.977386 0.621958
0.969573 0.977935 0.742809
0.969802 0.978805 0.804578
0.744183 0.98088 0.00683604
0.745983 0.98088 0.00683604
0.747768 0.98088 0.0068513
0.749508 0.98088 0.0068513
0.751202 0.98088 0.0068513
0.752941 0.980896 0.0068513
0.755123 0.980896 0.00686656
0.757916 0.980896 0.00686656
0.761501 0.980911 0.00688182
