BBLuts/BB_103_0630_LUT.cube
TITLE "Generated by Resolve"
LUT_3D_SIZE 9
0 0 0
0.03505 0 0
0.208133 0 0
0.481636 0 0
0.819135 0 0
0.892409 0.0442512 0
0.864164 0.520623 0.0822003
0.845869 0.78761 0.311711
0.836805 0.901335 0.584009
0 0.0490272 0
0.00173953 0.0523079 0
0.212497 0.0269169 0
0.488609 0 0
0.81854 0 0
0.88481 0.16585 0
0.862196 0.545876 0.0724193
0.845518 0.792493 0.309972
0.836744 0.902144 0.583673
0 0.232029 0
0 0.23299 0
0.157198 0.227131 0
0.486915 0.204044 0
0.802869 0.182422 0
0.873213 0.346258 0
0.858167 0.597269 0.0546273
0.844739 0.803143 0.305959
0.836606 0.903975 0.582879
0 0.536416 0
0 0.536904 0
0 0.536919 0
0.412284 0.52961 0
0.763699 0.528969 0
0.856077 0.586877 0
0.848981 0.707805 0.0107118
0.84268 0.830915 0.29369
0.836225 0.909438 0.580331
0 0.828626 0
0 0.828016 0
0 0.826185 0
0.23238 0.81677 0
0.681941 0.805982 0
0.82388 0.809155 0
0.839506 0.834211 0.00329595
0.839231 0.878233 0.303395
0.835294 0.922484 0.572671
0 0.933883 0
0 0.932998 0
0 0.930159 0
0.399451 0.922148 0
0.66276 0.913222 0
0.788235 0.908202 0
0.836042 0.913222 0.138079
0.835843 0.924056 0.352804
0.833844 0.94136 0.581079
0.523613 0.9673 0.198932
0.534859 0.9673 0.19942
0.558251 0.967269 0.20058
0.615274 0.967071 0.204501
0.705089 0.963149 0.216754
0.781949 0.959396 0.24567
0.83238 0.957137 0.314778
0.833173 0.957244 0.456886
0.832242 0.960616 0.61799
0.722393 0.969314 0.509422
0.723873 0.969329 0.509575
0.727245 0.96936 0.509941
0.737301 0.969451 0.511162
0.760616 0.96965 0.5149
0.792767 0.96994 0.524071
0.82475 0.970245 0.545617
0.831632 0.970214 0.595926
0.831205 0.970001 0.67866
0.793698 0.969528 0.703563
0.793942 0.969543 0.703593
0.794507 0.969543 0.703655
0.796292 0.969558 0.703868
0.801144 0.969604 0.704509
0.810193 0.969696 0.706065
0.823362 0.969818 0.709941
0.830976 0.969863 0.719081
0.830854 0.969802 0.73994
0 0 0.0241245
0.0143587 0 0.0226596
0.21239 0 0.020325
0.483589 0 0.0201267
0.821164 0 0.0290379
0.895552 0.0352331 0.0625315
0.865171 0.516014 0.141817
0.845945 0.786603 0.341085
0.836774 0.901122 0.592538
0 0.0328374 0.0177462
0.0235447 0.0325933 0.0150912
0.213306 0 0.0146181
0.486336 0 0.012665
0.819776 0 0.0164645
0.889158 0.137697 0.0500649
0.863249 0.541863 0.134997
0.845579 0.791531 0.339498
0.836713 0.90193 0.592233
0 0.223957 0
0 0.225071 0
0.168002 0.218723 0
0.483528 0.195636 0
0.802533 0.168856 0
0.874891 0.339513 0
0.859236 0.594522 0.118181
0.8448 0.802304 0.335866
0.836591 0.903761 0.59147
0 0.533379 0
0 0.533822 0
0 0.533776 0
0.418891 0.526375 0
0.763714 0.526345 0
0.856229 0.584756 0
0.850019 0.707469 0.0533455
0.842741 0.830335 0.324712
0.836194 0.90927 0.589044
0 0.82797 0
0 0.827344 0
0 0.825498 0
0.245151 0.816098 0
0.683146 0.805417 0
0.824048 0.808728 0
0.839475 0.83389 0.00192264
0.839231 0.878096 0.304295
0.835264 0.922332 0.581857
0 0.933669 0
0 0.932769 0
0 0.929808 0
0.403388 0.921965 0
0.663539 0.913085 0
0.788434 0.90811 0
0.836042 0.913146 0.137911
0.835843 0.924025 0.352636
0.83386 0.941344 0.581033
0.525338 0.9673 0.19884
0.536446 0.967285 0.199313
0.559594 0.967269 0.200473
0.616159 0.967025 0.20441
0.705455 0.963119 0.216678
0.782071 0.959381 0.245609
0.83238 0.957122 0.314748
0.833173 0.957244 0.45684
0.832242 0.960616 0.617945
0.722622 0.969329 0.509392
0.724086 0.969329 0.509544
0.727459 0.96936 0.509911
0.737484 0.969451 0.511131
0.760723 0.96965 0.514885
0.792844 0.96994 0.524041
0.824765 0.97023 0.545586
0.831632 0.970214 0.595911
0.831205 0.970001 0.67866
0.793729 0.969528 0.703548
0.793988 0.969543 0.703593
0.794537 0.969543 0.703655
0.796323 0.969558 0.703853
0.801175 0.969604 0.704494
0.810208 0.969696 0.706065
0.823377 0.969818 0.709941
0.830976 0.969863 0.719066
0.830854 0.969802 0.73994
0 0 0.153079
0 0 0.153063
0.193118 0 0.146853
0.49836 0 0.144152
0.823423 0 0.154192
0.899809 0 0.182574
0.866682 0.503395 0.246494
0.846067 0.784085 0.398947
0.836728 0.900603 0.610666
0 0 0.150317
0 0 0.150256
0.209445 0 0.144198
0.495018 0 0.141421
0.822644 0 0.150561
0.894774 0.0674601 0.177691
0.864698 0.530602 0.242084
0.845701 0.789151 0.39765
0.836667 0.901411 0.610376
0 0.195132 0.1346
0 0.196826 0.134691
0.163394 0.189822 0.129793
0.474128 0.166751 0.130068
0.809094 0.0955215 0.13843
0.879347 0.315694 0.163027
0.860655 0.585611 0.231724
0.844892 0.800168 0.394659
0.83653 0.903273 0.609705
0 0.523308 0.0353857
0 0.523857 0.0357671
0 0.523919 0.0365454
0.42063 0.516732 0.0412299
0.764141 0.518074 0.0649119
0.860243 0.578836 0.105638
0.851743 0.704112 0.200168
0.842802 0.82884 0.385626
0.836133 0.908827 0.607553
0 0.826154 0
0 0.825513 0
0 0.823651 0
0.256962 0.814267 0
0.684459 0.803708 0
0.823987 0.807355 0
0.841596 0.835248 0.121935
0.839261 0.877485 0.362402
0.835187 0.921996 0.60119
0 0.933135 0
0 0.93225 0
0.00457771 0.928908 0
0.412421 0.921538 0
0.665354 0.91281 0
0.788876 0.907897 0
0.836057 0.912993 0.137514
0.835843 0.923919 0.352255
0.833829 0.941222 0.587777
0.529351 0.967285 0.198596
0.540154 0.967269 0.199084
0.562722 0.967254 0.200259
0.618204 0.966934 0.204196
0.706279 0.963058 0.216495
0.782345 0.959319 0.245441
0.832395 0.957076 0.314702
0.833173 0.957214 0.456718
0.832242 0.960601 0.617853
0.72314 0.969329 0.509346
0.724605 0.969329 0.509483
0.727947 0.969375 0.50985
0.737896 0.969451 0.51107
0.761013 0.96965 0.514809
0.792966 0.96994 0.523995
0.824811 0.97023 0.545556
0.831632 0.970214 0.595911
0.831205 0.970001 0.67863
0.79382 0.969528 0.703548
0.794064 0.969543 0.703578
0.794629 0.969543 0.703639
0.796399 0.969558 0.703853
0.801236 0.969604 0.704494
0.810254 0.969696 0.706065
0.823392 0.969818 0.709941
0.830976 0.969863 0.719066
0.830854 0.969802 0.73994
0 0 0.409751
0 0 0.409934
0.0359503 0 0.407446
0.48716 0 0.402075
0.836774 0 0.406058
0.900801 0 0.42237
0.870298 0.453101 0.455604
0.846357 0.775067 0.532891
0.836606 0.89897 0.654963
0 0 0.408362
0 0 0.408545
0.0656138 0 0.405341
0.496178 0 0.400549
0.835645 0 0.404562
0.90074 0 0.420371
0.867979 0.486 0.453071
0.84596 0.780575 0.531975
0.836545 0.899809 0.654749
0 0.0479286 0.403647
0 0.0502327 0.403754
0.0821241 0.0455177 0.400687
0.50013 0 0.396689
0.827512 0 0.400305
0.889174 0.168963 0.415137
0.86334 0.550256 0.447257
0.845075 0.792508 0.52987
0.836408 0.901732 0.654261
0 0.478904 0.373739
0 0.479912 0.373999
0 0.480522 0.374533
0.411414 0.47306 0.371679
0.756542 0.477043 0.376867
0.863844 0.544564 0.392081
0.853254 0.686397 0.430488
0.842817 0.823377 0.523674
0.835996 0.907454 0.652674
0 0.823423 0.30808
0 0.822858 0.308522
0 0.821149 0.309545
0.193439 0.811749 0.308827
0.682811 0.80087 0.31902
0.824262 0.8056 0.345739
0.842573 0.831647 0.399329
0.839094 0.874846 0.508614
0.835019 0.920928 0.648142
0 0.936507 0.195407
0 0.935607 0.196048
0.00856031 0.93225 0.19559
0.408576 0.924849 0.201282
0.666041 0.916152 0.223529
0.790188 0.911421 0.268132
0.836667 0.912825 0.350439
0.835645 0.922957 0.479164
0.833631 0.94052 0.637903
0.541817 0.967239 0.197848
0.551705 0.967239 0.198352
0.572564 0.967208 0.199527
0.624735 0.966598 0.20351
0.708965 0.962798 0.215869
0.783246 0.959167 0.244907
0.832441 0.956954 0.315587
0.833173 0.957122 0.458137
0.832242 0.960525 0.619333
0.724849 0.969345 0.509133
0.726268 0.969345 0.509285
0.729534 0.969375 0.509667
0.739269 0.969467 0.510887
0.761929 0.969665 0.514641
0.793423 0.969955 0.523812
0.824964 0.970245 0.545388
0.831632 0.970214 0.595865
0.831205 0.970001 0.678553
0.79411 0.969543 0.703517
0.794354 0.969543 0.703548
0.794903 0.969543 0.703609
0.796658 0.969558 0.703807
0.801465 0.969604 0.704463
0.810407 0.969696 0.706035
0.823468 0.969818 0.709895
0.830976 0.969863 0.719036
0.830854 0.969802 0.73994
0 0 0.700664
0 0 0.70071
0 0 0.700801
0.343175 0 0.693141
0.825788 0 0.687922
0.899779 0 0.690349
0.887251 0.185565 0.695201
0.848112 0.741039 0.69514
0.836561 0.894102 0.725155
0 0 0.700374
0 0 0.700404
0 0 0.700511
0.362036 0 0.692561
0.828473 0 0.687617
0.899779 0 0.690028
0.882643 0.259861 0.693629
0.847532 0.74873 0.694484
0.8365 0.895033 0.725017
0 0 0.699672
0 0 0.699702
0 0 0.699733
0.397787 0 0.691295
0.831006 0 0.686854
0.899779 0 0.689052
0.873838 0.39086 0.689494
0.846342 0.76495 0.693019
0.836347 0.897154 0.724697
0 0.269322 0.689967
0 0.271748 0.689906
0 0.27599 0.689647
0.380285 0.254475 0.68304
0.803098 0.221347 0.680415
0.875425 0.368887 0.67921
0.857984 0.611109 0.677974
0.843427 0.80441 0.689128
0.835889 0.903441 0.723751
0 0.793378 0.652323
0 0.793133 0.652338
0 0.792035 0.652338
0.0220951 0.784222 0.650065
0.666972 0.771786 0.647822
0.813703 0.78117 0.651133
0.842847 0.814313 0.659785
0.83888 0.866407 0.681453
0.834821 0.918029 0.721172
0 0.93373 0.626642
0 0.93283 0.626673
0 0.930709 0.626764
0.303532 0.92134 0.622248
0.640879 0.911467 0.623484
0.776989 0.906325 0.629786
0.835157 0.908293 0.64358
0.835004 0.919509 0.670649
0.83331 0.93875 0.71603
0.508431 0.967483 0.577157
0.520012 0.967468 0.577279
0.543999 0.967422 0.577569
0.602411 0.965591 0.578637
0.693462 0.961547 0.582284
0.771191 0.957656 0.591424
0.824186 0.9552 0.612299
0.832441 0.955505 0.651102
0.83183 0.959518 0.705592
0.729747 0.96939 0.508507
0.731075 0.96939 0.508659
0.734112 0.969421 0.509026
0.743236 0.969497 0.510262
0.764584 0.96968 0.514015
0.794751 0.969955 0.523217
0.825406 0.970245 0.544869
0.831601 0.970199 0.60412
0.831159 0.96997 0.685817
0.794965 0.969543 0.703426
0.795193 0.969543 0.703441
0.795727 0.969558 0.703502
0.797452 0.969573 0.703716
0.802106 0.969619 0.704356
0.810864 0.969696 0.705928
0.823682 0.969818 0.709804
0.830976 0.969863 0.718975
0.830854 0.969802 0.73991
0 0 0.822202
0 0 0.822217
0 0 0.822232
0 0 0.821988
0.752651 0 0.808057
0.899138 0 0.805844
0.899138 0 0.805982
0.860349 0.570733 0.79382
0.837217 0.880369 0.78439
0 0 0.822156
0 0 0.822171
0 0 0.822187
0 0 0.821851
0.757 0 0.80795
0.899138 0 0.805783
0.899138 0 0.80592
0.858732 0.592584 0.792737
0.837125 0.88159 0.784268
0 0 0.822034
0 0 0.822049
0 0 0.822065
0 0 0.821515
0.766918 0 0.807721
0.899138 0 0.805661
0.899138 0 0.805798
0.855482 0.635859 0.790402
0.836912 0.884382 0.784024
0 0 0.821653
0 0 0.821653
0 0 0.821668
0.0834363 0 0.817426
0.786816 0 0.807095
0.899138 0 0.805234
0.891005 0.111971 0.803159
0.848417 0.7299 0.784543
0.836316 0.892546 0.78323
0 0.647303 0.793118
0 0.648051 0.793072
0 0.64976 0.792981
0 0.649149 0.791974
0.673991 0.636423 0.784695
0.846326 0.664424 0.782483
0.847333 0.744839 0.778485
0.840177 0.841062 0.776104
0.834974 0.910826 0.781308
0 0.924773 0.770657
0 0.924041 0.770596
0 0.922103 0.770428
0 0.914885 0.769299
0.603769 0.899413 0.763485
0.768109 0.893782 0.763821
0.83238 0.89778 0.76527
0.834958 0.912123 0.769009
0.833188 0.935073 0.778256
0.393011 0.966674 0.753231
0.416892 0.966644 0.753124
0.461707 0.966522 0.752956
0.549844 0.963882 0.752712
0.668391 0.959045 0.752773
0.758007 0.954772 0.753704
0.815854 0.952361 0.756359
0.831952 0.953231 0.762264
0.831525 0.957977 0.773785
0.70956 0.968673 0.734569
0.711055 0.968688 0.7346
0.714519 0.968719 0.734646
0.724773 0.968795 0.734829
0.748562 0.969009 0.735409
0.781491 0.969299 0.736889
0.814557 0.969619 0.740566
0.830793 0.969772 0.749203
0.830686 0.969711 0.765591
0.79646 0.969543 0.707912
0.796674 0.969543 0.707942
0.797192 0.969558 0.708003
0.79881 0.969573 0.708202
0.803204 0.969604 0.708812
0.811551 0.969696 0.710353
0.823896 0.969802 0.714076
0.830945 0.969863 0.723262
0.830808 0.969787 0.745922
0 0 0.846494
0 0 0.846494
0 0 0.846494
0 0 0.846494
0.365728 0 0.841611
0.898924 0 0.842527
0.898924 0 0.842527
0.895201 0.0358434 0.843091
0.841901 0.813153 0.82858
0 0 0.846494
0 0 0.846494
0 0 0.846494
0 0 0.846494
0.380453 0 0.84155
0.898924 0 0.842527
0.898924 0 0.842527
0.895201 0.0357824 0.843091
0.841627 0.816968 0.828305
0 0 0.846494
0 0 0.846494
0 0 0.846494
0 0 0.846494
0.411749 0 0.841443
0.898924 0 0.842527
0.898924 0 0.842527
0.894972 0.0395209 0.843091
0.841016 0.825223 0.827726
0 0 0.846494
0 0 0.846494
0 0 0.846494
0 0 0.846494
0.494926 0 0.841245
0.898924 0 0.842527
0.898924 0 0.842527
0.894301 0.0512856 0.842847
0.83946 0.846387 0.8262
0 0 0.846494
0 0 0.846494
0 0 0.846494
0 0 0.846494
0.643931 0 0.84123
0.898924 0 0.842527
0.896925 0.00700389 0.842771
0.856687 0.616175 0.83653
0.836606 0.884947 0.823209
0 0.865049 0.833036
0 0.865187 0.833021
0 0.865522 0.833005
0 0.865583 0.832822
0.48043 0.845335 0.825559
0.773663 0.839139 0.824109
0.838529 0.85243 0.822904
0.836637 0.884794 0.820996
0.833707 0.924331 0.819852
0 0.969711 0.821485
0 0.969589 0.821347
0 0.969329 0.821088
0.324315 0.963775 0.815732
0.613672 0.955489 0.81442
0.743709 0.94963 0.814221
0.811948 0.947005 0.814481
0.831922 0.948837 0.815091
0.831464 0.954894 0.816724
0.679026 0.96817 0.809613
0.681163 0.968185 0.809613
0.685939 0.968231 0.809613
0.699825 0.968338 0.809598
0.730846 0.968582 0.809613
0.770886 0.968948 0.809735
0.808454 0.969314 0.810162
0.830289 0.969543 0.811353
0.830396 0.969528 0.813901
0.787579 0.969131 0.801556
0.787823 0.969131 0.801556
0.788403 0.969146 0.801587
0.790188 0.969162 0.801602
0.795087 0.969207 0.801709
0.804227 0.969299 0.801953
0.817609 0.969436 0.802609
0.829725 0.969558 0.804273
0.830427 0.969558 0.808057
0 0.0391546 0.846647
0 0.0391546 0.846647
0 0.0391546 0.846647
0 0.0391852 0.846647
0 0.0392615 0.846647
0.633707 0 0.841291
0.898924 0 0.842527
0.891875 0.0928969 0.843137
0.861097 0.556985 0.840238
0 0.0391241 0.846647
0 0.0391241 0.846647
0 0.0391241 0.846647
0 0.0391699 0.846647
0 0.0392309 0.846647
0.63679 0 0.841306
0.898924 0 0.842527
0.891859 0.0931563 0.843122
0.861097 0.55697 0.840238
0 0.0390631 0.846647
0 0.0390631 0.846647
0 0.0390784 0.846647
0 0.0390936 0.846647
0 0.0391699 0.846647
0.643153 0 0.841306
0.898924 0 0.842527
0.891829 0.0937819 0.843137
0.861097 0.556924 0.840238
0 0.0388647 0.846647
0 0.0388647 0.846647
0 0.0388647 0.846647
0 0.0388952 0.846647
0 0.0389715 0.846647
0.66157 0 0.841321
0.898924 0 0.842527
0.891707 0.0957198 0.843137
0.861112 0.556756 0.840238
0 0.0382544 0.846662
0 0.0382544 0.846662
0 0.0382544 0.846662
0 0.0382849 0.846647
0 0.0383612 0.846662
0.795102 0 0.841794
0.898924 0 0.842527
0.891005 0.107881 0.843153
0.861143 0.556237 0.840238
0 0.0365606 0.846662
0 0.0365759 0.846662
0 0.0365759 0.846662
0 0.0366064 0.846662
0 0.0366827 0.846662
0.873732 0 0.842329
0.895949 0.0232395 0.843091
0.877974 0.318395 0.842481
0.841749 0.814527 0.837415
0 0.954833 0.841352
0 0.954864 0.841352
0 0.95491 0.841352
0 0.955123 0.841352
0.0364691 0.945754 0.838712
0.699077 0.924727 0.835889
0.814572 0.921981 0.836332
0.83331 0.928176 0.836362
0.832227 0.942718 0.836225
0.416693 0.966857 0.83537
0.422278 0.966873 0.835355
0.497078 0.967102 0.835126
0.576684 0.967437 0.834943
0.672053 0.968017 0.834791
0.74876 0.968643 0.834791
0.802167 0.968841 0.834867
0.82919 0.968231 0.835004
0.830304 0.968688 0.835172
0.774716 0.968887 0.833387
0.775051 0.968887 0.833371
0.775845 0.968902 0.833387
0.778347 0.968917 0.833387
0.785031 0.968978 0.833402
0.796948 0.9691 0.833432
0.81326 0.969268 0.833509
0.827893 0.969421 0.833677
0.830259 0.969451 0.833997
0 0.22295 0.845441
0 0.22295 0.845441
0 0.22295 0.845426
0 0.222965 0.845441
0 0.222995 0.845441
0 0.223041 0.845441
0.824231 0 0.8421
0.882078 0.256123 0.842924
0.857908 0.599893 0.83975
0 0.22295 0.845441
0 0.22295 0.845441
0 0.22295 0.845441
0 0.22295 0.845441
0 0.22298 0.845441
0 0.223026 0.845441
0.824247 0 0.8421
0.882063 0.256367 0.842908
0.857893 0.599954 0.83975
0 0.222934 0.845441
0 0.222934 0.845441
0 0.222934 0.845441
0 0.222934 0.845426
0 0.222965 0.845441
0 0.223011 0.845441
0.824308 0 0.8421
0.882017 0.256977 0.842908
0.857893 0.600092 0.83975
0 0.222889 0.845441
0 0.222889 0.845441
0 0.222889 0.845441
0 0.222889 0.845441
0 0.222904 0.845441
0 0.222965 0.845441
0.824353 0 0.8421
0.881895 0.25893 0.842908
0.857847 0.600519 0.839734
0 0.222721 0.845441
0 0.222721 0.845441
0 0.222721 0.845441
0 0.222736 0.845441
0 0.222751 0.845426
0 0.222797 0.845441
0.866087 0 0.842374
0.881514 0.264866 0.842863
0.857771 0.601709 0.839719
0 0.222324 0.845441
0 0.222324 0.845441
0 0.222324 0.845441
0 0.222324 0.845441
0 0.222354 0.845441
0 0.222187 0.845441
0.892638 0 0.842481
0.880613 0.278523 0.842771
0.857664 0.603098 0.839704
0 0.221241 0.845441
0 0.221241 0.845441
0 0.221241 0.845441
0 0.221256 0.845441
0 0.221271 0.845441
0.0143893 0.201297 0.843961
0.898924 0 0.842527
0.875288 0.357931 0.842145
0.853788 0.654276 0.839109
0 0.969879 0.841291
0 0.969879 0.841291
0 0.969879 0.841291
0 0.969879 0.841291
0 0.969757 0.841016
0.393591 0.966339 0.835813
0.783062 0.960159 0.835843
0.829877 0.95903 0.836072
0.830854 0.961379 0.836057
0.704982 0.968277 0.835523
0.706645 0.968277 0.835523
0.710338 0.968322 0.835538
0.720882 0.968399 0.835554
0.743404 0.968597 0.83563
0.773816 0.968872 0.835737
0.804486 0.969177 0.835859
0.825681 0.96939 0.835966
0.830243 0.969436 0.835981
