BBLuts/BB_102_0360_LUT.cube
TITLE "Generated by Resolve"
LUT_3D_SIZE 33
0 0 0
0 0 0
0 0 0
0 0 0
0 0 0
0 0 0
0.0316625 0 0
0.0708171 0 0
0.111299 0 0
0.16051 0 0
0.219852 0 0
0.285466 0 0
0.358648 0 0
0.433936 0 0
0.518715 0 0
0.601678 0 0
0.679347 0 0
0.753033 0 0
0.817319 0 0
0.868406 0 0
0.881163 0 0
0.882185 0 0
0.784695 0.276707 0
0.72549 0.474647 0
0.692042 0.609003 0
0.67039 0.714122 0
0.662425 0.79379 0.00251774
0.674907 0.846769 0.128725
0.70576 0.876204 0.275395
0.737408 0.894896 0.40763
0.769802 0.90515 0.528984
0.798413 0.911818 0.633967
0.822766 0.916732 0.719905
0 0 0
0 0 0
0 0 0
0 0 0
0 0 0
0 0 0
0.0349737 0 0
0.073579 0 0
0.115862 0 0
0.166079 0 0
0.225711 0 0
0.290135 0 0
0.360113 0 0
0.435492 0 0
0.520104 0 0
0.602426 0 0
0.679957 0 0
0.753033 0 0
0.817243 0 0
0.86807 0 0
0.881148 0 0
0.874723 0 0
0.773098 0.309621 0
0.710323 0.492668 0
0.686793 0.617411 0
0.667552 0.71873 0
0.661128 0.796155 0.00231937
0.674388 0.847852 0.128878
0.705394 0.876783 0.275166
0.737224 0.895186 0.407507
0.769711 0.905287 0.528923
0.798367 0.91191 0.633936
0.822736 0.916762 0.719875
0 0 0
0 0 0
0 0 0
0 0 0
0 0 0
0 0 0
0.0354009 0 0
0.0757458 0 0
0.120195 0 0
0.170001 0 0
0.228199 0 0
0.291203 0 0
0.362066 0 0
0.437446 0 0
0.521492 0 0
0.603494 0 0
0.680278 0 0
0.753307 0 0
0.817166 0 0
0.867704 0 0
0.881102 0 0
0.850599 0.0647593 0
0.761349 0.341558 0
0.697856 0.508125 0
0.681849 0.625406 0
0.665003 0.722866 0
0.659937 0.798321 0.00213626
0.673915 0.848875 0.12903
0.705058 0.877333 0.274952
0.737041 0.895491 0.407385
0.769604 0.905455 0.528847
0.798306 0.912001 0.633906
0.822721 0.916808 0.719875
0 0 0
0 0 0
0 0 0
0 0 0
0 0 0
0 0 0
0.0328679 0 0
0.0730602 0 0
0.11841 0 0
0.171084 0 0
0.230549 0 0
0.293187 0 0
0.364446 0 0
0.439414 0 0
0.522896 0 0
0.604273 0 0
0.680903 0 0
0.753552 0 0
0.817044 0 0
0.867338 0 0
0.881071 0 0
0.825986 0.145739 0
0.751629 0.366857 0
0.688304 0.520821 0
0.677592 0.632273 0
0.662699 0.726589 0
0.658824 0.800366 0.00196841
0.673457 0.849851 0.129152
0.704707 0.877897 0.274739
0.736858 0.895781 0.407263
0.769512 0.905592 0.528786
0.798276 0.912062 0.633875
0.82269 0.916854 0.71986
0 0 0
0 0 0
0 0 0
0 0 0
0 0 0
0 0 0
0 0 0
0.0438697 0 0
0.095964 0 0
0.168048 0 0
0.230243 0 0
0.295567 0 0
0.366735 0 0
0.441444 0 0
0.524697 0 0
0.605356 0 0
0.681514 0 0
0.75378 0 0
0.816922 0 0
0.866911 0 0
0.881041 0 0
0.811658 0.192935 0
0.743008 0.388647 0
0.683589 0.53225 0
0.672709 0.639628 0
0.660258 0.73048 0
0.657771 0.802289 0.00181582
0.673014 0.850813 0.12929
0.704372 0.878447 0.274525
0.73669 0.896056 0.407156
0.769421 0.905745 0.528725
0.798215 0.912169 0.633829
0.82266 0.916899 0.719844
0 0.0218204 0
0 0.0244144 0
0 0.0271153 0
0 0.029221 0
0 0.0302892 0
0 0.0328985 0
0 0.0357214 0
0.0221408 0.0365759 0
0.0734112 0.0350042 0
0.133501 0.0287785 0
0.202533 0.0134127 0
0.290822 0 0
0.36582 0 0
0.443824 0 0
0.52636 0 0
0.606302 0 0
0.6822 0 0
0.754055 0 0
0.816785 0 0
0.866468 0 0
0.870787 0 0
0.799481 0.232609 0
0.735317 0.407568 0
0.67953 0.542092 0
0.668101 0.646479 0
0.657649 0.734508 0
0.656596 0.80444 0.00164797
0.672587 0.851728 0.129412
0.704036 0.878965 0.274327
0.736507 0.896345 0.407034
0.769329 0.905898 0.528664
0.798154 0.912245 0.633799
0.822629 0.916945 0.719829
0 0.0601358 0
0 0.0623484 0
0 0.0644846 0
0 0.0657969 0
0 0.066743 0
0 0.0670481 0
0 0.0717021 0
0 0.0745556 0
0.0508278 0.0754864 0
0.112016 0.0737469 0
0.179583 0.0673991 0
0.252934 0.0548257 0
0.33756 0.0289464 0
0.438514 0 0
0.524788 0 0
0.607813 0 0
0.682719 0 0
0.754086 0 0
0.816358 0 0
0.865919 0 0
0.847852 0.0697032 0
0.785962 0.273075 0
0.726802 0.428244 0
0.674784 0.553674 0
0.66305 0.653971 0
0.654719 0.739071 0
0.655192 0.807004 0.00140383
0.671992 0.853025 0.129641
0.703655 0.879591 0.274083
0.736309 0.896666 0.406897
0.769207 0.906081 0.528588
0.798108 0.912322 0.633768
0.822599 0.916991 0.719814
0 0.103868 0
0 0.105791 0
0 0.10721 0
0 0.108324 0
0 0.10898 0
0 0.109575 0
0 0.111437 0
0 0.116716 0
0.0213474 0.119554 0
0.0856184 0.120165 0
0.155734 0.117067 0
0.230747 0.110597 0
0.31194 0.0993973 0
0.397635 0.0788434 0
0.497704 0.0334783 0
0.598993 0 0
0.676249 0 0
0.754147 0 0
0.816098 0 0
0.845792 0.0233616 0
0.819272 0.163684 0
0.769085 0.320699 0
0.715816 0.454719 0
0.668391 0.569421 0
0.654475 0.665125 0
0.650828 0.745083 0
0.653315 0.810437 0.00112917
0.671199 0.854749 0.129946
0.703014 0.880644 0.273732
0.736004 0.897139 0.406699
0.769055 0.906325 0.528481
0.798016 0.912474 0.633707
0.822553 0.917052 0.719783
0 0.155703 0
0 0.157183 0
0 0.15819 0
0 0.158999 0
0 0.159579 0
0 0.160204 0
0 0.160479 0
0 0.165133 0
0 0.16968 0
0.0491188 0.171679 0
0.124514 0.171359 0
0.204318 0.168246 0
0.288579 0.162249 0
0.374472 0.151354 0
0.464256 0.135409 0
0.55169 0.11223 0
0.639475 0.0774395 0
0.737331 0.00508125 0
0.795254 0.0204776 0
0.809934 0.134417 0
0.790875 0.2542 0
0.749401 0.372564 0
0.702464 0.486793 0
0.660029 0.589807 0
0.641993 0.680217 0
0.645151 0.753719 0
0.650843 0.814969 0.000747692
0.67013 0.85713 0.130373
0.702144 0.882078 0.273243
0.735515 0.897932 0.406409
0.768826 0.906691 0.528328
0.797894 0.912673 0.633631
0.822492 0.917189 0.719738
0 0.21593 0
0 0.216648 0
0 0.217105 0
0 0.217472 0
0 0.21799 0
0 0.218082 0
0 0.218006 0
0 0.217639 0
0 0.224811 0
0 0.230198 0
0.0819409 0.2327 0
0.168673 0.232471 0
0.259525 0.229557 0
0.349142 0.223239 0
0.438697 0.215457 0
0.521675 0.206073 0
0.6009 0.197879 0
0.675135 0.194705 0
0.733669 0.211124 0
0.767849 0.262181 0
0.760403 0.339773 0
0.726024 0.430121 0
0.687327 0.523201 0
0.649531 0.615061 0
0.624949 0.700191 0
0.637537 0.765179 0
0.647395 0.821332 0.000228885
0.668711 0.860288 0.130953
0.700969 0.884031 0.272587
0.734859 0.899001 0.406012
0.768414 0.907317 0.528038
0.797711 0.912963 0.633509
0.822385 0.917327 0.719676
0 0.282322 0.0134737
0 0.283024 0.0136416
0 0.283482 0.0137484
0 0.283833 0.0138247
0 0.284108 0.0138857
0 0.284276 0.0139315
0 0.284382 0.0139467
0 0.284627 0.0140078
0 0.284199 0.0139162
0 0.295079 0
0.0211337 0.30219 0
0.11931 0.305364 0
0.219394 0.305745 0
0.315618 0.303655 0
0.408316 0.30106 0
0.490639 0.298314 0
0.566995 0.298268 0
0.637568 0.304158 0
0.693401 0.323919 0
0.727916 0.364538 0
0.727337 0.422553 0
0.699977 0.492775 0
0.669581 0.566461 0
0.636332 0.646296 0
0.602945 0.72517 0
0.628031 0.779889 0
0.642878 0.829664 0
0.666789 0.864637 0.131868
0.699382 0.88661 0.271687
0.733944 0.900481 0.405447
0.76788 0.908171 0.527657
0.797391 0.913466 0.63328
0.822248 0.917556 0.7196
0 0.360479 0.0319829
0 0.3608 0.0320592
0 0.361227 0.032166
0 0.361929 0.0323186
0 0.362219 0.0323949
0 0.362432 0.0324407
0 0.362646 0.0324865
0 0.362737 0.032517
0 0.362646 0.0324865
0 0.366079 0.0171511
0 0.379156 0
0.0496223 0.387427 0
0.163073 0.39176 0
0.269123 0.39382 0
0.368078 0.394263 0
0.453117 0.395056 0
0.529015 0.399573 0
0.59678 0.409171 0
0.649958 0.42858 0
0.684993 0.461112 0
0.693111 0.503944 0
0.674357 0.554726 0
0.648997 0.616312 0
0.620584 0.682994 0
0.591089 0.750423 0
0.616754 0.797818 0
0.637156 0.840314 0
0.664286 0.870405 0.133211
0.697826 0.890013 0.272145
0.732769 0.902403 0.40473
0.767147 0.909331 0.527153
0.796948 0.914153 0.632959
0.822003 0.917937 0.719432
0 0.450172 0.0539712
0 0.450355 0.0540169
0 0.45069 0.0541085
0 0.45098 0.0541848
0 0.451225 0.0542458
0 0.451804 0.0543984
0 0.452018 0.0544442
0 0.452201 0.0545052
0 0.452369 0.0545357
0 0.452476 0.0545663
0 0.460883 0.0207523
0 0.475517 0
0.0872511 0.484413 0
0.208194 0.489723 0
0.315541 0.49308 0
0.406332 0.49604 0
0.485451 0.500694 0
0.553658 0.50959 0
0.606516 0.525292 0
0.643656 0.549279 0
0.660563 0.582208 0
0.64651 0.622263 0
0.625986 0.670451 0
0.602396 0.724743 0
0.577859 0.780453 0
0.601923 0.820218 0
0.630259 0.853254 0
0.661204 0.877729 0.135149
0.696361 0.89427 0.274281
0.731167 0.905089 0.403876
0.766171 0.910872 0.526467
0.796353 0.915068 0.632547
0.821668 0.918486 0.719203
0 0.545495 0.0797894
0 0.545571 0.0798047
0 0.545846 0.079881
0 0.54609 0.0799573
0 0.546288 0.0800031
0 0.546487 0.0800641
0 0.546685 0.0801099
0 0.546929 0.0801862
0 0.547463 0.0803235
0 0.547555 0.080354
0 0.547448 0.0803235
0 0.56083 0.0272984
0 0.57586 0
0.135225 0.583429 0
0.254246 0.58822 0
0.354284 0.591699 0
0.439628 0.596506 0
0.51104 0.604181 0
0.564584 0.616922 0
0.601816 0.635935 0
0.626169 0.661036 0
0.616861 0.690852 0
0.601114 0.727657 0
0.583047 0.768673 0
0.563119 0.814176 0
0.584375 0.846052 0
0.621988 0.868818 0
0.657542 0.886702 0.137865
0.694606 0.899657 0.277272
0.729091 0.908614 0.402884
0.764797 0.913039 0.525536
0.795575 0.916289 0.631998
0.82121 0.919203 0.718914
0 0.639612 0.10602
0 0.639612 0.10602
0 0.639719 0.10605
0 0.639872 0.106096
0 0.639994 0.106126
0 0.640085 0.106157
0 0.640192 0.106188
0 0.640299 0.106218
0 0.640375 0.106233
0 0.640345 0.106218
0 0.640513 0.106279
0 0.639994 0.106126
0 0.658778 0.0228275
0.0429694 0.672526 0
0.184024 0.679103 0
0.295842 0.683711 0
0.388525 0.688121 0
0.464393 0.694591 0
0.5205 0.704158 0
0.558816 0.718044 0
0.585946 0.736294 0
0.587091 0.757458 0
0.576272 0.78407 0
0.562478 0.815641 0
0.547707 0.850126 0
0.563485 0.874815 0
0.613245 0.886168 0
0.653284 0.897642 0.141741
0.692561 0.906203 0.281224
0.727382 0.912749 0.404013
0.763012 0.915908 0.524361
0.794476 0.918013 0.63122
0.8206 0.920165 0.718502
0 0.725429 0.131441
0 0.725429 0.131441
0 0.725429 0.131441
0 0.725505 0.131472
0 0.725536 0.131487
0 0.725582 0.131487
0 0.725597 0.131502
0 0.725628 0.131502
0 0.725597 0.131502
0 0.725475 0.131456
0 0.725185 0.131365
0 0.724941 0.131289
0 0.729671 0.107469
0 0.750164 0.00149538
0.10605 0.761181 0
0.234134 0.766598 0
0.334859 0.770962 0
0.415991 0.776043 0
0.475181 0.783139 0
0.516335 0.792737 0
0.54493 0.805661 0
0.557671 0.821775 0
0.551705 0.840085 0
0.542809 0.861723 0
0.532708 0.885924 0
0.537957 0.906065 0
0.604227 0.904982 0
0.649165 0.909926 0.14815
0.690349 0.914046 0.286641
0.726329 0.917449 0.408133
0.761212 0.919402 0.524208
0.793011 0.920317 0.630182
0.819745 0.921508 0.717891
0 0.806455 0.159243
0 0.806455 0.159243
0 0.806455 0.159243
0 0.806455 0.159243
0 0.806455 0.159243
0 0.806424 0.159243
0 0.806394 0.159228
0 0.806317 0.159197
0 0.80618 0.159152
0 0.805905 0.159045
0 0.805493 0.158892
0 0.804746 0.158602
0 0.803861 0.158282
0 0.821393 0.0760357
0.0205692 0.835996 0
0.170993 0.842481 0
0.281666 0.846052 0
0.367605 0.849805 0
0.430503 0.854337 0
0.474983 0.86038 0
0.506966 0.868223 0
0.528252 0.878416 0
0.530297 0.890181 0
0.525353 0.903838 0
0.518883 0.919738 0
0.513008 0.936919 0
0.596262 0.924498 0.00373846
0.645548 0.92311 0.157519
0.688533 0.922683 0.294621
0.725155 0.923217 0.413626
0.759594 0.923476 0.525536
0.791272 0.923186 0.629236
0.818555 0.923339 0.717052
0 0.873243 0.185534
0 0.873243 0.185534
0 0.873243 0.185534
0 0.873243 0.185534
0 0.873243 0.185534
0 0.873198 0.185504
0 0.873091 0.185473
0 0.872938 0.185397
0 0.872663 0.18529
0 0.872236 0.185122
0 0.871641 0.184878
0 0.87068 0.184482
0 0.869322 0.183932
0 0.878645 0.136355
0 0.895842 0.0225986
0.119097 0.903181 0
0.238651 0.906081 0
0.327413 0.908553 0
0.392355 0.91136 0
0.439902 0.914733 0
0.474662 0.919173 0
0.498985 0.92491 0
0.512123 0.931975 0
0.510353 0.940307 0
0.506554 0.950469 0
0.512703 0.958801 0
0.591989 0.942809 0.0188907
0.643229 0.9364 0.171191
0.687312 0.931868 0.305409
0.724346 0.929732 0.421485
0.758892 0.927993 0.530556
0.789303 0.926665 0.628458
0.817075 0.925658 0.716045
0 0.923278 0.206226
0 0.923278 0.206226
0 0.923278 0.206226
0 0.923278 0.206226
0 0.923278 0.206226
0 0.923278 0.206226
0 0.923278 0.206226
0 0.923095 0.206149
0 0.922759 0.205997
0 0.922179 0.205753
0 0.921401 0.205432
0 0.920317 0.20499
0 0.918837 0.204364
0 0.923293 0.175799
0 0.940566 0.0654459
0.0853285 0.94902 0
0.20911 0.9514 0
0.298131 0.95285 0
0.362936 0.95462 0
0.41146 0.956649 0
0.44802 0.959136 0
0.474342 0.962509 0
0.493858 0.966918 0
0.497429 0.971954 0
0.495506 0.978225 0
0.528817 0.973465 0
0.592935 0.958724 0.0467231
0.642893 0.948852 0.189899
0.68687 0.941466 0.319371
0.72401 0.936828 0.4318
0.758648 0.933013 0.537881
0.788891 0.930129 0.632731
0.815274 0.928527 0.714855
0 0.961624 0.222049
0 0.961624 0.222049
0 0.961624 0.222049
0 0.961624 0.222049
0 0.961624 0.222049
0 0.961624 0.222049
0 0.961624 0.222049
0 0.961624 0.222049
0 0.961456 0.221988
0 0.96083 0.221729
0 0.959838 0.221332
0 0.958618 0.220829
0 0.957122 0.220218
0 0.96141 0.190845
0 0.978027 0.0759747
0.0715953 0.984955 0
0.191867 0.986847 0
0.277562 0.987701 0
0.34049 0.988693 0
0.388449 0.989944 0
0.425361 0.991379 0
0.453178 0.993194 0
0.474464 0.995682 0
0.485924 0.998657 0
0.485985 1 0
0.541848 0.986648 0
0.597986 0.971771 0.0831311
0.645548 0.960159 0.216358
0.687495 0.950973 0.336629
0.724529 0.944152 0.445289
0.758923 0.938369 0.547417
0.788952 0.933974 0.63917
0.81471 0.931426 0.717708
0 0.989517 0.233295
0 0.989517 0.233295
0 0.989517 0.233295
0 0.989517 0.233295
0 0.989517 0.233295
0 0.989517 0.233295
0 0.989517 0.233295
0 0.989517 0.233295
0 0.989517 0.233295
0 0.989471 0.23328
0 0.988418 0.232853
0 0.98703 0.232303
0 0.985412 0.231662
0 0.985748 0.220371
0 1 0.0599222
0.0796674 1 0
0.188205 1 0
0.266789 1 0
0.325795 1 0
0.371908 1 0
0.407858 1 0
0.43595 1 0
0.45832 1 0
0.475547 1 0
0.480232 1 0
0.556405 0.997314 0
0.607752 0.982025 0.130282
0.651362 0.969787 0.25037
0.690425 0.959625 0.360037
0.726253 0.951171 0.462196
0.760037 0.943801 0.559823
0.789425 0.93817 0.64741
0.814664 0.934569 0.722606
0 1 0.241459
0 1 0.241459
0 1 0.241459
0 1 0.241459
0 1 0.241459
0 1 0.241459
0 1 0.241459
0 1 0.241459
0 1 0.241459
0 1 0.241459
0 1 0.241459
0 1 0.24094
0 1 0.238376
0 1 0.165316
0 1 0.0339666
0.104158 1 0
0.194553 1 0
0.263386 1 0
0.31693 1 0
0.360128 1 0
0.394278 1 0
0.421683 1 0
0.444144 1 0
0.46331 1 0
0.52781 1 0
0.579751 1 0.074342
0.62211 0.989166 0.187457
0.661036 0.976989 0.29305
0.695964 0.966735 0.38941
0.729992 0.957336 0.484352
0.762173 0.94905 0.575265
0.790555 0.942458 0.657969
0.81503 0.937926 0.729122
0 1 0.245121
0 1 0.245121
0 1 0.245121
0 1 0.245121
0 1 0.245121
0 1 0.245121
0 1 0.245121
0 1 0.245121
0 1 0.245121
0 1 0.245121
0 1 0.245121
0 1 0.245121
0 1 0.243427
0 1 0.0780804
0.0390326 1 0.00390631
0.137469 1 0
0.20914 1 0
0.266896 1 0
0.313909 1 0
0.352895 1 0
0.384924 1 0
0.411948 1 0
0.434623 1 0
0.501274 1 0
0.56228 1 0.0524758
0.603906 1 0.156756
0.640269 0.993072 0.252079
0.673701 0.981811 0.341787
0.704738 0.971908 0.426108
0.735836 0.962432 0.511559
0.765713 0.953811 0.594476
0.792477 0.946578 0.670832
0.815915 0.941329 0.737362
0 1 0.105348
0 1 0.105348
0 1 0.105348
0 1 0.105348
0 1 0.105364
0 1 0.105364
0 1 0.105364
0 1 0.105364
0 1 0.105379
0 1 0.105379
0 1 0.105379
0 1 0.105394
0 1 0.105409
0 1 0.0342565
0.101381 1 0
0.17348 1 0
0.230594 1 0
0.277501 1 0
0.317815 1 0
0.352117 1 0
0.406332 1 0
0.460899 1 0
0.504768 1 0.0237888
0.548928 1 0.0863813
0.593683 1 0.160037
0.629206 1 0.239567
0.66067 0.994659 0.320409
0.688426 0.984741 0.394202
0.716472 0.975158 0.469413
0.744198 0.965988 0.544518
0.770565 0.957549 0.617823
0.795789 0.950134 0.687205
0.817411 0.944549 0.74725
0.182956 1 0.233997
0.182956 1 0.233997
0.182956 1 0.233997
0.182956 1 0.233997
0.182956 1 0.233997
0.182956 1 0.233997
0.182956 1 0.233997
0.182956 1 0.233997
0.182956 1 0.233997
0.18294 1 0.234012
0.18294 1 0.234012
0.18294 1 0.234012
0.182925 1 0.234012
0.18291 1 0.234028
0.245762 1 0.205539
0.306706 1 0.181079
0.35433 1 0.16585
0.395743 1 0.15639
0.434028 1 0.152483
0.468681 1 0.154101
0.50106 1 0.161486
0.532097 1 0.174563
0.562341 1 0.19469
0.591623 1 0.221302
0.624659 1 0.265812
0.655985 1 0.324498
0.680781 0.994751 0.385763
0.705745 0.985443 0.451392
0.730526 0.976425 0.517128
0.755093 0.967819 0.582849
0.778088 0.959899 0.646021
0.800412 0.952895 0.706462
0.819883 0.947387 0.75964
0.367727 1 0.362905
0.367727 1 0.362905
0.367727 1 0.362905
0.367727 1 0.362905
0.367727 1 0.362905
0.367727 1 0.362905
0.367727 1 0.362905
0.367727 1 0.362905
0.367727 1 0.362905
0.367727 1 0.362905
0.367727 1 0.362905
0.367727 1 0.362905
0.367712 1 0.362921
0.367712 1 0.362921
0.367697 1 0.362921
0.404349 1 0.348379
0.444358 1 0.33518
0.477836 1 0.326024
0.507774 1 0.320333
0.535561 1 0.318425
0.561578 1 0.320134
0.586954 1 0.325795
0.611276 1 0.336202
0.634821 1 0.351583
0.657465 1 0.371084
0.682353 1 0.405783
0.703441 0.992386 0.455314
0.724498 0.984207 0.510292
0.746288 0.975952 0.567544
0.766842 0.968246 0.623224
0.78735 0.961044 0.677745
0.806409 0.954772 0.728649
0.82324 0.949691 0.773922
0.493004 1 0.473915
0.493004 1 0.473915
0.493004 1 0.473915
0.493004 1 0.473915
0.493004 1 0.473915
0.493004 1 0.473915
0.493004 1 0.473915
0.493004 1 0.473915
0.493004 1 0.473915
0.493004 1 0.473915
0.493004 1 0.473915
0.493004 1 0.473915
0.493004 1 0.473915
0.493004 1 0.473915
0.492988 1 0.47393
0.492988 1 0.47393
0.518257 1 0.46508
0.546548 1 0.456657
0.56997 1 0.451408
0.591379 1 0.448341
0.612848 1 0.447776
0.633402 1 0.4495
0.653483 1 0.454337
0.672953 0.999481 0.463172
0.692149 0.996704 0.476722
0.710826 0.993378 0.494896
0.727474 0.988022 0.528038
0.744778 0.981247 0.571344
0.762097 0.974289 0.617731
0.780346 0.967437 0.665583
0.797681 0.961181 0.711101
0.813519 0.955764 0.752865
0.827558 0.951263 0.790097
0.588357 0.986847 0.574517
0.588357 0.986847 0.574517
0.588357 0.986847 0.574517
0.588357 0.986847 0.574517
0.588357 0.986847 0.574517
0.588357 0.986847 0.574517
0.588357 0.986847 0.574517
0.588357 0.986847 0.574517
0.588357 0.986847 0.574517
