BBLuts/BB_102_0140_LUT.cube
TITLE "Generated by Resolve"
LUT_3D_SIZE 9
0.00415045 0.00553903 0.00477607
0.0219425 0.00610361 0.00576791
0.117433 0.00903334 0.00621042
0.414023 0 0.000488289
0.843793 0 0
0.985183 0 0
0.891432 0.476555 0.00523384
0.894392 0.782376 0.494194
0.929229 0.916655 0.816175
0.00369268 0.043061 0.0121004
0.0177615 0.0492714 0.0137636
0.147112 0.0565957 0.00509651
0.424292 0 0.000427253
0.844312 0 0
0.956741 0 0
0.880446 0.504707 0.0139315
0.895079 0.787549 0.500771
0.92961 0.917433 0.817044
0 0.231357 0.0206302
0 0.232029 0.0206302
0.144152 0.219867 0.0531319
0.372076 0.216022 0.00665293
0.725277 0.186648 0
0.901854 0.302068 0
0.869917 0.557794 0.0464179
0.896925 0.799634 0.513954
0.930434 0.919234 0.819059
0 0.473182 0.0364996
0 0.473671 0.0366369
0 0.473671 0.0366369
0.357748 0.459983 0.10985
0.668956 0.478111 0.0558785
0.866499 0.534661 0.00846876
0.878187 0.664836 0.167391
0.901808 0.827054 0.54023
0.93257 0.923751 0.824048
0.266423 0.76762 0.209461
0.265812 0.767132 0.209155
0.263172 0.765057 0.207797
0.369238 0.751797 0.225803
0.686503 0.74789 0.295186
0.868223 0.767987 0.265095
0.899855 0.806699 0.2934
0.912291 0.873686 0.596536
0.935882 0.930358 0.830915
0.516548 0.919921 0.482658
0.516548 0.919921 0.482658
0.516548 0.919921 0.482658
0.631952 0.91249 0.453361
0.794125 0.89929 0.497688
0.881849 0.902144 0.488228
0.925124 0.90811 0.395163
0.930861 0.926726 0.72575
0.935439 0.930236 0.8309
0.709819 0.914473 0.457969
0.718929 0.914061 0.461494
0.738399 0.913161 0.473228
0.779004 0.913451 0.526955
0.838285 0.913878 0.61976
0.891859 0.919341 0.689662
0.928206 0.926955 0.708675
0.932662 0.92755 0.776623
0.936812 0.930373 0.840513
0.853849 0.924285 0.756313
0.854978 0.924269 0.756771
0.857542 0.924193 0.757855
0.864225 0.924041 0.760662
0.880201 0.924041 0.774182
0.905303 0.923995 0.79913
0.928573 0.926711 0.815595
0.934676 0.930373 0.832837
0.936812 0.93022 0.855329
0.910796 0.929702 0.852583
0.910948 0.929702 0.852613
0.911299 0.929747 0.852735
0.912383 0.929839 0.853193
0.91516 0.930114 0.854276
0.921035 0.930724 0.856626
0.930938 0.931991 0.860639
0.937072 0.933425 0.863813
0.937453 0.933379 0.869581
0.00415045 0.00564584 0.0126955
0.0108339 0.00694286 0.018143
0.0876631 0.0161746 0.044419
0.386862 0.000579843 0.0714885
0.89601 0 0.0444343
0.990082 0 0.0864271
0.910033 0.463569 0.0760815
0.894881 0.781857 0.509194
0.929503 0.916472 0.81854
0.00282292 0.0375219 0.0413672
0.0181888 0.0417334 0.0473335
0.144274 0.0330053 0.0556497
0.410224 0.000198367 0.0605173
0.902632 0 0.0239109
1 0 0.0392157
0.899748 0.495644 0.076997
0.895506 0.787076 0.51632
0.9299 0.91725 0.819348
0 0.224537 0.0262303
0 0.225315 0.0263981
0.147173 0.213825 0.0547189
0.368994 0.20911 0.00817884
0.732158 0.169604 0
0.919097 0.287037 0
0.881773 0.555505 0.103319
0.897292 0.79939 0.530816
0.930663 0.918929 0.821164
0 0.469871 0.0356146
0 0.470359 0.0357519
0 0.470237 0.0357214
0.359792 0.457679 0.104021
0.668666 0.475105 0.0534066
0.866468 0.532143 0.00730907
0.877394 0.664759 0.190753
0.901534 0.827588 0.559976
0.932921 0.923568 0.826215
0.264988 0.766491 0.208728
0.264179 0.765866 0.208316
0.26154 0.76379 0.206973
0.382177 0.749874 0.230671
0.687236 0.74728 0.292851
0.868223 0.767422 0.264652
0.899809 0.806317 0.292729
0.912154 0.87364 0.60267
0.936095 0.930663 0.833509
0.516548 0.919921 0.482658
0.516548 0.919921 0.482658
0.516548 0.919921 0.482658
0.634745 0.912505 0.453956
0.794461 0.899001 0.497124
0.882033 0.902174 0.489494
0.925048 0.907973 0.394476
0.9308 0.926604 0.725414
0.935454 0.930251 0.830991
0.711177 0.914458 0.458289
0.720287 0.91397 0.461677
0.739437 0.913115 0.474189
0.77966 0.913451 0.527932
0.838575 0.913909 0.620371
0.89192 0.919356 0.68957
0.928298 0.92697 0.708583
0.932662 0.92755 0.776623
0.936812 0.930373 0.840482
0.854032 0.924285 0.756374
0.855146 0.924254 0.756832
0.85771 0.924193 0.757916
0.864302 0.924041 0.760647
0.880308 0.924041 0.774273
0.905303 0.923995 0.799115
0.928573 0.926711 0.815595
0.934676 0.930373 0.832837
0.936812 0.93022 0.855329
0.910796 0.929702 0.852583
0.910948 0.929702 0.852613
0.911299 0.929747 0.852735
0.912474 0.929854 0.853223
0.91516 0.930114 0.854276
0.921035 0.930724 0.856626
0.930938 0.931991 0.860639
0.937072 0.933425 0.863813
0.937453 0.933379 0.869581
0.00544747 0.00962844 0.0373083
0.0059205 0.00965896 0.0379034
0.0786297 0.0199435 0.100725
0.322332 0.0376287 0.183108
0.690028 0 0.216098
0.843 0 0.236561
0.944411 0.428214 0.219532
0.89659 0.780697 0.539651
0.930068 0.915953 0.82359
0.00540169 0.0111849 0.0428168
0.00794995 0.0115969 0.0466316
0.0868238 0.0213779 0.104265
0.318944 0.0370031 0.180697
0.691737 0 0.212924
0.84596 0 0.232242
0.931258 0.465614 0.206348
0.896773 0.786068 0.547845
0.930404 0.916609 0.824231
0 0.201083 0.189471
0 0.202289 0.18967
0.120821 0.196582 0.186709
0.405005 0.171786 0.175448
0.748058 0.0537118 0.183734
0.981445 0.197528 0.165118
0.909163 0.537743 0.197314
0.897719 0.798276 0.565148
0.93135 0.918425 0.826062
0 0.45803 0.132143
0 0.458518 0.132662
0 0.458549 0.133852
0.362264 0.447059 0.191867
0.662577 0.471839 0.135393
0.887251 0.524239 0.0765545
0.882856 0.66659 0.277363
0.901259 0.82649 0.599191
0.933623 0.923079 0.830823
0.26038 0.76289 0.206302
0.259617 0.76231 0.205844
0.25716 0.760418 0.204364
0.384726 0.746014 0.231189
0.685527 0.744152 0.287144
0.86717 0.76466 0.26247
0.898787 0.80737 0.405005
0.911559 0.874006 0.644724
0.937194 0.930571 0.838224
0.516548 0.919921 0.482658
0.516548 0.919921 0.482658
0.516548 0.919921 0.482658
0.640528 0.911925 0.453285
0.795483 0.898604 0.4963
0.882231 0.901823 0.490791
0.924926 0.907713 0.394186
0.930755 0.926452 0.725567
0.936019 0.930556 0.835203
0.714672 0.91426 0.459037
0.723552 0.913756 0.462455
0.741939 0.913008 0.476478
0.78143 0.913466 0.530648
0.839323 0.91397 0.621866
0.892119 0.919387 0.689418
0.928298 0.92697 0.708507
0.932662 0.92755 0.776577
0.936812 0.930373 0.840482
0.854459 0.924269 0.756481
0.855573 0.924254 0.756939
0.858061 0.924193 0.757992
0.864652 0.924025 0.760769
0.880598 0.924041 0.774487
0.90547 0.923995 0.799283
0.928573 0.926711 0.815549
0.934676 0.930358 0.832792
0.936812 0.93022 0.855329
0.910872 0.929702 0.852598
0.91104 0.929717 0.852644
0.911391 0.929747 0.852766
0.912459 0.929854 0.853193
0.91516 0.930114 0.854276
0.921126 0.930724 0.856657
0.930938 0.931991 0.860609
0.937072 0.933425 0.863813
0.937453 0.933379 0.869581
0.00863661 0.0142214 0.109804
0.00863661 0.0142214 0.109926
0.0265049 0.0180056 0.151873
0.296269 0.0541238 0.318074
0.654383 0.0563363 0.385916
0.785443 0 0.413901
0.865965 0.407187 0.47808
0.90341 0.772656 0.601755
0.929793 0.914397 0.834623
0.00862135 0.0142061 0.109117
0.00862135 0.0142061 0.109239
0.0377356 0.0195926 0.169955
0.303029 0.0552377 0.318059
0.652979 0.05626 0.384527
0.786053 0 0.412375
0.879149 0.436439 0.47718
0.902632 0.779034 0.609262
0.93022 0.915175 0.835309
0 0.0983597 0.296101
0 0.101259 0.299504
0.0386053 0.102205 0.320928
0.312734 0.0783856 0.321416
0.640269 0.058854 0.378943
0.821729 0.132982 0.412085
0.915312 0.492149 0.466896
0.901015 0.793439 0.62652
0.931136 0.91696 0.836851
0 0.423026 0.380468
0 0.423865 0.380911
0 0.424475 0.381445
0.325414 0.423148 0.384039
0.7066 0.416724 0.376928
0.933471 0.462226 0.392828
0.914641 0.639399 0.416709
0.902129 0.823438 0.668406
0.933623 0.921721 0.84097
0.268788 0.756161 0.439338
0.268223 0.755718 0.439353
0.265965 0.753964 0.4392
0.312367 0.743816 0.436088
0.686931 0.736858 0.517662
0.860288 0.76289 0.498283
0.898665 0.80705 0.568582
0.91104 0.871962 0.719905
0.938109 0.93022 0.848188
0.523171 0.921706 0.459495
0.523293 0.921691 0.460441
0.523674 0.921691 0.462852
0.626429 0.913909 0.471717
0.787243 0.90222 0.555734
0.883436 0.900938 0.665782
0.924788 0.91165 0.688533
0.932479 0.924987 0.782284
0.937621 0.930236 0.846021
0.72401 0.913634 0.461051
0.732158 0.913176 0.464134
0.748898 0.912749 0.483207
0.786053 0.913481 0.537591
0.841306 0.914137 0.625849
0.892714 0.919493 0.688823
0.928359 0.927138 0.709773
0.932692 0.92755 0.778271
0.937087 0.930358 0.841657
0.855573 0.924254 0.756848
0.856596 0.924224 0.757259
0.859083 0.924163 0.758312
0.865599 0.92401 0.761013
0.88127 0.924041 0.775021
0.905821 0.923995 0.799573
0.928649 0.926711 0.815534
0.934676 0.930358 0.832792
0.936812 0.93022 0.855299
0.911025 0.929717 0.852598
0.911223 0.929732 0.852705
0.911574 0.929763 0.852827
0.912642 0.92987 0.853254
0.915328 0.930129 0.854337
0.921218 0.930739 0.856687
0.931029 0.931991 0.860639
0.937072 0.933425 0.863813
0.937453 0.933379 0.869581
0 0.0233463 0.386648
0 0.0233463 0.386892
0 0.0233616 0.387152
0.152102 0.0408026 0.640681
0.604379 0.0974594 0.658473
0.737499 0.0889296 0.662791
0.761593 0.221271 0.666896
0.904997 0.741756 0.75494
0.929107 0.913985 0.85008
0 0.0233463 0.385885
0 0.0233463 0.38613
0 0.0233463 0.38613
0.171237 0.0428626 0.644617
0.608484 0.0976883 0.657954
0.737514 0.0888685 0.662104
0.779049 0.298985 0.669718
0.908461 0.748898 0.754467
0.929488 0.914748 0.850538
0 0.0233005 0.383597
0 0.0233158 0.383856
0 0.0233005 0.383597
0.201663 0.046128 0.648203
0.612894 0.0979629 0.656092
0.737575 0.088716 0.660044
0.80589 0.420966 0.678874
0.912551 0.766186 0.752102
0.930373 0.91664 0.851698
0 0.288594 0.661112
0 0.290288 0.661341
0 0.292699 0.661341
0.204578 0.28365 0.662409
0.604608 0.270298 0.648234
0.800412 0.376532 0.659068
0.855253 0.589242 0.704387
0.912795 0.806394 0.75079
0.932799 0.921675 0.854734
0.230625 0.716274 0.699825
0.230442 0.716136 0.699901
0.229129 0.715068 0.699641
0.242237 0.707362 0.694926
0.641535 0.709072 0.699794
0.866392 0.731167 0.689403
0.911162 0.788251 0.706661
0.91104 0.866224 0.791287
0.938231 0.932616 0.861418
0.567697 0.923003 0.75877
0.567712 0.923003 0.758846
0.567742 0.923003 0.758984
0.601328 0.910628 0.752239
0.760372 0.904067 0.762783
0.871107 0.901869 0.786297
0.925292 0.909743 0.811566
0.935119 0.924773 0.840879
0.937728 0.932067 0.860395
0.715633 0.917433 0.731151
0.722576 0.917479 0.732158
0.737102 0.917998 0.735149
0.770397 0.919203 0.741314
0.823606 0.922469 0.755261
0.886168 0.924453 0.784665
0.929122 0.927321 0.823529
0.936843 0.930404 0.840085
0.937026 0.930846 0.858106
0.858488 0.924178 0.757717
0.859525 0.924147 0.758129
0.861921 0.924102 0.759152
0.868208 0.923995 0.762768
0.883299 0.924041 0.776623
0.906691 0.92398 0.800351
0.928939 0.926741 0.815488
0.934737 0.930465 0.833524
0.936797 0.930236 0.855726
0.911467 0.929763 0.85275
0.91165 0.929778 0.852827
0.912001 0.929808 0.852949
0.913085 0.9299 0.853407
0.915679 0.930159 0.854429
0.921462 0.930755 0.856748
0.931105 0.932006 0.86067
0.937072 0.933425 0.863767
0.937453 0.933379 0.869581
0 0.0104829 0.777935
0 0.0104829 0.777935
0 0.0104829 0.777935
0 0.0105745 0.778881
0.474662 0.0932631 0.882612
0.74136 0.0844282 0.858305
0.741314 0.0843977 0.859022
0.842878 0.63357 0.81709
0.927275 0.904768 0.867323
0 0.0105135 0.777676
0 0.0105135 0.777676
0 0.0105135 0.777676
0 0.0105898 0.778958
0.482109 0.093843 0.882185
0.74136 0.0844282 0.858305
0.741314 0.0843977 0.859022
0.846769 0.649439 0.817746
0.927718 0.905776 0.867842
0 0.0105287 0.777417
0 0.0105287 0.777417
0 0.0105287 0.777417
0 0.0106813 0.778546
0.499748 0.0951858 0.881056
0.74136 0.0844434 0.858122
0.741329 0.0844129 0.858671
0.855879 0.68397 0.82034
0.928634 0.908125 0.868971
0 0.0105898 0.776638
0 0.0105898 0.776638
0 0.0105898 0.776638
0 0.015198 0.82652
0.528191 0.0960555 0.879316
0.741405 0.0844739 0.857206
0.755398 0.166918 0.839246
0.876478 0.75346 0.827192
0.931105 0.914244 0.87187
0 0.557122 0.829557
0 0.557946 0.829541
0 0.560052 0.829343
0 0.55964 0.828244
0.531273 0.565866 0.818616
0.8271 0.605585 0.81004
0.864851 0.715129 0.817914
0.910399 0.842725 0.839963
0.936538 0.927382 0.877989
0.579232 0.915511 0.84918
0.577279 0.914702 0.848951
0.572045 0.912535 0.848249
0.555444 0.905684 0.845945
0.725109 0.891783 0.841749
0.859205 0.891325 0.847654
0.920363 0.900923 0.857633
0.933257 0.92047 0.868376
0.938628 0.933379 0.879774
0.676799 0.91809 0.842649
0.688182 0.918196 0.843015
0.710521 0.918898 0.843763
0.753246 0.920256 0.846174
0.815793 0.924178 0.851667
0.879606 0.927855 0.859144
0.924514 0.931502 0.866407
0.938109 0.93344 0.871672
0.937942 0.933303 0.877638
0.855177 0.924987 0.846372
0.856138 0.925093 0.846448
0.858396 0.925368 0.846693
0.864134 0.92604 0.847196
0.876554 0.927596 0.848859
0.897978 0.929656 0.853056
0.924315 0.931563 0.860151
0.93727 0.93341 0.866789
0.937636 0.933333 0.873518
0.912688 0.92987 0.853117
0.912871 0.929885 0.853178
0.913237 0.929915 0.853346
0.914214 0.930007 0.853742
0.916625 0.930236 0.854704
0.922164 0.930816 0.856962
0.931456 0.932021 0.860746
0.937072 0.933425 0.863737
0.937453 0.933379 0.869627
0 0.00839246 0.806287
0 0.00839246 0.806287
0 0.00839246 0.806287
0 0.00839246 0.806287
0 0.0198672 0.873365
0.738628 0.0825971 0.907912
0.738628 0.0825971 0.907912
0.742611 0.105348 0.905501
0.906859 0.860533 0.878828
0 0.00839246 0.806287
0 0.00839246 0.806287
0 0.00839246 0.806287
0 0.00839246 0.806287
0 0.0211948 0.876936
0.738628 0.0825971 0.907912
0.738628 0.0825971 0.907912
0.742611 0.105348 0.905501
0.907637 0.862821 0.879133
0 0.00839246 0.806287
0 0.00839246 0.806287
0 0.00839246 0.806287
0 0.00839246 0.806287
0 0.0241245 0.884535
0.738628 0.0825971 0.907912
0.738628 0.0825971 0.907912
0.743572 0.113756 0.904921
0.909575 0.868254 0.879835
0 0.00839246 0.806287
0 0.00839246 0.806287
0 0.00839246 0.806287
0 0.00839246 0.806287
0 0.0314336 0.895155
0.738628 0.0825971 0.907912
0.738628 0.0825971 0.907912
0.747951 0.136309 0.903166
0.914809 0.881056 0.882078
0 0.00839246 0.806287
0 0.00839246 0.806287
0 0.00839246 0.806287
0 0.00839246 0.806287
0.241291 0.0750439 0.915938
0.738628 0.0825971 0.907912
0.741253 0.0944839 0.906279
0.813153 0.539193 0.872084
0.925704 0.90602 0.887343
0.385733 0.827314 0.88011
0.386389 0.827573 0.880034
0.387579 0.828107 0.88011
0.38912 0.828779 0.880079
0.49279 0.810666 0.870832
0.814664 0.818753 0.869673
0.901305 0.843961 0.874189
0.919112 0.890379 0.882368
0.942031 0.935821 0.897063
0.612146 0.924758 0.886046
0.611383 0.924331 0.885634
0.610712 0.923705 0.885054
0.652583 0.919829 0.88191
0.782452 0.92256 0.882719
0.873503 0.928878 0.88777
0.924178 0.933867 0.892363
0.940871 0.935363 0.895064
0.940841 0.935546 0.895811
0.843107 0.926406 0.882582
0.844373 0.926467 0.88275
0.847257 0.926619 0.883177
0.85449 0.927001 0.884153
0.870314 0.928298 0.885176
0.895048 0.930037 0.888106
0.922271 0.933486 0.890333
0.939651 0.934981 0.893462
0.940093 0.935271 0.894667
0.91191 0.932403 0.884978
0.912062 0.932418 0.885039
0.912383 0.932464 0.885069
0.913329 0.932601 0.885161
0.915618 0.93283 0.885466
0.920729 0.933028 0.886351
0.929397 0.93341 0.888014
0.938354 0.934142 0.890135
0.939315 0.93463 0.892027
0 0.0590829 0.881712
0 0.0590829 0.881712
0 0.0590829 0.881712
0 0.0590829 0.881712
0 0.0591897 0.881788
0.141772 0.0800641 0.91223
0.738628 0.0825971 0.907912
0.748547 0.140948 0.903609
0.82385 0.588968 0.876417
0 0.0589914 0.881636
0 0.0590829 0.881712
0 0.0590829 0.881712
0 0.0590829 0.881712
0 0.0590829 0.881712
0.148577 0.0805371 0.912444
0.738628 0.0825971 0.907912
0.748577 0.141192 0.903609
0.82385 0.588968 0.876417
0 0.0589914 0.881636
0 0.0589914 0.881636
0 0.0589914 0.881636
0 0.0589914 0.881636
0 0.0590829 0.881712
0.164553 0.081651 0.912932
0.738628 0.0825971 0.907912
0.748638 0.141588 0.903593
0.82385 0.588968 0.876417
0 0.0587778 0.881468
0 0.0587778 0.881468
0 0.0587778 0.881468
0 0.0588846 0.881559
0 0.0588846 0.881559
0.199496 0.0799725 0.914
0.738628 0.0825971 0.907912
0.748791 0.142702 0.903563
0.823774 0.588739 0.876417
0 0.0583658 0.881148
0 0.0583658 0.881148
0 0.0583658 0.881148
0 0.0583658 0.881148
0 0.0584726 0.881224
0.441733 0.0982071 0.918578
0.738628 0.0825971 0.907912
0.749371 0.146944 0.903456
0.823636 0.588281 0.876432
0 0.0569314 0.880034
0 0.0569314 0.880034
0 0.0569314 0.880034
0 0.0569314 0.880034
0 0.0570382 0.88011
0.668254 0.0940108 0.913695
0.738628 0.0825971 0.907912
0.751659 0.175113 0.902434
0.890684 0.816846 0.882567
0.620478 0.92639 0.902388
0.620478 0.92639 0.902388
0.620478 0.92639 0.902388
0.620478 0.92639 0.902388
0.619257 0.925933 0.901991
0.831556 0.922866 0.897002
0.922652 0.927138 0.901305
0.942245 0.936461 0.90515
0.941741 0.936431 0.905074
0.720333 0.921157 0.894896
0.722789 0.921157 0.894957
0.752956 0.922484 0.896223
0.786618 0.924071 0.895857
0.831495 0.926848 0.897719
0.881575 0.930251 0.900481
0.918914 0.933349 0.901579
0.940032 0.936309 0.904479
0.940887 0.936355 0.904631
0.906767 0.932204 0.900649
0.906981 0.932219 0.900649
0.907347 0.93225 0.900633
0.908568 0.932357 0.900618
0.911452 0.932586 0.900587
0.917662 0.933165 0.900618
0.928435 0.934813 0.902251
0.93901 0.936217 0.903746
0.940887 0.936324 0.904021
0 0.250553 0.903838
0 0.250553 0.903838
0 0.250553 0.903838
0 0.250553 0.903838
0 0.250553 0.903838
0 0.25066 0.903838
0.303761 0.133135 0.916197
0.772122 0.302068 0.895399
0.835019 0.633127 0.875883
0 0.250553 0.903838
0 0.250553 0.903838
0 0.250553 0.903838
0 0.250553 0.903838
0 0.250553 0.903838
0 0.25066 0.903838
0.303761 0.133135 0.916197
0.772183 0.302327 0.895399
0.83505 0.633249 0.875883
0 0.250553 0.903838
0 0.250553 0.903838
0 0.250553 0.903838
0 0.250553 0.903838
0 0.250553 0.903838
0 0.250553 0.903838
0.303761 0.133135 0.916197
0.77232 0.302953 0.895399
0.835096 0.633371 0.875883
0 0.250553 0.903838
0 0.250553 0.903838
0 0.250553 0.903838
0 0.250553 0.903838
0 0.250553 0.903838
0 0.250553 0.903838
0.303746 0.132906 0.916197
0.772732 0.304723 0.895384
0.835233 0.633707 0.875731
0 0.250446 0.903838
0 0.250446 0.903838
0 0.250446 0.903838
0 0.250446 0.903838
0 0.250446 0.903838
0 0.250446 0.903838
0.508492 0.136843 0.916136
0.773785 0.309407 0.895354
0.835523 0.634684 0.875715
0 0.250126 0.903899
0 0.250126 0.903899
0 0.250126 0.903899
0 0.250126 0.903899
0 0.250126 0.903899
0 0.250126 0.903899
0.719432 0.0866712 0.909529
0.776211 0.322103 0.895216
0.835645 0.635645 0.8757
0 0.249149 0.903883
0 0.249149 0.903883
0 0.249149 0.903883
0 0.249149 0.903883
0 0.249256 0.903883
0 0.249256 0.903883
0.738628 0.0825971 0.907912
0.778775 0.341817 0.894667
0.837003 0.640604 0.875624
0.620447 0.92639 0.902296
0.620447 0.92639 0.902296
0.620447 0.92639 0.902296
0.620447 0.92639 0.902296
0.620447 0.92639 0.902296
0.62269 0.922957 0.898741
0.901884 0.931991 0.901961
0.940459 0.936355 0.905013
0.941146 0.936385 0.905043
0.872724 0.929717 0.900114
0.873365 0.929747 0.900175
0.874815 0.929839 0.900328
0.878645 0.930053 0.900725
0.887053 0.930755 0.901289
0.902464 0.932036 0.901946
0.921843 0.933791 0.902495
0.937224 0.936172 0.904814
0.940887 0.93637 0.904982
