BBLuts/BB_103_0850_LUT.cube
TITLE "Generated by Resolve"
LUT_3D_SIZE 33
0.0399176 0.0326238 0.033875
0.0399176 0.0326238 0.033875
0.0399176 0.0326238 0.033875
0.0399176 0.0326238 0.033875
0.0399176 0.0326238 0.033875
0.0985428 0.0331426 0.0343328
0.166934 0.0339361 0.0350347
0.216495 0.0345922 0.0356146
0.264942 0.0352789 0.0362097
0.320806 0.0361181 0.0369573
0.38407 0.0371099 0.0378271
0.450935 0.0382239 0.0388037
0.523644 0.0394903 0.0399176
0.598337 0.0409552 0.0411994
0.676234 0.0426032 0.0426337
0.761578 0.0444495 0.0442512
0.843748 0.0462501 0.0458076
0.918288 0.0478981 0.0472419
0.981384 0.0493019 0.0484779
1 0.0504616 0.049485
1 0.0512703 0.0501869
1 0.0514992 0.0503853
1 0.0516365 0.0505074
1 0.0516365 0.0505074
1 0.0772717 0.0547646
1 0.194064 0.0742199
1 0.312261 0.091371
1 0.430671 0.105837
1 0.525536 0.123049
1 0.600351 0.142641
1 0.66009 0.166812
1 0.716686 0.191623
1 0.770672 0.224125
0.0399176 0.0326238 0.033875
0.0399176 0.0326238 0.033875
0.0399176 0.0326238 0.033875
0.0399176 0.0326238 0.033875
0.0399176 0.0326238 0.033875
0.112001 0.0332799 0.0344549
0.171756 0.0339971 0.0350805
0.22031 0.034638 0.0356603
0.270726 0.0353552 0.036286
0.327428 0.0362097 0.0370336
0.390372 0.0372168 0.0379187
0.456504 0.0383154 0.03888
0.526741 0.0395514 0.0399634
0.600076 0.0409857 0.0412299
0.677775 0.0426337 0.0426642
0.762661 0.0444648 0.0442664
0.844419 0.0462654 0.0458228
0.918654 0.0478981 0.0472572
0.981445 0.0493019 0.0484779
1 0.0504463 0.049485
1 0.0512703 0.0501869
1 0.0514992 0.0503853
1 0.0516365 0.0505074
1 0.0516365 0.0505074
1 0.0824598 0.0518807
1 0.222904 0.0584268
1 0.347906 0.0717021
1 0.45211 0.0943923
1 0.539101 0.116121
1 0.609918 0.137865
1 0.667018 0.163363
1 0.722255 0.189197
1 0.775265 0.221744
0.0399176 0.0326238 0.033875
0.0399176 0.0326238 0.033875
0.0399176 0.0326238 0.033875
0.0399176 0.0326238 0.033875
0.0399176 0.0326238 0.033875
0.12018 0.0333715 0.0345312
0.173541 0.0340124 0.035111
0.223957 0.034699 0.0357061
0.276829 0.0354467 0.0363622
0.333684 0.0363165 0.0371252
0.395285 0.0372931 0.0379797
0.459586 0.0383612 0.0389258
0.52932 0.0395972 0.0400092
0.601984 0.0410315 0.0412604
0.679347 0.0426642 0.0426947
0.763729 0.0444953 0.0442817
0.845106 0.0462806 0.0458381
0.91902 0.0479133 0.0472572
0.981491 0.0493019 0.0484779
1 0.0504463 0.049485
1 0.0512551 0.0501717
1 0.0514839 0.0503853
1 0.0516365 0.0505074
1 0.0516365 0.0505074
1 0.0868086 0.0469062
1 0.246906 0.03093
1 0.377905 0.0386358
1 0.471702 0.0785992
1 0.551995 0.108675
1 0.619196 0.132876
1 0.673884 0.159792
1 0.727779 0.186709
1 0.779843 0.219364
0.0399176 0.0326238 0.033875
0.0399176 0.0326238 0.033875
0.0399176 0.0326238 0.033875
0.0393835 0.0399939 0.033402
0.0661631 0.0469215 0.0331273
0.126818 0.0336614 0.0345922
0.174395 0.0340276 0.035111
0.224338 0.034699 0.0357061
0.277943 0.035462 0.0363775
0.336248 0.036347 0.0371557
0.398459 0.0373388 0.0380255
0.462333 0.038407 0.0389715
0.531792 0.0396429 0.0400549
0.603922 0.0410773 0.0412909
0.680949 0.04271 0.0427253
0.764828 0.0445258 0.0443122
0.845777 0.0462959 0.0458534
0.919371 0.0479133 0.0472572
0.981506 0.0493019 0.0484779
1 0.0504463 0.0494698
1 0.0512551 0.0501717
1 0.0514839 0.05037
1 0.0516365 0.0505074
1 0.0516365 0.0505074
1 0.0905776 0.0464485
1 0.26743 0.0284581
1 0.403937 0.0336004
1 0.489891 0.0700542
1 0.564111 0.100587
1 0.627543 0.127779
1 0.680583 0.156191
1 0.733211 0.184222
1 0.784329 0.217548
0.0346227 0.101274 0.0291752
0.0343175 0.105028 0.0289006
0.0340124 0.108736 0.0286259
0.0337072 0.112413 0.0283513
0.0340124 0.113939 0.0282444
0.110536 0.113359 0.0286564
0.162509 0.110964 0.0292515
0.215091 0.104738 0.0302586
0.272114 0.0898909 0.0320745
0.33727 0.0372168 0.0371099
0.400305 0.0373693 0.038056
0.46479 0.0384527 0.0390021
0.534173 0.0396887 0.0401007
0.60592 0.0411231 0.0413367
0.682597 0.0427405 0.0427558
0.765942 0.0445411 0.0443275
0.846448 0.0463111 0.0458686
0.919692 0.0479286 0.0472725
0.981506 0.0493019 0.0484779
1 0.0504463 0.0494698
1 0.0512398 0.0501564
1 0.0514687 0.05037
1 0.0529183 0.05037
1 0.0892653 0.0465858
1 0.151705 0.040177
1 0.306233 0.0245518
1 0.426444 0.0290227
1 0.506554 0.0606394
1 0.57554 0.0915541
1 0.635218 0.122454
1 0.687099 0.152499
1 0.738537 0.181735
1 0.788708 0.215747
0.0310369 0.144381 0.0259556
0.0307774 0.147433 0.0257267
0.030518 0.150454 0.0254978
0.0303197 0.15288 0.0253147
0.0302129 0.15404 0.0252232
0.0845045 0.154238 0.0253605
0.149813 0.153628 0.025803
0.205875 0.151263 0.0264439
0.2645 0.1458 0.027451
0.328252 0.134264 0.0291142
0.394293 0.112581 0.031754
0.466865 0.0396582 0.038941
0.536583 0.0397345 0.0401312
0.608026 0.0411536 0.0413672
0.684337 0.0427863 0.0427863
0.767132 0.0445716 0.0443427
0.84715 0.0463111 0.0458686
0.920027 0.0479286 0.0472725
0.981506 0.0493019 0.0484779
1 0.0504311 0.0494545
1 0.0512245 0.0501564
1 0.0514687 0.05037
1 0.0549935 0.0501564
1 0.149371 0.0404059
1 0.247028 0.030518
1 0.355734 0.0195468
1 0.447852 0.0238346
1 0.522301 0.0488899
1 0.586847 0.0803693
1 0.642969 0.116487
1 0.693751 0.148577
1 0.743999 0.179126
1 0.793194 0.213886
0.0271916 0.189059 0.0225071
0.0269627 0.191577 0.0222934
0.0267491 0.194125 0.0221103
0.0266117 0.195575 0.0219883
0.0265354 0.196506 0.021912
0.0273594 0.196841 0.0218814
0.12694 0.196857 0.0221866
0.19234 0.196002 0.0226902
0.254932 0.193439 0.0234226
0.321111 0.187991 0.0245212
0.387869 0.177279 0.0261692
0.457557 0.158892 0.0286259
0.531365 0.124941 0.032639
0.610605 0.0425422 0.0413062
0.68661 0.0428321 0.0428321
0.768658 0.0446021 0.0443732
0.848051 0.0463417 0.0458991
0.920455 0.0479438 0.0472877
0.981476 0.0493019 0.0484779
1 0.0504158 0.0494545
1 0.0512093 0.0501411
1 0.0514687 0.0503548
1 0.0563211 0.0500191
1 0.187655 0.0365148
1 0.308171 0.0243534
1 0.395605 0.0155184
1 0.473045 0.0146639
1 0.54078 0.0246281
1 0.600549 0.0580758
1 0.652857 0.107271
1 0.702037 0.143435
1 0.750835 0.175784
1 0.79884 0.211505
0.0227359 0.239368 0.0184787
0.0225376 0.24152 0.0183108
0.022385 0.243183 0.0181735
0.0222934 0.244266 0.0180819
0.0222324 0.245045 0.0180209
0.0221866 0.245472 0.0179904
0.0612497 0.245548 0.0179751
0.16817 0.245472 0.0184176
0.239826 0.244404 0.0189975
0.309712 0.241016 0.0198978
0.379477 0.23415 0.0211643
0.452003 0.223941 0.0228733
0.526207 0.208118 0.0252079
0.600809 0.180117 0.0288243
0.682002 0.121538 0.0355383
0.770718 0.0446479 0.044419
0.849287 0.0463722 0.0459144
0.921035 0.0479591 0.047303
0.98143 0.0493019 0.0484779
1 0.0504158 0.0494392
1 0.051194 0.0501259
1 0.107088 0.0445716
1 0.173602 0.0379492
1 0.273259 0.027863
1 0.364813 0.0186313
1 0.43592 0.0114443
1 0.503151 0.00474556
1 0.562829 0
1 0.617487 0.033875
1 0.665415 0.095613
1 0.712642 0.136355
1 0.75964 0.171328
1 0.806073 0.208392
0.0175326 0.296651 0.0137789
0.0173953 0.298253 0.0136568
0.0173037 0.299184 0.0135805
0.0172274 0.300099 0.0135042
0.0171664 0.30074 0.0134432
0.0171206 0.301183 0.0134127
0.0177005 0.301457 0.0133822
0.11696 0.30135 0.0134737
0.212879 0.300023 0.0140536
0.290806 0.297383 0.014847
0.366339 0.29308 0.0158846
0.443366 0.286519 0.0172274
0.521248 0.276722 0.0189822
0.596384 0.261677 0.0213474
0.673961 0.240024 0.024506
0.75729 0.207782 0.0288701
0.839536 0.160815 0.0347601
0.919692 0.0690166 0.0451972
0.981323 0.0493019 0.0484779
1 0.0930953 0.0450294
1 0.168429 0.038056
1 0.234668 0.0316014
1 0.300023 0.0251774
1 0.361852 0.0189364
1 0.421759 0.0128786
1 0.480507 0.0069276
1 0.536904 0.00120546
1 0.588785 0
1 0.636362 0.0277104
1 0.681208 0.0836805
1 0.72604 0.12636
1 0.770871 0.165377
1 0.81529 0.204303
0.0116884 0.359762 0.00848402
0.0116426 0.360265 0.0084535
0.0115969 0.360754 0.00840772
0.0115511 0.361151 0.0083772
0.0115358 0.36141 0.00834669
0.0115206 0.361486 0.00834669
0.0115358 0.361364 0.00836194
0.0131533 0.360937 0.0083772
0.161944 0.360021 0.00860609
0.261234 0.358618 0.00926223
0.346181 0.356008 0.0101167
0.429267 0.351675 0.0112306
0.513008 0.344884 0.0127108
0.591745 0.334737 0.0145876
0.669673 0.32285 0.0167391
0.750484 0.308186 0.0193027
0.82826 0.292485 0.0220188
0.899138 0.279088 0.0244755
0.957412 0.279072 0.0254673
1 0.294697 0.0247349
1 0.318608 0.0229038
1 0.353246 0.0196384
1 0.390356 0.0160525
1 0.435111 0.0115206
1 0.480659 0.00691234
1 0.528878 0.00202945
1 0.574395 0
1 0.618952 0
1 0.659236 0.0191653
1 0.700771 0.0653391
1 0.742809 0.111513
1 0.785046 0.157412
1 0.826917 0.198993
0.00552377 0.425055 0.00289921
0.00547799 0.425498 0.00285344
0.00543221 0.425971 0.00280766
0.00540169 0.426307 0.0027924
0.00538643 0.426566 0.00276188
0.00537118 0.426719 0.00274662
0.00537118 0.426764 0.00274662
0.00537118 0.426657 0.00276188
0.00779736 0.426154 0.0027924
0.209598 0.425299 0.00306706
0.31426 0.423972 0.00378424
0.406912 0.421393 0.00471504
0.498924 0.416938 0.00595102
0.583841 0.410452 0.00746166
0.664408 0.403143 0.00914015
0.745052 0.395392 0.0109407
0.820768 0.388876 0.0126497
0.889021 0.385733 0.0139773
0.945144 0.390448 0.014374
0.989975 0.403952 0.0137636
1 0.420874 0.0125582
1 0.445655 0.0102846
1 0.472618 0.00772107
1 0.507454 0.00419623
1 0.541604 0.000732433
1 0.57879 0
1 0.615778 0
1 0.650584 0
1 0.686961 0.00354009
1 0.724651 0.0291142
1 0.7635 0.0842603
1 0.802716 0.146487
1 0.841367 0.192035
0 0.500267 0
0 0.500694 0
0 0.501091 0
0 0.501427 0
0 0.501671 0
0 0.501854 0
0 0.502007 0
0 0.502068 0
0 0.501915 0
0.0611582 0.501213 0
0.258671 0.500648 0
0.37174 0.499336 0
0.475807 0.496925 0
0.569268 0.493019 0
0.654276 0.488075 0.000976577
0.737713 0.483375 0.00242618
0.813169 0.480873 0.00364691
0.879484 0.481865 0.00445563
0.933471 0.488518 0.00457771
0.976761 0.50071 0.00399786
1 0.514382 0.00306706
1 0.53257 0.00144961
1 0.551705 0
1 0.576547 0
1 0.601907 0
1 0.630106 0
1 0.657542 0
1 0.687724 0
1 0.719814 0
1 0.753445 0
1 0.788495 0.0476234
1 0.824109 0.131975
0.99855 0.858854 0.183139
0 0.581476 0
0 0.581827 0
0 0.582147 0
0 0.582406 0
0 0.582605 0
0 0.582788 0
0 0.582956 0
0 0.583093 0
0 0.58323 0
0 0.583291 0
0.128084 0.583001 0
0.312856 0.583047 0
0.439109 0.5823 0
0.545571 0.58027 0
0.636316 0.577401 0
0.72462 0.574563 0
0.80296 0.573236 0
0.868894 0.574624 0
0.921416 0.579843 0
0.963363 0.588617 0
0.992508 0.598337 0
1 0.611353 0
1 0.624811 0
1 0.641428 0
1 0.659449 0
1 0.681239 0
1 0.704524 0
1 0.730175 0
1 0.757946 0
1 0.787335 0
1 0.817945 0.0372778
0.999924 0.849042 0.114107
0.996246 0.879377 0.171969
0 0.661433 0
0 0.661692 0
0 0.661906 0
0 0.662089 0
0 0.662257 0
0 0.662394 0
0 0.662547 0
0 0.662699 0
0 0.662791 0
0 0.662837 0
0 0.662684 0
0.198154 0.662272 0
0.38204 0.661997 0
0.512184 0.660883 0
0.610986 0.658976 0
0.705562 0.656809 0
0.788815 0.65539 0
0.856657 0.655955 0
0.908782 0.659419 0
0.949676 0.665507 0
0.977874 0.672312 0
0.997955 0.681559 0
1 0.691539 0
1 0.705119 0
1 0.71957 0
1 0.737301 0
1 0.756451 0
1 0.777829 0
1 0.80119 0
1 0.826047 0
0.999008 0.851453 0.0247196
0.996262 0.87715 0.090959
0.993622 0.902663 0.15819
0 0.741817 0
0 0.74197 0
0 0.742107 0
0 0.742214 0
0 0.742306 0
0 0.742367 0
0 0.742443 0
0 0.742504 0
0 0.742519 0
0 0.742473 0
0 0.74226 0
0 0.741741 0
0.29218 0.740948 0
0.464073 0.740093 0
0.577829 0.738552 0
0.67924 0.736553 0
0.768246 0.734829 0
0.839353 0.734569 0
0.892714 0.736706 0
0.933669 0.741039 0
0.961334 0.746136 0
0.982071 0.753277 0
1 0.761013 0
1 0.771725 0
1 0.783154 0
1 0.797299 0
1 0.812619 0
1 0.82974 0
0.999863 0.848096 0
0.997253 0.867414 0
0.995026 0.887358 0.00885023
0.992844 0.907591 0.0606851
0.990768 0.928054 0.141436
0 0.82446 0
0 0.824521 0
0 0.824567 0
0 0.824613 0
0 0.824628 0
0 0.824643 0
0 0.824659 0
0 0.824628 0
0 0.824567 0
0 0.824414 0
0 0.824094 0
0 0.823484 0
0.0706035 0.822095 0
0.393011 0.821286 0
0.53608 0.819959 0
0.645563 0.818112 0
0.740261 0.816236 0
0.815 0.815351 0
0.870634 0.816297 0
0.912963 0.818982 0
0.941329 0.822416 0
0.962036 0.827558 0
0.981811 0.833188 0
0.99173 0.841077 0
0.999725 0.849454 0
0.998108 0.859586 0
0.996902 0.870512 0
0.99556 0.882658 0
0.994095 0.895857 0
0.992554 0.90985 0
0.990906 0.924498 0
0.989227 0.939788 0.0187839
0.987701 0.955032 0.118181
0 0.900267 0
0 0.900252 0
0 0.900236 0
0 0.900221 0
0 0.900191 0
0 0.900145 0
0 0.900084 0
0 0.899977 0
0 0.899794 0
0 0.899519 0
0 0.899046 0
0 0.898283 0
0 0.897063 0
0.298054 0.895354 0
0.490227 0.893996 0
0.6103 0.891966 0
0.709957 0.889769 0
0.787152 0.888228 0
0.845441 0.887907 0
0.889815 0.888823 0
0.919783 0.89041 0
0.941482 0.893294 0
0.962325 0.896498 0
0.977203 0.901503 0
0.989151 0.906874 0
0.990768 0.913542 0
0.991333 0.920806 0
0.990433 0.929 0
0.989395 0.938384 0
0.988327 0.948013 0
0.987167 0.958419 0
0.985977 0.96907 0
0.984771 0.980987 0.0936446
0 0.959121 0
0 0.95906 0
0 0.958984 0
0 0.958907 0
0 0.958816 0
0 0.958724 0
0 0.958602 0
0 0.958404 0
0 0.958129 0
0 0.957717 0
0 0.957092 0
0 0.95613 0
0 0.954787 0
0.19762 0.95259 0
0.450523 0.951019 0
0.583551 0.94873 0
0.686488 0.946181 0
0.764523 0.944106 0
0.823713 0.942946 0
0.869383 0.942657 0
0.90071 0.942977 0
0.923506 0.944289 0
0.945418 0.945815 0
0.961334 0.948684 0
0.975357 0.951843 0
0.982803 0.956039 0
0.986908 0.960754 0
0.986297 0.966217 0
0.985611 0.972457 0
0.984848 0.979294 0
0.983993 0.986954 0
0.983093 0.994873 0
0.982223 1 0.100435
0 1 0
0 1 0
0 1 0
0 1 0
0 1 0
0 1 0
0 1 0
0 1 0
0 1 0
0 1 0
0 1 0
0 0.999603 0
0 0.997665 0
0.133181 0.99527 0
0.428702 0.993515 0
0.568078 0.991073 0
0.671412 0.988327 0
0.748592 0.986007 0
0.807248 0.98439 0
0.853025 0.983429 0
0.884978 0.983047 0
0.908461 0.983429 0
0.931121 0.983963 0
0.947784 0.985534 0
0.963272 0.987335 0
0.974716 0.989975 0
0.981704 0.993042 0
0.982452 0.99675 0
0.982422 1 0
0.981888 1 0
0.981247 1 0
0.980606 1 0.0175631
0.980041 1 0.125765
0 1 0
0 1 0
0 1 0
0 1 0
0 1 0
0 1 0
0 1 0
0 1 0
0 1 0
0 1 0
0 1 0
0 1 0
0 1 0
0.130556 1 0
0.423545 1 0
0.561761 1 0
0.662806 1 0
0.737774 1 0
0.794965 1 0
0.84007 1 0
0.871977 1 0
0.895766 1 0
0.918776 1 0
0.936065 1 0
0.952483 1 0
0.965988 1 0
0.97525 1 0
0.978592 1 0
0.979736 1 0
0.979355 1 0
0.978897 1 0.00195315
0.9785 1 0.0651408
0.978149 1 0.15198
0 1 0
0 1 0
0 1 0
0 1 0
0 1 0
0 1 0
0 1 0
0 1 0
0 1 0
0 1 0
0 1 0
0 1 0
0 1 0
0.174563 1 0
0.429709 1 0
0.561944 1 0
0.659342 1 0
0.731624 1 0
0.78706 1 0
0.831159 1 0
0.862654 1 0
0.886412 1 0
0.909468 1 0
0.927169 1 0
0.944015 1 0
0.958007 1 0
0.968841 1 0
0.975296 1 0
0.977752 1 0
0.977493 1 0
0.977172 1 0.0161746
0.976959 1 0.0988022
0.97673 1 0.175891
0 1 0
0 1 0
0 1 0
0 1 0
0 1 0
0 1 0
0 1 0
0 1 0
0 1 0
0 1 0
0 1 0
0 1 0
0 1 0
0.239979 1 0
0.450324 1 0
0.570611 1 0
0.661906 1 0
0.730358 1 0
0.783383 1 0
0.825956 1 0
0.856641 1 0
0.879942 1 0
0.902586 1 0
0.920378 1 0
0.937377 1 0
0.951644 1 0
0.963607 1 0
0.972381 1 0
0.975937 1 0
0.975952 1 0
0.975769 1 0.0294499
0.975692 1 0.1299
0.97554 1 0.198688
0 1 0
0 1 0
0 1 0
0 1 0
0 1 0
0 1 0
0 1 0
0 1 0
0 1 0
0 1 0
0 1 0
0 1 0
0 1 0
0.307652 1 0
0.47332 1 0
0.581018 1 0
0.665629 1 0
0.729915 1 0
0.780331 1 0
0.821256 1 0
0.851026 1 0
0.873793 1 0
0.895949 1 0
0.913771 1 0
0.930846 1 0
0.945373 1 0
0.958389 1 0
0.96936 1 0
0.974029 1 0
0.974426 1 0
0.97438 1 0.0446937
0.974426 1 0.160922
0.97435 1 0.22208
0 1 0
0 1 0
0 1 0
0 1 0
0 1 0
0 1 0
0 1 0
0 1 0
0 1 0
0 1 0
0 1 0
0 1 0
0.138247 1 0
0.377249 1 0
0.50312 1 0
0.598047 1 0
0.674464 1 0
0.733425 1 0
0.780591 1 0
0.819348 1 0
0.847807 1 0
0.869688 1 0
0.891051 1 0
0.908568 1 0
0.925399 1 0
0.93991 1 0
0.952972 1 0
0.964111 1 0
0.970108 1 0
0.972686 1 0.0282292
0.973251 1 0.108492
0.973342 1 0.193957
0.973312 1 0.247471
0 1 0
0 1 0
0 1 0
0 1 0
0 1 0
0 1 0
0 1 0
0 1 0
0 1 0
0 1 0
0 1 0
0 1 0
0.301976 1 0
0.439933 1 0
0.534005 1 0
0.616037 1 0
0.684169 1 0
0.737713 1 0
0.781552 1 0
0.818082 1 0
0.845121 1 0
0.866087 1 0
0.886595 1 0
0.903746 1 0
0.920272 1 0
0.934707 1 0
0.947768 1 0
0.95903 1 0
0.966339 1 0.0145113
0.97113 1 0.100282
0.972198 1 0.166705
0.97229 1 0.226719
0.97232 1 0.275074
0 1 0
0 1 0
0 1 0
0 1 0
0 1 0
0 1 0
0 1 0
0 1 0
0 1 0
0.0966049 1 0
0.179614 1 0
0.245869 1 0
0.404486 1 0
0.494438 1 0
0.5682 1 0
0.637644 1 0
0.697108 1 0
0.744839 1 0
0.785061 1 0
0.819028 1 0
0.844343 1 0
0.864179 1 0
0.883635 1 0
0.900282 1 0
0.91632 1 0
0.930434 1 0
0.943297 1 0
0.954543 1 0.0213016
0.963058 1 0.0853132
0.969787 1 0.155123
0.971283 1 0.209857
0.971389 1 0.260075
0.97145 1 0.302174
0.0245518 1 0
0.0289769 1 0
0.0331884 1 0
0.0371405 1 0
0.0408637 1 0
0.0445411 1 0
0.049012 1 0
0.0545205 1 0
0.061265 1 0
0.245655 1 0
0.341985 1 0
0.41854 1 0
0.48397 1 0
0.543404 1 0
0.60206 1 0
0.659876 1 0
0.710918 1 0
0.75314 1 0
0.789715 1 0
0.820996 1 0
0.84448 1 0
0.863127 1 0
0.881468 1 0
0.897505 1 0
0.913008 1 0
0.926726 1 0
0.939345 1 0.0203098
0.950561 1 0.0902571
0.959899 1 0.151186
0.968017 1 0.205646
0.970092 1 0.250843
0.97055 1 0.292271
0.970642 1 0.33164
0.233433 1 0
0.247562 1 0
0.260929 1 0
0.27306 1 0
0.284443 1 0
0.295674 1 0
0.309316 1 0
0.326177 1 0
0.346914 1 0
