BBLuts/BB_103_0695_LUT.cube
TITLE "Generated by Resolve"
LUT_3D_SIZE 33
0.000701915 0 0
0.000701915 0 0
0.000701915 0 0
0.000701915 0 0
0.000701915 0 0
0.0226291 0 0
0.0528267 0 0
0.0771038 0 0
0.103838 0 0
0.139528 0 0
0.187366 0 0
0.246799 0 0
0.319539 0 0
0.401266 0 0
0.495247 0 0
0.588754 0 0
0.672877 0 0
0.745281 0 0
0.805066 0 0
0.852186 0 0
0.86128 0 0
0.861601 0 0
0.839246 0.136782 0.0539254
0.823209 0.374701 0.155383
0.801068 0.540276 0.206867
0.7823 0.674189 0.264149
0.762722 0.784085 0.334157
0.747387 0.864027 0.451026
0.735973 0.915709 0.593072
0.728008 0.951156 0.725216
0.721691 0.976226 0.847791
0.716869 0.995315 0.951553
0.713741 1 1
0.000701915 0 0
0.000701915 0 0
0.000701915 0 0
0.000701915 0 0
0.000701915 0 0
0.0283818 0 0
0.0550851 0 0
0.079118 0 0
0.107332 0 0
0.144228 0 0
0.192798 0 0
0.252018 0 0
0.322881 0 0
0.403479 0 0
0.497078 0 0
0.589914 0 0
0.673487 0 0
0.745525 0 0
0.80499 0 0
0.851881 0 0
0.861265 0 0
0.861601 0 0
0.83856 0.180331 0.0456397
0.820691 0.393835 0.148363
0.799756 0.551385 0.203433
0.781201 0.68101 0.261616
0.762036 0.788266 0.331304
0.747112 0.866224 0.449485
0.735851 0.916808 0.592325
0.727962 0.951766 0.724804
0.72166 0.976547 0.847578
0.716838 0.995514 0.951431
0.713726 1 1
0.000701915 0 0
0.000701915 0 0
0.000701915 0 0
0.000701915 0 0
0.000701915 0 0
0.0318914 0 0
0.0558633 0 0
0.0810407 0 0
0.11104 0 0
0.148669 0 0
0.196963 0 0
0.254826 0 0
0.325643 0 0
0.405829 0 0
0.498939 0 0
0.591028 0 0
0.674083 0 0
0.745754 0 0
0.804913 0 0
0.851545 0 0
0.861265 0 0
0.861601 0 0
0.838483 0.217395 0.00578317
0.81825 0.411917 0.140307
0.798444 0.562097 0.199802
0.780133 0.687648 0.259068
0.761379 0.79234 0.328573
0.746838 0.868345 0.447913
0.735744 0.917906 0.591592
0.727901 0.952392 0.724392
0.72163 0.976883 0.847333
0.716823 0.995712 0.951308
0.71371 1 1
0.000701915 0 0
0.000701915 0 0
0.000701915 0 0
0 0 0
0.00894179 0 0
0.0346227 0 0
0.0562142 0 0
0.0812085 0 0
0.111666 0 0
0.150484 0 0
0.19968 0 0
0.257374 0 0
0.328313 0 0
0.408225 0 0
0.500816 0 0
0.592187 0 0
0.674678 0 0
0.745968 0 0
0.804791 0 0
0.851179 0 0
0.861265 0 0
0.861601 0 0
0.836576 0.249592 0.0176852
0.816022 0.428229 0.131197
0.797131 0.572442 0.195972
0.779065 0.694133 0.256504
0.760723 0.796292 0.327123
0.746563 0.870451 0.446387
0.735637 0.91899 0.590845
0.72784 0.952987 0.72398
0.721599 0.977218 0.84712
0.716808 0.995911 0.951186
0.71371 1 1
0 0.0220798 0
0 0.0246738 0
0 0.0271763 0
0 0.029572 0
0 0.0305028 0
0.0135653 0.0346685 0
0.0368963 0.0350805 0
0.063798 0.0321965 0
0.0984054 0.0224308 0
0.151293 0 0
0.201266 0 0
0.259693 0 0
0.330785 0 0
0.410636 0 0
0.502754 0 0
0.593347 0 0
0.675258 0 0
0.746166 0 0
0.804669 0 0
0.850828 0 0
0.861265 0 0
0.855161 0.00178531 0
0.834592 0.278553 0.0255283
0.813901 0.443763 0.120363
0.79585 0.582437 0.191928
0.778027 0.700465 0.253925
0.760098 0.800122 0.325704
0.746303 0.872511 0.444892
0.735515 0.920043 0.590112
0.727794 0.953597 0.723552
0.721569 0.977539 0.846891
0.716793 0.996109 0.951049
0.713695 1 1
0 0.0502937 0
0 0.0523232 0
0 0.0542916 0
0 0.0558633 0
0 0.056611 0
0 0.0599832 0
0.0261387 0.0626993 0
0.0535744 0.0628977 0
0.0868238 0.0602121 0
0.130144 0.0523079 0
0.185153 0.0345922 0
0.261814 0 0
0.333211 0 0
0.413214 0 0
0.504799 0 0
0.594583 0 0
0.675868 0 0
0.746365 0 0
0.804547 0 0
0.850431 0 0
0.861265 0 0
0.843503 0.101457 0
0.832303 0.305974 0.0309606
0.81181 0.459312 0.105943
0.794507 0.592538 0.187457
0.776959 0.70692 0.251209
0.759457 0.804028 0.324254
0.746044 0.874601 0.44329
0.735409 0.921157 0.589349
0.727733 0.954208 0.72314
0.721538 0.977874 0.846647
0.716777 0.996323 0.950912
0.71368 1 1
0 0.0796826 0
0 0.0813764 0
0 0.0830549 0
0 0.0839857 0
0 0.084596 0
0 0.0848096 0
0.0116884 0.0906996 0
0.042359 0.092668 0
0.0767834 0.0923629 0
0.120623 0.0886244 0
0.174289 0.0792401 0
0.239033 0.0623941 0
0.318486 0.0307164 0
0.416587 0 0
0.507454 0 0
0.596185 0 0
0.676661 0 0
0.746624 0 0
0.804349 0 0
0.849897 0 0
0.861265 0 0
0.841199 0.166735 0
0.829068 0.337667 0.0349432
0.809476 0.478401 0.0729534
0.792798 0.605051 0.181338
0.775616 0.714977 0.247715
0.758679 0.808911 0.322469
0.745708 0.877241 0.441291
0.735271 0.922545 0.588403
0.727672 0.955001 0.722591
0.721508 0.978317 0.846357
0.716747 0.996597 0.950744
0.713664 1 1
0 0.11342 0
0 0.114931 0
0 0.116045 0
0 0.116793 0
0 0.117327 0
0 0.117617 0
0 0.119829 0
0.0260929 0.126177 0
0.0636759 0.127871 0
0.108782 0.126192 0
0.163958 0.119936 0
0.230838 0.10869 0
0.308293 0.0912337 0
0.394553 0.0635996 0
0.498848 0.00801099 0
0.598383 0 0
0.677729 0 0
0.746975 0 0
0.804074 0 0
0.849134 0 0
0.845975 0.0518044 0
0.837736 0.230335 0.0111086
0.824445 0.374807 0.0368353
0.80679 0.502556 0.0367132
0.7906 0.620844 0.172595
0.773907 0.725277 0.243061
0.757702 0.815106 0.320195
0.745296 0.880629 0.438666
0.735088 0.924331 0.587121
0.727581 0.956039 0.721843
0.721462 0.978882 0.84596
0.716716 0.996933 0.95053
0.713649 1 1
0 0.154284 0
0 0.155489 0
0 0.156161 0
0 0.156847 0
0 0.157321 0
0 0.157641 0
0 0.157855 0
0 0.164858 0
0.0434577 0.168978 0
0.0913558 0.169238 0
0.149508 0.16585 0
0.220371 0.157946 0
0.301793 0.145296 0
0.389166 0.12752 0
0.483436 0.10341 0
0.574716 0.0719463 0
0.662348 0.0274052 0
0.747524 0 0
0.803662 0 0
0.831754 0.0577554 0
0.840436 0.17763 0
0.833051 0.297642 0.0294957
0.818479 0.418112 0.0370642
0.803082 0.531777 0.0372168
0.787793 0.640314 0.159747
0.771725 0.738247 0.236851
0.756497 0.822904 0.317327
0.744793 0.884916 0.435248
0.734874 0.926665 0.585428
0.727459 0.957366 0.720897
0.721401 0.979629 0.845441
0.716686 0.997391 0.95021
0.713619 1 1
0 0.203662 0
0 0.204059 0
0 0.204456 0
0 0.204776 0
0 0.20499 0
0 0.205035 0
0 0.204929 0
0 0.204578 0
0.0105898 0.215961 0
0.0659648 0.220401 0
0.128038 0.220295 0
0.203937 0.215518 0
0.291615 0.206195 0
0.384222 0.193194 0
0.479912 0.178058 0
0.56878 0.162127 0
0.650065 0.148425 0
0.72137 0.140749 0
0.779263 0.153475 0
0.823728 0.201038 0
0.83447 0.275517 0.0249638
0.825406 0.367681 0.0366979
0.811749 0.465827 0.0367285
0.798917 0.566262 0.0382849
0.784329 0.663417 0.139147
0.769024 0.75436 0.22858
0.755047 0.832563 0.313832
0.744167 0.890272 0.430823
0.7346 0.929625 0.583185
0.727321 0.959075 0.719646
0.721325 0.980606 0.844739
0.716625 0.997986 0.949828
0.713588 1 1
0 0.261036 0
0 0.261448 0
0 0.261891 0
0 0.262196 0
0 0.26244 0
0 0.262592 0
0 0.262638 0
0 0.262531 0
0 0.262181 0
0.0272831 0.280476 0
0.0960403 0.285328 0
0.178027 0.284688 0
0.273869 0.27924 0
0.374197 0.271046 0
0.47422 0.261479 0
0.563912 0.253391 0
0.644282 0.25008 0
0.714412 0.254124 0
0.770382 0.272099 0.000823987
0.813062 0.312032 0.0263523
0.824781 0.369711 0.0368963
0.815396 0.439841 0.0369421
0.80444 0.520729 0.0369421
0.793683 0.606424 0.0383459
0.780285 0.691539 0.0961166
0.765774 0.773938 0.217563
0.753338 0.844251 0.309651
0.74345 0.896864 0.425147
0.734249 0.933364 0.580148
0.727138 0.961257 0.718013
0.721218 0.981842 0.843824
0.716564 0.998764 0.94931
0.713542 1 1
0 0.333928 0
0 0.334386 0
0 0.334798 0
0 0.335134 0
0 0.335378 0
0 0.335592 0
0 0.335744 0
0 0.33579 0
0 0.335637 0
0 0.341222 0
0.0470741 0.362982 0
0.138094 0.368414 0
0.243839 0.36791 0
0.353719 0.364416 0
0.46041 0.359014 0
0.553948 0.355337 0
0.634424 0.357137 0
0.70222 0.365805 0
0.755795 0.385321 0.0148928
0.796201 0.41825 0.0302739
0.812085 0.460975 0.0369116
0.805097 0.515633 0.0368505
0.797086 0.580667 0.038468
0.787228 0.652003 0.0368811
0.776013 0.725414 0.0319677
0.762097 0.79704 0.203296
0.7514 0.858152 0.304799
0.742473 0.904677 0.424125
0.733837 0.938064 0.576135
0.726909 0.964019 0.715846
0.721096 0.983444 0.842603
0.716472 0.999771 0.948623
0.713497 1 1
0 0.424292 0
0 0.424704 0
0 0.425086 0
0 0.425376 0
0 0.42562 0
0 0.425834 0
0 0.426032 0
0 0.426184 0
0 0.426337 0
0 0.42649 0
0 0.443137 0
0.0787213 0.464286 0
0.198657 0.469444 0
0.320256 0.469291 0
0.435279 0.466667 0
0.535119 0.464607 0
0.618647 0.46685 0
0.685802 0.475029 0
0.737926 0.491646 0.0123598
0.7776 0.517983 0.0284733
0.800259 0.552239 0.0380713
0.795377 0.593774 0.038468
0.788266 0.644938 0.0372168
0.779675 0.701793 0.0337682
0.770047 0.763684 0.0287022
0.758282 0.822995 0.185595
0.749279 0.874144 0.299504
0.741375 0.913832 0.423529
0.733364 0.943816 0.570916
0.726635 0.967453 0.713039
0.720928 0.985489 0.841001
0.716381 1 0.947723
0.71342 1 1
0 0.52842 0
0 0.528756 0
0 0.529061 0
0 0.52929 0
0 0.529519 0
0 0.529717 0
0 0.529915 0
0 0.530114 0
0 0.530251 0
0 0.530297 0
0 0.530236 0
0 0.558663 0
0.137057 0.573587 0
0.276127 0.575158 0
0.400626 0.573632 0
0.509743 0.572 0
0.599954 0.574197 0
0.669703 0.58117 0
0.721263 0.594751 0.0135805
0.759747 0.615045 0.0281987
0.788342 0.641749 0.0374914
0.784237 0.671916 0.0357824
0.778317 0.710567 0.0330968
0.771267 0.755901 0.0293736
0.76379 0.805219 0.0255436
0.754604 0.851057 0.163241
0.747082 0.891859 0.294316
0.740139 0.924437 0.423529
0.732799 0.950698 0.565087
0.726314 0.971633 0.709377
0.720729 0.988052 0.838895
0.716243 1 0.946517
0.713329 1 1
0 0.633829 0
0 0.634012 0
0 0.63418 0
0 0.634302 0
0 0.634424 0
0 0.634501 0
0 0.634592 0
0 0.634668 0
0 0.634684 0
0 0.634623 0
0 0.634363 0
0 0.633875 0
0.0515908 0.669886 0
0.219394 0.676738 0
0.357198 0.677195 0
0.477256 0.676036 0
0.575708 0.677272 0
0.649653 0.682139 0
0.702052 0.691829 0.00953689
0.739605 0.706386 0.0222782
0.769177 0.725841 0.030396
0.772045 0.748943 0.0301518
0.767895 0.7776 0.0275273
0.762936 0.811109 0.0251926
0.758144 0.846647 0.0238804
0.751385 0.88011 0.134325
0.744915 0.910613 0.290135
0.738796 0.936507 0.424491
0.731914 0.958495 0.567452
0.725948 0.976638 0.704692
0.72047 0.991684 0.836088
0.716075 1 0.944945
0.713222 1 1
0 0.732967 0
0 0.733043 0
0 0.733104 0
0 0.73315 0
0 0.733181 0
0 0.733196 0
0 0.733211 0
0 0.733181 0
0 0.733104 0
0 0.732906 0
0 0.732525 0
0 0.731792 0
0 0.742535 0
0.14696 0.773632 0
0.307942 0.77557 0
0.440269 0.77406 0
0.547082 0.773678 0
0.625864 0.776364 0
0.680125 0.782666 0.00468452
0.718227 0.792309 0.0155642
0.746914 0.805402 0.0224002
0.761166 0.821439 0.0248569
0.758999 0.840024 0.024033
0.756252 0.861814 0.0237125
0.753475 0.885695 0.0240024
0.749065 0.908766 0.0939651
0.742885 0.929763 0.288426
0.737331 0.949783 0.427237
0.730907 0.967315 0.571221
0.725505 0.982406 0.700023
0.720195 0.99559 0.832395
0.715862 1 0.94284
0.713069 1 1
0 0.827207 0
0 0.827176 0
0 0.827161 0
0 0.827131 0
0 0.8271 0
0 0.827054 0
0 0.826963 0
0 0.826841 0
0 0.826627 0
0 0.826307 0
0 0.825742 0
0 0.824857 0
0 0.823529 0
0.061799 0.859144 0
0.256718 0.863554 0
0.402991 0.86096 0
0.518074 0.857893 0
0.601709 0.857816 0
0.658457 0.860533 0.00630198
0.69836 0.865309 0.0145418
0.728115 0.87219 0.0202029
0.749615 0.881437 0.0236515
0.752468 0.892363 0.0243687
0.751385 0.905394 0.0247501
0.74992 0.920256 0.0256504
0.748455 0.936355 0.0268864
0.740887 0.949248 0.29041
0.735363 0.96379 0.432898
0.729793 0.976867 0.577035
0.724727 0.988769 0.704601
0.719875 1 0.827573
0.715618 1 0.940093
0.712886 1 1
0 0.902251 0
0 0.902174 0
0 0.902083 0
0 0.901991 0
0 0.901884 0
0 0.901778 0
0 0.90161 0
0 0.901396 0
0 0.901061 0
0 0.900587 0
0 0.89987 0
0 0.898802 0
0 0.897322 0
0 0.921492 0.0162356
0.21828 0.932204 0.0311589
0.374838 0.927535 0.0204318
0.496101 0.921614 0.00970474
0.582132 0.918944 0.00888075
0.640375 0.918975 0.0137179
0.682017 0.920516 0.0189212
0.713039 0.923339 0.0228733
0.735561 0.927672 0.0254368
0.748379 0.933455 0.0267948
0.748043 0.94081 0.0272221
0.747234 0.950057 0.0280308
0.745556 0.96025 0.0532998
0.738918 0.968215 0.29897
0.73373 0.977844 0.443046
0.728573 0.986786 0.585718
0.723812 0.996384 0.71104
0.719341 1 0.827665
0.715343 1 0.936492
0.712688 1 1
0 0.957321 0.0103304
0 0.957183 0.0102235
0 0.957046 0.010132
0 0.956909 0.0100252
0 0.956756 0.00991836
0 0.956588 0.00979629
0 0.956374 0.0096437
0 0.956069 0.00943008
0 0.955657 0.0091249
0 0.955062 0.00869764
0 0.954208 0.00808728
0 0.953063 0.00726329
0 0.951507 0.00613413
0 0.966888 0.0365454
0.20502 0.981567 0.055787
0.3635 0.974975 0.0411688
0.484352 0.967224 0.0264744
0.569177 0.962798 0.0209812
0.626764 0.961181 0.0218662
0.66891 0.960937 0.024506
0.700648 0.961654 0.0268864
0.724056 0.963439 0.0285496
0.742412 0.9664 0.029633
0.745235 0.970596 0.0301366
0.745052 0.976104 0.0305028
0.741588 0.980652 0.136324
0.736889 0.985626 0.316991
0.731975 0.991608 0.459525
0.727184 0.997467 0.597559
0.722774 1 0.719921
0.718578 1 0.834043
0.715007 1 0.933349
0.712428 1 1
0 0.999146 0.0382239
0 0.998978 0.038117
0 0.99881 0.0380102
0 0.998627 0.0378882
0 0.998444 0.0377813
0 0.99826 0.0376745
0 0.998001 0.0375067
0 0.99765 0.0372625
0 0.997162 0.0369726
0 0.996521 0.0365606
0 0.995666 0.0360113
0 0.994522 0.0352789
0 0.993011 0.0343023
0.00723278 1 0.0718242
0.222065 1 0.0707713
0.369985 1 0.0536202
0.482277 1 0.0373846
0.56199 0.99585 0.029633
0.617075 0.993301 0.0282139
0.65832 0.992081 0.0291905
0.689921 0.991653 0.0305333
0.714 0.991943 0.0315404
0.733181 0.99295 0.0321813
0.743221 0.994904 0.0325017
0.743267 0.998245 0.032639
0.738582 0.998901 0.198871
0.734295 1 0.34696
0.730053 1 0.48365
0.725643 1 0.614237
0.721599 1 0.732067
0.717708 1 0.842573
0.714412 1 0.938888
0.712139 1 1
0 1 0.0557412
0 1 0.0556344
0 1 0.0555123
0 1 0.0554208
0 1 0.0552987
0 1 0.0551766
0 1 0.055024
0 1 0.0548257
0 1 0.054551
0 1 0.0541848
0 1 0.053727
0 1 0.0530861
0 1 0.0522621
0.106935 1 0.0902266
0.269764 1 0.075639
0.395605 1 0.0576638
0.491157 1 0.0424811
0.561654 1 0.0347601
0.612253 1 0.0324559
0.651392 1 0.032517
0.681682 1 0.0332036
0.705699 1 0.0337987
0.725322 1 0.034165
0.740505 1 0.034287
0.741039 1 0.0344091
0.735302 1 0.262028
0.731838 1 0.389883
0.727916 1 0.516823
0.723964 1 0.636881
0.720287 1 0.748455
0.716731 1 0.853697
0.713741 1 0.946166
0.711711 1 1
0 1 0.0671855
0 1 0.0670939
0 1 0.0670024
0 1 0.0669108
0 1 0.066804
0 1 0.0667124
0 1 0.0665751
0 1 0.066392
0 1 0.0661631
0 1 0.0658732
0 1 0.0654612
0 1 0.0649424
0.0872816 1 0.0989395
0.224994 1 0.0874952
0.33724 1 0.0720989
0.432105 1 0.0559243
0.508309 1 0.0438239
0.566812 1 0.0374456
0.611582 1 0.0350958
0.647471 1 0.0347143
0.675715 1 0.0350042
0.698863 1 0.0353552
0.718288 1 0.0355688
0.733761 1 0.035584
0.735088 1 0.205646
0.73228 1 0.33228
0.729061 1 0.446281
0.725536 1 0.560021
0.722133 1 0.666575
0.718822 1 0.770108
0.715648 1 0.868132
0.712978 1 0.955566
0.711223 1 1
0 1 0.0746624
0 1 0.0745861
0 1 0.0744945
0 1 0.0744182
0 1 0.0743267
0 1 0.0742504
0 1 0.0741436
0 1 0.0740063
0 1 0.0738079
0.0125582 1 0.101961
0.0955215 1 0.104173
0.178286 1 0.0974899
0.258732 1 0.0870985
0.3364 1 0.0754711
0.409812 1 0.062623
0.474968 1 0.0510414
0.531044 1 0.0429236
0.576791 1 0.038407
0.614908 1 0.0364843
0.646555 1 0.0360113
0.672145 1 0.0361181
0.693996 1 0.0363165
0.712596 1 0.0364385
0.723644 1 0.190906
0.731426 1 0.30811
0.729015 1 0.411215
0.726024 1 0.51313
0.723018 1 0.611032
0.72015 1 0.70425
0.717235 1 0.797787
0.714443 1 0.886961
0.712169 1 0.967453
0.710689 1 1
0.116411 1 0.106401
0.131991 1 0.10515
0.146838 1 0.103777
0.160952 1 0.102312
0.174441 1 0.100801
0.187869 1 0.0992142
0.204227 1 0.0971695
0.223423 1 0.0944686
0.247028 1 0.0910964
0.275929 1 0.0869917
0.309163 1 0.0819104
0.346929 1 0.0755627
0.388647 1 0.0680858
0.431754 1 0.0599832
0.47567 1 0.0521553
0.51783 1 0.0456855
0.556146 1 0.0410925
0.590845 1 0.0383154
0.621729 1 0.0370336
0.648386 1 0.0366522
0.668025 1 0.138323
0.686549 1 0.203876
0.702708 1 0.25684
0.715541 1 0.327443
0.725628 1 0.409522
0.725246 1 0.496696
0.722927 1 0.585138
0.720439 1 0.667384
0.717998 1 0.749508
0.715511 1 0.831983
0.713161 1 0.910658
0.71133 1 0.982162
0.71014 1 1
0.357122 1 0.316747
0.362737 1 0.316197
0.368185 1 0.315679
0.37351 1 0.315175
0.378698 1 0.314672
0.383963 1 0.314214
0.390555 1 0.313603
0.398733 1 0.312886
0.408804 1 0.312001
0.421332 1 0.310994
0.436667 1 0.309895
0.454917 1 0.308858
0.475929 1 0.308125
0.499199 1 0.308049
0.523873 1 0.309102
0.549264 1 0.311757
0.575006 1 0.316518
0.600046 1 0.323949
0.623484 1 0.334585
0.644434 1 0.348989
0.663462 1 0.368246
0.68072 1 0.392508
0.695689 1 0.422507
0.708293 1 0.459434
0.718334 1 0.517037
0.721706 1 0.586404
0.719951 1 0.655985
0.717906 1 0.728038
0.715801 1 0.800473
0.713726 1 0.870924
0.711879 1 0.939147
0.710491 1 0.999741
0.709606 1 1
0.480674 1 0.494682
0.483009 1 0.494606
0.485283 1 0.494545
0.487511 1 0.494484
0.489708 1 0.494453
0.491951 1 0.494392
0.494774 1 0.494377
0.49839 1 0.494347
0.502998 1 0.494331
0.508782 1 0.494377
0.515908 1 0.494484
0.524666 1 0.494774
0.535256 1 0.495293
0.547723 1 0.496208
0.56199 1 0.497734
0.577844 1 0.50016
0.594766 1 0.503761
0.612131 1 0.508949
0.629175 1 0.516075
0.64564 1 0.525628
0.661646 1 0.538094
0.676631 1 0.554116
0.689998 1 0.574411
0.701762 1 0.59884
0.711864 1 0.628168
0.718379 1 0.673976
0.717128 1 0.730358
0.715419 1 0.791409
0.713649 1 0.85388
0.712016 1 0.913939
0.710658 1 0.970504
0.709697 1 1
0.709072 1 1
0.549035 1 0.651545
0.550118 1 0.651591
0.551202 1 0.651652
0.552254 1 0.651713
0.553307 1 0.651774
0.554376 1 0.65185
0.555749 1 0.651926
0.557534 1 0.652033
0.559838 1 0.652201
0.562783 1 0.65243
0.566506 1 0.65275
0.571206 1 0.653178
0.576974 1 0.653819
0.583978 1 0.654719
0.592523 1 0.65626
0.602075 1 0.657984
0.612711 1 0.66041
0.624094 1 0.663722
0.636301 1 0.668147
0.649073 1 0.674037
0.662013 1 0.681819
0.674571 1 0.691981
0.686183 1 0.705028
0.696864 1 0.721553
0.706249 1 0.742245
0.713985 1 0.767788
0.714061 1 0.808042
0.713024 1 0.856382
0.711696 1 0.90692
0.710506 1 0.957321
0.709606 1 1
0.70898 1 1
0.708598 1 1
0.592264 1 0.786877
0.592813 1 0.786954
0.593347 1 0.787015
0.593881 1 0.787091
0.594415 1 0.787137
0.594965 1 0.787213
0.595666 1 0.78732
0.596582 1 0.787427
0.597772 1 0.78761
