BBLuts/BB_102_0310_LUT.cube
TITLE "Generated by Resolve"
LUT_3D_SIZE 33
0 0 0
0 0 0
0 0 0
0 0 0
0.00314336 0 0
0.0733196 0 0.00120546
0.159136 0 0.000656138
0.225437 0 0
0.294087 0 0
0.374716 0 0
0.467262 0 0
0.568505 0 0
0.655848 0 0
0.717876 0 0
0.7906 0 0
0.870222 0 0
0.953475 0 0
1 0 0
1 0 0
1 0 0
1 0 0
1 0 0
0.902068 0.414328 0
1 0.568658 0
1 0.636347 0.012604
1 0.709972 0.107073
1 0.77792 0.212314
1 0.830716 0.342153
1 0.869871 0.482429
1 0.900465 0.561349
1 0.923156 0.635843
1 0.940963 0.709895
1 0.954787 0.776043
0 0 0
0 0 0
0 0 0
0 0 0
0.00376898 0 0
0.0890364 0 0.00129702
0.164569 0 0.000518807
0.230304 0 0
0.301549 0 0
0.383841 0 0
0.476631 0 0
0.574701 0 0
0.657374 0 0
0.719173 0 0
0.791791 0 0
0.871031 0 0
0.954162 0 0
1 0 0
1 0 0
1 0 0
1 0 0
1 0 0
0.880781 0.456611 0
1 0.568673 0
1 0.640497 0.00753796
1 0.713268 0.102983
1 0.779706 0.211398
1 0.831647 0.341878
1 0.870359 0.482048
1 0.90071 0.561181
1 0.923262 0.635767
1 0.941024 0.70985
1 0.954818 0.776028
0 0 0
0 0 0
0 0 0
0 0 0
0.00389105 0 0
0.0975052 0 0.0011902
0.16527 0 0.00047303
0.234104 0 0
0.30898 0 0
0.389609 0 0
0.48043 0 0
0.576196 0 0
0.659327 0 0
0.720821 0 0
0.792981 0 0
0.87216 0 0
0.954543 0 0
1 0 0
1 0 0
1 0 0
1 0 0
1 0.0643626 0
0.87837 0.490715 0
1 0.572519 0
1 0.644617 0.00170901
1 0.716243 0.100008
1 0.781247 0.209781
1 0.832502 0.341619
1 0.870802 0.481666
1 0.900954 0.561028
1 0.9234 0.635676
1 0.941115 0.709789
1 0.954864 0.775998
0 0 0
0 0 0
0 0 0
0 0 0
0.021912 0.00766003 0
0.0992447 0 0.00115969
0.161486 0 0.000747692
0.230304 0 0
0.306615 0 0
0.391348 0 0
0.483986 0 0
0.578927 0 0
0.661402 0 0
0.722377 0 0
0.794293 0 0
0.872984 0 0
0.955169 0 0
1 0 0
1 0 0
1 0 0
1 0 0
1 0.174334 0
0.893858 0.511696 0
1 0.576364 0
1 0.648585 0
1 0.718959 0.0974136
1 0.782849 0.208713
1 0.833341 0.341344
1 0.87126 0.4813
1 0.901198 0.560876
1 0.923522 0.635569
1 0.941161 0.709743
1 0.95491 0.775982
0 0.0733196 0
0 0.0781567 0
0 0.0823987 0
0 0.0868696 0
0 0.088777 0
0.0634012 0.0899214 0
0.13228 0.0858778 0
0.160357 0.0935836 0
0.281132 0.0582895 0
0.390402 0 0
0.485786 0 0
0.582147 0 0
0.663401 0 0
0.724041 0 0
0.795956 0 0
0.874159 0 0
0.955749 0 0
1 0 0
1 0 0
1 0 0
1 0 0
1 0.258412 0
0.925917 0.524056 0
1 0.582254 0
1 0.652766 0
1 0.721538 0.093904
1 0.784314 0.207919
1 0.83415 0.341115
1 0.871672 0.480858
1 0.901427 0.560754
1 0.923644 0.635493
1 0.941238 0.709682
1 0.95494 0.775952
0 0.125872 0
0 0.12961 0
0 0.133623 0
0 0.136736 0
0 0.138323 0
0.0254978 0.140444 0
0.108721 0.138994 0
0.186526 0.134188 0
0.218845 0.1449 0
0.303685 0.132952 0
0.460197 0.0803998 0
0.580087 0 0
0.663661 0 0
0.726177 0 0
0.797528 0 0
0.875151 0 0
0.956527 0 0
1 0 0
1 0 0
1 0 0
1 0 0
0.97258 0.34023 0
0.96202 0.530007 0
1 0.587549 0
1 0.656901 0
1 0.724453 0.090135
1 0.785992 0.206882
1 0.834928 0.340871
1 0.872038 0.480385
1 0.901656 0.560632
1 0.923781 0.635401
1 0.941314 0.709636
1 0.954971 0.775906
0 0.18117 0
0 0.183963 0
0 0.186984 0
0 0.188937 0
0 0.190326 0
0 0.190768 0
0.0682994 0.192782 0
0.161913 0.189929 0
0.25153 0.184024 0
0.305074 0.19028 0
0.35494 0.193469 0
0.506249 0.150744 0
0.640726 0.08748 0
0.723354 0 0
0.797559 0 0
0.87686 0 0
0.957122 0 0
1 0 0
1 0 0
1 0 0
1 0.0713512 0
0.905974 0.408927 0
1 0.534936 0
1 0.594064 0
1 0.661387 0
1 0.727687 0.086244
1 0.788006 0.205478
1 0.835966 0.340932
1 0.872496 0.479881
1 0.901915 0.560479
1 0.923934 0.635294
1 0.941375 0.709575
1 0.955016 0.775876
0 0.24329 0
0 0.245716 0
0 0.247776 0
0 0.249363 0
0 0.250324 0
0 0.251179 0
0 0.252796 0
0.117037 0.252827 0
0.223728 0.247974 0
0.326772 0.240314 0
0.406104 0.237293 0
0.424384 0.2542 0
0.511589 0.232242 0
0.647242 0.171557 0
0.776287 0.0814221 0
0.871382 0 0
0.953887 0 0
1 0 0
1 0 0
1 0.0125887 0
1 0.204105 0
0.877791 0.469017 0
1 0.543206 0
1 0.603326 0
1 0.668009 0
1 0.731853 0.0805982
1 0.790478 0.20354
1 0.837446 0.340566
1 0.873365 0.479225
1 0.902312 0.560281
1 0.924132 0.635157
1 0.941512 0.709484
1 0.955077 0.77583
0 0.314366 0
0 0.316411 0
0 0.317815 0
0 0.318914 0
0 0.319722 0
0 0.320577 0
0 0.320958 0
0.0441749 0.323033 0
0.175875 0.319036 0
0.2934 0.311986 0
0.407141 0.301595 0
0.512276 0.292027 0
0.510063 0.310826 0
0.534752 0.306203 0
0.617182 0.27602 0
0.77673 0.20676 0
0.92195 0.125109 0
1 0.0115816 0
1 0.0201267 0
1 0.162783 0
0.928893 0.379858 0
0.900725 0.515663 0
1 0.558495 0
1 0.615488 0
1 0.676844 0
1 0.737865 0.0719615
1 0.794079 0.201099
1 0.839399 0.339849
1 0.87454 0.478309
1 0.902983 0.55993
1 0.924437 0.634928
1 0.94168 0.709087
1 0.955184 0.775753
0 0.392874 0
0 0.39379 0
0 0.394369 0
0 0.394842 0
0 0.395529 0
0 0.395651 0
0 0.39556 0
0 0.395087 0
0.086717 0.396033 0
0.240833 0.389975 0
0.371191 0.381933 0
0.498192 0.37052 0
0.598184 0.357412 0
0.636591 0.352758 0
0.619608 0.369131 0
0.646128 0.367788 0
0.719112 0.350256 0
0.821088 0.3252 0
0.89337 0.33077 0
0.889586 0.398764 0
0.876783 0.488975 0
1 0.535225 0
1 0.577478 0
1 0.631022 0
1 0.688472 0
1 0.745876 0.060914
1 0.798886 0.198001
1 0.841962 0.33933
1 0.876097 0.477317
1 0.903807 0.559533
1 0.924956 0.634546
1 0.941924 0.708904
1 0.955306 0.775647
0 0.474235 0
0 0.475013 0
0 0.475486 0
0 0.475868 0
0 0.476143 0
0 0.476326 0
0 0.476448 0
0 0.476738 0
0 0.476234 0
0.137423 0.476204 0
0.3149 0.46894 0
0.460472 0.45922 0
0.577478 0.44773 0
0.65211 0.435294 0
0.729107 0.422553 0
0.777188 0.420172 0
0.774487 0.43827 0
0.7841 0.456779 0
0.825528 0.475654 0
0.884718 0.507561 0
0.991424 0.532891 0
1 0.561746 0
1 0.601526 0
1 0.650706 0
1 0.703456 0
1 0.756634 0.0472114
1 0.805341 0.193484
1 0.845716 0.338567
1 0.878233 0.475654
1 0.904982 0.558724
1 0.925658 0.634043
1 0.942336 0.708568
1 0.955505 0.775509
0 0.560128 0
0 0.560418 0
0 0.5608 0
0 0.561425 0
0 0.5617 0
0 0.561913 0
0 0.562112 0
0 0.562203 0
0 0.562112 0
0 0.562509 0
0.2056 0.56054 0
0.397589 0.552041 0
0.544579 0.54284 0
0.630762 0.534478 0
0.712077 0.524987 0
0.79205 0.515724 0
0.869429 0.509255 0
0.938445 0.508614 0
0.989212 0.521675 0
1 0.543038 0
1 0.568719 0
1 0.59469 0
1 0.63183 0
1 0.674662 0
1 0.722133 0
1 0.769665 0.0319524
1 0.813809 0.188083
1 0.850507 0.337606
1 0.881025 0.474739
1 0.906477 0.557595
1 0.926574 0.633478
1 0.94287 0.708202
1 0.955825 0.77525
0 0.625971 0
0 0.626078 0
0 0.626307 0
0 0.626474 0
0 0.626627 0
0 0.626993 0
0 0.627131 0
0 0.627237 0
0 0.627344 0
0 0.627405 0
0.0382849 0.629587 0
0.289235 0.623789 0
0.494896 0.61445 0
0.604639 0.607614 0
0.691768 0.601175 0
0.776196 0.594629 0
0.856672 0.589151 0
0.932067 0.585931 0
0.995773 0.587518 0
1 0.595605 0
1 0.611231 0
1 0.635431 0
1 0.666346 0
1 0.702998 0
1 0.744472 0
1 0.785824 0.0093843
1 0.823896 0.180941
1 0.856703 0.33666
1 0.884947 0.475181
1 0.908751 0.556313
1 0.927855 0.632532
1 0.943618 0.707607
1 0.956268 0.774838
0 0.683024 0
0 0.68307 0
0 0.683238 0
0 0.683391 0
0 0.683513 0
0 0.683635 0
0 0.683772 0
0 0.683909 0
0 0.68426 0
0 0.684306 0
0 0.684245 0
0.110903 0.685481 0
0.398444 0.675685 0
0.570611 0.666606 0
0.665507 0.660121 0
0.756191 0.653483 0
0.842268 0.647303 0
0.919982 0.643198 0
0.983032 0.643442 0
1 0.649302 0
1 0.660746 0
1 0.680049 0
1 0.705089 0
1 0.735592 0
1 0.770413 0
1 0.804486 0
1 0.836347 0.173068
1 0.864424 0.335943
1 0.889738 0.475822
1 0.911665 0.554864
1 0.929656 0.631342
1 0.94464 0.706783
1 0.956786 0.774243
0 0.742718 0
0 0.742718 0
0 0.742794 0
0 0.742901 0
0 0.742977 0
0 0.743038 0
0 0.743114 0
0 0.743191 0
0 0.743236 0
0 0.743206 0
0 0.743328 0
0 0.742977 0
0.218585 0.741039 0
0.516335 0.728344 0
0.631144 0.721172 0
0.728634 0.71429 0
0.821057 0.707561 0
0.902373 0.702525 0
0.967269 0.701137 0
1 0.704601 0
1 0.712901 0
1 0.727382 0
1 0.747234 0
1 0.771572 0
1 0.798611 0
1 0.82536 0
1 0.850385 0.165331
1 0.87393 0.336049
1 0.895857 0.477165
1 0.915297 0.554223
1 0.931853 0.629725
1 0.94609 0.705608
1 0.957534 0.77351
0 0.803525 0
0 0.803525 0
0 0.803525 0
0 0.803571 0
0 0.803601 0
0 0.803632 0
0 0.803647 0
0 0.803662 0
0 0.803647 0
0 0.803555 0
0 0.803342 0
0 0.803159 0
0 0.802731 0
0.374075 0.79443 0
0.587213 0.783627 0
0.69395 0.776333 0
0.792676 0.769162 0
0.878553 0.763119 0
0.945998 0.760403 0
0.995865 0.761563 0
1 0.766705 0
1 0.776516 0
1 0.790555 0
1 0.807691 0
1 0.827329 0
1 0.847547 0
1 0.866011 0.158373
1 0.884932 0.338598
1 0.903105 0.478981
1 0.91986 0.555596
1 0.93492 0.628595
1 0.947921 0.704082
1 0.958663 0.772549
0 0.862699 0
0 0.862699 0
0 0.862699 0
0 0.862699 0
0 0.862684 0
0 0.862684 0
0 0.862638 0
0 0.862593 0
0 0.862486 0
0 0.862272 0
0 0.861952 0
0 0.861387 0
0 0.860716 0
0.201694 0.85864 0
0.534005 0.843976 0
0.654887 0.836255 0
0.760006 0.82855 0
0.849928 0.821759 0
0.920836 0.817243 0
0.97351 0.815824 0
1 0.817426 0
1 0.822202 0
1 0.83093 0
1 0.841978 0
1 0.85536 0
1 0.870161 0
1 0.882795 0.156542
1 0.896971 0.343435
1 0.91133 0.482567
1 0.925383 0.557336
1 0.938582 0.628382
1 0.95021 0.702541
1 0.960113 0.771557
0 0.91281 0
0 0.91281 0
0 0.91281 0
0 0.91281 0
0 0.91281 0
0 0.912779 0
0 0.912718 0
0 0.912596 0
0 0.912398 0
0 0.912093 0
0 0.91162 0
0 0.910872 0
0 0.909804 0
0.0591287 0.910155 0
0.453483 0.896559 0
0.620768 0.886366 0
0.731273 0.87808 0
0.823713 0.870893 0
0.896147 0.865309 0
0.951949 0.861708 0
0.994156 0.860685 0
1 0.862028 0
1 0.865858 0
1 0.872801 0
1 0.881422 0
1 0.891325 0
1 0.899733 0.16759
1 0.909819 0.354116
1 0.920348 0.487892
1 0.931884 0.560174
1 0.943099 0.630152
1 0.953216 0.700816
1 0.962066 0.76994
0 0.951324 0
0 0.951324 0
0 0.951324 0
0 0.951324 0
0 0.951324 0
0 0.951324 0
0 0.951324 0
0 0.951186 0
0 0.950912 0
0 0.950439 0
0 0.949813 0
0 0.948943 0
0 0.947814 0
0 0.946334 0
0.375021 0.937438 0
0.599145 0.925109 0
0.712047 0.916701 0
0.804364 0.909133 0
0.876143 0.903166 0
0.932708 0.89865 0
0.976547 0.895979 0
1 0.895323 0
1 0.896376 0
1 0.900023 0
1 0.905516 0
1 0.910719 0
1 0.916075 0.195544
1 0.922362 0.371069
1 0.930129 0.495933
1 0.939162 0.564462
1 0.948196 0.633677
1 0.956588 0.702937
1 0.964492 0.767971
0 0.981369 0
0 0.981369 0
0 0.981369 0
0 0.981369 0
0 0.981369 0
0 0.981369 0
0 0.981369 0
0 0.981369 0
0 0.981231 0
0 0.980728 0
0 0.979919 0
0 0.979019 0
0 0.977874 0
0 0.976089 0
0.383566 0.966964 0
0.593149 0.95523 0
0.703029 0.947097 0
0.791745 0.939712 0
0.861158 0.933654 0
0.916716 0.928756 0
0.960861 0.925261 0
0.994583 0.923186 0
1 0.922484 0
1 0.923506 0
1 0.92636 0
1 0.928359 0.0295109
1 0.930999 0.234073
1 0.934981 0.396353
1 0.940337 0.504189
1 0.947036 0.570748
1 0.954055 0.638605
1 0.960739 0.706645
1 0.967163 0.769329
0 1 0
0 1 0
0 1 0
0 1 0
0 1 0
0 1 0
0 1 0
0 1 0
0 1 0
0 1 0
0 1 0
0 1 0
0 1 0
0 0.998306 0
0.455314 0.986435 0
0.604471 0.977249 0
0.70576 0.969451 0
0.787518 0.962661 0
0.852644 0.956756 0
0.906111 0.951888 0
0.948821 0.948135 0
0.982727 0.945388 0
1 0.943633 0
1 0.943023 0
1 0.944289 0
1 0.943694 0.106752
1 0.944671 0.286259
1 0.946929 0.42707
1 0.95053 0.51487
1 0.955093 0.579385
1 0.960159 0.645396
1 0.965225 0.711711
1 0.970535 0.772152
0 1 0
0 1 0
0 1 0
0 1 0
0 1 0
0 1 0
0 1 0
0 1 0
0 1 0
0 1 0
0 1 0
0 1 0
0 1 0
0.14139 1 0
0.522377 1 0
0.630243 0.993606 0
0.717617 0.986603 0
0.790051 0.980392 0
0.849332 0.975143 0
0.899428 0.970535 0
0.939864 0.96672 0
0.972839 0.96376 0
0.999832 0.961547 0
1 0.960082 0
1 0.957961 0.0282444
1 0.956847 0.209918
1 0.956832 0.350332
1 0.957778 0.463004
1 0.960037 0.530816
1 0.962982 0.591775
1 0.966461 0.654276
1 0.97023 0.718593
1 0.974014 0.776455
0 1 0
0 1 0
0 1 0
0 1 0
0 1 0
0 1 0
0 1 0
0 1 0
0 1 0
0 1 0
0 1 0
0 1 0
0 1 0
0.440101 1 0
0.577173 1 0
0.664805 1 0
0.737621 0.999634 0
0.798993 0.994202 0
0.851637 0.989395 0
0.896635 0.985168 0
0.934112 0.981537 0
0.965591 0.978408 0
0.991867 0.976013 0
1 0.97232 0.00329595
1 0.969451 0.174044
1 0.967895 0.306844
1 0.967117 0.419791
1 0.967575 0.499168
1 0.968811 0.551614
1 0.970581 0.607782
1 0.972717 0.667033
1 0.975158 0.72726
1 0.97789 0.782223
0.387915 1 0
0.387915 1 0
0.387915 1 0
0.387915 1 0
0.3879 1 0
0.3879 1 0
0.3879 1 0
0.3879 1 0
0.387869 1 0
0.387854 1 0
0.387854 1 0
0.387793 1 0
0.387747 1 0
0.541299 1 0
0.633127 1 0
0.702708 1 0
0.762142 1 0
0.813001 1 0
0.858213 1 0
0.897978 0.996338 0
0.929763 0.991882 0
0.957168 0.988113 0.0288243
0.980697 0.984726 0.110597
0.999374 0.981613 0.203784
1 0.978851 0.303502
1 0.976974 0.402152
1 0.97615 0.479667
1 0.976089 0.528832
1 0.976623 0.577325
1 0.977493 0.628565
1 0.978576 0.683238
1 0.979995 0.738842
1 0.981704 0.789059
0.616693 1 0.183017
0.616693 1 0.183017
0.616693 1 0.183017
0.616693 1 0.183017
0.616693 1 0.183017
0.616693 1 0.183017
0.616693 1 0.183017
0.616693 1 0.183017
0.616693 1 0.183017
0.616678 1 0.183017
0.616678 1 0.183017
0.616678 1 0.183017
0.616663 1 0.183032
0.616663 1 0.183017
0.674281 1 0.186282
0.734249 1 0.192157
0.781338 1 0.200061
0.822919 1 0.209689
0.861189 1 0.223438
0.894545 1 0.241123
0.923888 0.997101 0.26334
0.949722 0.994217 0.290669
0.971984 0.991348 0.32517
0.990478 0.988724 0.366873
1 0.986297 0.422507
1 0.98468 0.4795
1 0.983719 0.520943
1 0.983398 0.563287
1 0.9832 0.60737
1 0.98349 0.654063
1 0.983841 0.703563
1 0.984405 0.753246
1 0.985534 0.798596
0.723507 1 0.413794
0.723507 1 0.413794
0.723507 1 0.413794
0.723507 1 0.413794
0.723507 1 0.413794
0.723507 1 0.413794
0.723507 1 0.413794
0.723507 1 0.413794
0.723507 1 0.413794
0.723507 1 0.413794
0.723507 1 0.413794
0.723507 1 0.413794
0.723491 1 0.413794
0.723491 1 0.413794
0.723476 1 0.413809
0.76109 1 0.415442
0.802945 1 0.419471
0.838041 1 0.423484
0.869413 1 0.429252
0.897459 1 0.437018
0.922759 1 0.446876
0.946319 0.998672 0.459525
0.966583 0.996262 0.474144
0.984268 0.994202 0.491905
0.999298 0.99237 0.506676
1 0.990845 0.531289
1 0.989807 0.563592
1 0.989197 0.600855
1 0.988632 0.641138
1 0.988464 0.68394
1 0.988342 0.727779
1 0.988602 0.770459
1 0.988922 0.809812
0.796338 1 0.531426
0.796338 1 0.531426
0.796338 1 0.531426
0.796338 1 0.531426
0.796338 1 0.531426
0.796338 1 0.531426
0.796338 1 0.531426
0.796338 1 0.531426
0.796338 1 0.531426
0.796338 1 0.531426
0.796338 1 0.531426
0.796338 1 0.531426
0.796338 1 0.531426
0.796338 1 0.531426
0.796323 1 0.531426
0.796323 1 0.531426
0.823804 1 0.531685
0.854994 1 0.532555
0.880598 1 0.534234
0.903761 1 0.536553
0.925948 1 0.540429
0.946334 1 0.545296
0.964416 1 0.551995
0.980591 0.998581 0.560891
0.99472 0.996994 0.572747
1 0.995438 0.587411
1 0.994507 0.611139
1 0.993713 0.642359
1 0.992935 0.677913
1 0.992493 0.716533
1 0.99205 0.75407
1 0.991974 0.790036
1 0.992096 0.823117
0.849928 1 0.609659
0.849928 1 0.609659
0.849928 1 0.609659
0.849928 1 0.609659
0.849928 1 0.609659
0.849928 1 0.609659
0.849928 1 0.609659
0.849928 1 0.609659
0.849928 1 0.609659
