BBLuts/BB_102_0220_LUT.cube
TITLE "Generated by Resolve"
LUT_3D_SIZE 5
0 0 0
0.151583 0 0
0.778485 0 0
1 0.520272 0.0927443
1 0.93666 0.757626
0 0.169726 0
0.130663 0.173999 0
0.793011 0.00860609 0
1 0.602029 0.0509346
1 0.937911 0.757015
0 0.784222 0
0 0.783749 0
0.778363 0.780865 0
1 0.831647 0
1 0.946059 0.752605
0.656596 0.999313 0.181201
0.702617 0.996155 0.180697
0.865507 0.984619 0.193805
1 0.974411 0.366781
1 0.975036 0.773648
1 0.985458 0.848508
1 0.985458 0.848539
1 0.985443 0.848875
1 0.985428 0.851804
1 0.985428 0.874235
0 0 0.144411
0.127169 0 0.143618
0.779385 0 0.108461
1 0.501793 0.287221
1 0.936248 0.772168
0 0.132326 0.125032
0.138628 0.129412 0.121843
0.780163 0 0.090547
1 0.592325 0.265019
1 0.937514 0.77174
0 0.780438 0
0 0.77998 0
0.783444 0.777127 0
1 0.830777 0.0482795
1 0.945739 0.767834
0.66421 0.998734 0.180117
0.708553 0.995697 0.17966
0.867231 0.984466 0.193256
1 0.974365 0.36672
1 0.975021 0.773556
1 0.985458 0.848508
1 0.985458 0.848539
1 0.985443 0.848859
1 0.985428 0.851789
1 0.985428 0.874235
0 0 0.729915
0 0 0.730114
0.782055 0 0.707393
1 0.149752 0.751781
1 0.933684 0.835813
0 0 0.728481
0 0 0.728679
0.790661 0 0.705684
1 0.422919 0.757397
1 0.935042 0.835599
0 0.73257 0.692424
0 0.732921 0.692668
0.763775 0.730892 0.701152
1 0.804471 0.723644
1 0.943771 0.8336
0.664057 0.994202 0.582238
0.706889 0.99118 0.580972
0.861357 0.979965 0.582803
1 0.970153 0.638361
1 0.974472 0.819196
1 0.985443 0.848447
1 0.985458 0.848493
1 0.985443 0.848798
1 0.985428 0.851743
1 0.985428 0.874235
0 0 0.937026
0 0 0.937026
0 0 0.937026
0.9879 0 0.925917
1 0.903014 0.927749
0 0 0.937026
0 0 0.937026
0 0 0.937026
0.9879 0 0.925917
1 0.905989 0.927504
0 0 0.937026
0 0 0.937026
0.328206 0 0.933654
0.9879 0 0.925917
1 0.923781 0.926131
0.0148013 1 0.937957
0.0145571 1 0.937728
0.718196 0.978103 0.924819
1 0.961303 0.91902
1 0.971069 0.921843
1 0.985519 0.903014
1 0.985519 0.903029
1 0.985519 0.90312
1 0.985519 0.904036
1 0.985519 0.911742
0 0.2607 0.940993
0 0.2607 0.940993
0 0.260731 0.940993
0 0.260929 0.940993
1 0.709957 0.951278
0 0.26067 0.940993
0 0.26067 0.940993
0 0.2607 0.940993
0 0.260914 0.940993
1 0.710063 0.951263
0 0.260517 0.940993
0 0.260517 0.940993
0 0.260548 0.940993
0.405112 0.24567 0.947524
1 0.710964 0.951202
0 0.258976 0.940993
0 0.258976 0.940993
0 0.259007 0.940993
0.9879 0 0.925917
1 0.713832 0.95108
0.944472 0.985565 0.942367
0.94638 0.985565 0.942367
0.958862 0.98555 0.942351
1 0.98558 0.942367
1 0.985565 0.942351
