BBLuts/BB_104_0360_LUT.cube
TITLE "Generated by Resolve"
LUT_3D_SIZE 9
0 0 0.00447089
0 0 0.00447089
0.140291 0 0.00579843
0.384909 0 0.00660716
0.683665 0.223667 0.261097
0.83125 0.567956 0.577554
0.830045 0.593149 0.576776
0.820966 0.731807 0.520943
0.814878 0.804883 0.652567
0 0.0303349 0.00158694
0 0.0370031 0.00103761
0.145556 0.0242771 0.00378424
0.395865 0 0.00720226
0.685527 0.228138 0.265217
0.83125 0.567956 0.577554
0.829679 0.599359 0.575692
0.820844 0.734661 0.514794
0.814847 0.805219 0.652079
0 0.141833 0
0 0.144884 0
0.0931868 0.146944 0
0.4056 0.131991 0.00299077
0.689143 0.266804 0.27219
0.831113 0.57203 0.577249
0.828946 0.610788 0.573449
0.820661 0.739055 0.503655
0.814801 0.805783 0.651255
0 0.397559 0
0 0.398749 0
0 0.399405 0
0.313756 0.410925 0
0.692027 0.44332 0.261311
0.829953 0.59472 0.574655
0.826322 0.648844 0.562722
0.820294 0.750759 0.456764
0.814664 0.807401 0.648783
0 0.682429 0
0 0.682368 0
0 0.682078 0
0 0.680217 0
0.632731 0.683528 0
0.80322 0.697932 0.468208
0.821378 0.728725 0.490074
0.819593 0.774777 0
0.814298 0.811658 0.641123
0 0.808225 0
0 0.807706 0
0 0.806821 0
0 0.804181 0
0 0.797528 0
0.766918 0.792798 0
0.818341 0.795483 0
0.817563 0.806119 0
0.813474 0.820783 0.624811
0 0.84567 0
0 0.845319 0
0 0.8448 0
0 0.843366 0
0.52961 0.841169 0
0.753002 0.832975 0
0.810254 0.831189 0
0.814923 0.831586 0
0.811856 0.832685 0.644877
0.71635 0.842405 0
0.718013 0.84239 0
0.720623 0.842374 0
0.72784 0.842359 0
0.744701 0.842374 0
0.772976 0.842542 0
0.803479 0.842878 0
0.812039 0.841611 0.509697
0.81091 0.840223 0.700771
0.7879 0.840269 0.726146
0.788022 0.840284 0.726162
0.788235 0.840284 0.726207
0.788876 0.840299 0.726314
0.790692 0.840314 0.72665
0.795544 0.840375 0.727626
0.804227 0.840513 0.730251
0.811658 0.840726 0.736446
0.812177 0.841108 0.750881
0 0 0.0386664
0 0 0.0388342
0.145296 0 0.0406653
0.386358 0 0.0425879
0.68368 0.225757 0.275563
0.83125 0.568124 0.578744
0.830106 0.592264 0.577874
0.820935 0.731167 0.531975
0.814878 0.804791 0.658732
0 0.017319 0.0310979
0.0186313 0.0255283 0.0300755
0.159991 0 0.0349889
0.391714 0 0.0349279
0.684459 0.22649 0.269596
0.83125 0.568078 0.578393
0.829725 0.598337 0.576837
0.820798 0.734035 0.526558
0.814847 0.805142 0.658289
0 0.134096 0
0 0.136645 0
0.110338 0.139269 0
0.403571 0.124086 0.00303655
0.68687 0.252461 0.267491
0.831128 0.571664 0.577264
0.829023 0.60972 0.574701
0.8206 0.738445 0.516838
0.814801 0.805692 0.657542
0 0.393088 0
0 0.394202 0
0 0.394659 0
0.330587 0.405737 0
0.691768 0.439811 0.261326
0.829984 0.594186 0.574746
0.826383 0.647913 0.563897
0.820188 0.75021 0.477806
0.814649 0.807309 0.655299
0 0.681514 0
0 0.681422 0
0 0.681132 0
0 0.679225 0
0.63537 0.682658 0
0.803326 0.697398 0.469581
0.821378 0.728435 0.490806
0.819608 0.774639 0
0.814267 0.811582 0.648371
0 0.808042 0
0 0.807523 0
0 0.806653 0
0 0.803998 0
0 0.797375 0
0.767163 0.792706 0
0.818357 0.795422 0
0.817563 0.806073 0
0.813474 0.820768 0.62565
0 0.845609 0
0 0.845258 0
0 0.844724 0
0 0.84332 0
0.538277 0.840925 0
0.753155 0.832959 0
0.810285 0.831174 0
0.814939 0.831586 0
0.811872 0.83267 0.644846
0.716609 0.84239 0
0.718273 0.84239 0
0.720867 0.84239 0
0.728023 0.842359 0
0.744839 0.842374 0
0.773022 0.842542 0
0.80351 0.842878 0
0.812039 0.841611 0.509606
0.81091 0.840223 0.700771
0.787915 0.840269 0.726146
0.788037 0.840284 0.726162
0.788251 0.840284 0.726207
0.788891 0.840299 0.726314
0.790707 0.840314 0.72665
0.795544 0.840375 0.727626
0.804242 0.840513 0.730251
0.811658 0.840726 0.736446
0.812177 0.841108 0.750881
0.00367742 0.00573739 0.133577
0.00370794 0.00575265 0.133761
0.139788 0.00666819 0.134737
0.399634 0.00556954 0.133837
0.683772 0.230716 0.304967
0.83125 0.568399 0.58053
0.830198 0.590692 0.580621
0.820859 0.730098 0.550423
0.814878 0.804669 0.667674
0.00325017 0.00546273 0.130373
0.00328069 0.00547799 0.130678
0.160143 0.00628672 0.131441
0.398047 0.0052491 0.130953
0.685512 0.234546 0.306905
0.83125 0.568368 0.580392
0.829847 0.596399 0.579675
0.820706 0.732998 0.546044
0.814847 0.805005 0.667277
0 0.125154 0.110277
0 0.126772 0.10988
0.121523 0.125017 0.110567
0.390539 0.116197 0.119326
0.684474 0.231708 0.302556
0.831144 0.570962 0.579995
0.82916 0.607492 0.577722
0.820508 0.737453 0.538323
0.814786 0.805585 0.666636
0 0.381125 0
0 0.382467 0
0 0.383124 0
0.337011 0.393744 0.0120851
0.688441 0.428885 0.280858
0.830076 0.592554 0.576867
0.826535 0.645518 0.56817
0.82002 0.749325 0.509071
0.814649 0.807187 0.664683
0 0.679591 0
0 0.679515 0
0 0.679225 0
0 0.677287 0
0.637858 0.680842 0
0.803296 0.696147 0.471611
0.821393 0.727596 0.496605
0.820218 0.774914 0.21088
0.814252 0.81146 0.658732
0 0.807752 0
0 0.807218 0
0 0.806348 0
0 0.803708 0
0 0.797131 0
0.767544 0.792569 0
0.818357 0.795041 0
0.817578 0.806027 0
0.813382 0.820584 0.639841
0 0.845502 0
0 0.845167 0
0 0.844633 0
0 0.843229 0
0.550561 0.840558 0
0.753445 0.832929 0
0.810346 0.831159 0
0.814939 0.831571 0
0.811872 0.83267 0.644785
0.717006 0.84239 0
0.718669 0.84239 0
0.721233 0.842374 0
0.728344 0.842359 0
0.745068 0.842374 0
0.773129 0.842542 0
0.803525 0.842878 0
0.812039 0.841611 0.509606
0.81091 0.840223 0.700755
0.78793 0.840269 0.726146
0.788067 0.840284 0.726162
0.788281 0.840284 0.726207
0.788922 0.840299 0.726314
0.790738 0.840314 0.726635
0.79556 0.840375 0.727611
0.804242 0.840513 0.730251
0.811658 0.840726 0.736446
0.812177 0.841108 0.750881
0.0828565 0.0572366 0.36054
0.0829786 0.0573129 0.360708
0.0830396 0.0573434 0.3608
0.387091 0.0582437 0.353857
0.698116 0.286519 0.424765
0.831174 0.570275 0.590402
0.830411 0.58735 0.595453
0.820645 0.726955 0.598611
0.814969 0.804395 0.688777
0.0810864 0.0560922 0.35819
0.0812695 0.0561837 0.358389
0.14699 0.0566262 0.358129
0.401038 0.0576486 0.351034
0.696681 0.283085 0.421958
0.831174 0.570214 0.590158
0.830106 0.592065 0.594568
0.820478 0.729931 0.596643
0.814939 0.804746 0.688487
0.0701305 0.103639 0.353262
0.0696422 0.107622 0.353399
0.159823 0.105409 0.353597
0.406577 0.0558938 0.346685
0.692256 0.273335 0.41561
0.831189 0.570123 0.589731
0.829511 0.601755 0.59295
0.820203 0.734508 0.593469
0.814878 0.80531 0.688029
0 0.346242 0.306264
0 0.347936 0.306355
0 0.349172 0.30695
0.350576 0.360037 0.323156
0.677516 0.397177 0.388205
0.83035 0.588327 0.586954
0.827008 0.638361 0.586358
0.819562 0.74667 0.583307
0.814725 0.806928 0.686641
0 0.67129 0
0 0.671275 0
0 0.671061 0
0 0.669291 0
0.635874 0.673182 0
0.801938 0.690425 0.500175
0.821363 0.724132 0.53341
0.81854 0.771969 0.525292
0.814298 0.8112 0.682506
0 0.806928 0
0 0.806394 0
0 0.805508 0
0 0.802869 0
0 0.796292 0
0.767147 0.791852 0
0.818418 0.794461 0
0.817655 0.805615 0
0.813321 0.820294 0.670237
0 0.845182 0
0 0.844862 0
0 0.844343 0
0 0.842985 0
0.57847 0.839628 0
0.754269 0.832837 0
0.810498 0.831098 0
0.814939 0.83154 0
0.811872 0.832654 0.644572
0.718227 0.84239 0
0.719844 0.842374 0
0.722362 0.842374 0
0.72932 0.842359 0
0.745739 0.842374 0
0.773434 0.842542 0
0.803616 0.842878 0
0.812039 0.841611 0.509407
0.81091 0.840223 0.700694
0.788037 0.840269 0.726131
0.788174 0.840284 0.726162
0.788373 0.840284 0.726177
0.789014 0.840299 0.726299
0.790829 0.840314 0.726635
0.795636 0.840375 0.727596
0.804273 0.840513 0.730236
0.811658 0.840726 0.736446
0.812177 0.841108 0.750881
0.494194 0.462013 0.654063
0.494285 0.462135 0.654108
0.494453 0.462318 0.6542
0.506371 0.461158 0.653513
0.692287 0.484306 0.653925
0.830335 0.595483 0.676097
0.830091 0.601038 0.68394
0.821057 0.719524 0.692119
0.815579 0.803922 0.725826
0.49337 0.461051 0.653605
0.493462 0.461158 0.653651
0.493645 0.461372 0.653758
0.508095 0.459998 0.652949
0.695842 0.48513 0.653666
0.83035 0.595331 0.675731
0.829969 0.602564 0.683055
0.820798 0.72282 0.691325
0.815534 0.804288 0.725658
0.492042 0.459449 0.652857
0.492164 0.459571 0.652918
0.492332 0.459815 0.653025
0.511162 0.458152 0.652033
0.697978 0.484825 0.652979
0.83035 0.595056 0.67512
0.829679 0.606332 0.681559
0.820432 0.72781 0.690089
0.815473 0.804868 0.725399
0.48217 0.467781 0.648432
0.482185 0.468116 0.648447
0.482124 0.468513 0.648447
0.504555 0.466712 0.647745
0.69688 0.486091 0.649454
0.830228 0.596338 0.671656
0.828 0.628168 0.67628
0.819501 0.74081 0.686503
0.815305 0.806531 0.724636
0 0.649775 0.612665
0 0.650004 0.612757
0 0.650065 0.612879
0 0.648966 0.61323
0.636942 0.65304 0.62359
0.797238 0.673548 0.643778
0.821271 0.713878 0.656962
0.817685 0.767605 0.676585
0.814847 0.81091 0.722438
0 0.80444 0
0 0.803922 0
0 0.803052 0
0 0.800412 0
0 0.793332 0
0.760616 0.788418 0.484108
0.816464 0.79028 0.602487
0.815167 0.801678 0.650568
0.813764 0.820096 0.716442
0 0.844617 0
0 0.844282 0
0 0.843793 0
0 0.84242 0
0.54023 0.840131 0
0.750301 0.832319 0
0.807279 0.830594 0
0.813443 0.829526 0.537255
0.812039 0.83238 0.701381
0.721828 0.842374 0
0.723323 0.842359 0
0.725673 0.842359 0
0.732189 0.842344 0
0.747723 0.842374 0
0.774334 0.842542 0
0.803891 0.842893 0
0.812039 0.841611 0.508873
0.81091 0.840223 0.700542
0.788342 0.840284 0.726116
0.788464 0.840284 0.726131
0.788678 0.840284 0.726177
0.789303 0.840299 0.726284
0.791074 0.840314 0.726604
0.795834 0.840375 0.727581
0.804379 0.840513 0.73022
0.811658 0.840726 0.736416
0.812177 0.841108 0.750881
0.662577 0.654994 0.778347
0.662577 0.654994 0.778347
0.662608 0.655009 0.778363
0.662638 0.655055 0.778393
0.682475 0.651545 0.77525
0.828107 0.668849 0.776822
0.828107 0.669367 0.777356
0.824979 0.701366 0.770275
0.817395 0.802258 0.767178
0.662516 0.654932 0.778302
0.662531 0.654932 0.778302
0.662547 0.654948 0.778317
0.662577 0.654994 0.778347
0.684077 0.651469 0.775158
0.828107 0.668803 0.776776
0.828107 0.669322 0.77731
0.824674 0.704829 0.76968
0.817365 0.802686 0.767086
0.66244 0.654826 0.778225
0.66244 0.654841 0.778225
0.662455 0.654856 0.778241
0.662486 0.654887 0.778256
0.686839 0.651347 0.77499
0.828107 0.668727 0.776684
0.828107 0.669261 0.777234
0.82417 0.710414 0.768734
0.817288 0.803326 0.766949
0.66215 0.654521 0.777981
0.662165 0.654521 0.777981
0.662165 0.654536 0.777996
0.661936 0.654292 0.777798
0.693782 0.651057 0.774609
0.828107 0.668482 0.776455
0.828107 0.668132 0.776104
0.822812 0.726131 0.766217
0.817105 0.805219 0.766522
0.651881 0.655055 0.770047
0.65182 0.655131 0.770016
0.651743 0.655268 0.76997
0.65127 0.655177 0.769589
0.682597 0.653025 0.76791
0.825483 0.671397 0.770031
0.825376 0.693462 0.766247
0.820233 0.759106 0.761151
0.816587 0.810117 0.765377
0 0.800885 0.751019
0 0.80058 0.751003
0 0.8 0.750973
0 0.797726 0.75082
0.504509 0.792004 0.751232
0.757092 0.781384 0.747341
0.815488 0.785931 0.750271
0.816892 0.799588 0.753323
0.815442 0.82005 0.7626
0 0.845945 0.732769
0 0.845579 0.732876
0 0.845014 0.733028
0 0.843503 0.733471
0.476585 0.839338 0.733242
0.739162 0.828824 0.729229
0.798535 0.826993 0.734859
0.813596 0.828138 0.742977
0.813626 0.832944 0.757214
0.714748 0.83978 0.691051
0.716213 0.839765 0.691127
0.718517 0.839765 0.691249
0.724941 0.839719 0.691646
0.740276 0.839689 0.692897
0.766812 0.839796 0.69659
0.796536 0.840101 0.70547
0.811276 0.840452 0.722301
0.812039 0.841001 0.747295
0.789227 0.840284 0.72604
0.789334 0.840284 0.72607
0.789532 0.840299 0.726101
0.790143 0.840299 0.726192
0.791836 0.84033 0.726528
0.796399 0.840375 0.727504
0.804685 0.840513 0.730129
0.811658 0.840726 0.736324
0.812177 0.841093 0.750866
0.69955 0.695979 0.81181
0.69955 0.695979 0.81181
0.69955 0.695979 0.81181
0.69955 0.695979 0.81181
0.69955 0.695979 0.81181
0.818463 0.704906 0.813764
0.828504 0.706493 0.813962
0.828504 0.706493 0.813962
0.820874 0.790097 0.799298
0.69955 0.695979 0.81181
0.69955 0.695979 0.81181
0.69955 0.695979 0.81181
0.69955 0.695979 0.81181
0.69955 0.695979 0.81181
0.819211 0.705013 0.813794
0.828504 0.706493 0.813962
0.828504 0.706493 0.813962
0.820813 0.790768 0.799207
0.69955 0.695979 0.81181
0.69955 0.695979 0.81181
0.69955 0.695979 0.81181
0.69955 0.695979 0.81181
0.69955 0.695979 0.81181
0.820432 0.705211 0.813809
0.828504 0.706493 0.813962
0.828504 0.706493 0.813962
0.820722 0.791836 0.799054
0.69955 0.695979 0.81181
0.69955 0.695979 0.81181
0.69955 0.695979 0.81181
0.69955 0.695979 0.81181
0.69955 0.695979 0.81181
0.824018 0.70576 0.81387
0.828504 0.706493 0.813962
0.828504 0.706493 0.813962
0.820447 0.794873 0.798642
0.69955 0.695979 0.81181
0.69955 0.695979 0.81181
0.69955 0.695979 0.81181
0.69955 0.695979 0.81181
0.700389 0.695994 0.811826
0.828504 0.706493 0.813962
0.828504 0.706493 0.813962
0.827787 0.710399 0.81059
0.819715 0.802808 0.797543
0.679622 0.75172 0.80412
0.679561 0.751827 0.804105
0.679469 0.752026 0.804089
0.679194 0.752621 0.804028
0.678859 0.750103 0.80325
0.773495 0.74609 0.80177
0.823255 0.758129 0.800732
0.821027 0.785763 0.797589
0.818219 0.816953 0.795056
0 0.85008 0.798123
0 0.849638 0.798108
0 0.848905 0.798077
0 0.846799 0.798001
0.528618 0.838941 0.794415
0.736416 0.828214 0.788968
0.799298 0.826154 0.789792
0.816617 0.827832 0.790539
0.816098 0.833158 0.791867
0.708827 0.842084 0.783581
0.710369 0.842069 0.783566
0.712795 0.842054 0.783551
0.7196 0.841993 0.78349
0.735958 0.841947 0.783459
0.764324 0.842023 0.783658
0.794965 0.842329 0.78439
0.814267 0.842634 0.785901
0.814496 0.842802 0.788663
0.78941 0.841779 0.774838
0.789517 0.841779 0.774853
0.789715 0.841779 0.774853
0.790295 0.841794 0.774899
0.791943 0.84181 0.77499
0.796353 0.841871 0.77528
0.804425 0.841993 0.776074
0.813657 0.842191 0.778103
0.814023 0.842435 0.782681
0.699535 0.696101 0.81181
0.699535 0.696101 0.81181
0.699535 0.696101 0.81181
0.699535 0.696101 0.81181
0.699535 0.696101 0.81181
0.699535 0.696101 0.81181
0.828504 0.706493 0.813962
0.828504 0.706493 0.813962
0.827604 0.717052 0.813367
0.699535 0.696101 0.81181
0.699535 0.696101 0.81181
0.699535 0.696101 0.81181
0.699535 0.696101 0.81181
0.699535 0.696101 0.81181
0.699535 0.696101 0.81181
0.828504 0.706493 0.813962
0.828504 0.706493 0.813962
0.827604 0.717037 0.813367
0.699535 0.696101 0.81181
0.699535 0.696101 0.81181
0.699535 0.696101 0.81181
0.699535 0.696101 0.81181
0.699535 0.696101 0.81181
0.699535 0.696101 0.81181
0.828504 0.706493 0.813962
0.828504 0.706493 0.813962
0.827604 0.717037 0.813367
0.699535 0.696101 0.81181
0.699535 0.696101 0.81181
0.699535 0.696101 0.81181
0.699535 0.696101 0.81181
0.699535 0.696101 0.81181
0.699535 0.69604 0.81181
0.828504 0.706493 0.813962
0.828504 0.706493 0.813962
0.827604 0.717021 0.813367
0.699535 0.696101 0.81181
0.699535 0.696101 0.81181
0.699535 0.696101 0.81181
0.699535 0.696101 0.81181
0.699535 0.696101 0.81181
0.700648 0.695994 0.811826
0.828504 0.706493 0.813962
0.828504 0.706493 0.813962
0.827604 0.716976 0.813367
0.699535 0.696101 0.81181
0.699535 0.696101 0.81181
0.699535 0.696101 0.81181
0.699535 0.696101 0.81181
0.699535 0.696101 0.81181
0.738079 0.697414 0.812222
0.828504 0.706493 0.813962
0.828504 0.7066 0.813962
0.823453 0.772091 0.810925
0.626307 0.824887 0.809995
0.626245 0.824918 0.81001
0.626169 0.824948 0.809995
0.62591 0.825055 0.81001
0.625116 0.825376 0.81001
0.698283 0.811933 0.808759
0.805554 0.808682 0.809186
0.819989 0.814221 0.809155
0.818601 0.826978 0.808408
0.608377 0.846281 0.809049
0.614481 0.846036 0.808789
0.623621 0.845685 0.808408
0.647105 0.844877 0.807538
0.693111 0.843763 0.806287
0.748394 0.843427 0.805737
0.792157 0.843732 0.805951
0.815534 0.84332 0.806348
0.816251 0.843671 0.806485
0.786282 0.843565 0.80441
0.786435 0.843565 0.80441
0.786664 0.843565 0.80441
0.787396 0.843565 0.804425
0.789425 0.843595 0.80444
0.794461 0.843641 0.804501
0.803983 0.843748 0.804639
0.813962 0.8439 0.804898
0.816068 0.843946 0.805264
0.699443 0.696742 0.811795
0.699443 0.696742 0.811795
0.699443 0.696742 0.811795
0.699443 0.696742 0.811795
0.699443 0.696742 0.811795
0.699443 0.696742 0.811795
0.699443 0.696742 0.811795
0.828458 0.707073 0.813931
0.827115 0.722972 0.813046
0.699443 0.696742 0.811795
0.699443 0.696742 0.811795
0.699443 0.696742 0.811795
0.699443 0.696742 0.811795
0.699443 0.696742 0.811795
0.699443 0.696742 0.811795
0.699443 0.696742 0.811795
0.828458 0.707088 0.813931
0.827115 0.722972 0.813046
0.699443 0.696742 0.811795
0.699443 0.696742 0.811795
0.699443 0.696742 0.811795
0.699443 0.696742 0.811795
0.699443 0.696742 0.811795
0.699443 0.696742 0.811795
0.699443 0.696742 0.811795
0.828458 0.707088 0.813931
0.827115 0.723003 0.813046
0.699443 0.696742 0.811795
0.699443 0.696742 0.811795
0.699443 0.696742 0.811795
0.699443 0.696742 0.811795
0.699443 0.696742 0.811795
0.699443 0.696742 0.811795
0.699443 0.696742 0.811795
0.828458 0.707088 0.813931
0.8271 0.723033 0.813046
0.699443 0.696742 0.811795
0.699443 0.696742 0.811795
0.699443 0.696742 0.811795
0.699443 0.696742 0.811795
0.699443 0.696742 0.811795
0.699443 0.696742 0.811795
0.700572 0.696681 0.811795
0.828458 0.707103 0.813931
0.8271 0.72314 0.813031
0.699443 0.696742 0.811795
0.699443 0.696742 0.811795
0.699443 0.696742 0.811795
0.699443 0.696742 0.811795
0.699443 0.696742 0.811795
0.699443 0.696742 0.811795
0.746227 0.698039 0.81236
0.828443 0.707164 0.813931
0.827085 0.723293 0.813031
0.699443 0.696742 0.811795
0.699443 0.696742 0.811795
0.699443 0.696742 0.811795
0.699443 0.696742 0.811795
0.699443 0.696742 0.811795
0.699443 0.696742 0.811795
0.828504 0.706493 0.813962
0.828443 0.707286 0.813916
0.82707 0.723598 0.813016
0 0.852705 0.815747
0 0.852705 0.815747
0 0.852705 0.815747
0 0.852705 0.815747
0 0.852705 0.815747
0 0.852705 0.815747
0.7682 0.837018 0.806989
0.817441 0.835874 0.807767
0.817166 0.837995 0.807599
0.753246 0.843488 0.806332
0.753765 0.843488 0.806317
0.754589 0.843488 0.806332
0.757 0.843503 0.806348
0.763394 0.843534 0.806378
0.777096 0.843641 0.806516
0.796902 0.843839 0.80676
0.812467 0.844038 0.807019
0.816266 0.844099 0.80708
