BBLuts/BB_103_0580_LUT.cube
TITLE "Generated by Resolve"
LUT_3D_SIZE 33
0.00415045 0.00553903 0.00477607
0.00415045 0.00553903 0.00477607
0.00463874 0.00555428 0.00492866
0.0113222 0.00569161 0.00569161
0.0216983 0.00608835 0.00576791
0.0349432 0.00726329 0.00579843
0.0529335 0.00802625 0.00660716
0.078172 0.00926223 0.00724804
0.115129 0.00909438 0.00628672
0.166354 0.0074464 0.00436408
0.23032 0.00410468 0.00349432
0.307942 0.000656138 0.0021973
0.406317 3.0518e-05 0.000610361
0.520775 0 0.000167849
0.62652 0 1.5259e-05
0.726345 0 0
0.834852 0 0
0.938674 0 0
0.984512 0 0
0.985183 0 0
0.979263 0 0
0.934539 0.139635 0
0.897948 0.321355 0
0.880964 0.434348 0
0.873106 0.526192 0.0172427
0.873884 0.610666 0.148165
0.881071 0.68986 0.277852
0.890288 0.756619 0.402243
0.898665 0.809262 0.510781
0.905928 0.851881 0.610834
0.914412 0.881758 0.700374
0.923461 0.907561 0.771679
0.93434 0.92697 0.82472
0.00415045 0.0055848 0.00479133
0.00415045 0.00561532 0.00480659
0.00550851 0.00567636 0.00514229
0.0116121 0.00581369 0.00572213
0.0209049 0.00614939 0.00576791
0.0344701 0.00732433 0.00579843
0.0534066 0.00813306 0.00662242
0.0791943 0.00933852 0.00724804
0.116777 0.0090486 0.00624094
0.167971 0.00733959 0.00433356
0.231861 0.00404364 0.00347906
0.309651 0.00062562 0.00216678
0.408011 1.5259e-05 0.000579843
0.522194 0 0.000167849
0.627451 0 1.5259e-05
0.726986 0 0
0.835019 0 0
0.938308 0 0
0.984421 0 0
0.985183 0 0
0.96733 0 0
0.925643 0.184222 0
0.893996 0.335485 0
0.878676 0.44152 0
0.872587 0.530266 0.0202029
0.873686 0.613458 0.151232
0.881148 0.691722 0.28014
0.890517 0.757717 0.403433
0.898772 0.809781 0.511254
0.906004 0.852155 0.611078
0.914504 0.882017 0.700633
0.923445 0.907668 0.771893
0.93434 0.92697 0.82472
0.0049897 0.0115053 0.00746166
0.005066 0.0118715 0.00764477
0.00703441 0.0120851 0.00852979
0.0113527 0.0128328 0.00880446
0.0192264 0.0141451 0.00807202
0.0327306 0.0141604 0.00630198
0.0556191 0.0124819 0.00653086
0.081529 0.0103304 0.00715648
0.118929 0.00944533 0.0059968
0.170214 0.00737011 0.00427253
0.233738 0.00396735 0.0034638
0.311879 0.000564584 0.002121
0.410269 1.5259e-05 0.000549325
0.523781 0 0.00015259
0.628382 0 1.5259e-05
0.727306 0 0
0.835019 0 0
0.937957 0 0
0.984329 0 0
0.985183 0 0
0.957122 0 0
0.919051 0.215534 0
0.891249 0.348363 0
0.876799 0.448615 0
0.871885 0.534203 0.0229801
0.873655 0.616129 0.154269
0.881376 0.693339 0.282002
0.8907 0.758663 0.404456
0.898894 0.810315 0.511788
0.906096 0.852583 0.611475
0.914534 0.882139 0.700801
0.923445 0.907668 0.771832
0.934417 0.927092 0.824887
0.00517281 0.0222629 0.00994888
0.00514229 0.0230106 0.0100862
0.00556954 0.0236973 0.0101472
0.0108034 0.0250401 0.0102998
0.0193484 0.0271153 0.0115816
0.0327916 0.0293278 0.0104677
0.056611 0.0308537 0.00793469
0.0910964 0.0280919 0.0059205
0.133639 0.022385 0.00433356
0.178485 0.010193 0.00360113
0.237507 0.00480659 0.00331121
0.31458 0.000640879 0.00201419
0.412695 1.5259e-05 0.000503548
0.525505 0 0.00015259
0.629465 0 0
0.727794 0 0
0.835019 0 0
0.937407 0 0
0.984054 0 0
0.983063 0 0
0.949554 0.0221103 0
0.914076 0.239734 0
0.889021 0.359442 0
0.875212 0.455192 0
0.871366 0.538231 0.0254673
0.873671 0.618906 0.157488
0.881437 0.695064 0.284108
0.890745 0.759594 0.405509
0.899016 0.810849 0.512245
0.906157 0.852857 0.611704
0.91458 0.882277 0.700893
0.923506 0.90779 0.77203
0.934417 0.927092 0.824887
0.00358587 0.043946 0.0122072
0.00340276 0.0453651 0.0123598
0.00331121 0.0461433 0.0124514
0.0049897 0.0473335 0.0123903
0.0151064 0.0502174 0.0132906
0.0370642 0.054078 0.0162203
0.0629435 0.0598611 0.014313
0.0980392 0.0616617 0.00999466
0.142687 0.0595254 0.00607309
0.194385 0.0471504 0.0012665
0.248249 0.0290837 0.00134279
0.319249 0.00421149 0.00122072
0.414786 0 0.000366217
0.526619 0 0.000137331
0.630533 0 0
0.728756 0 0
0.835187 0 0
0.93669 0 0
0.983398 0 0
0.976532 0 0
0.942382 0.0841535 0
0.90985 0.261036 0
0.88629 0.370779 0
0.873732 0.461906 0
0.870634 0.542519 0.0283055
0.873716 0.622049 0.161059
0.881575 0.697185 0.286702
0.890959 0.760678 0.406683
0.899001 0.811368 0.512825
0.906233 0.853132 0.611948
0.914626 0.882399 0.700984
0.923583 0.907912 0.772168
0.934417 0.927092 0.824887
0.000228885 0.0826276 0.0153201
0.000213626 0.0838788 0.0153506
0.000198367 0.0846418 0.0153811
0.00030518 0.0852522 0.0153658
0.00282292 0.0873579 0.0149996
0.0267643 0.0905013 0.0168307
0.0678416 0.0934462 0.0218051
0.105104 0.0993057 0.0155795
0.150591 0.0999924 0.0125277
0.197726 0.0978561 0.00503548
0.249516 0.0886397 0.00077821
0.317525 0.0654765 0
0.406821 0.018204 0
0.517082 0 1.5259e-05
0.626078 0 0
0.725673 0 0
0.835233 0 0
0.934585 0 0
0.977005 0 0
0.962219 0 0
0.93225 0.153796 0
0.904997 0.285695 0
0.882795 0.385061 0
0.871809 0.470542 1.5259e-05
0.869825 0.548302 0.0318151
0.873854 0.626154 0.165682
0.881941 0.700008 0.289921
0.891295 0.76231 0.408499
0.899199 0.812299 0.513664
0.906355 0.853681 0.612421
0.914702 0.882658 0.701259
0.923644 0.908034 0.772366
0.934401 0.927199 0.82504
0 0.134554 0.0183261
0 0.135424 0.0183871
0 0.136278 0.0184482
0 0.136721 0.0184939
0 0.136828 0.0184329
0.000198367 0.139528 0.0179141
0.05449 0.137865 0.0255283
0.105791 0.138979 0.0284886
0.151675 0.142351 0.0168765
0.200275 0.140871 0.0141756
0.24773 0.136843 0.00729381
0.301961 0.13048 0.000793469
0.37734 0.11339 0
0.474266 0.0761273 0
0.585428 0.0214237 0
0.703471 0 0
0.823377 0 0
0.92015 0 0
0.957671 0 0
0.944671 0.060914 0
0.919356 0.214023 0
0.897948 0.315251 0
0.879011 0.403357 0
0.869154 0.482216 1.5259e-05
0.869322 0.556527 0.0403754
0.874006 0.631815 0.172152
0.882139 0.703731 0.294469
0.891615 0.764599 0.411017
0.899504 0.813611 0.514885
0.906401 0.854353 0.613062
0.914824 0.88304 0.701671
0.923781 0.908278 0.772702
0.934478 0.927337 0.825208
0 0.185992 0.0185092
0 0.18645 0.0184939
0 0.186801 0.0184939
0 0.18703 0.0184939
0 0.18703 0.0184939
0 0.186557 0.0184024
0.00112917 0.186358 0.018143
0.0905013 0.179004 0.0383917
0.143313 0.18146 0.0322271
0.1935 0.183764 0.0178836
0.245548 0.179767 0.0150149
0.30045 0.175982 0.00825513
0.364477 0.170901 0.000793469
0.443824 0.1626 0
0.539712 0.143633 0
0.646693 0.110536 0
0.761273 0.0567178 0
0.862654 0.0350958 0
0.923934 0.0817273 0
0.926604 0.179782 0
0.908156 0.269642 0
0.890974 0.350439 0
0.874998 0.425605 0
0.867033 0.496605 0.000213626
0.869139 0.567086 0.0513313
0.87422 0.639399 0.18085
0.882673 0.708949 0.300557
0.892073 0.767575 0.414313
0.899794 0.815457 0.516747
0.906661 0.855451 0.614084
0.914931 0.883665 0.702358
0.923919 0.908507 0.773053
0.934539 0.927443 0.82533
0 0.232471 0.0206302
0 0.232685 0.0206302
0 0.232898 0.0206302
0 0.233127 0.0206302
0 0.233234 0.0206302
0 0.233234 0.0206302
0 0.232517 0.0204623
0.00358587 0.231312 0.0214084
0.130755 0.221347 0.0521096
0.182025 0.226291 0.0347753
0.236347 0.226261 0.0189822
0.297612 0.22356 0.0160525
0.364263 0.219043 0.00836194
0.436744 0.217121 0.000732433
0.517739 0.213809 0
0.60853 0.208682 0
0.710155 0.200687 0
0.810727 0.196567 0
0.88838 0.215518 0
0.907988 0.263096 0
0.895811 0.323583 0
0.881971 0.388434 0
0.872038 0.45362 0
0.866773 0.514534 0.000686656
0.86949 0.580163 0.0651102
0.87509 0.649546 0.191806
0.883268 0.71577 0.308537
0.89276 0.771649 0.418769
0.90016 0.817685 0.518822
0.907012 0.856962 0.615442
0.915175 0.884443 0.703075
0.924193 0.908995 0.773724
0.934676 0.927687 0.825605
0 0.280919 0.0204623
0 0.281132 0.0204623
0 0.281331 0.0204623
0 0.281437 0.0204623
0 0.281636 0.0204623
0 0.281636 0.0204623
0 0.281636 0.0204623
0 0.280079 0.0209812
0.0552377 0.274006 0.0364233
0.172366 0.266484 0.0659037
0.22504 0.272908 0.0376287
0.289189 0.274495 0.0200656
0.361563 0.271717 0.0167544
0.436851 0.271229 0.00794995
0.512657 0.27216 0.000503548
0.590585 0.276631 0
0.679423 0.280766 0
0.773342 0.286809 0
0.856046 0.302449 0
0.890715 0.333471 0
0.883925 0.379156 0
0.874617 0.429923 0
0.868193 0.483818 0
0.867094 0.537423 0.00950637
0.870436 0.598001 0.0879072
0.87689 0.662699 0.205386
0.884443 0.724743 0.318273
0.893614 0.777218 0.425025
0.900786 0.820996 0.522271
0.907347 0.858869 0.617166
0.915511 0.885466 0.704128
0.924544 0.909606 0.774548
0.934874 0.928054 0.826017
0 0.336538 0.0220188
0 0.336767 0.0220188
0 0.336996 0.0220188
0 0.337224 0.022034
0 0.337346 0.022034
0 0.337453 0.022034
0 0.33756 0.022034
0 0.337316 0.0219272
0 0.335546 0.0215305
0.114061 0.324163 0.0583963
0.217517 0.321462 0.0793164
0.274022 0.329625 0.0408331
0.352087 0.330892 0.0219883
0.433295 0.330907 0.0199435
0.51107 0.332509 0.00968948
0.584375 0.33962 0.00077821
0.665278 0.350286 0
0.748165 0.361028 0
0.830655 0.377783 0
0.875425 0.400336 0
0.873838 0.434256 0
0.869368 0.474647 0
0.866728 0.516899 0.000717174
0.867918 0.564843 0.0320592
0.872328 0.620508 0.115908
0.879103 0.67892 0.221363
0.886076 0.735927 0.330236
0.894743 0.784176 0.433097
0.901625 0.825299 0.52723
0.90782 0.861341 0.619455
0.915892 0.886992 0.705715
0.925017 0.91046 0.775708
0.935149 0.928557 0.826581
0 0.404486 0.0229801
0 0.40473 0.0230106
0 0.404837 0.0230259
0 0.405081 0.0230564
0 0.405188 0.0230869
0 0.40531 0.0231022
0 0.405539 0.0231327
0 0.405661 0.0231479
0 0.405203 0.0229191
0 0.402441 0.0267491
0.18024 0.385657 0.0886091
0.272068 0.388006 0.0970016
0.340688 0.397925 0.0488441
0.424552 0.402319 0.0310674
0.50576 0.404929 0.0337987
0.583963 0.40824 0.025742
0.66041 0.415625 0.00367742
0.736904 0.428504 0.000122072
0.809384 0.444205 0
0.864652 0.463874 0
0.867124 0.488457 0
0.866651 0.518257 0.00123598
0.867414 0.554589 0.021912
0.870436 0.597574 0.0742809
0.875257 0.646647 0.146471
0.881804 0.698756 0.238941
0.887953 0.749157 0.344228
0.896193 0.792905 0.442679
0.902785 0.830839 0.533562
0.908766 0.864622 0.623117
0.916503 0.888914 0.707729
0.925536 0.911543 0.777249
0.935561 0.92929 0.827436
0 0.474647 0.0368963
0 0.474769 0.0369268
0 0.474891 0.0369573
0 0.475013 0.0370031
0 0.475135 0.0370336
0 0.475257 0.0370642
0 0.47538 0.0370947
0 0.475502 0.0371252
0 0.475502 0.0371252
0 0.474479 0.0365911
0.0122072 0.468376 0.0538033
0.263355 0.453971 0.125719
0.346197 0.459281 0.120211
0.418936 0.470954 0.0710155
0.500816 0.47483 0.0575418
0.579614 0.476158 0.0636759
0.658991 0.481254 0.0608988
0.732631 0.490684 0.0386206
0.797818 0.503456 0.0160067
0.853086 0.520119 0.00410468
0.865354 0.540383 0.0118257
0.867826 0.56553 0.0328832
0.87039 0.597192 0.0737774
0.874495 0.635004 0.124529
0.879789 0.675761 0.177905
0.885039 0.721172 0.257206
0.890654 0.764385 0.359197
0.898116 0.803479 0.453635
0.904112 0.837629 0.541543
0.910002 0.868513 0.62829
0.917189 0.891356 0.710185
0.926284 0.912886 0.779065
0.935912 0.929885 0.828092
0 0.546029 0.0670176
0 0.546151 0.0670787
0 0.546151 0.0670787
0 0.546273 0.0671397
0 0.546273 0.0671397
0 0.546395 0.0672007
0 0.546395 0.0672007
0 0.546395 0.0672007
0 0.546151 0.0670787
0 0.545922 0.0669566
0 0.544335 0.0685588
0.203693 0.532357 0.115328
0.357168 0.523323 0.169131
0.427283 0.530678 0.151644
0.497505 0.541756 0.105165
0.57583 0.54609 0.0990616
0.655283 0.547005 0.107088
0.72987 0.554894 0.107286
0.791638 0.563851 0.0983291
0.843641 0.578714 0.0794842
0.866575 0.596963 0.0779583
0.872312 0.618906 0.103746
0.875776 0.645075 0.137011
0.879942 0.675242 0.171771
0.88426 0.708446 0.208911
0.88867 0.745968 0.27483
0.893935 0.781521 0.376181
0.900511 0.816022 0.466911
0.905608 0.845685 0.551507
0.911589 0.873487 0.635615
0.918105 0.894575 0.713756
0.927275 0.914824 0.781811
0.935836 0.929824 0.827863
0.0200046 0.619089 0.111055
0.0200046 0.619089 0.111055
0.0203708 0.619226 0.111116
0.0203708 0.619226 0.111116
0.0203708 0.619226 0.111116
0.0203708 0.619226 0.111116
0.0200046 0.619089 0.111055
0.0196536 0.618952 0.110979
0.0189212 0.618677 0.110826
0.0171359 0.618006 0.110445
0.0157168 0.617105 0.109911
0.148394 0.612482 0.120012
0.351186 0.594644 0.189319
0.446998 0.594507 0.217838
0.508888 0.603601 0.193851
0.576074 0.613855 0.153124
0.652964 0.618097 0.148699
0.727016 0.622629 0.156634
0.787686 0.630716 0.161303
0.836362 0.64268 0.159777
0.868971 0.657801 0.158556
0.878737 0.674434 0.17171
0.882399 0.694286 0.19173
0.885664 0.717006 0.21471
0.889555 0.742885 0.240375
0.893004 0.771984 0.291203
0.897581 0.800748 0.394781
0.903151 0.829999 0.482918
0.907485 0.855283 0.563775
0.913436 0.879484 0.645151
0.919951 0.898573 0.720058
0.928527 0.91725 0.78529
0.935821 0.929763 0.827497
0.175662 0.697108 0.159167
0.175662 0.697108 0.159167
0.175662 0.697108 0.159167
0.175662 0.697108 0.159167
0.175463 0.696956 0.15906
0.17525 0.696788 0.158968
0.175051 0.696635 0.158862
0.17464 0.696315 0.158663
0.173831 0.695674 0.158251
0.172808 0.694865 0.157748
0.170977 0.693431 0.156832
0.186435 0.689342 0.157443
0.319127 0.680339 0.188403
0.461158 0.667369 0.258915
0.534417 0.670176 0.276783
0.592508 0.67892 0.248096
0.656031 0.688151 0.207156
0.72668 0.692866 0.201968
0.784741 0.699138 0.210559
0.831403 0.705501 0.217914
0.867643 0.715831 0.222309
0.884153 0.728222 0.226841
0.88925 0.74229 0.238941
0.892073 0.758679 0.253513
0.894957 0.777005 0.269917
0.897505 0.798642 0.311177
0.901579 0.821424 0.416175
0.905959 0.84506 0.501976
0.910185 0.866072 0.580026
0.915572 0.886503 0.656809
0.922118 0.903319 0.728527
0.930037 0.920165 0.789624
0.935744 0.929671 0.827131
0.268238 0.769055 0.210391
0.268238 0.769055 0.210391
0.268238 0.769055 0.210391
0.268238 0.769055 0.210391
0.268238 0.769055 0.210391
0.26804 0.768887 0.2103
0.26743 0.768414 0.209979
0.266819 0.767926 0.209674
0.265812 0.767132 0.209155
0.264378 0.766018 0.208423
0.262348 0.764431 0.207385
0.259892 0.761181 0.205066
0.321294 0.756008 0.211368
0.466239 0.744717 0.273732
0.564065 0.73872 0.326619
0.624826 0.741558 0.335943
0.677531 0.748089 0.306355
0.732998 0.75523 0.26836
0.784924 0.759182 0.256184
0.829541 0.76434 0.260822
0.864073 0.769985 0.266545
0.887831 0.777173 0.271199
0.895598 0.786038 0.277119
0.898253 0.796963 0.285039
0.900282 0.809659 0.29601
0.902464 0.826185 0.339483
0.905608 0.842939 0.440726
0.909072 0.860868 0.523781
0.913573 0.877836 0.600092
0.918257 0.894682 0.67097
0.924758 0.908965 0.739574
0.931991 0.923842 0.795438
0.935668 0.929564 0.826642
0.344045 0.828595 0.250614
0.344045 0.828595 0.250614
0.344045 0.828595 0.250614
0.344045 0.828595 0.250614
0.344045 0.828595 0.250614
0.343847 0.828428 0.250507
0.343435 0.828107 0.250278
0.342428 0.827314 0.249699
0.341207 0.826352 0.249027
0.339376 0.824918 0.248005
0.337133 0.823148 0.246754
0.333883 0.820127 0.244587
0.358785 0.814099 0.244892
0.476448 0.806561 0.280049
0.589944 0.79646 0.347524
0.658106 0.794827 0.383291
0.707118 0.795651 0.387442
0.747875 0.801801 0.35761
0.790738 0.807202 0.31873
0.830167 0.811337 0.302235
0.862394 0.815137 0.301488
0.888777 0.819181 0.303822
0.900633 0.824918 0.30428
0.904311 0.831846 0.306264
0.905715 0.84007 0.316686
0.908095 0.851682 0.377264
0.909758 0.863951 0.468681
0.913634 0.876097 0.550973
0.917159 0.890639 0.622812
0.922103 0.903563 0.690684
0.927855 0.915526 0.752712
0.934676 0.928481 0.80383
0.935576 0.929488 0.826322
0.411444 0.873381 0.27068
0.411444 0.873381 0.27068
0.411444 0.873381 0.27068
0.411444 0.873381 0.27068
0.411444 0.873381 0.27068
0.411444 0.873381 0.27068
0.4112 0.873228 0.270634
0.410239 0.872648 0.270466
0.408545 0.871611 0.270161
0.406119 0.870146 0.269734
0.40322 0.868376 0.269215
0.399268 0.865415 0.268162
0.418311 0.859495 0.268025
0.516991 0.852934 0.293965
0.619074 0.844968 0.352972
0.690044 0.839811 0.406592
0.73637 0.838422 0.42829
0.771374 0.840085 0.425803
0.803479 0.844633 0.397131
0.835218 0.848859 0.358511
0.863355 0.85211 0.336294
0.888212 0.855177 0.325841
0.904585 0.858488 0.321996
0.910246 0.86215 0.321904
0.911513 0.866773 0.34197
0.913085 0.873808 0.396643
0.914336 0.88304 0.501488
0.918364 0.891417 0.582284
0.921584 0.903639 0.654994
0.92639 0.913069 0.712062
0.931334 0.922728 0.767575
0.934752 0.928435 0.805203
0.935515 0.92958 0.827039
0.482689 0.905913 0.403403
0.482689 0.905913 0.403403
0.482689 0.905913 0.403403
0.482689 0.905913 0.403403
0.482689 0.905913 0.403403
0.482689 0.905913 0.403403
0.482689 0.905913 0.403403
0.482689 0.905913 0.403403
0.480247 0.904906 0.397681
0.476402 0.903319 0.388693
0.471855 0.901442 0.378073
0.466194 0.899062 0.365209
0.480064 0.893187 0.344228
0.576989 0.886442 0.351553
0.658137 0.880507 0.385077
0.720958 0.874769 0.426215
0.7626 0.871427 0.444114
0.79324 0.871138 0.444297
0.820798 0.873762 0.420447
0.844953 0.876509 0.381567
0.869032 0.879194 0.405676
0.891279 0.88191 0.415167
0.909026 0.884764 0.374151
0.916259 0.886793 0.35256
0.91722 0.889006 0.362966
0.918486 0.894789 0.441062
0.920546 0.900465 0.553368
0.924331 0.90695 0.631189
0.926528 0.916121 0.691691
0.930816 0.922866 0.734371
0.933745 0.927703 0.779324
0.93492 0.928374 0.806943
0.93547 0.929778 0.828275
0.516548 0.919921 0.482658
0.516548 0.919921 0.482658
0.516548 0.919921 0.482658
0.516548 0.919921 0.482658
0.516548 0.919921 0.482658
0.516548 0.919921 0.482658
0.516548 0.919921 0.482658
0.516548 0.919921 0.482658
0.516548 0.919921 0.482658
0.516548 0.919921 0.482658
0.516548 0.919921 0.482658
0.515419 0.917861 0.46891
0.561456 0.916899 0.448463
0.639139 0.912535 0.454902
0.69868 0.908049 0.46978
0.747967 0.904036 0.49041
0.78378 0.900313 0.498405
0.81178 0.898787 0.493431
0.837293 0.899733 0.46952
0.857954 0.900694 0.418494
0.878294 0.90248 0.463203
0.898085 0.904646 0.582727
0.913237 0.906706 0.521035
0.92195 0.907988 0.485481
0.925032 0.908644 0.37995
0.926513 0.913329 0.535637
0.928145 0.916121 0.621012
0.929854 0.921645 0.681529
0.931228 0.927779 0.726848
0.933028 0.927962 0.749111
0.933547 0.927642 0.783642
0.935195 0.928313 0.809232
0.935363 0.930053 0.830045
0.516548 0.919921 0.482658
0.516548 0.919921 0.482658
0.516548 0.919921 0.482658
0.516548 0.919921 0.482658
0.516548 0.919921 0.482658
0.516548 0.919921 0.482658
0.516548 0.919921 0.482658
0.516548 0.919921 0.482658
0.516548 0.919921 0.482658
0.516548 0.919921 0.482658
0.516548 0.919921 0.482658
0.530373 0.916991 0.455711
0.604578 0.914183 0.447852
0.666194 0.912795 0.463233
0.720058 0.911055 0.487785
0.761883 0.910384 0.508568
0.795102 0.910674 0.518395
0.821988 0.911727 0.516609
0.847013 0.914397 0.498024
0.867308 0.91664 0.443641
0.885954 0.918959 0.473899
0.904662 0.921874 0.685084
0.916655 0.923232 0.567788
0.925582 0.92134 0.311192
0.931914 0.925063 0.52845
0.932097 0.925628 0.617212
0.932082 0.925536 0.673594
0.931533 0.928252 0.71107
0.932067 0.928115 0.733852
0.932967 0.927855 0.758694
0.933349 0.927779 0.789563
0.935241 0.928313 0.812314
0.935317 0.930434 0.832212
0.541115 0.917037 0.452155
0.541115 0.917037 0.452155
0.541115 0.917037 0.452155
0.541115 0.917037 0.452155
0.541115 0.917037 0.452155
0.541115 0.917037 0.452155
0.541115 0.917037 0.452155
0.541115 0.917037 0.452155
0.541115 0.917037 0.452155
0.541115 0.917037 0.452155
0.541238 0.917037 0.45214
0.582223 0.915831 0.446799
0.643824 0.912596 0.455817
0.697292 0.911376 0.475929
0.740719 0.911162 0.498482
0.773571 0.91014 0.512718
0.801587 0.910918 0.519249
0.825467 0.911818 0.515816
0.847608 0.914366 0.497459
0.865873 0.916106 0.457694
0.883406 0.917311 0.409491
0.898787 0.919829 0.442329
0.913527 0.921035 0.470512
0.92517 0.92462 0.548531
0.930404 0.92546 0.610834
0.931609 0.925383 0.661341
0.931502 0.926986 0.698894
0.931029 0.928435 0.725856
0.932677 0.927871 0.741466
0.933013 0.927642 0.77171
0.933227 0.9281 0.797086
0.935088 0.928359 0.816434
0.935531 0.930526 0.83447
0.633417 0.912139 0.437934
0.633417 0.912139 0.437934
0.633417 0.912139 0.437934
0.633417 0.912139 0.437934
0.633417 0.912139 0.437934
0.633417 0.912139 0.437934
0.633417 0.912139 0.437934
0.633417 0.912139 0.437934
0.633417 0.912139 0.437934
0.633417 0.912139 0.437934
0.633417 0.912139 0.437934
0.643702 0.913405 0.46595
0.675486 0.91368 0.475319
0.717433 0.911925 0.495094
0.75581 0.911482 0.520378
0.785595 0.911254 0.541787
0.810391 0.911833 0.558801
0.832349 0.912352 0.570291
0.852064 0.91342 0.57818
0.87039 0.915022 0.593988
0.885801 0.91722 0.608484
0.899443 0.920974 0.616648
0.911452 0.92314 0.627771
0.922377 0.924178 0.641398
0.928725 0.92491 0.667369
0.930953 0.926543 0.695872
0.9308 0.928542 0.720882
0.931945 0.927947 0.735561
0.932494 0.92784 0.755901
0.932921 0.92755 0.782452
0.933776 0.928222 0.804349
0.93492 0.92842 0.821424
0.936004 0.930449 0.836988
0.707958 0.91458 0.45922
0.707958 0.91458 0.45922
0.707958 0.91458 0.45922
0.707958 0.91458 0.45922
0.707958 0.91458 0.45922
0.707958 0.91458 0.45922
0.707958 0.91458 0.45922
0.707958 0.91458 0.45922
0.707958 0.91458 0.45922
0.707958 0.91458 0.45922
0.707958 0.91458 0.45922
0.707958 0.91458 0.45922
0.71664 0.914275 0.462501
0.739193 0.913268 0.476188
0.769131 0.913329 0.512856
0.796872 0.913191 0.548089
0.820294 0.913985 0.598795
0.840986 0.914061 0.623392
0.858747 0.915755 0.657115
0.874464 0.916793 0.675319
0.88751 0.9187 0.687877
0.899977 0.920562 0.693339
0.910246 0.922194 0.698177
0.920104 0.923919 0.698787
0.926879 0.926452 0.708339
0.930114 0.928405 0.72282
0.931472 0.927962 0.734783
0.932189 0.92784 0.75024
0.932631 0.927565 0.775311
0.932876 0.927932 0.7953
0.93489 0.928161 0.811383
0.934874 0.929427 0.82739
0.936675 0.930388 0.839963
0.758572 0.917662 0.569833
0.758572 0.917662 0.569833
0.758572 0.917662 0.569833
0.758572 0.917662 0.569833
0.758572 0.917662 0.569833
0.758572 0.917662 0.569833
0.758572 0.917662 0.569833
0.758572 0.917662 0.569833
0.758572 0.917662 0.569833
0.758572 0.917662 0.569833
0.758572 0.917662 0.569833
0.758572 0.917662 0.569833
0.758572 0.917662 0.569833
0.764126 0.917708 0.572366
0.78143 0.917647 0.583383
0.805234 0.916884 0.604715
0.829023 0.915877 0.632349
0.849058 0.915694 0.658625
0.864866 0.916579 0.679286
0.878614 0.917571 0.698833
0.89073 0.918227 0.71545
0.901579 0.920104 0.724804
0.911299 0.922179 0.733532
0.91902 0.925002 0.732082
0.92575 0.927169 0.735714
0.931121 0.927596 0.738018
0.93196 0.92781 0.752148
0.932433 0.927535 0.773816
0.932677 0.927672 0.790753
0.933898 0.928115 0.806699
0.934707 0.928328 0.820249
0.935073 0.93048 0.833875
0.937041 0.930266 0.843366
0.79884 0.919799 0.650065
0.79884 0.919799 0.650065
0.79884 0.919799 0.650065
0.79884 0.919799 0.650065
0.79884 0.919799 0.650065
0.79884 0.919799 0.650065
0.79884 0.919799 0.650065
0.79884 0.919799 0.650065
0.79884 0.919799 0.650065
0.79884 0.919799 0.650065
0.79884 0.919799 0.650065
0.79884 0.919799 0.650065
0.798764 0.919799 0.650034
0.798764 0.919799 0.650034
0.802625 0.919875 0.651926
0.81593 0.920348 0.661128
0.834699 0.920516 0.677424
0.852842 0.919982 0.697246
0.868681 0.919234 0.718425
0.881819 0.919875 0.73431
0.893248 0.921218 0.748196
0.902815 0.922881 0.753414
0.911254 0.924331 0.759686
0.919112 0.925643 0.760235
0.925978 0.926802 0.762905
0.930312 0.927321 0.769406
0.932189 0.927459 0.779461
0.932525 0.927718 0.792508
0.933608 0.9281 0.805707
0.934646 0.928222 0.817288
0.934768 0.929793 0.829587
0.936278 0.930358 0.839246
0.936934 0.930068 0.847227
0.830274 0.921889 0.710796
0.830274 0.921889 0.710796
0.830274 0.921889 0.710796
0.830274 0.921889 0.710796
0.830274 0.921889 0.710796
0.830274 0.921889 0.710796
0.830274 0.921889 0.710796
0.830274 0.921889 0.710796
0.830274 0.921889 0.710796
