BBLuts/BB_106_0170_LUT.cube
TITLE "Generated by Resolve"
LUT_3D_SIZE 5
0.0137179 0.0137179 0.0137179
0.186297 0.0133822 0.0138399
0.733837 0.0121767 0.0142672
0.965988 0.481971 0.161257
0.981598 0.87216 0.785733
0.0212711 0.198215 0.0145724
0.172137 0.200381 0.0146944
0.742184 0.0777447 0.0145724
0.968261 0.544198 0.13492
0.981643 0.873152 0.785306
0.0445716 0.713787 0.0171969
0.0445411 0.713329 0.0171969
0.713985 0.701259 0.0176394
0.976593 0.751278 0.018143
0.981933 0.880079 0.781826
0.63389 0.917861 0.278416
0.666651 0.917372 0.28014
0.804105 0.911635 0.294331
0.979706 0.902358 0.418036
0.983063 0.907759 0.798108
0.95697 0.916457 0.876921
0.95729 0.916457 0.876951
0.959808 0.916442 0.877226
0.975296 0.916411 0.880018
0.983429 0.916365 0.904051
0.0137331 0.0134737 0.194186
0.166293 0.0131685 0.194217
0.733608 0.0119173 0.197253
0.965484 0.467292 0.312856
0.981598 0.8719 0.79707
0.0200504 0.168124 0.179385
0.177157 0.164691 0.175402
0.734447 0.0119478 0.181659
0.967895 0.533761 0.29752
0.981628 0.872892 0.796674
0.0444038 0.710521 0.0171817
0.0443732 0.710002 0.0171817
0.71899 0.697963 0.0176242
0.976532 0.749584 0.15404
0.981918 0.87985 0.793561
0.639185 0.917845 0.278065
0.670985 0.917174 0.279805
0.805646 0.911528 0.294041
0.979797 0.902312 0.41799
0.983063 0.907744 0.798032
0.957015 0.916457 0.876905
0.957351 0.916457 0.876951
0.959854 0.916442 0.877226
0.975311 0.916411 0.880018
0.983429 0.916365 0.904051
0.0137636 0.0126802 0.72462
0.0137636 0.0126802 0.724834
0.739452 0.0111086 0.720668
0.959258 0.284184 0.741634
0.981521 0.869856 0.856291
0.0137636 0.0126802 0.722972
0.0137636 0.0126802 0.723201
0.748226 0.0110933 0.718883
0.963561 0.411032 0.73843
0.981567 0.870909 0.856046
0.0420233 0.66215 0.688609
0.0420386 0.662486 0.688899
0.696818 0.651896 0.690532
0.975662 0.726864 0.715953
0.981857 0.878233 0.854261
0.644373 0.916732 0.551141
0.674449 0.915679 0.552026
0.803983 0.910231 0.559304
0.975418 0.901228 0.625101
0.983047 0.907301 0.839231
0.957412 0.916457 0.87686
0.957748 0.916457 0.876905
0.960204 0.916442 0.87718
0.975464 0.916411 0.879973
0.983429 0.916365 0.904051
0.0137789 0.012253 0.969787
0.0137789 0.012253 0.969787
0.0137789 0.012253 0.969787
0.950271 0.0101625 0.970367
0.980453 0.843595 0.958404
0.0137789 0.012253 0.969787
0.0137789 0.012253 0.969787
0.0137789 0.012253 0.969787
0.950271 0.0101625 0.970367
0.980545 0.845792 0.958236
0.0137789 0.012253 0.969787
0.0137789 0.012253 0.969787
0.224094 0.011841 0.969909
0.950271 0.0101625 0.970367
0.981125 0.859892 0.957153
0.0550851 0.917983 0.950729
0.0550698 0.917678 0.950561
0.664988 0.906035 0.949905
0.958358 0.893111 0.949294
0.98291 0.903761 0.953033
0.955398 0.916381 0.92871
0.955703 0.916381 0.928725
0.958083 0.916381 0.928832
0.972869 0.91635 0.930022
0.983429 0.91632 0.940688
0.0259098 0.308034 0.970886
0.0259098 0.308034 0.970886
0.0259098 0.308049 0.970886
0.0259251 0.308171 0.970886
0.973266 0.667674 0.972961
0.0259098 0.308019 0.970886
0.0259098 0.308019 0.970886
0.0259098 0.308034 0.970886
0.0259098 0.308171 0.970886
0.973266 0.667765 0.972961
0.0259098 0.307912 0.970886
0.0259098 0.307927 0.970886
0.0259098 0.307927 0.970886
0.0259098 0.308064 0.970886
0.973297 0.668391 0.972961
0.025864 0.306859 0.970871
0.025864 0.306859 0.970871
0.025864 0.306874 0.970871
0.950271 0.0101625 0.970367
0.973388 0.67071 0.972976
0.899474 0.916442 0.974044
0.900954 0.916426 0.974044
0.911345 0.916411 0.974044
0.956985 0.91632 0.974075
0.983429 0.916274 0.974105
