BBLuts/BB_102_0288_LUT.cube
TITLE "Generated by Resolve"
LUT_3D_SIZE 5
0 0 0
0.285893 0 0
0.935592 0 0
1 0.625971 0.00393683
0.983825 0.933059 0.760113
0 0.304036 0
0.165393 0.309056 0
0.902098 0.11371 0
1 0.666056 0
0.98378 0.93344 0.759823
0 0.845106 0
0 0.844907 0
0.743496 0.811917 0
1 0.837858 0
0.983185 0.938186 0.755779
0.605692 1 0.175036
0.605692 1 0.175036
0.763775 0.987961 0.192508
0.978882 0.96347 0.412528
0.979355 0.962631 0.78175
0.942245 0.973022 0.869001
0.942245 0.973022 0.869001
0.942245 0.973022 0.869001
0.959915 0.971862 0.870604
0.975113 0.970428 0.895323
0 0 0.333364
0.226017 0 0.33518
0.930129 0 0.313115
0.900877 0.664912 0.185107
0.983825 0.933059 0.760128
0 0.238911 0.256443
0.169192 0.236759 0.252995
0.925124 0 0.281834
0.951782 0.685496 0.202533
0.98378 0.933425 0.759823
0 0.841443 0
0 0.84123 0
0.748348 0.808072 0
1 0.835294 0
0.983185 0.938186 0.755779
0.612955 1 0.173785
0.612955 1 0.173785
0.765988 0.987747 0.191424
0.978958 0.963424 0.412192
0.979355 0.962631 0.78175
0.942275 0.973022 0.869017
0.942275 0.973022 0.869017
0.942275 0.973022 0.869017
0.959945 0.971862 0.870588
0.975113 0.970428 0.895323
0 0 0.956542
0 0 0.956634
0.902876 0 0.929015
1 0.328344 0.852644
0.981888 0.929747 0.847532
0 0 0.955489
0 0 0.95555
0.912123 0 0.927306
1 0.526253 0.821302
0.981933 0.930114 0.84744
0 0.781689 0.787274
0 0.781735 0.787289
0.701793 0.752392 0.770932
1 0.800381 0.762264
0.981155 0.935164 0.84506
0.596597 0.992981 0.642374
0.596597 0.992981 0.642374
0.744488 0.981018 0.639567
0.967483 0.958846 0.672099
0.978286 0.961456 0.824826
0.942809 0.972992 0.868925
0.942809 0.972992 0.868925
0.942809 0.972992 0.868925
0.960143 0.971847 0.870512
0.975113 0.970428 0.895308
0 0 1
0 0 1
0 0 1
1 0 1
0.982696 0.899626 0.969146
0 0 1
0 0 1
0 0 1
1 0 1
0.982651 0.900694 0.969009
0 0 1
0 0 1
0 0 1
1 0 1
0.981262 0.912535 0.966522
0 1 0.987411
0 1 0.987411
0 1 0.987411
0.943587 0.947555 0.957153
0.972854 0.956695 0.953338
0.937102 0.972015 0.938567
0.937102 0.972015 0.938567
0.937102 0.972015 0.938567
0.953628 0.970993 0.938155
0.974075 0.969726 0.944228
0 0.399924 1
0 0.399924 1
0 0.399924 1
0 0.400015 1
1 0.700923 1
0 0.399924 1
0 0.399924 1
0 0.399924 1
0 0.400015 1
1 0.700923 1
0 0.399924 1
0 0.399924 1
0 0.399924 1
0 0.400015 1
1 0.700923 1
0 0.398306 1
0 0.398306 1
0 0.398306 1
0 0.398367 1
1 0.704234 1
0.870619 0.975082 0.982025
0.870619 0.975082 0.982025
0.870619 0.975082 0.982025
0.870619 0.975082 0.982025
0.973465 0.969421 0.976761
