BBLuts/BB_101_0210_LUT.cube
TITLE "Generated by Resolve"
LUT_3D_SIZE 33
0.0221561 0.0221408 0.0221561
0.0221561 0.0221408 0.0221561
0.0221561 0.0221408 0.0221561
0.0221561 0.0221408 0.0221561
0.0221561 0.0221408 0.0221561
0.0783703 0.0222934 0.0222934
0.142885 0.0226444 0.0226444
0.18912 0.0229801 0.0229801
0.235096 0.0233463 0.0233463
0.288075 0.0238041 0.0238041
0.348272 0.0243839 0.0243839
0.411856 0.0250553 0.0250553
0.482719 0.0258335 0.0258488
0.557671 0.0267948 0.0267948
0.631174 0.027924 0.027924
0.706493 0.02916 0.02916
0.783597 0.030457 0.030457
0.860761 0.0317845 0.0317845
0.9308 0.0329747 0.03299
0.985565 0.0339361 0.0339361
0.995651 0.0341039 0.0341192
0.995651 0.0341039 0.0341192
0.991821 0.218631 0.0834058
0.990036 0.408087 0.127611
0.989273 0.533272 0.174548
0.9888 0.625528 0.229099
0.988479 0.704524 0.295399
0.98822 0.771725 0.386191
0.988037 0.823087 0.48394
0.9879 0.862608 0.572854
0.987793 0.893111 0.647593
0.987716 0.916121 0.719203
0.987671 0.934554 0.781491
0.0221561 0.0221408 0.0221561
0.0221561 0.0221408 0.0221561
0.0221561 0.0221408 0.0221561
0.0221561 0.0221408 0.0221561
0.0221561 0.0221408 0.0221561
0.0914321 0.0223392 0.0223545
0.147356 0.0226749 0.0226749
0.192767 0.0229953 0.0230106
0.240681 0.0233921 0.0233921
0.294453 0.0238651 0.0238651
0.354543 0.024445 0.024445
0.417029 0.0251011 0.0251164
0.485832 0.0258793 0.0258793
0.559548 0.0268254 0.0268254
0.632578 0.0279393 0.0279545
0.707469 0.0291752 0.0291752
0.784192 0.0304723 0.0304723
0.861036 0.0317845 0.0317845
0.930709 0.0329747 0.03299
0.985199 0.0339208 0.0339361
0.995651 0.0341039 0.0341192
0.995651 0.0341039 0.0341192
0.991455 0.255924 0.0641184
0.989975 0.422538 0.120989
0.989258 0.54136 0.171099
0.9888 0.630198 0.227237
0.988479 0.707744 0.293416
0.98822 0.773663 0.385199
0.988037 0.824186 0.483406
0.9879 0.863249 0.57258
0.987793 0.893477 0.647456
0.987716 0.91635 0.719112
0.987671 0.934676 0.78143
0.0221561 0.0221408 0.0221561
0.0221561 0.0221408 0.0221561
0.0221561 0.0221408 0.0221561
0.0221561 0.0221408 0.0221561
0.0221561 0.0221408 0.0221561
0.0991836 0.022385 0.022385
0.148882 0.0226902 0.0226902
0.196231 0.0230259 0.0230411
0.246509 0.0234379 0.0234379
0.300359 0.0239261 0.0239261
0.359304 0.0244907 0.024506
0.419806 0.0251316 0.0251469
0.488396 0.0259098 0.0259098
0.561547 0.0268406 0.0268559
0.633982 0.0279698 0.0279698
0.708431 0.0291905 0.0292058
0.784787 0.0304875 0.0304875
0.861311 0.0317845 0.0317845
0.930602 0.0329747 0.03299
0.984817 0.0339208 0.0339208
0.995651 0.0341039 0.0341192
0.995651 0.0341039 0.0341192
0.991302 0.286213 0.0276493
0.989914 0.436225 0.113649
0.989227 0.549111 0.167544
0.988785 0.63476 0.225345
0.988479 0.710918 0.291508
0.98822 0.775555 0.384192
0.988037 0.825254 0.482887
0.9879 0.863905 0.57229
0.987793 0.893828 0.647288
0.987716 0.916564 0.719005
0.987671 0.934813 0.781369
0.0221561 0.0221408 0.0221561
0.0221561 0.0221408 0.0221561
0.0221561 0.0221408 0.0221561
0.0221561 0.0289464 0.0221561
0.0487373 0.03505 0.0221714
0.105119 0.0224155 0.0224155
0.149599 0.0226902 0.0226902
0.196536 0.0230259 0.0230411
0.247486 0.0234531 0.0234531
0.302754 0.0239414 0.0239567
0.362402 0.0245212 0.0245365
0.422324 0.0251621 0.0251621
0.490852 0.0259251 0.0259403
0.563561 0.0268711 0.0268711
0.635416 0.027985 0.0280003
0.709422 0.0292058 0.029221
0.785382 0.0304875 0.0304875
0.861555 0.0317845 0.0317998
0.930465 0.0329747 0.0329747
0.984421 0.0339208 0.0339208
0.995651 0.0341039 0.0341192
0.995651 0.0341039 0.0341192
0.991073 0.312062 0.0273136
0.989868 0.449302 0.105348
0.989212 0.556573 0.163882
0.988785 0.639246 0.223453
0.988464 0.714 0.290608
0.98822 0.777432 0.383185
0.988037 0.826322 0.482353
0.9879 0.86453 0.572015
0.987793 0.894194 0.64715
0.987716 0.916793 0.718914
0.987671 0.934951 0.781323
0.0223239 0.084123 0.0223239
0.0223392 0.0875563 0.0223392
0.0223545 0.0908827 0.0223697
0.0223697 0.0940719 0.0223697
0.022385 0.0953231 0.022385
0.0958114 0.0944686 0.0222171
0.144121 0.0919814 0.0222934
0.192935 0.0860456 0.0224765
0.245899 0.072282 0.0228428
0.303807 0.0239567 0.0239567
0.364172 0.0245365 0.0245518
0.424613 0.0251926 0.0251926
0.493217 0.0259556 0.0259709
0.565606 0.0269017 0.0269017
0.636881 0.0280156 0.0280156
0.710414 0.0292363 0.0292363
0.785962 0.0305028 0.0305028
0.861769 0.0317998 0.0317998
0.930327 0.0329747 0.0329747
0.984009 0.0339055 0.0339055
0.995651 0.0341039 0.0341192
0.994034 0.0931563 0.0317235
0.99089 0.334905 0.027039
0.989822 0.461891 0.0956283
0.989197 0.563729 0.160098
0.988769 0.643641 0.22153
0.988464 0.717021 0.289723
0.98822 0.779263 0.382177
0.988037 0.827375 0.481804
0.9879 0.865171 0.57174
0.987793 0.894545 0.646998
0.987716 0.917006 0.718822
0.987671 0.935073 0.781262
0.0262913 0.120226 0.0262913
0.0276646 0.122347 0.0276799
0.0292058 0.124361 0.0292058
0.030518 0.125917 0.030518
0.0311742 0.126635 0.0311742
0.0746471 0.129839 0.0234684
0.134554 0.12845 0.0312047
0.188128 0.126818 0.0223697
0.243244 0.121752 0.0225681
0.302602 0.111772 0.0228885
0.364004 0.0918441 0.0234531
0.426642 0.0252079 0.0252079
0.495613 0.0259861 0.0260014
0.567773 0.0269322 0.0269322
0.638437 0.0280308 0.0280461
0.711467 0.0292515 0.0292515
0.786557 0.0305028 0.030518
0.861997 0.0317998 0.0317998
0.930175 0.0329747 0.0329747
0.983551 0.0339055 0.0339055
0.995651 0.0341039 0.0341192
0.992416 0.185794 0.0293278
0.990723 0.356237 0.0268101
0.989807 0.474372 0.082887
0.989166 0.570977 0.156024
0.988769 0.648142 0.219516
0.988464 0.720104 0.288808
0.98822 0.78114 0.381094
0.988037 0.828473 0.481254
0.9879 0.865812 0.571466
0.987793 0.894911 0.64683
0.987716 0.917235 0.718715
0.987671 0.935225 0.781201
0.0519417 0.148699 0.0519417
0.0525978 0.150668 0.0526131
0.0531014 0.152697 0.0531014
0.0533761 0.153826 0.0533761
0.0535439 0.154559 0.0535439
0.0536049 0.154818 0.0536049
0.124315 0.16199 0.05066
0.17319 0.163485 0.0581216
0.2383 0.163592 0.0224613
0.30042 0.15848 0.0226749
0.363287 0.148791 0.0230106
0.426963 0.132921 0.0235294
0.497078 0.101991 0.0244297
0.57055 0.0269627 0.026978
0.640467 0.0280766 0.0280766
0.71284 0.0292668 0.0292668
0.78735 0.030518 0.0305333
0.862287 0.0317998 0.0318151
0.929946 0.0329595 0.0329747
0.982925 0.0338903 0.0338903
0.995651 0.0341039 0.0341192
0.99173 0.243519 0.0282902
0.990555 0.380896 0.0265507
0.989837 0.489342 0.0547646
0.989151 0.579904 0.15053
0.988754 0.653803 0.216907
0.988464 0.72398 0.287648
0.98822 0.783536 0.379721
0.988037 0.829847 0.480552
0.9879 0.866636 0.571084
0.987793 0.895369 0.646632
0.987716 0.91754 0.718578
0.987671 0.935393 0.781125
0.061799 0.188861 0.061799
0.0622263 0.190631 0.0622416
0.0625467 0.191943 0.0625467
0.0627604 0.192813 0.0627604
0.0629129 0.193439 0.0629129
0.0629892 0.19379 0.0629892
0.0904707 0.195956 0.0651713
0.167926 0.20174 0.0714427
0.220829 0.205478 0.064622
0.294347 0.205081 0.0225834
0.360235 0.198611 0.022797
0.427359 0.189273 0.0231632
0.499336 0.175219 0.0236973
0.572076 0.150942 0.0245365
0.641825 0.0978408 0.0261997
0.714687 0.0292973 0.0292973
0.788418 0.0305333 0.0305486
0.862669 0.0318151 0.0318151
0.92961 0.0329595 0.0329595
0.982071 0.033875 0.033875
0.993118 0.139971 0.0303655
0.991211 0.296284 0.027512
0.990372 0.408835 0.0262913
0.989883 0.507301 0.0255436
0.989136 0.591043 0.142748
0.988739 0.661097 0.213413
0.988449 0.728969 0.286168
0.98822 0.786587 0.37792
0.988037 0.831632 0.479622
0.9879 0.867735 0.570596
0.987793 0.895994 0.646372
0.987716 0.917922 0.71841
0.987671 0.935622 0.781018
0.0730602 0.235401 0.0730602
0.0733654 0.236713 0.0733806
0.0735485 0.23743 0.0735637
0.0737316 0.238178 0.0737316
0.0738537 0.238697 0.0738689
0.0739452 0.239048 0.0739452
0.0740063 0.239261 0.0740063
0.145434 0.244556 0.0796674
0.213748 0.248493 0.085008
0.272312 0.251667 0.0724804
0.352956 0.250858 0.0227054
0.424903 0.244663 0.0229496
0.500862 0.235615 0.0233463
0.575311 0.221988 0.0239261
0.644129 0.202853 0.0247349
0.714809 0.175113 0.025864
0.787869 0.130846 0.0275731
0.863188 0.0318151 0.0318303
0.929122 0.0329442 0.0329595
0.978241 0.147036 0.0299687
0.991623 0.252308 0.0281529
0.990768 0.349401 0.0268864
0.990188 0.44155 0.0260166
0.989792 0.528466 0.0254215
0.98912 0.603601 0.13135
0.988739 0.670405 0.208728
0.988449 0.735302 0.284276
0.98822 0.790509 0.375555
0.988037 0.833967 0.47837
0.9879 0.869139 0.569955
0.987793 0.896803 0.646021
0.987716 0.918425 0.718166
0.987671 0.935927 0.78088
0.0856641 0.286442 0.0856641
0.0857557 0.286839 0.085771
0.0858473 0.287221 0.0858625
0.0859388 0.287526 0.0859388
0.0859846 0.287739 0.0859846
0.0859998 0.287785 0.0859998
0.0859693 0.287678 0.0859693
0.0858778 0.287327 0.085893
0.193423 0.294545 0.0943008
0.263722 0.298573 0.0998703
0.328359 0.302495 0.0823377
0.417823 0.302174 0.0228428
0.499336 0.29572 0.0231327
0.577829 0.286366 0.0235752
0.647425 0.275578 0.0241855
0.71722 0.262638 0.024918
0.788571 0.248173 0.025803
0.86041 0.235401 0.0267948
0.924697 0.239322 0.027512
0.974914 0.273548 0.0276341
0.990906 0.331746 0.0270848
0.990417 0.403281 0.0263371
0.990005 0.479698 0.025742
0.9897 0.553262 0.0252842
0.989136 0.619058 0.113237
0.988724 0.682155 0.202411
0.988449 0.743267 0.281895
0.98822 0.795438 0.372473
0.988037 0.836927 0.476738
0.9879 0.870939 0.569116
0.987793 0.897856 0.645548
0.987716 0.919081 0.717861
0.987671 0.936324 0.780697
0.0991379 0.340017 0.0991379
0.0992294 0.340398 0.0992447
0.0993362 0.340795 0.0993362
0.0993973 0.34107 0.0994125
0.0994583 0.341283 0.0994583
0.0994888 0.341405 0.0994888
0.0995041 0.341451 0.0995041
0.0994736 0.34136 0.0994888
0.0993668 0.340948 0.099382
0.245441 0.35082 0.110887
0.31899 0.355093 0.116869
0.391287 0.359884 0.093431
0.492576 0.359884 0.0230259
0.577523 0.353506 0.0233616
0.649882 0.346395 0.0238193
0.720058 0.339208 0.0243839
0.79028 0.332891 0.0250401
0.860349 0.329549 0.025742
0.922683 0.337087 0.0262913
0.971649 0.362814 0.0265354
0.990402 0.404929 0.0263218
0.990097 0.45919 0.0258793
0.989822 0.520516 0.0254673
0.989593 0.581827 0.0251316
0.989212 0.638407 0.0757916
0.988724 0.696803 0.19382
0.988449 0.753109 0.27895
0.988235 0.801587 0.368429
0.988037 0.840711 0.474601
0.9879 0.873259 0.568017
0.987793 0.899199 0.644938
0.987716 0.919921 0.717464
0.987671 0.936828 0.780468
0.114961 0.400992 0.114961
0.115053 0.401343 0.115053
0.115145 0.401663 0.115145
0.115206 0.401923 0.115221
0.115267 0.402121 0.115267
0.115312 0.402274 0.115312
0.115328 0.402396 0.115343
0.115343 0.402441 0.115358
0.115312 0.402319 0.115328
0.15848 0.404822 0.118563
0.300526 0.41413 0.129992
0.381048 0.418753 0.136706
0.462745 0.42472 0.106279
0.571328 0.425925 0.0232242
0.648554 0.42121 0.0235904
0.721447 0.416831 0.024033
0.791821 0.414237 0.0245365
0.860197 0.415045 0.0250706
0.920195 0.423789 0.0255131
0.967559 0.443915 0.0257877
0.990021 0.475944 0.0257572
0.989837 0.516808 0.0254978
0.989654 0.563577 0.0252232
0.989502 0.611658 0.0249943
0.98938 0.661814 0.0247959
0.988724 0.714534 0.1823
0.988434 0.765042 0.275441
0.98822 0.809049 0.367773
0.988037 0.845472 0.471794
0.9879 0.876173 0.566567
0.987793 0.900938 0.644129
0.987716 0.921035 0.71693
0.987671 0.937499 0.780163
0.133669 0.470985 0.133684
0.133761 0.471305 0.133761
0.133837 0.471595 0.133837
0.133898 0.471824 0.133898
0.133944 0.472007 0.133959
0.133989 0.472175 0.134005
0.134035 0.472328 0.134035
0.134066 0.47245 0.134066
0.134096 0.472572 0.134096
0.134127 0.472648 0.134127
0.231098 0.479042 0.141665
0.36228 0.487892 0.15259
0.451606 0.493462 0.160494
0.540444 0.500298 0.125719
0.640833 0.503059 0.0234531
0.718166 0.499992 0.0237888
0.791363 0.498207 0.0242008
0.85922 0.499397 0.0246281
0.916991 0.506386 0.0249943
0.962539 0.521004 0.0252537
0.989731 0.543221 0.02533
0.989624 0.572869 0.0251774
0.989517 0.607034 0.0250095
0.98941 0.645411 0.0248569
0.989334 0.689219 0.0247349
0.988739 0.73518 0.167102
0.988434 0.779141 0.271458
0.98822 0.81796 0.367376
0.988052 0.851316 0.468116
0.9879 0.879835 0.564675
0.987793 0.903166 0.643061
0.987716 0.922454 0.716228
0.987671 0.938354 0.779736
0.154879 0.544228 0.154879
0.15494 0.544457 0.154955
0.155016 0.544656 0.155016
0.155062 0.544808 0.155062
0.155108 0.544961 0.155108
0.155138 0.545098 0.155154
0.155184 0.54522 0.155184
0.15523 0.545357 0.15523
0.155261 0.545449 0.155261
0.155261 0.54548 0.155261
0.15523 0.545357 0.15523
0.306447 0.553933 0.167102
0.435447 0.561456 0.17821
0.530129 0.566567 0.186892
0.609537 0.572793 0.153811
0.708843 0.577188 0.023682
0.786648 0.575219 0.0239872
0.85626 0.575433 0.0243381
0.912657 0.580194 0.0246433
0.956329 0.590494 0.0248722
0.989517 0.604944 0.0250095
0.989456 0.625086 0.0249332
0.989395 0.651453 0.0248417
0.989334 0.683543 0.0247501
0.989288 0.720546 0.0246738
0.988785 0.75845 0.146944
0.988434 0.795254 0.267369
0.98822 0.828473 0.367315
0.988052 0.858412 0.463981
0.9879 0.884657 0.562219
0.987793 0.905943 0.641688
0.987716 0.924239 0.715312
0.987671 0.939467 0.779202
0.0272374 0.653437 0.0272374
0.0272374 0.653559 0.0272374
0.0272374 0.653666 0.0272374
0.0272374 0.653758 0.0272374
0.0272374 0.653834 0.0272374
0.0272374 0.653895 0.0272374
0.0272374 0.653956 0.0272374
0.0272374 0.654002 0.0272374
0.0272374 0.654017 0.0272374
0.0272374 0.653971 0.0272374
0.0272374 0.653803 0.0272374
0.0272374 0.653361 0.0272374
0.398398 0.621088 0.194751
0.518364 0.627008 0.205554
0.601724 0.631296 0.214023
0.69218 0.644236 0.0299992
0.776089 0.642481 0.0239109
0.84889 0.64181 0.0241703
0.905959 0.644419 0.0244144
0.948562 0.65127 0.0246128
0.982666 0.66247 0.0247654
0.989349 0.678462 0.0247654
0.989319 0.699504 0.0247196
0.989288 0.725139 0.0246738
0.989273 0.753841 0.0246433
0.988861 0.783658 0.119982
0.988449 0.81297 0.263905
0.98822 0.840681 0.367864
0.988052 0.866728 0.465507
0.987915 0.889998 0.55903
0.987808 0.909422 0.639857
0.987732 0.926497 0.714107
0.987671 0.940871 0.77847
0.0280919 0.720943 0.0280919
0.0280919 0.721004 0.0280919
0.0280919 0.721035 0.0280919
0.0280919 0.72108 0.0280919
0.0280919 0.721096 0.0280919
0.0280919 0.721096 0.0280919
0.0280919 0.721111 0.0280919
0.0280919 0.721096 0.0280919
0.0280919 0.721035 0.0280919
0.0280919 0.720913 0.0280919
0.0280919 0.720638 0.0280919
0.0280919 0.720134 0.0280919
0.127138 0.718212 0.0265507
0.465339 0.69955 0.128511
0.577951 0.708705 0.0669261
0.671077 0.711238 0.0238804
0.759457 0.709026 0.0239567
0.835828 0.707713 0.0241245
0.894926 0.708858 0.0243076
0.938308 0.71339 0.0244755
0.971847 0.721508 0.0245975
0.989288 0.733257 0.0246586
0.989273 0.748363 0.0246586
0.989273 0.766629 0.0246433
0.989258 0.787503 0.0246281
0.988998 0.809598 0.0823072
0.988449 0.831739 0.262257
0.98822 0.854414 0.369635
0.988052 0.876234 0.467933
0.987915 0.896193 0.55584
0.987808 0.913649 0.637507
0.987732 0.929274 0.71252
0.987671 0.942611 0.777539
0.0289464 0.786831 0.0289464
0.0289464 0.786831 0.0289464
0.0289464 0.786816 0.0289464
0.0289464 0.786786 0.0289464
0.0289464 0.78677 0.0289464
0.0289464 0.786725 0.0289464
0.0289464 0.786664 0.0289464
0.0289464 0.786587 0.0289464
0.0289464 0.786419 0.0289464
0.0289311 0.786191 0.0289464
0.0289311 0.785794 0.0289311
0.0289158 0.785153 0.0289158
0.0289158 0.784161 0.0289158
0.34815 0.780362 0.02533
0.533455 0.777981 0.0244602
0.645716 0.775586 0.0241703
0.738933 0.773022 0.0241093
0.818158 0.770977 0.0241855
0.879362 0.77052 0.0243076
0.925338 0.77232 0.0244297
0.959991 0.776638 0.0245365
0.985306 0.78378 0.0246281
0.989258 0.793439 0.0246281
0.989273 0.805447 0.0246433
0.989273 0.819471 0.0246433
0.989273 0.835126 0.0246586
0.988449 0.851514 0.2636
0.98822 0.869261 0.373404
0.988037 0.887068 0.471748
0.987915 0.903319 0.558755
0.987808 0.918685 0.634424
0.987732 0.932647 0.71043
0.987671 0.944778 0.776303
0.0296635 0.842588 0.0296635
0.0296635 0.842527 0.0296635
0.0296635 0.842451 0.0296635
0.0296635 0.84239 0.0296635
0.0296635 0.842298 0.0296635
0.0296635 0.842222 0.0296635
0.0296635 0.8421 0.0296635
0.0296635 0.841932 0.0296635
0.0296483 0.841672 0.0296635
0.0296483 0.841306 0.0296483
0.029633 0.840757 0.0296483
0.029633 0.839933 0.029633
0.0296178 0.838773 0.0296178
0.242054 0.835294 0.0266728
0.496651 0.832181 0.0249943
0.624735 0.829419 0.024506
0.721416 0.826474 0.0243229
0.801328 0.823835 0.0243076
0.8636 0.822202 0.0243687
0.911757 0.821958 0.024445
0.948135 0.823407 0.0245365
0.974563 0.826856 0.0245975
0.989273 0.832227 0.0246586
0.989273 0.839551 0.0246586
0.989288 0.848829 0.0246738
0.989197 0.859754 0.0446021
0.988434 0.871458 0.270146
0.988205 0.884901 0.380316
0.988037 0.8981 0.477531
0.987915 0.911421 0.562814
0.987808 0.924498 0.634394
0.987732 0.936645 0.707729
0.987686 0.947433 0.77467
0.0302129 0.885695 0.0302281
0.0302129 0.885573 0.0302129
0.0302129 0.885466 0.0302129
0.0302129 0.885359 0.0302129
0.0302129 0.885237 0.0302129
0.0302129 0.885115 0.0302129
0.0302129 0.884932 0.0302129
0.0302129 0.884703 0.0302129
0.0301976 0.884367 0.0302129
0.0301976 0.883894 0.0301976
0.0301976 0.883223 0.0301976
0.0301823 0.881956 0.0301823
0.0301671 0.88072 0.0301671
0.180407 0.877531 0.0277867
0.481331 0.873899 0.0254063
0.615381 0.870954 0.0247959
0.711559 0.867842 0.0245365
0.789609 0.864973 0.0244602
0.850614 0.862821 0.0244602
0.899397 0.86154 0.024506
0.936934 0.861418 0.024567
0.964645 0.86273 0.0246281
0.986221 0.865522 0.0246738
0.989303 0.869886 0.0246891
0.989303 0.875731 0.0247044
0.988907 0.882521 0.118013
0.988418 0.890776 0.284306
0.98819 0.899763 0.391302
0.988037 0.909712 0.485863
0.9879 0.920302 0.568475
0.987808 0.931014 0.638239
0.987732 0.941207 0.705348
0.987686 0.950591 0.772534
0.0306554 0.919036 0.0306554
0.0306554 0.918883 0.0306554
0.0306554 0.918761 0.0306554
0.0306554 0.918593 0.0306554
0.0306554 0.918456 0.0306554
0.0306554 0.918303 0.0306554
0.0306401 0.91809 0.0306401
0.0306401 0.9178 0.0306401
0.0306401 0.917388 0.0306401
0.0306249 0.916869 0.0306249
0.0306249 0.916167 0.0306249
0.0306096 0.915221 0.0306096
0.0305943 0.913985 0.0305943
0.25658 0.910201 0.0273442
0.495354 0.906996 0.0256046
0.619654 0.904082 0.0249943
0.710033 0.901045 0.0247196
0.783429 0.898192 0.0245975
0.841474 0.895842 0.024567
0.889128 0.894072 0.0245823
0.926635 0.893065 0.0246281
0.955337 0.893034 0.0246738
0.978012 0.89395 0.0247044
0.989334 0.896025 0.0247349
0.989334 0.899229 0.0247349
0.988724 0.902892 0.177035
0.988373 0.907988 0.307729
0.988174 0.914305 0.40737
0.988022 0.92163 0.497322
0.9879 0.929671 0.576257
0.987808 0.938033 0.643503
0.987732 0.946258 0.709316
0.987686 0.954269 0.769711
0.0309758 0.943618 0.0309758
0.0309758 0.94345 0.0309758
0.0309758 0.943282 0.0309758
0.0309758 0.943114 0.0309758
0.0309606 0.942946 0.0309758
0.0309606 0.942763 0.0309606
0.0309606 0.942535 0.0309606
0.0309606 0.942229 0.0309606
0.0309606 0.941833 0.0309606
0.0309453 0.941283 0.0309453
0.0309453 0.940581 0.0309453
0.03093 0.939635 0.03093
0.0309148 0.938415 0.0309148
0.380423 0.933944 0.026566
0.538201 0.931304 0.0255741
0.639124 0.928588 0.0250858
0.718257 0.925765 0.0248417
0.784115 0.923079 0.0247196
0.837552 0.92076 0.0246738
0.882399 0.918807 0.0246586
0.918746 0.917403 0.0246891
0.947494 0.91664 0.0247044
0.970825 0.916533 0.0247501
0.988663 0.917266 0.0247654
0.989364 0.918914 0.0247807
0.988571 0.920714 0.235904
0.988312 0.92401 0.34023
0.988144 0.928252 0.429541
0.988006 0.933333 0.512749
0.987884 0.939116 0.586816
0.987793 0.945312 0.650645
0.987732 0.951812 0.714565
0.987686 0.958358 0.772366
0.03122 0.962249 0.03122
0.03122 0.962081 0.03122
0.03122 0.961913 0.03122
0.03122 0.961746 0.03122
0.0312047 0.961563 0.03122
0.0312047 0.961395 0.0312047
0.0312047 0.961166 0.0312047
0.0312047 0.960861 0.0312047
0.0312047 0.960464 0.0312047
0.0311894 0.959945 0.0311894
0.0311742 0.959258 0.0311894
0.0311742 0.958358 0.0311742
0.357458 0.954376 0.0269474
0.496666 0.952255 0.0259861
0.595468 0.950057 0.0254368
0.669032 0.947692 0.0251164
0.734279 0.945235 0.0249027
0.790372 0.942885 0.0247959
0.838148 0.940734 0.0247501
0.879332 0.938796 0.0247349
0.913283 0.937301 0.0247349
0.94107 0.936217 0.0247501
0.964279 0.935576 0.0247807
0.982513 0.935546 0.0248112
0.988739 0.93547 0.182315
0.988434 0.936477 0.295247
0.988235 0.938354 0.381353
0.988098 0.940978 0.458869
0.987976 0.944274 0.532784
0.987869 0.948226 0.599771
0.987793 0.952758 0.660166
0.987732 0.957671 0.721477
0.987686 0.962783 0.776715
0.0314031 0.976104 0.0314031
0.0314031 0.975952 0.0314031
0.0314031 0.975784 0.0314031
0.0314031 0.975616 0.0314031
0.0314031 0.975448 0.0314031
0.0313878 0.97528 0.0314031
0.0313878 0.975067 0.0313878
0.0313878 0.974792 0.0313878
0.0313725 0.974411 0.0313878
0.255802 0.971679 0.0280308
0.36553 0.970367 0.027039
0.451301 0.969131 0.0263981
0.528344 0.967742 0.0259251
0.595224 0.966171 0.0255589
0.651316 0.964401 0.0252842
0.705623 0.962463 0.0250858
0.756268 0.960449 0.0249485
0.801724 0.958465 0.0248569
0.843183 0.956512 0.0248112
0.879698 0.954711 0.0247959
0.910521 0.953231 0.0247959
0.936782 0.951995 0.0247959
0.95903 0.95108 0.0248264
0.976501 0.949966 0.167391
0.988495 0.949569 0.274968
0.988312 0.949813 0.355657
0.988159 0.950698 0.426673
0.988052 0.952193 0.49456
0.987945 0.954284 0.557656
0.987854 0.956954 0.615732
0.987778 0.960098 0.672709
0.987716 0.963607 0.730419
0.987686 0.967391 0.782361
0.388205 0.982788 0.026978
0.40444 0.982559 0.0268559
0.419608 0.982345 0.0267491
0.433829 0.982116 0.0266423
0.447288 0.981903 0.0265507
0.460716 0.981704 0.0264591
0.476921 0.98143 0.0263523
0.496147 0.981109 0.0262303
0.518624 0.980682 0.0260929
0.54435 0.980133 0.0259403
0.573205 0.979477 0.0257877
0.603525 0.978668 0.0256199
0.635172 0.977676 0.025452
0.670024 0.976516 0.0252995
0.706981 0.975174 0.0251621
0.744732 0.973678 0.0250401
0.781659 0.972107 0.0249638
0.817746 0.970443 0.0249027
0.852125 0.968795 0.0248569
0.883513 0.967224 0.0248417
0.910018 0.965423 0.115938
0.933944 0.963973 0.179278
0.95462 0.962814 0.229603
0.971725 0.961929 0.290623
0.985946 0.961349 0.354147
0.98819 0.961151 0.415351
0.988083 0.961395 0.475975
0.987991 0.962112 0.53312
0.9879 0.963317 0.587167
0.987823 0.964965 0.636515
0.987762 0.966995 0.688884
0.987716 0.969345 0.741817
0.987671 0.971954 0.789593
0.614755 0.987671 0.258289
0.619058 0.987533 0.258503
0.623255 0.987396 0.258717
0.627375 0.987274 0.25893
0.631388 0.987137 0.259144
0.635477 0.986999 0.259388
0.64062 0.986847 0.259693
0.647166 0.986633 0.260105
0.655482 0.986358 0.260639
0.665858 0.985992 0.261357
0.67866 0.98555 0.262318
0.694102 0.984985 0.263584
0.712322 0.984298 0.265324
0.733242 0.983474 0.267613
0.756405 0.982498 0.27068
0.781445 0.981414 0.274784
0.808255 0.980163 0.280201
0.835859 0.978821 0.287251
0.862928 0.977432 0.296407
0.888365 0.976089 0.30811
0.911711 0.974792 0.322896
0.933211 0.973587 0.341238
0.952102 0.972534 0.363516
0.968277 0.971664 0.389776
0.981933 0.970977 0.428992
0.988098 0.970535 0.476707
0.988006 0.970367 0.525322
0.98793 0.970535 0.573098
0.987869 0.971054 0.617227
0.987793 0.971969 0.661799
0.987747 0.973144 0.709102
0.987701 0.974609 0.755886
0.987671 0.976364 0.798642
0.720882 0.988434 0.40798
0.722972 0.988418 0.408087
0.725048 0.988418 0.408209
0.727062 0.988418 0.408331
0.729061 0.988403 0.408453
0.731136 0.988403 0.408576
0.733715 0.988403 0.408743
0.737072 0.988388 0.408957
0.741375 0.988388 0.409247
0.746807 0.988373 0.409628
0.753643 0.988357 0.410132
0.762142 0.988342 0.410803
0.772595 0.988327 0.411704
0.785229 0.988296 0.412924
0.800107 0.988098 0.414511
0.817151 0.987289 0.416648
0.835966 0.986358 0.419471
0.85594 0.985351 0.423239
0.876066 0.984283 0.428214
0.896315 0.9832 0.43473
0.915953 0.982101 0.443198
0.934539 0.981033 0.4542
0.951247 0.980056 0.468254
0.966079 0.979202 0.485557
0.978958 0.978485 0.506065
0.987991 0.97792 0.537362
0.98793 0.977554 0.574548
0.987869 0.977401 0.611734
0.987823 0.977508 0.650355
0.987762 0.977905 0.691066
0.987732 0.978531 0.732555
0.987686 0.979385 0.772625
0.987671 0.980468 0.809583
0.791226 0.988098 0.520821
0.792355 0.988098 0.520897
0.793469 0.988098 0.520989
0.794568 0.988098 0.521065
0.795682 0.988098 0.521126
0.796811 0.988098 0.521218
0.798245 0.988098 0.521324
0.800137 0.988098 0.521462
0.802579 0.988083 0.52163
