BBLuts/BB_103_0820_LUT.cube
TITLE "Generated by Resolve"
LUT_3D_SIZE 9
0.0204776 0.0107881 0.0142061
0.0204776 0.0107881 0.0142061
0.205447 0.0141604 0.0172274
0.42475 0.0196689 0.0221408
0.718486 0.0287327 0.0301518
0.924681 0.035584 0.0361791
0.870619 0.498695 0.109941
0.837461 0.804105 0.338582
0.825772 0.921218 0.601511
0.0166323 0.0688182 0.0108492
0.0158694 0.0791943 0.010193
0.211002 0.0595254 0.01355
0.434241 0.0199283 0.0223697
0.72079 0.028809 0.0302281
0.924681 0.035584 0.0361791
0.867185 0.529717 0.0949874
0.836973 0.80856 0.336324
0.825711 0.921767 0.601251
0.00427253 0.226917 0
0.00399786 0.230243 0
0.16379 0.228779 0
0.423285 0.21062 0.00387579
0.713634 0.11986 0.0192111
0.900557 0.232136 0.0120241
0.862623 0.571298 0.0670634
0.83621 0.815412 0.332753
0.825605 0.922637 0.600809
0 0.470237 0
0 0.471275 0
0 0.471855 0
0.352819 0.468757 0
0.68249 0.461158 0
0.869841 0.508873 0
0.852903 0.663264 0
0.834195 0.833478 0.322438
0.82533 0.92517 0.599496
0 0.761288 0
0 0.761212 0
0 0.760845 0
0 0.758465 0
0.601068 0.748882 0
0.814313 0.754421 0
0.838087 0.79939 0
0.830152 0.870344 0.321706
0.824567 0.931823 0.595651
0 0.925216 0
0 0.924498 0
0 0.923339 0
0 0.919768 0
0.563806 0.907897 0
0.758541 0.900557 0
0.826871 0.902678 0
0.824964 0.918654 0.352148
0.82298 0.945922 0.590585
0.454902 0.972442 0.128862
0.471855 0.971984 0.129702
0.496269 0.970855 0.131167
0.551659 0.969024 0.135515
0.645228 0.965347 0.148775
0.745602 0.960571 0.18558
0.814084 0.957458 0.277256
0.820935 0.958343 0.444785
0.821027 0.964767 0.612818
0.714031 0.975708 0.504982
0.715389 0.975723 0.505119
0.71754 0.975738 0.505333
0.723735 0.975769 0.50602
0.739574 0.975891 0.508034
0.769879 0.97612 0.514153
0.806302 0.976455 0.531594
0.819516 0.976761 0.578073
0.819944 0.977188 0.660655
0.789502 0.977111 0.687251
0.78967 0.977111 0.687266
0.789944 0.977111 0.687297
0.790768 0.977127 0.687388
0.793088 0.977142 0.687648
0.798947 0.977188 0.688426
0.810162 0.977279 0.69073
0.820142 0.977386 0.697063
0.820233 0.977493 0.713603
0.0207675 0.0110933 0.0667887
0.0207675 0.0110933 0.0670481
0.205798 0.0142672 0.0706188
0.425299 0.0196689 0.0765698
0.718334 0.0285954 0.0876783
0.92462 0.0353857 0.124743
0.871321 0.492775 0.170977
0.837674 0.80322 0.367956
0.825818 0.921111 0.607141
0.0184787 0.0441596 0.0560464
0.0604257 0.0566262 0.0539406
0.221881 0.0146029 0.062623
0.430137 0.0197757 0.0650797
0.719341 0.0286564 0.0572366
0.92459 0.0353857 0.0987869
0.86775 0.524895 0.157397
0.837171 0.807721 0.365911
0.825757 0.92166 0.606897
0.00497444 0.218433 0.000503548
0.00474556 0.221241 0.00030518
0.181079 0.22034 0.000198367
0.422492 0.201694 0.00466926
0.714488 0.0891737 0.0226444
0.902266 0.217136 0.0136721
0.863005 0.56762 0.134371
0.836393 0.814633 0.362631
0.82565 0.92253 0.60647
0 0.466224 0
0 0.467216 0
0 0.467628 0
0.362631 0.464271 0
0.682445 0.45742 0
0.870161 0.505959 0
0.852857 0.661082 0.0195773
0.834363 0.832853 0.353246
0.82536 0.925078 0.605203
0 0.760113 0
0 0.760006 0
0 0.75964 0
0 0.757198 0
0.603723 0.747723 0
0.814511 0.753597 0
0.838132 0.798947 0
0.830198 0.870161 0.32871
0.824613 0.931762 0.601526
0 0.924971 0
0 0.924254 0
0 0.923079 0
0 0.919524 0
0.565545 0.907713 0
0.758862 0.90042 0
0.826871 0.902571 0
0.824964 0.918593 0.35198
0.822995 0.945907 0.591119
0.457527 0.972351 0.128695
0.47422 0.971893 0.129549
0.498268 0.970779 0.131014
0.553033 0.968963 0.135363
0.645853 0.965301 0.148653
0.745769 0.96054 0.185473
0.81413 0.957427 0.277241
0.820935 0.958328 0.444724
0.821027 0.964752 0.612787
0.714244 0.975708 0.504967
0.715587 0.975723 0.505104
0.717739 0.975738 0.505318
0.723918 0.975769 0.505989
0.739712 0.975891 0.508019
0.76994 0.97612 0.514138
0.806317 0.976455 0.531579
0.819516 0.976761 0.578058
0.819944 0.977188 0.660639
0.789532 0.977111 0.687251
0.7897 0.977111 0.687266
0.789975 0.977111 0.687297
0.790784 0.977127 0.687373
0.793103 0.977142 0.687648
0.798962 0.977188 0.688426
0.810178 0.977279 0.69073
0.820142 0.977386 0.697063
0.820233 0.977493 0.713603
0.0220798 0.0125582 0.195651
0.0220951 0.0125582 0.19585
0.186435 0.014847 0.197574
0.435996 0.0205539 0.199619
0.718608 0.0289616 0.211734
0.925002 0.0357214 0.242863
0.872847 0.481086 0.26041
0.837995 0.80174 0.40853
0.825879 0.920928 0.615671
0.022034 0.0124971 0.19205
0.0220493 0.0125124 0.192386
0.211002 0.0153048 0.194278
0.434623 0.0204929 0.196078
0.72076 0.0290074 0.20795
0.924971 0.0356756 0.236591
0.869047 0.515099 0.251026
0.837476 0.806317 0.406775
0.825818 0.921477 0.615427
0.00737011 0.193637 0.167956
0.00717174 0.195819 0.167498
0.173251 0.1897 0.164248
0.411688 0.176135 0.170748
0.719448 0.0289158 0.197299
0.908293 0.165454 0.207416
0.864042 0.559884 0.236576
0.836698 0.813336 0.403983
0.825727 0.922377 0.61503
0 0.453986 0.0704356
0 0.455116 0.0713359
0 0.455665 0.0726482
0.363439 0.451896 0.0750591
0.678737 0.445792 0.0842756
0.871031 0.494957 0.111116
0.853346 0.655924 0.194644
0.834638 0.83183 0.395972
0.825437 0.924926 0.61384
0 0.757671 0
0 0.757565 0
0 0.757183 0
0 0.754726 0
0.60618 0.745327 0
0.814588 0.751659 0
0.837888 0.797116 0.0484321
0.830411 0.869612 0.375113
0.824674 0.93164 0.610376
0 0.924575 0
0 0.923858 0
0 0.922683 0
0 0.919127 0
0.568353 0.907378 0
0.75935 0.900191 0
0.826902 0.902419 0
0.824979 0.918502 0.35172
0.823056 0.945815 0.600687
0.461738 0.972213 0.128435
0.47805 0.971771 0.12929
0.501427 0.970642 0.130755
0.55523 0.968856 0.135119
0.646876 0.965225 0.14844
0.746059 0.960494 0.185306
0.814191 0.957412 0.277211
0.820935 0.958328 0.444617
0.821027 0.964752 0.612757
0.714565 0.975708 0.504936
0.715923 0.975723 0.505074
0.718059 0.975738 0.505287
0.724208 0.975784 0.505959
0.73994 0.975891 0.507988
0.770062 0.97612 0.514107
0.806348 0.976455 0.531563
0.819516 0.976761 0.578058
0.819944 0.977188 0.660639
0.789563 0.977111 0.687251
0.789746 0.977111 0.687251
0.790021 0.977111 0.687297
0.790814 0.977127 0.687373
0.793149 0.977142 0.687633
0.798978 0.977188 0.688411
0.810193 0.977279 0.69073
0.820142 0.977386 0.697063
0.820233 0.977493 0.713603
0.0248722 0.0156252 0.398703
0.0248722 0.0156252 0.39884
0.0248875 0.0156252 0.398901
0.417197 0.022034 0.403052
0.737301 0.0309758 0.412772
0.926131 0.0369726 0.433539
0.87808 0.441199 0.43267
0.838895 0.797024 0.495354
0.826078 0.920363 0.637263
0.0248569 0.0155947 0.396902
0.0248569 0.0155947 0.39707
0.105501 0.016083 0.397436
0.430701 0.0223239 0.401404
0.735424 0.0308995 0.410727
0.926116 0.0369573 0.431266
0.873594 0.481086 0.425788
0.838361 0.801831 0.493996
0.826001 0.920928 0.637049
0.018265 0.0895705 0.387686
0.0177768 0.0951553 0.387396
0.12871 0.0903029 0.387808
0.436179 0.0224155 0.398291
0.729702 0.0306859 0.40734
0.926085 0.0369116 0.426993
0.867658 0.533959 0.415793
0.837537 0.809186 0.491829
0.82591 0.921828 0.636713
0 0.413321 0.341299
0 0.414908 0.341436
0 0.416022 0.341909
0.358267 0.4121 0.342931
0.668452 0.406943 0.349889
0.875746 0.458778 0.361913
0.855695 0.640482 0.391104
0.835386 0.828534 0.48574
0.82562 0.924437 0.635691
0 0.746746 0.239231
0 0.746731 0.239826
0 0.746441 0.240772
0 0.744198 0.24358
0.603311 0.734737 0.250355
0.813077 0.742626 0.276753
0.838804 0.791943 0.340261
0.830991 0.867857 0.470848
0.824842 0.931243 0.632776
0 0.923445 0
0 0.922728 0
0 0.921538 0
0 0.917998 0
0.568353 0.906279 0
0.758343 0.898421 0.106294
0.826658 0.900832 0.258045
0.825345 0.918029 0.439277
0.823209 0.945602 0.624857
0.47396 0.971786 0.127642
0.489281 0.970932 0.128557
0.510704 0.97026 0.129992
0.561761 0.968536 0.134401
0.649927 0.964996 0.147799
0.746944 0.960372 0.184802
0.814389 0.957305 0.277134
0.820951 0.958251 0.444312
0.821042 0.964721 0.612604
0.715572 0.975723 0.504829
0.716899 0.975723 0.504967
0.719005 0.975738 0.505196
0.725063 0.975784 0.505852
0.740597 0.975891 0.507897
0.770397 0.97612 0.514
0.806455 0.976455 0.531472
0.819516 0.976761 0.578042
0.819944 0.977188 0.660578
0.7897 0.977111 0.687236
0.789868 0.977111 0.687251
0.790127 0.977111 0.687266
0.790951 0.977127 0.687358
0.79324 0.977142 0.687617
0.799069 0.977188 0.688396
0.810224 0.977279 0.690715
0.820142 0.977386 0.697047
0.820233 0.977493 0.713603
0.0294652 0.0206912 0.659556
0.0294652 0.0207065 0.659632
0.0294652 0.0207065 0.659739
0.279957 0.0230716 0.660883
0.727718 0.0335546 0.665644
0.928237 0.0394751 0.673106
0.90483 0.221912 0.664424
0.841535 0.780255 0.633448
0.826535 0.918578 0.679957
0.0294499 0.020676 0.659007
0.0294652 0.0206912 0.659068
0.0294652 0.0206912 0.65919
0.305241 0.0234989 0.660517
0.732815 0.0336919 0.665171
0.928222 0.0394751 0.672511
0.893126 0.322103 0.652491
0.840879 0.786114 0.632288
0.826459 0.919173 0.679789
0.0294347 0.0206607 0.658076
0.0294347 0.0206607 0.658167
0.0294499 0.020676 0.658289
0.33875 0.024094 0.659846
0.735927 0.0337682 0.664225
0.928222 0.0394598 0.671504
0.88191 0.420035 0.640223
0.839902 0.794858 0.630564
0.826352 0.920119 0.67953
0.00683604 0.253483 0.632944
0.00657664 0.256168 0.632731
0.0062562 0.259617 0.632441
0.318517 0.251072 0.632731
0.718685 0.161334 0.645243
0.89958 0.264942 0.639887
0.863661 0.58085 0.617563
0.8374 0.817227 0.62591
0.826047 0.922866 0.678737
0 0.709804 0.566949
0 0.710094 0.567025
0 0.71017 0.567163
0 0.708659 0.56759
0.594018 0.699351 0.568597
0.81001 0.713024 0.573129
0.841917 0.773968 0.582742
0.83241 0.86186 0.615564
0.825254 0.930007 0.676555
0 0.920348 0.511223
0 0.919661 0.511437
0 0.918502 0.511788
0 0.914931 0.51281
0.543786 0.902403 0.513954
0.751446 0.894804 0.524498
0.828046 0.897978 0.548608
0.826307 0.916167 0.598062
0.823575 0.944869 0.671046
0.464851 0.971084 0.430488
0.480583 0.970657 0.430823
0.50312 0.970001 0.431373
0.555261 0.968231 0.433066
0.644892 0.964675 0.438117
0.742916 0.960052 0.452461
0.810681 0.956985 0.489967
0.82153 0.957977 0.565621
0.821332 0.964508 0.658457
0.718563 0.975738 0.504524
0.719829 0.975738 0.504662
0.721859 0.975753 0.504875
0.727657 0.975799 0.505547
0.742596 0.975906 0.507576
0.77145 0.97612 0.513695
0.80679 0.976455 0.531197
0.819516 0.976761 0.577981
0.819944 0.977188 0.660441
0.790082 0.977111 0.68719
0.790249 0.977111 0.687205
0.790509 0.977111 0.687236
0.791302 0.977127 0.687312
0.793576 0.977142 0.687572
0.799313 0.977188 0.688365
0.810361 0.977279 0.690684
0.820142 0.977386 0.697017
0.820233 0.977493 0.713603
0.0327001 0.0242771 0.824735
0.0327001 0.0242771 0.824735
0.0327001 0.0242771 0.824765
0.0327001 0.0242771 0.824811
0.629694 0.0332494 0.827008
0.929885 0.0415198 0.828946
0.9299 0.0415351 0.82977
0.851362 0.699489 0.750668
0.827573 0.912413 0.733455
0.0327001 0.0242771 0.824659
0.0327001 0.0242771 0.824674
0.0327001 0.0242771 0.824689
0.0327001 0.0242771 0.824735
0.636866 0.0334325 0.826978
0.929885 0.0415198 0.828885
0.9299 0.0415351 0.829694
0.850065 0.710979 0.748928
0.827482 0.913115 0.733318
0.0327001 0.0242771 0.824552
0.0327001 0.0242771 0.824567
0.0327001 0.0242771 0.824582
0.0327001 0.0242771 0.824613
0.648203 0.0337224 0.826917
0.929885 0.0415198 0.828748
0.9299 0.0415351 0.829572
0.848157 0.727901 0.746334
0.827359 0.914244 0.733089
0.0326848 0.0242771 0.824201
0.0326848 0.0242771 0.824216
0.0326848 0.0242771 0.824231
0.0326848 0.0242618 0.823941
0.672969 0.0343786 0.826688
0.929885 0.0415198 0.828382
0.929885 0.0415045 0.827832
0.843565 0.768658 0.73994
0.826993 0.917479 0.732433
0 0.52813 0.768368
0 0.529366 0.768215
0 0.53135 0.767971
0 0.534432 0.767178
0.596735 0.523613 0.76614
0.865568 0.544884 0.763775
0.853483 0.680293 0.746166
0.835813 0.837644 0.728511
0.826062 0.925826 0.730724
0 0.908415 0.709697
0 0.907973 0.709697
0 0.907134 0.709728
0 0.903761 0.709804
0.475334 0.890166 0.707851
0.742382 0.881483 0.709895
0.826444 0.887312 0.711559
0.827771 0.909483 0.715053
0.824186 0.942519 0.726955
0.330419 0.971801 0.68661
0.363684 0.971222 0.686641
0.407095 0.970367 0.686717
0.492195 0.968154 0.687007
0.612207 0.963882 0.687892
0.727855 0.958663 0.689891
0.801968 0.955444 0.694118
0.822461 0.956786 0.702907
0.82179 0.96376 0.720546
0.71046 0.976425 0.656916
0.711757 0.97644 0.656962
0.713832 0.976455 0.657038
0.719799 0.976486 0.657282
0.735088 0.976577 0.658
0.764614 0.976791 0.660166
0.800855 0.977081 0.666316
0.82005 0.97731 0.681804
0.820203 0.977462 0.709407
0.791226 0.977127 0.687068
0.791363 0.977127 0.687099
0.791623 0.977127 0.687114
0.792386 0.977127 0.68719
0.794553 0.977142 0.687465
0.800061 0.977188 0.688243
0.810758 0.977279 0.690562
0.820142 0.977386 0.696925
0.820233 0.977493 0.713588
0.0336461 0.02533 0.872435
0.0336461 0.02533 0.872435
0.0336461 0.02533 0.872435
0.0336461 0.02533 0.872435
0.0336461 0.02533 0.872435
0.913558 0.041825 0.884718
0.930526 0.0423133 0.885069
0.930526 0.0423133 0.885069
0.830991 0.884352 0.778515
0.0336461 0.02533 0.872435
0.0336461 0.02533 0.872435
0.0336461 0.02533 0.872435
0.0336461 0.02533 0.872435
0.0336461 0.02533 0.872435
0.914824 0.0418708 0.884749
0.930526 0.0423133 0.885069
0.930526 0.0423133 0.885069
0.830854 0.885664 0.778302
0.0336461 0.02533 0.872435
0.0336461 0.02533 0.872435
0.0336461 0.02533 0.872435
0.0336461 0.02533 0.872435
0.0336461 0.02533 0.872435
0.917266 0.0419318 0.884794
0.930526 0.0423133 0.885069
0.930526 0.0423133 0.885069
0.83061 0.887724 0.777951
0.0336461 0.02533 0.872435
0.0336461 0.02533 0.872435
0.0336461 0.02533 0.872435
0.0336461 0.02533 0.872435
0.0336461 0.02533 0.872435
0.923186 0.0420996 0.884916
0.930526 0.0423133 0.885069
0.930526 0.0423133 0.885069
0.829969 0.893538 0.776989
0.0336461 0.02533 0.872435
0.0336461 0.02533 0.872435
0.0336461 0.02533 0.872435
0.0336461 0.02533 0.872435
0.356115 0.0282139 0.874846
0.930526 0.0423133 0.885069
0.930526 0.0423133 0.885069
0.864759 0.585626 0.820096
0.828351 0.907897 0.774563
0 0.807813 0.792218
0 0.808087 0.792187
0 0.80856 0.792126
0 0.809964 0.791897
0 0.804837 0.791272
0.757092 0.792309 0.789471
0.838499 0.817304 0.785489
0.83183 0.876661 0.776699
0.825498 0.933349 0.770138
0 0.978531 0.763073
0 0.977844 0.763073
0 0.97673 0.763088
0 0.97348 0.763149
0.517266 0.961349 0.7608
0.708293 0.953643 0.761868
0.798001 0.949996 0.762768
0.823331 0.952499 0.763348
0.82237 0.961242 0.764843
0.68397 0.976883 0.754406
0.68571 0.976883 0.754406
0.688457 0.976898 0.754406
0.696284 0.976944 0.754437
0.715969 0.97705 0.754528
0.752453 0.977279 0.754742
0.793912 0.977554 0.755306
0.820493 0.977752 0.756832
0.820508 0.977783 0.760388
0.78764 0.977432 0.743404
0.787793 0.977432 0.74342
0.788037 0.977432 0.74342
0.788815 0.977447 0.743465
0.791028 0.977462 0.743542
0.796643 0.977508 0.743816
0.807538 0.977584 0.74461
0.819989 0.977691 0.746914
0.820462 0.977737 0.752728
0.026978 0.0849928 0.866819
0.026978 0.0849928 0.866819
0.026978 0.0849928 0.866819
0.026978 0.085008 0.866819
0.026978 0.0850843 0.866804
0.0269627 0.0852522 0.866789
0.930526 0.0423133 0.885069
0.930526 0.0423133 0.885069
0.859495 0.632181 0.820005
0.026978 0.0849622 0.866819
0.026978 0.0849622 0.866819
0.026978 0.0849775 0.866819
0.026978 0.0849928 0.866819
0.026978 0.085069 0.866819
0.0269627 0.0852369 0.866804
0.930526 0.0423133 0.885069
0.930526 0.0423133 0.885069
0.85951 0.632151 0.820005
0.0269932 0.0849012 0.866835
0.0269932 0.0849012 0.866835
0.0269932 0.0849165 0.866819
0.0269932 0.084947 0.866819
0.026978 0.0849928 0.866819
0.0269627 0.0851911 0.866804
0.930526 0.0423133 0.885069
0.930526 0.0423133 0.885069
0.85951 0.63212 0.820005
0.0270085 0.0847639 0.866835
0.0270085 0.0847486 0.866835
0.0270085 0.0847639 0.866835
0.0270085 0.0847791 0.866835
0.0269932 0.0848554 0.866835
0.0301976 0.0551919 0.869566
0.930526 0.0423133 0.885069
0.930526 0.0423133 0.885069
0.859525 0.631983 0.82002
0.0270542 0.0842756 0.86688
0.0270542 0.0842756 0.86688
0.0270542 0.0842908 0.86688
0.0270542 0.0843061 0.86688
0.0270542 0.0843671 0.86688
0.387854 0.0287633 0.875273
0.930526 0.0423133 0.885069
0.930526 0.0423133 0.885069
0.859571 0.631556 0.820066
0.0272221 0.0827649 0.867018
0.0272221 0.0827649 0.867018
0.0272221 0.0827649 0.867018
0.0272221 0.0827802 0.867018
0.0272068 0.0828565 0.867018
0.746838 0.037171 0.881392
0.930526 0.0423133 0.885069
0.922545 0.0982376 0.87776
0.835859 0.841886 0.798276
0 0.944854 0.788846
0 0.9449 0.788846
0 0.944945 0.788846
0 0.945113 0.78883
0 0.945632 0.788785
0.60766 0.92163 0.788663
0.804135 0.915938 0.790463
0.82649 0.925673 0.789654
0.823957 0.948348 0.787335
0.534676 0.976516 0.782834
0.542351 0.976547 0.782834
0.553872 0.976562 0.782834
0.583886 0.976654 0.782834
0.644923 0.976883 0.782483
0.722652 0.977279 0.782589
0.786023 0.977676 0.782712
0.819348 0.976318 0.783047
0.820371 0.976867 0.7832
0.777905 0.977615 0.780774
0.778119 0.977615 0.780774
0.778454 0.977615 0.780774
0.779492 0.977615 0.780774
0.782422 0.977646 0.780789
0.7897 0.977691 0.780819
0.803006 0.977783 0.780896
0.817288 0.97789 0.781079
0.820294 0.977478 0.781582
0.00437934 0.311559 0.846662
0.00437934 0.311559 0.846662
0.00437934 0.311559 0.846662
0.00437934 0.311574 0.846662
0.00437934 0.311574 0.846662
0.00437934 0.31162 0.846662
0.00436408 0.311711 0.846647
0.897017 0.305592 0.854414
0.854444 0.676661 0.815351
0.00437934 0.311559 0.846662
0.00437934 0.311559 0.846662
0.00437934 0.311559 0.846662
0.00437934 0.311559 0.846662
0.00437934 0.311574 0.846662
0.00437934 0.311604 0.846662
0.00436408 0.311711 0.846647
0.896986 0.305852 0.854383
0.854444 0.676707 0.815351
0.0043946 0.311528 0.846662
0.0043946 0.311528 0.846662
0.0043946 0.311528 0.846662
0.00437934 0.311559 0.846662
0.00437934 0.311559 0.846662
0.00437934 0.311604 0.846662
0.00436408 0.311696 0.846662
0.896941 0.306264 0.854337
0.854444 0.676783 0.815351
0.0043946 0.311513 0.846677
0.0043946 0.311513 0.846677
0.0043946 0.311513 0.846677
0.0043946 0.311513 0.846677
0.0043946 0.311528 0.846662
0.00437934 0.311574 0.846662
0.00437934 0.311666 0.846662
0.896788 0.307515 0.8542
0.854414 0.676997 0.81532
0.0043946 0.311421 0.846677
0.0043946 0.311421 0.846677
0.0043946 0.311421 0.846677
0.0043946 0.311421 0.846677
0.0043946 0.311437 0.846677
0.0043946 0.311467 0.846677
0.357687 0.290806 0.848768
0.896345 0.311376 0.853788
0.854337 0.677653 0.815259
0.00442512 0.311131 0.846708
0.00442512 0.311131 0.846708
0.00442512 0.311131 0.846708
0.00442512 0.311147 0.846708
0.00442512 0.311147 0.846708
0.00442512 0.311177 0.846708
0.758572 0.121736 0.871611
0.895018 0.322759 0.852567
0.854231 0.678645 0.815152
0.00451667 0.310262 0.846784
0.00451667 0.310262 0.846784
0.00451667 0.310262 0.846784
0.00451667 0.310277 0.846784
0.00451667 0.310277 0.846784
0.00450141 0.310307 0.846784
0.930526 0.0423133 0.885069
0.892439 0.344823 0.850217
0.854017 0.680476 0.814954
0 0.980575 0.785504
0 0.980575 0.785504
0 0.980575 0.785504
0 0.980575 0.785504
0 0.980575 0.785504
0 0.980575 0.785504
0.749279 0.966064 0.785
0.82182 0.963653 0.785748
0.821851 0.967269 0.785382
0.729366 0.977325 0.783734
0.730114 0.977325 0.783734
0.731319 0.97734 0.783749
0.734798 0.977356 0.783764
0.74406 0.977417 0.78381
0.763973 0.977539 0.783932
0.792355 0.977737 0.784115
0.814801 0.97789 0.784253
0.82031 0.977493 0.783948
