BBLuts/BB_106_0210_LUT.cube
TITLE "Generated by Resolve"
LUT_3D_SIZE 9
0 0 0.0175174
0.00265507 0 0.0182956
0.162661 9.15541e-05 0.0266423
0.439017 0.00364691 0.034287
0.766293 0.285008 0.344945
0.949142 0.622507 0.648676
0.948013 0.650752 0.647822
0.941741 0.808682 0.600443
0.936736 0.890562 0.739773
0 0.0406043 0.0135348
0 0.0484321 0.0139315
0.168261 0.0364996 0.0242008
0.45185 0.00419623 0.0352636
0.768429 0.289586 0.349248
0.949126 0.622583 0.648676
0.947753 0.658076 0.646799
0.941695 0.811887 0.595682
0.936706 0.890959 0.739193
0 0.176516 0.00138857
0 0.179507 0.00105287
0.113848 0.187274 0.0112001
0.467903 0.175418 0.0294957
0.77319 0.335317 0.356573
0.949035 0.626719 0.648341
0.947219 0.671916 0.644572
0.941634 0.81709 0.587411
0.936675 0.89163 0.738155
0 0.478904 0
0 0.480217 0
0 0.480934 0
0.360418 0.501274 0
0.778134 0.531334 0.337713
0.947906 0.65391 0.645655
0.945174 0.71693 0.634165
0.941695 0.830777 0.54461
0.936553 0.893538 0.735042
0 0.760418 0
0 0.760327 0
0 0.759945 0
0 0.757595 0
0.711925 0.762417 0
0.918822 0.773983 0.535729
0.942153 0.807401 0.568475
0.942824 0.859297 0
0.936263 0.898543 0.725368
0.00483711 0.901366 0.00849927
0.00471504 0.900771 0.00834669
0.00448615 0.899733 0.0080415
0.00383001 0.896605 0.00715648
0.0658732 0.892439 0.0118257
0.879347 0.881132 6.10361e-05
0.942046 0.882582 0
0.941497 0.894316 0
0.935607 0.909056 0.705318
0.0129397 0.94316 0.0191043
0.0128786 0.942779 0.0190127
0.0127718 0.942168 0.0188907
0.0124971 0.940566 0.0185245
0.622324 0.938048 0.0192264
0.863996 0.925856 0.00222782
0.933486 0.92253 0
0.939223 0.922866 0
0.934005 0.922469 0.730526
0.817639 0.937179 0.00433356
0.819669 0.937148 0.00422675
0.823026 0.937072 0.00407416
0.832166 0.936889 0.00366217
0.853284 0.936522 0.00280766
0.888334 0.936065 0.0016022
0.925704 0.935744 0.00700389
0.934737 0.932692 0.595193
0.933059 0.9308 0.798276
0.904356 0.931395 0.828641
0.904524 0.931395 0.828672
0.904799 0.931395 0.828702
0.905638 0.931395 0.82884
0.908003 0.931365 0.829206
0.913848 0.931319 0.830289
0.924773 0.931258 0.83331
0.933959 0.931289 0.840574
0.934615 0.931685 0.857801
0 0 0.0637522
0.00671397 0 0.0645914
0.168338 0.00453193 0.0733043
0.440513 0.00819409 0.0819257
0.766323 0.287449 0.362249
0.949126 0.62266 0.649958
0.948043 0.649592 0.648981
0.941649 0.807935 0.6094
0.936706 0.890455 0.747143
0 0.0258488 0.0540322
0.0284276 0.0364996 0.0554513
0.18056 0.014786 0.0658427
0.446693 0.00753796 0.0726177
0.767163 0.28806 0.355474
0.949126 0.622644 0.649607
0.947799 0.656855 0.647974
0.941588 0.811154 0.605051
0.93669 0.890852 0.746609
0 0.167651 0.00660716
0 0.17026 0.00643931
0.131594 0.179004 0.0174105
0.464897 0.166445 0.0332189
0.770367 0.319799 0.351461
0.94905 0.626383 0.648493
0.947265 0.670649 0.645838
0.941527 0.816388 0.597009
0.936645 0.891508 0.745678
0 0.473548 0
0 0.4748 0
0 0.475303 0
0.380789 0.495903 0
0.777768 0.528023 0.338064
0.947936 0.653208 0.645747
0.945235 0.715862 0.635309
0.941512 0.830121 0.564248
0.936522 0.893431 0.742855
0 0.759396 0
0 0.759289 0
0 0.758892 0
0 0.756497 0
0.715053 0.761425 0
0.918914 0.773388 0.538506
0.942153 0.80708 0.569223
0.94284 0.859144 0
0.936217 0.898436 0.734188
0.00479133 0.901167 0.00843824
0.00466926 0.900572 0.00827039
0.00444038 0.899519 0.00799573
0.00378424 0.896406 0.0071107
0.0662547 0.892287 0.0118257
0.879637 0.881025 4.57771e-05
0.942046 0.882521 0
0.941497 0.89427 0
0.935592 0.909026 0.706783
0.0129244 0.943084 0.019089
0.0128634 0.942702 0.0189975
0.0127565 0.942107 0.0188754
0.0124819 0.94052 0.0185092
0.628626 0.937728 0.0186465
0.864195 0.925826 0.00222782
0.933516 0.922515 0
0.939223 0.92285 0
0.934005 0.922469 0.73048
0.817945 0.937179 0.0043183
0.819974 0.937133 0.00421149
0.823301 0.937072 0.0040589
0.832395 0.936889 0.00366217
0.853452 0.936522 0.00280766
0.888395 0.936065 0.0016022
0.925734 0.935744 0.00700389
0.934737 0.932708 0.595132
0.933059 0.9308 0.79826
0.904372 0.931395 0.828641
0.90454 0.931395 0.828672
0.90483 0.931395 0.828702
0.905669 0.931395 0.82884
0.908019 0.931365 0.829206
0.913848 0.931319 0.830289
0.924773 0.931258 0.83331
0.933959 0.931289 0.840574
0.934615 0.931685 0.857786
0.012726 0.00793469 0.180484
0.0127565 0.00794995 0.180667
0.162066 0.0148013 0.187289
0.457221 0.0192264 0.192096
0.766644 0.293294 0.395392
0.949126 0.622904 0.651911
0.948104 0.647501 0.652079
0.941482 0.806638 0.62591
0.936706 0.890288 0.758373
0.012253 0.00799573 0.176745
0.0173037 0.01178 0.177172
0.182696 0.014847 0.184146
0.455283 0.0187686 0.188678
0.768322 0.296559 0.396765
0.949126 0.622889 0.651774
0.947875 0.65449 0.651072
0.941405 0.809903 0.622202
0.93666 0.890684 0.7579
0 0.156191 0.151751
0 0.157992 0.151354
0.142275 0.162219 0.158587
0.448783 0.15494 0.174258
0.767391 0.302464 0.39202
0.949065 0.62565 0.651286
0.947372 0.667948 0.648966
0.941329 0.815183 0.615457
0.936629 0.891356 0.757092
0 0.458183 0.00169375
0 0.459663 0.00169375
0 0.460395 0.00234989
0.387839 0.481941 0.045716
0.773495 0.517143 0.359869
0.947997 0.651026 0.647868
0.945342 0.713008 0.639445
0.941207 0.829023 0.591577
0.936507 0.893263 0.754665
0 0.757122 0
0 0.757015 0
0 0.756603 0
0 0.754192 0
0.717937 0.759274 0
0.918822 0.771893 0.542519
0.942138 0.806088 0.575708
0.942931 0.858732 0.260471
0.936172 0.898253 0.747295
0.0047303 0.900816 0.00834669
0.00459297 0.900221 0.00817884
0.00436408 0.899168 0.00788891
0.0037232 0.896056 0.00701915
0.0668956 0.892042 0.0118105
0.880125 0.880842 3.0518e-05
0.942046 0.882383 0
0.941497 0.894209 0
0.935454 0.908797 0.723781
0.0129091 0.942962 0.0190585
0.0128328 0.942596 0.0189822
0.0127413 0.941985 0.0188449
0.0124666 0.940429 0.0184939
0.638392 0.937209 0.0177615
0.86453 0.925795 0.00221256
0.933593 0.922499 0
0.939223 0.922835 0
0.93402 0.922454 0.730388
0.818463 0.937163 0.00428778
0.820478 0.937118 0.00418097
0.823789 0.937057 0.00404364
0.832807 0.936873 0.00364691
0.853727 0.936522 0.0027924
0.888533 0.936065 0.0016022
0.925765 0.935744 0.00700389
0.934737 0.932708 0.595132
0.933059 0.9308 0.798245
0.904418 0.931395 0.828641
0.904585 0.931395 0.828656
0.904875 0.931395 0.828702
0.905699 0.931395 0.828824
0.908064 0.931365 0.82919
0.913878 0.931319 0.830289
0.924788 0.931258 0.833295
0.933959 0.931289 0.840574
0.934615 0.931685 0.857786
0.106279 0.0830091 0.454292
0.106432 0.0831464 0.454505
0.121874 0.0838483 0.455039
0.445563 0.0911727 0.452079
0.784649 0.357107 0.531151
0.949096 0.624781 0.665446
0.948241 0.643153 0.672312
0.941024 0.802869 0.67805
0.936782 0.889921 0.784253
0.104356 0.0814679 0.451499
0.104555 0.0816205 0.451759
0.177661 0.0839857 0.453162
0.461799 0.0906081 0.449027
0.783047 0.353613 0.528588
0.949081 0.624735 0.66511
0.948043 0.649088 0.671199
0.940917 0.806226 0.675792
0.936751 0.890318 0.783932
0.0934615 0.140368 0.445136
0.0931868 0.144183 0.445335
0.183154 0.143481 0.447776
0.468711 0.102235 0.444266
0.777523 0.342626 0.522179
0.949081 0.624872 0.664454
0.947616 0.661112 0.669017
0.940749 0.811658 0.671794
0.936706 0.89099 0.783352
0 0.419684 0.38761
0 0.421485 0.387732
0 0.422812 0.388434
0.402686 0.441855 0.414466
0.760327 0.484535 0.491341
0.94818 0.645365 0.660517
0.945647 0.704631 0.659968
0.940398 0.825818 0.658747
0.936568 0.892927 0.781674
0 0.747555 0
0 0.747509 0
0 0.747204 0
0 0.744991 0
0.714992 0.750637 0
0.916716 0.765332 0.580591
0.941848 0.802014 0.608988
0.940139 0.854749 0.606714
0.936187 0.897917 0.776654
0.00451667 0.899855 0.00808728
0.0043946 0.899245 0.00791943
0.00416571 0.898192 0.00761425
0.00350958 0.895079 0.00672923
0.0666972 0.891066 0.0115511
0.879454 0.880018 0
0.942092 0.881712 0
0.941619 0.893751 0
0.935317 0.908385 0.761868
0.0128481 0.942596 0.0189822
0.0127871 0.942245 0.0189059
0.0126802 0.941665 0.0187686
0.0124208 0.940139 0.0184329
0.661967 0.935958 0.01561
0.865568 0.925673 0.00218204
0.933761 0.922423 0
0.939223 0.922789 0
0.93402 0.922438 0.730724
0.82002 0.937133 0.00421149
0.821988 0.937087 0.00411994
0.825223 0.937026 0.0039826
0.834043 0.936843 0.00358587
0.854582 0.936507 0.00276188
0.888914 0.936065 0.00158694
0.925872 0.935744 0.00698863
0.934737 0.932708 0.594965
0.933059 0.9308 0.798169
0.904753 0.931395 0.829221
0.904921 0.931395 0.829236
0.905196 0.931395 0.829267
0.905821 0.93138 0.828824
0.908324 0.931365 0.82977
0.914076 0.931319 0.830839
0.924834 0.931258 0.83328
0.933959 0.931289 0.84097
0.93463 0.931701 0.858091
0.565423 0.546761 0.749859
0.56553 0.546853 0.749935
0.565682 0.547021 0.750042
0.57882 0.54583 0.749096
0.780804 0.565454 0.748562
0.948806 0.653788 0.771252
0.948318 0.660471 0.780224
0.941238 0.794202 0.7897
0.93753 0.889296 0.829023
0.564645 0.545937 0.74934
0.564752 0.546044 0.749416
0.56492 0.546227 0.749523
0.580438 0.544839 0.74844
0.784848 0.566033 0.748211
0.948806 0.653605 0.770825
0.948226 0.662211 0.779202
0.941054 0.797909 0.7888
0.937499 0.889708 0.828824
0.563302 0.544533 0.748455
0.563409 0.54464 0.748516
0.563561 0.544808 0.748623
0.582971 0.543175 0.747311
0.787564 0.565759 0.747387
0.948806 0.653254 0.770047
0.947967 0.666819 0.777356
0.940764 0.803815 0.787335
0.937438 0.89041 0.828519
0.553506 0.55317 0.743008
0.553506 0.55346 0.743038
0.553445 0.553811 0.743023
0.576928 0.551995 0.742077
0.785351 0.567651 0.742992
0.948318 0.655467 0.765759
0.946517 0.692943 0.770916
0.940078 0.818967 0.783108
0.937285 0.892393 0.827604
0.0177005 0.725673 0.700847
0.0176852 0.725902 0.700954
0.0176699 0.725933 0.701106
0.0191196 0.72459 0.701656
0.713863 0.727047 0.712673
0.910338 0.746471 0.733501
0.941192 0.790082 0.748379
0.938781 0.849607 0.771572
0.936858 0.897505 0.824979
0.00476081 0.897612 0.0750591
0.004654 0.897032 0.0751049
0.00442512 0.89601 0.0751354
0.00378424 0.892897 0.0752117
0.0625315 0.888426 0.0818494
0.870054 0.87512 0.567422
0.938094 0.875517 0.685161
0.936919 0.887739 0.741527
0.935851 0.90808 0.817929
0.0127413 0.942016 0.0188449
0.0126802 0.941649 0.0187686
0.0125734 0.94107 0.0186313
0.012314 0.939544 0.0182956
0.624765 0.937057 0.0189212
0.860349 0.925185 0.00234989
0.929763 0.92195 0.0530404
0.93608 0.919234 0.612222
0.934157 0.922011 0.800259
0.824552 0.937041 0.00399786
0.826383 0.936996 0.00392157
0.829389 0.936934 0.00378424
0.837644 0.936782 0.00343328
0.857069 0.936461 0.00267033
0.890043 0.936049 0.00154116
0.926207 0.935744 0.00697337
0.934752 0.932708 0.594583
0.933043 0.9308 0.797986
0.904936 0.931395 0.828595
0.905104 0.931395 0.828611
0.905379 0.93138 0.828672
0.906188 0.93138 0.828779
0.908492 0.931365 0.829145
0.914214 0.931319 0.830243
0.924956 0.931258 0.833249
0.933959 0.931289 0.840528
0.934615 0.931685 0.857786
0.743236 0.724697 0.893645
0.743252 0.724712 0.893645
0.743267 0.724727 0.89366
0.743282 0.724743 0.893675
0.771588 0.720455 0.889525
0.948257 0.73669 0.888716
0.948272 0.737255 0.889311
0.945541 0.772946 0.881132
0.939757 0.887205 0.877806
0.743175 0.724636 0.893584
0.743191 0.724636 0.893599
0.743206 0.724651 0.893614
0.743206 0.724651 0.893614
0.773587 0.720348 0.889403
0.948257 0.736629 0.888655
0.948272 0.737209 0.889265
0.945281 0.776776 0.880446
0.939727 0.887678 0.877714
0.743053 0.724514 0.893492
0.743069 0.724529 0.893507
0.743084 0.724544 0.893507
0.743053 0.724514 0.893492
0.777157 0.720165 0.889174
0.948257 0.736538 0.888548
0.948272 0.737102 0.889158
0.944839 0.783307 0.879332
0.939651 0.888472 0.877531
0.742702 0.724163 0.893202
0.742702 0.724178 0.893202
0.742718 0.724193 0.893217
0.742382 0.723812 0.892912
0.785657 0.719738 0.888609
0.948257 0.736263 0.888258
0.948226 0.735882 0.887633
0.943694 0.801877 0.876371
0.939483 0.890715 0.877043
0.729244 0.727642 0.883619
0.729183 0.727749 0.883589
0.729076 0.727916 0.883528
0.72845 0.727749 0.88307
0.770336 0.724651 0.880537
0.943236 0.741588 0.880293
0.945556 0.766964 0.875975
0.941649 0.839765 0.870527
0.93901 0.896452 0.875685
0.033875 0.893172 0.864088
0.0339208 0.892836 0.864073
0.0341344 0.892149 0.864027
0.0350347 0.889525 0.863874
0.575479 0.882918 0.864424
0.864973 0.866758 0.855848
0.936522 0.87042 0.858045
0.938979 0.885206 0.861631
0.937926 0.907897 0.872465
0.0109865 0.942092 0.842176
0.010956 0.941711 0.842283
0.0108797 0.941054 0.842451
0.0106813 0.939315 0.842939
0.585687 0.934539 0.842939
0.845243 0.919768 0.835523
0.917342 0.916365 0.840772
0.935943 0.917235 0.849821
0.936156 0.92253 0.866239
0.814008 0.932616 0.792309
0.815793 0.93257 0.79237
0.818753 0.932509 0.792462
0.826886 0.932311 0.792798
0.846098 0.931945 0.793942
0.878965 0.931441 0.79765
0.915328 0.93106 0.807218
0.933547 0.93106 0.826123
0.934493 0.931609 0.85478
0.906264 0.93138 0.829068
0.906416 0.93138 0.829099
0.906493 0.93138 0.82855
0.907271 0.931365 0.828672
0.909621 0.93135 0.829618
0.914931 0.931304 0.830121
0.925338 0.931243 0.833143
0.933959 0.931289 0.840833
0.934615 0.931685 0.857786
0.788937 0.769345 0.931441
0.788937 0.769345 0.931441
0.788937 0.769345 0.931441
0.788937 0.769345 0.931441
0.789014 0.769345 0.931441
0.937453 0.776928 0.931456
0.950423 0.77847 0.931456
0.950423 0.77847 0.931456
0.943664 0.872969 0.915068
0.788937 0.769345 0.931441
0.788937 0.769345 0.931441
0.788937 0.769345 0.931441
0.788937 0.769345 0.931441
0.789029 0.769345 0.931441
0.938338 0.777035 0.931456
0.950423 0.77847 0.931456
0.950423 0.77847 0.931456
0.943618 0.873747 0.914961
0.788937 0.769345 0.931441
0.788937 0.769345 0.931441
0.788937 0.769345 0.931441
0.788937 0.769345 0.931441
0.789075 0.76936 0.931456
0.939864 0.777203 0.931456
0.950423 0.77847 0.931456
0.950423 0.77847 0.931456
0.943542 0.875059 0.914778
0.788937 0.769345 0.931441
0.788937 0.769345 0.931441
0.788937 0.769345 0.931441
0.788937 0.769345 0.931441
0.789242 0.76936 0.931441
0.944244 0.777737 0.931456
0.950423 0.77847 0.931456
0.950423 0.778485 0.931441
0.943282 0.878721 0.914275
0.788937 0.769345 0.931441
0.788937 0.769345 0.931441
0.788937 0.769345 0.931441
0.788937 0.769345 0.931441
0.791379 0.769375 0.931441
0.949996 0.778408 0.931456
0.950423 0.77847 0.931456
0.949523 0.784512 0.927184
0.942641 0.887816 0.913008
0.764355 0.835233 0.923003
0.764294 0.835355 0.923003
0.764187 0.835584 0.922988
0.763851 0.83624 0.922911
0.764462 0.833036 0.921981
0.884321 0.826764 0.918502
0.945327 0.838895 0.91632
0.943603 0.869612 0.912871
0.941268 0.904219 0.910445
0.0121157 0.946685 0.918029
0.0120699 0.946197 0.917998
0.0119783 0.945373 0.917952
0.0117494 0.942977 0.917815
0.613916 0.93402 0.914199
0.841718 0.919036 0.905165
0.918181 0.915297 0.904768
0.939666 0.916716 0.905257
0.939223 0.922652 0.906828
0.806485 0.93521 0.89955
0.808392 0.93518 0.899504
0.811521 0.935088 0.899428
0.820172 0.934874 0.899229
0.840711 0.934447 0.898848
0.875929 0.933883 0.898482
0.913787 0.933471 0.89868
0.937316 0.933333 0.899992
0.937606 0.933516 0.903181
0.906264 0.933028 0.887739
0.90663 0.933013 0.887694
0.906661 0.933013 0.887755
0.907423 0.933013 0.887785
0.909728 0.932998 0.8878
0.91487 0.932967 0.888106
0.925032 0.932891 0.888853
0.936507 0.932876 0.890929
0.936996 0.933135 0.896254
0.788922 0.769497 0.931441
0.788922 0.769497 0.931441
0.788922 0.769497 0.931441
0.788922 0.769497 0.931441
0.788922 0.769497 0.931441
0.79237 0.769528 0.931426
0.950423 0.77847 0.931456
0.950423 0.77847 0.931456
0.949676 0.790433 0.930831
0.788922 0.769497 0.931441
0.788922 0.769497 0.931441
0.788922 0.769497 0.931441
0.788922 0.769497 0.931441
0.788922 0.769497 0.931441
0.792508 0.769528 0.931426
0.950423 0.77847 0.931456
0.950423 0.77847 0.931456
0.949676 0.790417 0.930831
0.788922 0.769497 0.931441
0.788922 0.769497 0.931441
0.788922 0.769497 0.931441
0.788922 0.769497 0.931441
0.788922 0.769497 0.931441
0.792752 0.769543 0.931411
0.950423 0.77847 0.931456
0.950423 0.77847 0.931456
0.949676 0.790417 0.930831
0.788922 0.769497 0.931441
0.788922 0.769497 0.931441
0.788922 0.769497 0.931441
0.788922 0.769497 0.931441
0.788922 0.769497 0.931441
0.793484 0.769482 0.931411
0.950423 0.77847 0.931456
0.950423 0.778485 0.931456
0.949676 0.790402 0.930831
0.788922 0.769482 0.931441
0.788922 0.769482 0.931441
0.788922 0.769482 0.931441
0.788922 0.769482 0.931441
0.788922 0.769482 0.931441
0.797116 0.769512 0.931395
0.950423 0.77847 0.931456
0.950423 0.778485 0.931456
0.949676 0.790356 0.930831
0.788922 0.769482 0.931441
0.788922 0.769482 0.931441
0.788922 0.769482 0.931441
0.788922 0.769482 0.931441
0.788922 0.769482 0.931441
0.844129 0.770657 0.931273
0.950423 0.77847 0.931456
0.950423 0.778592 0.931456
0.946105 0.853483 0.928298
0.695323 0.918196 0.931823
0.695232 0.918227 0.931823
0.695109 0.918273 0.931823
0.694697 0.91841 0.931838
0.694057 0.918761 0.931853
0.795621 0.901473 0.928527
0.925338 0.895613 0.926863
0.943328 0.901411 0.926513
0.942092 0.915602 0.925765
0.679133 0.942046 0.930968
0.686366 0.941665 0.930571
0.699229 0.941024 0.929885
0.730358 0.939559 0.928359
0.788037 0.937362 0.926009
0.856504 0.93579 0.9243
0.910384 0.935088 0.923598
0.938888 0.934035 0.923537
0.939803 0.934417 0.923674
0.902312 0.935058 0.921935
0.902495 0.935042 0.921935
0.902815 0.935042 0.921935
0.903761 0.935042 0.921935
0.906401 0.935012 0.921904
0.912856 0.934951 0.921859
0.924514 0.934829 0.921813
0.93698 0.934737 0.921874
0.93959 0.934737 0.922255
0.78883 0.77023 0.931441
0.78883 0.77023 0.931441
0.78883 0.77023 0.931441
0.78883 0.77023 0.931441
0.78883 0.77023 0.931441
0.78883 0.77023 0.931441
0.798779 0.770672 0.931395
0.950378 0.779141 0.931426
0.949279 0.797345 0.930495
0.78883 0.77023 0.931441
0.78883 0.77023 0.931441
0.78883 0.77023 0.931441
0.78883 0.77023 0.931441
0.78883 0.77023 0.931441
0.78883 0.77023 0.931441
0.798779 0.770672 0.931395
0.950378 0.779141 0.931426
0.949279 0.79736 0.930495
0.78883 0.77023 0.931441
0.78883 0.77023 0.931441
0.78883 0.77023 0.931441
0.78883 0.77023 0.931441
0.78883 0.77023 0.931441
0.78883 0.77023 0.931441
0.79881 0.770672 0.931395
0.950378 0.779141 0.931426
0.949279 0.797375 0.930495
0.78883 0.77023 0.931441
0.78883 0.77023 0.931441
0.78883 0.77023 0.931441
0.78883 0.77023 0.931441
0.78883 0.77023 0.931441
0.78883 0.77023 0.931441
0.79884 0.770672 0.931395
0.950378 0.779141 0.931426
0.949264 0.797421 0.930495
0.78883 0.77023 0.931441
0.78883 0.77023 0.931441
0.78883 0.77023 0.931441
0.78883 0.77023 0.931441
0.78883 0.77023 0.931441
0.78883 0.77023 0.931441
0.800397 0.770565 0.931395
0.950378 0.779171 0.931426
0.949264 0.797528 0.93048
0.78883 0.77023 0.931441
0.78883 0.77023 0.931441
0.78883 0.77023 0.931441
0.78883 0.77023 0.931441
0.78883 0.77023 0.931441
0.78883 0.77023 0.931441
0.855863 0.771328 0.931289
0.950378 0.779232 0.931426
0.949264 0.797711 0.93048
0.78883 0.77023 0.931441
0.78883 0.77023 0.931441
0.78883 0.77023 0.931441
0.78883 0.77023 0.931441
0.78883 0.77023 0.931441
0.78883 0.77023 0.931441
0.950423 0.77847 0.931456
0.950362 0.779385 0.931411
0.949233 0.798123 0.930449
0.0125734 0.949935 0.938628
0.0125734 0.949935 0.938628
0.0125734 0.949935 0.938628
0.0125734 0.949935 0.938628
0.0125734 0.949935 0.938628
0.0211337 0.950347 0.93904
0.881224 0.928161 0.925292
0.940917 0.925719 0.925093
0.940719 0.928069 0.92491
0.860014 0.93579 0.924926
0.8607 0.935775 0.92491
0.861845 0.935744 0.924895
0.865125 0.935699 0.924849
0.87361 0.935576 0.924758
0.891234 0.935363 0.92459
0.91577 0.935103 0.924453
0.935119 0.934936 0.924392
0.939834 0.93489 0.924376
