BBLuts/BB_106_0200_LUT.cube
TITLE "Generated by Resolve"
LUT_3D_SIZE 5
0 0 0
0.204334 0 0
0.796185 0.300877 0.346517
0.959579 0.688411 0.659983
0.935225 0.938689 0.742351
0 0.187869 0
0.139803 0.194537 0
0.802029 0.357259 0.360235
0.957763 0.709499 0.656565
0.935103 0.939757 0.740826
0 0.79733 0
0 0.796918 0
0.729229 0.796582 0
0.945251 0.849271 0.58793
0.934325 0.94667 0.729046
0 0.990112 0
0 0.989075 0
0.618906 0.982574 0
0.930388 0.970932 0
0.9308 0.971374 0.732845
0.903243 0.980346 0.825696
0.903639 0.980362 0.825757
0.906477 0.980392 0.826276
0.921782 0.980652 0.830365
0.930953 0.981384 0.853773
0.016144 0 0.171862
0.203387 0 0.174289
0.796216 0.310063 0.402075
0.959838 0.685237 0.663798
0.935225 0.93846 0.759655
0 0.164141 0.141222
0.177829 0.163775 0.141314
0.797024 0.31136 0.3991
0.958114 0.705592 0.660533
0.935088 0.939529 0.75845
0 0.793957 0
0 0.793515 0
0.735302 0.793423 0
0.945312 0.847944 0.59234
0.934264 0.946426 0.749249
0 0.989914 0
0 0.988876 0
0.636057 0.981826 0
0.930495 0.970886 0
0.930816 0.971359 0.732738
0.903288 0.980346 0.825696
0.9037 0.980362 0.825772
0.906538 0.980392 0.826261
0.921798 0.980652 0.830365
0.930953 0.981384 0.853773
0.600946 0.579416 0.750011
0.601129 0.579614 0.750179
0.802701 0.593774 0.750057
0.959487 0.698085 0.783291
0.936095 0.937652 0.82623
0.599466 0.57763 0.748653
0.599664 0.57789 0.748837
0.809323 0.594156 0.749004
0.958846 0.704356 0.780453
0.935958 0.938766 0.825727
0 0.757183 0.701915
0 0.757534 0.702159
0.733867 0.759121 0.712322
0.945602 0.831785 0.749554
0.935027 0.945861 0.822217
0 0.988861 0
0 0.987884 0
0.627482 0.981338 0
0.92697 0.97023 0
0.931044 0.971069 0.797711
0.903761 0.980362 0.82565
0.904143 0.980362 0.825727
0.90692 0.980392 0.826215
0.92195 0.980652 0.83032
0.930953 0.981384 0.853773
0.80589 0.810666 0.92578
0.80589 0.810666 0.92578
0.80589 0.810666 0.92578
0.954421 0.823377 0.92813
0.942779 0.921843 0.909545
0.80589 0.810666 0.92578
0.80589 0.810666 0.92578
0.80589 0.810666 0.92578
0.954421 0.823377 0.92813
0.94255 0.923873 0.909224
0.80589 0.810666 0.92578
0.80589 0.810666 0.92578
0.806882 0.810697 0.925795
0.954421 0.823377 0.92813
0.941024 0.936461 0.907256
0 0.994644 0.909545
0 0.993271 0.909529
0.617136 0.979065 0.90341
0.916655 0.963867 0.898207
0.93579 0.972122 0.900374
0.904997 0.982193 0.880888
0.905348 0.982193 0.880919
0.907912 0.982223 0.881056
0.922011 0.982467 0.882292
0.933059 0.983017 0.889769
0.805753 0.811582 0.92575
0.805753 0.811582 0.92575
0.805753 0.811582 0.92575
0.805753 0.811582 0.92575
0.95227 0.842802 0.926711
0.805753 0.811582 0.92575
0.805753 0.811582 0.92575
0.805753 0.811582 0.92575
0.805753 0.811582 0.92575
0.95227 0.842832 0.926711
0.805753 0.811582 0.92575
0.805753 0.811582 0.92575
0.805753 0.811582 0.92575
0.80705 0.81149 0.925765
0.952239 0.843 0.926696
0.805753 0.811582 0.92575
0.805753 0.811582 0.92575
0.805753 0.811582 0.92575
0.954421 0.823377 0.92813
0.952193 0.843549 0.92665
0.863218 0.984222 0.916136
0.864775 0.984222 0.916152
0.874937 0.984283 0.916213
0.913314 0.98468 0.916625
0.935637 0.985 0.916991
