BBLuts/BB_103_0660_LUT.cube
TITLE "Generated by Resolve"
LUT_3D_SIZE 9
0.0180209 0.0180209 0.0180209
0.0180209 0.0180209 0.0180209
0.188678 0.0180209 0.0180209
0.402579 0.0180209 0.0180209
0.703578 0.0180209 0.0180209
0.909499 0.0180209 0.0180209
0.909499 0.452003 0.137896
0.909499 0.747341 0.406119
0.909499 0.857023 0.706889
0.0180209 0.0667124 0.0180209
0.0180209 0.0756237 0.0180209
0.198123 0.0568704 0.0180209
0.412131 0.0180209 0.0180209
0.705867 0.0180209 0.0180209
0.909499 0.0180209 0.0180209
0.909499 0.483406 0.126223
0.909499 0.751553 0.404181
0.909499 0.857542 0.706661
0.0180209 0.206424 0.0180209
0.0180209 0.209445 0.0180209
0.167224 0.208499 0.0180209
0.421424 0.189105 0.0180209
0.709651 0.100038 0.0180209
0.909499 0.19913 0.0180209
0.909499 0.525628 0.102968
0.909499 0.758007 0.401083
0.909499 0.858381 0.706279
0.0180209 0.429526 0.0180209
0.0180209 0.430503 0.0180209
0.0180209 0.431052 0.0180209
0.375723 0.429129 0.0180209
0.715312 0.41825 0.0180209
0.909499 0.461601 0.0180209
0.909499 0.615335 0.0180209
0.909499 0.775051 0.392004
0.909499 0.860792 0.705165
0.0180209 0.707774 0.0180209
0.0180209 0.707698 0.0180209
0.0180209 0.707362 0.0180209
0.0180209 0.705165 0.0180209
0.664118 0.697444 0.0180209
0.880629 0.700694 0.0180209
0.909499 0.742565 0.0180209
0.909499 0.809857 0.395193
0.909499 0.867124 0.701793
0.0180209 0.860197 0.0180209
0.0180209 0.859541 0.0180209
0.0180209 0.858442 0.0180209
0.0180209 0.8551 0.0180209
0.643473 0.846662 0.0180209
0.839796 0.838514 0.0180209
0.909499 0.839933 0.0180209
0.909499 0.855512 0.433249
0.909499 0.880522 0.697948
0.538277 0.908125 0.207279
0.556451 0.907652 0.208072
0.5823 0.906966 0.20943
0.6383 0.905089 0.213611
0.732235 0.901213 0.226474
0.833753 0.896071 0.263096
0.903319 0.892515 0.356985
0.909499 0.892912 0.542321
0.909499 0.898344 0.72369
0.802243 0.909499 0.611475
0.803632 0.909499 0.611612
0.805829 0.909499 0.611811
0.812146 0.909499 0.612467
0.828305 0.909499 0.614466
0.859266 0.909499 0.620661
0.896544 0.909499 0.638819
0.909499 0.909499 0.687984
0.909499 0.909499 0.776242
0.878523 0.909499 0.805066
0.878676 0.909499 0.805081
0.878965 0.909499 0.805112
0.879805 0.909499 0.805203
0.88217 0.909499 0.805463
0.888182 0.909499 0.806271
0.899702 0.909499 0.808682
0.909499 0.909499 0.815427
0.909499 0.909499 0.833295
0.0180209 0.0180209 0.0656901
0.0180209 0.0180209 0.0659342
0.188907 0.0180209 0.0666667
0.403128 0.0180209 0.0678111
0.703471 0.0180209 0.0709697
0.909499 0.0180209 0.100999
0.909499 0.446189 0.198825
0.909499 0.746441 0.437705
0.909499 0.856901 0.712886
0.0180209 0.045655 0.0574807
0.0561532 0.0561532 0.0561532
0.204456 0.0180209 0.058854
0.408011 0.0180209 0.0569009
0.704479 0.0180209 0.0424353
0.909499 0.0180209 0.0759442
0.909499 0.478523 0.188373
0.909499 0.750683 0.435981
0.909499 0.85742 0.712673
0.0180209 0.198749 0.0180209
0.0180209 0.201297 0.0180209
0.183261 0.200702 0.0180209
0.419684 0.180926 0.0180209
0.706996 0.0721752 0.0180209
0.909499 0.185061 0.0180209
0.909499 0.521981 0.169497
0.909499 0.757183 0.433204
0.909499 0.858244 0.712322
0.0180209 0.425742 0.0180209
0.0180209 0.426673 0.0180209
0.0180209 0.427054 0.0180209
0.385382 0.424811 0.0180209
0.71487 0.414664 0.0180209
0.909499 0.458671 0.0180209
0.909499 0.613642 0.0659953
0.909499 0.774395 0.425071
0.909499 0.86067 0.711238
0.0180209 0.706691 0.0180209
0.0180209 0.706584 0.0180209
0.0180209 0.706249 0.0180209
0.0180209 0.704005 0.0180209
0.666651 0.69633 0.0180209
0.880735 0.699916 0.0180209
0.909499 0.742153 0.0180209
0.909499 0.809659 0.402686
0.909499 0.867033 0.708034
0.0180209 0.859968 0.0180209
0.0180209 0.859297 0.0180209
0.0180209 0.858198 0.0180209
0.0180209 0.854871 0.0180209
0.645197 0.846479 0.0180209
0.840116 0.838376 0.0180209
0.909499 0.839841 0.0180209
0.909499 0.855451 0.433051
0.909499 0.880507 0.698497
0.5411 0.908019 0.20708
0.558968 0.907576 0.207904
0.584466 0.906874 0.209262
0.639673 0.905013 0.213428
0.732876 0.901167 0.226337
0.833921 0.896056 0.262989
0.903365 0.8925 0.35697
0.909499 0.892897 0.542245
0.909499 0.898329 0.723644
0.802457 0.909499 0.611444
0.803845 0.909499 0.611582
0.806027 0.909499 0.611795
0.812314 0.909499 0.612451
0.828443 0.909499 0.614435
0.859342 0.909499 0.620645
0.896559 0.909499 0.638804
0.909499 0.909499 0.687968
0.909499 0.909499 0.776242
0.878538 0.909499 0.805066
0.878706 0.909499 0.805081
0.878981 0.909499 0.805112
0.87982 0.909499 0.805188
0.8822 0.909499 0.805463
0.888197 0.909499 0.806271
0.899702 0.909499 0.808682
0.909499 0.909499 0.815427
0.909499 0.909499 0.833295
0.0180209 0.0180209 0.19147
0.0180209 0.0180209 0.191669
0.169482 0.0180209 0.191394
0.413321 0.0180209 0.188403
0.703349 0.0180209 0.193362
0.909499 0.0180209 0.219303
0.909499 0.434684 0.289174
0.909499 0.744915 0.482979
0.909499 0.856672 0.72195
0.0180209 0.0180209 0.187854
0.0180209 0.0180209 0.18819
0.193103 0.0180209 0.18764
0.411963 0.0180209 0.184848
0.705501 0.0180209 0.189471
0.909499 0.0180209 0.212909
0.909499 0.468391 0.283177
0.909499 0.749218 0.481498
0.909499 0.857206 0.721752
0.0180209 0.176135 0.176715
0.0180209 0.178088 0.176425
0.172793 0.172793 0.172793
0.406027 0.157748 0.175296
0.70425 0.0180209 0.178744
0.909499 0.137102 0.200168
0.909499 0.514015 0.273136
0.909499 0.75584 0.479118
0.909499 0.858045 0.721416
0.0180209 0.414496 0.100481
0.0180209 0.415564 0.101442
0.0180209 0.416083 0.10277
0.385321 0.413413 0.105577
0.710201 0.404059 0.110475
0.909499 0.44831 0.138674
0.909499 0.60914 0.24033
0.909499 0.773297 0.472129
0.909499 0.860471 0.720439
0.0180209 0.704433 0.0180209
0.0180209 0.704341 0.0180209
0.0180209 0.70399 0.0180209
0.0180209 0.701717 0.0180209
0.668864 0.694087 0.0180209
0.880598 0.6981 0.0180209
0.909499 0.740917 0.107103
0.909499 0.809018 0.452918
0.909499 0.866865 0.717464
0.0180209 0.859602 0.0180209
0.0180209 0.85893 0.0180209
0.0180209 0.857832 0.0180209
0.0180209 0.854505 0.0180209
0.64799 0.846159 0.0180209
0.840589 0.838148 0.0180209
0.909499 0.839689 0.0180209
0.909499 0.85536 0.432761
0.909499 0.880385 0.70869
0.545632 0.907897 0.206806
0.563027 0.907454 0.20763
0.587915 0.906752 0.208988
0.641871 0.904906 0.213169
0.733898 0.901091 0.226108
0.834226 0.89601 0.262806
0.903426 0.89247 0.356939
0.909499 0.892882 0.542123
0.909499 0.898314 0.723598
0.802792 0.909499 0.611414
0.804166 0.909499 0.611551
0.806348 0.909499 0.611765
0.812619 0.909499 0.612406
0.828672 0.909499 0.614404
0.859449 0.909499 0.620615
0.896605 0.909499 0.638773
0.909499 0.909499 0.687968
0.909499 0.909499 0.776226
0.878569 0.909499 0.805066
0.878752 0.909499 0.805081
0.879026 0.909499 0.805112
0.87985 0.909499 0.805188
0.882231 0.909499 0.805447
0.888228 0.909499 0.806256
0.899718 0.909499 0.808667
0.909499 0.909499 0.815427
0.909499 0.909499 0.833295
0.0180209 0.0180209 0.399817
0.0180209 0.0180209 0.399939
0.0180209 0.0180209 0.400015
0.392615 0.0180209 0.398688
0.720623 0.0180209 0.401236
0.909499 0.0180209 0.418372
0.909499 0.395575 0.468132
0.909499 0.740139 0.580514
0.909499 0.856031 0.744961
0.0180209 0.0180209 0.397894
0.0180209 0.0180209 0.398077
0.0908827 0.0180209 0.398001
0.406226 0.0180209 0.396643
0.718776 0.0180209 0.3991
0.909499 0.0180209 0.41593
0.909499 0.434104 0.465034
0.909499 0.744671 0.579538
0.909499 0.856565 0.744793
0.0180209 0.0817731 0.394278
0.0180209 0.0866865 0.394415
0.119463 0.0823682 0.394308
0.411795 0.0180209 0.39321
0.713115 0.0180209 0.395621
0.909499 0.0180209 0.411353
0.909499 0.487037 0.459968
0.909499 0.751614 0.577951
0.909499 0.85742 0.744518
0.0180209 0.375296 0.372763
0.0180209 0.376822 0.373037
0.0180209 0.377874 0.373648
0.37499 0.37499 0.37499
0.694926 0.366415 0.378195
0.909499 0.412818 0.393057
0.909499 0.594278 0.444816
0.909499 0.769863 0.573404
0.909499 0.859907 0.743725
0.0180209 0.69453 0.295766
0.0180209 0.694499 0.296376
0.0180209 0.694255 0.297322
0.0180209 0.692164 0.300008
0.66508 0.684627 0.308171
0.878279 0.690105 0.334173
0.909499 0.735897 0.406592
0.909499 0.80705 0.561288
0.909499 0.866377 0.741344
0.0180209 0.858549 0.0180209
0.0180209 0.857877 0.0180209
0.0180209 0.856764 0.0180209
0.0180209 0.853452 0.0180209
0.647868 0.845106 0.0180209
0.839933 0.83714 0.175555
0.909499 0.838804 0.330968
0.909499 0.854658 0.531441
0.909499 0.880064 0.734447
0.558694 0.907469 0.205936
0.574807 0.907042 0.206775
0.597726 0.906371 0.208148
0.648386 0.904585 0.212375
0.73698 0.900862 0.225406
0.835096 0.895872 0.262272
0.903624 0.892378 0.356847
0.909499 0.892821 0.541772
0.909499 0.898299 0.723445
0.803815 0.909499 0.611307
0.805173 0.909499 0.611444
0.807324 0.909499 0.611658
0.813504 0.909499 0.612299
0.829358 0.909499 0.614298
0.8598 0.909499 0.620508
0.896712 0.909499 0.638682
0.909499 0.909499 0.687938
0.909499 0.909499 0.776165
0.878706 0.909499 0.805051
0.878874 0.909499 0.805066
0.879149 0.909499 0.805081
0.879988 0.909499 0.805188
0.882338 0.909499 0.805447
0.888319 0.909499 0.806241
0.899763 0.909499 0.808652
0.909499 0.909499 0.815412
0.909499 0.909499 0.833295
0.0180209 0.0180209 0.683299
0.0180209 0.0180209 0.683375
0.0180209 0.0180209 0.683497
0.254139 0.0180209 0.682612
0.708705 0.0180209 0.679515
0.909499 0.0180209 0.682963
0.909499 0.186984 0.696559
0.909499 0.72369 0.725582
0.90988 0.854109 0.790555
0.0180209 0.0180209 0.682719
0.0180209 0.0180209 0.68278
0.0180209 0.0180209 0.682918
0.278614 0.0180209 0.681865
0.713787 0.0180209 0.678889
0.909499 0.0180209 0.682338
0.909499 0.281209 0.695262
0.909499 0.729198 0.724987
0.909499 0.854673 0.790433
0.0180209 0.0180209 0.681743
0.0180209 0.0180209 0.681834
0.0180209 0.0180209 0.681956
0.311192 0.0180209 0.680674
0.716869 0.0180209 0.677836
0.909499 0.0180209 0.68127
0.909499 0.37377 0.693141
0.909499 0.737438 0.724102
0.909499 0.855573 0.790249
0.0180209 0.226169 0.676188
0.0180209 0.228641 0.676219
0.0180209 0.2318 0.676219
0.316411 0.224186 0.675273
0.71574 0.134813 0.673289
0.909499 0.227832 0.675502
0.909499 0.533486 0.686824
0.909499 0.758541 0.721569
0.909499 0.858183 0.789715
0.0180209 0.658854 0.649027
0.0180209 0.659129 0.649149
0.0180209 0.659205 0.649287
0.0180209 0.657801 0.649607
0.650477 0.650477 0.650477
0.870451 0.661341 0.654643
0.909499 0.718059 0.670985
0.909499 0.800732 0.715404
0.909499 0.864973 0.788144
0.0180209 0.855024 0.610651
0.0180209 0.854383 0.610803
0.0180209 0.853284 0.611048
0.0180209 0.849943 0.611765
0.622156 0.841276 0.61416
0.831327 0.832929 0.623133
0.909499 0.835248 0.648249
0.909499 0.852247 0.702663
0.909499 0.879133 0.783856
0.548058 0.906676 0.52958
0.564813 0.906233 0.52987
0.588846 0.905577 0.530373
0.641062 0.903777 0.531929
0.731075 0.900053 0.536812
0.830182 0.895048 0.551827
0.899031 0.891539 0.592996
0.909499 0.892103 0.672724
0.909499 0.897856 0.772503
0.806867 0.909499 0.610971
0.808164 0.909499 0.611109
0.810224 0.909499 0.611307
0.816144 0.909499 0.611963
0.831388 0.909499 0.613962
0.860883 0.909499 0.620172
0.897063 0.909499 0.638392
0.909499 0.909499 0.687877
0.909499 0.909499 0.776013
0.879103 0.909499 0.805005
0.879271 0.909499 0.80502
0.879545 0.909499 0.805051
0.880354 0.909499 0.805127
0.882689 0.909499 0.805386
0.888563 0.909499 0.80621
0.899901 0.909499 0.808621
0.909499 0.909499 0.815381
0.909499 0.909499 0.833295
0.0180209 0.0180209 0.858671
0.0180209 0.0180209 0.858686
0.0180209 0.0180209 0.858717
0.0180209 0.0180209 0.858763
0.609903 0.0180209 0.853651
0.909499 0.0180209 0.849317
0.909499 0.0180209 0.850202
0.909499 0.647166 0.842435
0.909499 0.847944 0.847517
0.0180209 0.0180209 0.85861
0.0180209 0.0180209 0.85861
0.0180209 0.0180209 0.858625
0.0180209 0.0180209 0.858671
0.616815 0.0180209 0.853483
0.909499 0.0180209 0.849256
0.909499 0.0180209 0.850126
0.909499 0.657938 0.841856
0.909499 0.848615 0.847456
0.0180209 0.0180209 0.858488
0.0180209 0.0180209 0.858503
0.0180209 0.0180209 0.858503
0.0180209 0.0180209 0.858549
0.627985 0.0180209 0.853193
0.909499 0.0180209 0.849104
0.909499 0.0180209 0.850004
0.909499 0.673823 0.840955
0.909499 0.849683 0.847333
0.0180209 0.0180209 0.858106
0.0180209 0.0180209 0.858122
0.0180209 0.0180209 0.858137
0.0180209 0.0180209 0.857832
0.652491 0.0180209 0.85243
0.909499 0.0180209 0.848707
0.909499 0.0180209 0.848127
0.909499 0.712123 0.838575
0.909499 0.852766 0.846998
0.0180209 0.481865 0.846418
0.0180209 0.483116 0.846387
0.0180209 0.485115 0.846326
0.0180209 0.488228 0.845762
0.6327 0.477607 0.842847
0.906523 0.495827 0.839261
0.909499 0.629267 0.835447
0.909499 0.777203 0.833906
0.909499 0.860685 0.846067
0.0180209 0.842618 0.82063
0.0180209 0.842206 0.8206
0.0180209 0.841413 0.820539
0.0180209 0.838254 0.820294
0.54844 0.82884 0.819623
0.81944 0.81944 0.81944
0.90605 0.824308 0.821149
0.909499 0.845289 0.827344
0.909499 0.87657 0.843839
0.402792 0.90605 0.805447
0.437156 0.905547 0.805447
0.48365 0.904753 0.805417
0.575326 0.902647 0.805386
0.696574 0.898283 0.805447
0.813397 0.89276 0.806363
0.888792 0.889204 0.809995
0.909499 0.890272 0.819455
0.909499 0.896803 0.839261
0.797848 0.909499 0.772946
0.799176 0.909499 0.772992
0.801297 0.909499 0.773068
0.80737 0.909499 0.773297
0.82298 0.909499 0.773968
0.853162 0.909499 0.776104
0.890272 0.909499 0.782452
0.909499 0.909499 0.798993
0.909499 0.909499 0.828748
0.880262 0.909499 0.804868
0.880415 0.909499 0.804883
0.880674 0.909499 0.804913
0.881453 0.909499 0.80499
0.88368 0.909499 0.805264
0.889326 0.909499 0.806058
0.900313 0.909499 0.808499
0.909499 0.909499 0.815274
0.909499 0.909499 0.833265
0.0180209 0.0180209 0.909499
0.0180209 0.0180209 0.909499
0.0180209 0.0180209 0.909499
0.0180209 0.0180209 0.909499
0.0180209 0.0180209 0.909499
0.892729 0.0180209 0.909499
0.909499 0.0180209 0.909499
0.909499 0.0180209 0.909499
0.909499 0.821057 0.893202
0.0180209 0.0180209 0.909499
0.0180209 0.0180209 0.909499
0.0180209 0.0180209 0.909499
0.0180209 0.0180209 0.909499
0.0180209 0.0180209 0.909499
0.894011 0.0180209 0.909499
0.909499 0.0180209 0.909499
0.909499 0.0180209 0.909499
0.909499 0.822293 0.893111
0.0180209 0.0180209 0.909499
0.0180209 0.0180209 0.909499
0.0180209 0.0180209 0.909499
0.0180209 0.0180209 0.909499
0.0180209 0.0180209 0.909499
0.896071 0.0180209 0.909499
0.909499 0.0180209 0.909499
0.909499 0.0180209 0.909499
0.909499 0.824247 0.892973
0.0180209 0.0180209 0.909499
0.0180209 0.0180209 0.909499
0.0180209 0.0180209 0.909499
0.0180209 0.0180209 0.909499
0.0180209 0.0180209 0.909499
0.902068 0.0180209 0.909499
0.909499 0.0180209 0.909499
0.909499 0.0180209 0.909499
0.909499 0.82977 0.892576
0.0180209 0.0180209 0.909499
0.0180209 0.0180209 0.909499
0.0180209 0.0180209 0.909499
0.0180209 0.0180209 0.909499
0.324742 0.0180209 0.909499
0.909499 0.0180209 0.909499
0.909499 0.0180209 0.909499
0.909499 0.536706 0.904723
0.909499 0.843412 0.891539
0.0180209 0.747982 0.899748
0.0180209 0.748241 0.899748
0.0180209 0.748684 0.899718
0.0180209 0.749996 0.899626
0.0180209 0.745235 0.898421
0.82385 0.734768 0.895628
0.909499 0.757641 0.893294
0.909499 0.813779 0.890364
0.909499 0.867597 0.88957
0.0180209 0.907729 0.885359
0.0180209 0.907088 0.885298
0.0180209 0.906035 0.885206
0.0180209 0.902968 0.884932
0.600702 0.895689 0.884306
0.792416 0.887678 0.883726
0.883635 0.883635 0.883635
0.909499 0.885847 0.884337
0.909499 0.894133 0.886931
0.770291 0.909499 0.878309
0.772061 0.909499 0.878309
0.774853 0.909499 0.878309
0.782818 0.909499 0.878294
0.802899 0.909499 0.878264
0.840146 0.909499 0.878279
0.882628 0.909499 0.878614
0.909499 0.909499 0.880079
0.909499 0.909499 0.88394
0.876249 0.909499 0.865751
0.876417 0.909499 0.865766
0.876677 0.909499 0.865766
0.87747 0.909499 0.865797
0.879744 0.909499 0.865873
0.885481 0.909499 0.866133
0.896681 0.909499 0.866926
0.909453 0.909499 0.869322
0.909499 0.909499 0.875624
0.0180209 0.0703288 0.909499
0.0180209 0.0703288 0.909499
0.0180209 0.0703288 0.909499
0.0180209 0.0703441 0.909499
0.0180209 0.0704051 0.909499
0.0180209 0.070573 0.909499
0.909499 0.0180209 0.909499
0.909499 0.0180209 0.909499
0.909499 0.583154 0.909499
0.0180209 0.0702983 0.909499
0.0180209 0.0702983 0.909499
0.0180209 0.0703136 0.909499
0.0180209 0.0703288 0.909499
0.0180209 0.0703899 0.909499
0.0180209 0.0705577 0.909499
0.909499 0.0180209 0.909499
0.909499 0.0180209 0.909499
0.909499 0.583124 0.909499
0.0180209 0.0702525 0.909499
0.0180209 0.0702525 0.909499
0.0180209 0.0702678 0.909499
0.0180209 0.0702831 0.909499
0.0180209 0.0703288 0.909499
0.0180209 0.0705119 0.909499
0.909499 0.0180209 0.909499
0.909499 0.0180209 0.909499
0.909499 0.583078 0.909499
0.0180209 0.0701305 0.909499
0.0180209 0.0701152 0.909499
0.0180209 0.0701305 0.909499
0.0180209 0.0701457 0.909499
0.0180209 0.0702068 0.909499
0.0180209 0.0440375 0.909499
0.909499 0.0180209 0.909499
0.909499 0.0180209 0.909499
0.909499 0.58294 0.909499
0.0180209 0.0697032 0.909499
0.0180209 0.0697032 0.909499
0.0180209 0.0697185 0.909499
0.0180209 0.0697337 0.909499
0.0180209 0.0697795 0.909499
0.356069 0.0180209 0.909499
0.909499 0.0180209 0.909499
0.909499 0.0180209 0.909499
0.909499 0.582513 0.909499
0.0180209 0.0683604 0.909499
0.0180209 0.0683604 0.909499
0.0180209 0.0683604 0.909499
0.0180209 0.0683757 0.909499
0.0180209 0.0684367 0.909499
0.725231 0.0180209 0.909499
0.909499 0.0180209 0.909499
0.909499 0.0692607 0.909499
0.909499 0.780758 0.909499
0.0180209 0.876249 0.909499
0.0180209 0.87628 0.909499
0.0180209 0.876341 0.909499
0.0180209 0.876493 0.909499
0.0180209 0.876982 0.909499
0.686656 0.857649 0.909499
0.885863 0.851118 0.909499
0.909499 0.860182 0.909499
0.909499 0.881743 0.909499
0.619272 0.909499 0.909392
0.626963 0.909499 0.909361
0.638544 0.909499 0.909331
0.668742 0.909499 0.909239
0.730465 0.909499 0.90901
0.809522 0.909499 0.908705
0.874357 0.909499 0.908431
0.908385 0.908385 0.908385
0.909499 0.908904 0.908598
0.866041 0.909499 0.906371
0.866255 0.909499 0.906371
0.866621 0.909499 0.906371
0.867674 0.909499 0.906371
0.87068 0.909499 0.906371
0.878141 0.909499 0.906355
0.891798 0.909499 0.90634
0.906462 0.909499 0.906447
0.909499 0.909499 0.90692
0.0180209 0.276265 0.909499
0.0180209 0.276265 0.909499
0.0180209 0.276265 0.909499
0.0180209 0.27628 0.909499
0.0180209 0.27628 0.909499
0.0180209 0.276341 0.909499
0.0180209 0.276432 0.909499
0.909499 0.263813 0.909499
0.909499 0.62536 0.909499
0.0180209 0.276265 0.909499
0.0180209 0.276265 0.909499
0.0180209 0.276265 0.909499
0.0180209 0.276265 0.909499
0.0180209 0.27628 0.909499
0.0180209 0.276326 0.909499
0.0180209 0.276432 0.909499
0.909499 0.264057 0.909499
0.909499 0.625422 0.909499
0.0180209 0.276265 0.909499
0.0180209 0.276265 0.909499
0.0180209 0.276265 0.909499
0.0180209 0.276265 0.909499
0.0180209 0.276265 0.909499
0.0180209 0.276326 0.909499
0.0180209 0.276417 0.909499
0.909499 0.264439 0.909499
0.909499 0.625467 0.909499
0.0180209 0.276249 0.909499
0.0180209 0.276249 0.909499
0.0180209 0.276249 0.909499
0.0180209 0.276249 0.909499
0.0180209 0.276265 0.909499
0.0180209 0.27628 0.909499
0.0180209 0.276387 0.909499
0.909499 0.265614 0.909499
0.909499 0.625681 0.909499
0.0180209 0.276158 0.909499
0.0180209 0.276158 0.909499
0.0180209 0.276158 0.909499
0.0180209 0.276158 0.909499
0.0180209 0.276158 0.909499
0.0180209 0.276204 0.909499
0.356466 0.257923 0.909499
0.909499 0.26923 0.909499
0.909499 0.626291 0.909499
0.0180209 0.275883 0.909499
0.0180209 0.275883 0.909499
0.0180209 0.275883 0.909499
0.0180209 0.275898 0.909499
0.0180209 0.275898 0.909499
0.0180209 0.275944 0.909499
0.748135 0.0947738 0.909499
0.909499 0.279896 0.909499
0.909499 0.627222 0.909499
0.0180209 0.27509 0.909499
0.0180209 0.27509 0.909499
0.0180209 0.27509 0.909499
0.0180209 0.275105 0.909499
0.0180209 0.275105 0.909499
0.0180209 0.275135 0.909499
0.909499 0.0180209 0.909499
0.909499 0.300572 0.909499
0.909499 0.628931 0.909499
0.0180209 0.909499 0.909499
0.0180209 0.909499 0.909499
0.0180209 0.909499 0.909499
0.0180209 0.909499 0.909499
0.0180209 0.909499 0.909499
0.0180209 0.909499 0.909499
0.835431 0.899077 0.909499
0.909453 0.896315 0.909499
0.909499 0.899748 0.909499
0.816373 0.909499 0.909499
0.817136 0.909499 0.909499
0.818357 0.909499 0.909499
0.821927 0.909499 0.909499
0.831388 0.909499 0.909499
0.851743 0.909499 0.909499
0.880827 0.909499 0.909499
0.903883 0.909499 0.909499
0.909499 0.909499 0.909499
