BBLuts/BB_103_0530_LUT.cube
TITLE "Generated by Resolve"
LUT_3D_SIZE 9
0 0 0
0 0 0
0.128344 0 0
0.519158 0 0
0.870115 0 0
1 0 0
1 0 0.427878
1 0.416693 0.799084
1 0.803571 1
0 0 0
0 0 0
0.0725719 0 0
0.493492 0 0
0.866285 0 0
1 0 0
1 0 0.4094
1 0.448753 0.796674
1 0.811429 1
0 0.0509804 0
0 0.0466163 0
0.002533 0.0370947 0
0.446784 0.01149 0
0.827893 0 0
1 0 0
1 0 0.37322
1 0.494545 0.793149
1 0.823819 1
0 0.421683 0
0 0.41976 0
0 0.41561 0
0.34789 0.395987 0
0.780255 0.354528 0
1 0.255085 0
1 0.355627 0.320577
1 0.600168 0.784283
1 0.857771 1
0 0.751156 0
0 0.750576 0
0 0.74963 0
0 0.743725 0
0.695628 0.717494 0
1 0.684382 0
1 0.695171 0.185183
1 0.785779 0.76289
1 0.938567 1
0 1 0
0 1 0
0 1 0
0 1 0
0.114382 1 0
1 1 0
1 0.996948 0
1 1 0.700618
1 1 1
0 1 0
0 1 0
0 1 0
0 1 0
0 1 0
0.638071 1 0
1 1 0
1 1 0.338521
1 1 1
0 1 0
0 1 0
0 1 0
0 1 0
0 1 0
0 1 0
1 1 0
1 1 0
1 1 0.757275
0 1 0
0 1 0
0 1 0
0 1 0
0 1 0
0 1 0
0 1 0
1 1 0
1 1 0
0 0 0
0 0 0
0.119402 0 0
0.516518 0 0
0.869261 0 0
1 0 0
1 0 0.460502
1 0.410361 0.806607
1 0.802136 1
0 0 0
0 0 0
0.0695354 0 0
0.494987 0 0
0.865446 0 0
1 0 0
1 0 0.446921
1 0.443214 0.804166
1 0.810025 1
0 0.035935 0
0 0.0316014 0
0 0.0221561 0
0.445197 0 0
0.829419 0 0
1 0 0
1 0 0.409461
1 0.489876 0.800641
1 0.822477 1
0 0.41442 0
0 0.412467 0
0 0.408408 0
0.344228 0.388388 0
0.779721 0.345907 0
1 0.241917 0
1 0.34728 0.359442
1 0.596994 0.791821
1 0.856611 1
0 0.748989 0
0 0.748409 0
0 0.747448 0
0 0.741741 0
0.694499 0.715267 0
1 0.681941 0
1 0.692668 0.249928
1 0.784192 0.770825
1 0.937789 1
0 1 0
0 1 0
0 1 0
0 1 0
0.107195 1 0
1 1 0
1 0.996307 0
1 1 0.710491
1 1 1
0 1 0
0 1 0
0 1 0
0 1 0
0 1 0
0.636545 1 0
1 1 0
1 1 0.372335
1 1 1
0 1 0
0 1 0
0 1 0
0 1 0
0 1 0
0 1 0
1 1 0
1 1 0
1 1 0.765209
0 1 0
0 1 0
0 1 0
0 1 0
0 1 0
0 1 0
0 1 0
1 1 0
1 1 0
0 0 0.0360113
0 0 0.0341344
0.10605 0 0.0317082
0.512062 0 0.0255283
0.86772 0 0.0138705
1 0 0.0452125
1 0 0.507027
1 0.399741 0.818494
1 0.799756 1
0 0 0.0168765
0 0 0.0170901
0.064622 0 0.0162509
0.498939 0 0.0161593
0.86389 0 0.00479133
1 0 0.0354009
1 0 0.502632
1 0.43386 0.816037
1 0.807706 1
0 0.0108797 0
0 0.00672923 0
0 0 0
0.442802 0 0
0.832624 0 0
1 0 0.0191501
1 0 0.461402
1 0.481956 0.812512
1 0.820264 1
0 0.401831 0
0 0.399771 0
0 0.395758 0
0.337667 0.375113 0
0.778393 0.330663 0
1 0.218173 0
1 0.333165 0.413214
1 0.591669 0.803784
1 0.854719 1
0 0.745403 0
0 0.744823 0
0 0.743862 0
0 0.738476 0
0.692607 0.711589 0
1 0.677806 0
1 0.688579 0.325246
1 0.781552 0.783352
1 0.936477 1
0 1 0
0 1 0
0 1 0
0 1 0
0.0961929 1 0
1 1 0
1 0.99469 0
1 1 0.72575
1 1 1
0 1 0
0 1 0
0 1 0
0 1 0
0 1 0
0.634012 1 0
1 1 0
1 1 0.419867
1 1 1
0 1 0
0 1 0
0 1 0
0 1 0
0 1 0
0 1 0
1 1 0
1 1 0
1 1 0.777737
0 1 0
0 1 0
0 1 0
0 1 0
0 1 0
0 1 0
0 1 0
1 1 0
1 1 0
0 0 0.397208
0 0 0.396612
0.069398 0 0.394202
0.497993 0 0.388495
0.863157 0 0.37911
1 0 0.39173
1 0 0.615961
1 0.364416 0.851881
1 0.792309 1
0 0 0.391989
0 0 0.391638
0.0370336 0 0.389288
0.48452 0 0.383413
0.859281 0 0.373846
1 0 0.386374
1 0 0.613336
1 0.403098 0.849226
1 0.800488 1
0 0 0.357336
0 0 0.357733
0 0 0.35613
0.440085 0 0.353338
0.849989 0 0.362158
1 0 0.37731
1 0 0.589654
1 0.456306 0.845548
1 0.813382 1
0 0.359533 0.300359
0 0.357137 0.300099
0 0.35317 0.299626
0.317311 0.330205 0.287373
0.774945 0.277546 0.274083
1 0.123583 0.292546
1 0.28452 0.534768
1 0.57467 0.836942
1 0.848844 1
0 0.732692 0.159442
0 0.732082 0.15874
0 0.731075 0.157549
0 0.726513 0.151476
0.6851 0.698283 0.115221
1 0.663005 0.121889
1 0.676051 0.473136
1 0.773388 0.81825
1 0.932448 1
0 1 0
0 1 0
0 1 0
0 1 0
0.0623484 1 0
1 1 0
1 0.990265 0.23798
1 1 0.767712
1 1 1
0 1 0
0 1 0
0 1 0
0 1 0
0 1 0
0.626169 1 0
1 1 0
1 1 0.529534
1 1 1
0 1 0
0 1 0
0 1 0
0 1 0
0 1 0
0 1 0
1 1 0
1 1 0
1 1 0.812634
0 1 0
0 1 0
0 1 0
0 1 0
0 1 0
0 1 0
0 1 0
1 1 0
1 1 0
0 0 0.741848
0 0 0.741756
0 0 0.740169
0.452232 0 0.734722
0.849378 0 0.727962
1 0 0.725887
1 0 0.810849
1 0.2056 0.937758
1 0.76817 1
0 0 0.740276
0 0 0.740185
0 0 0.73901
0.436622 0 0.733364
0.845212 0 0.726436
1 0 0.724239
1 0 0.809537
1 0.276234 0.933547
1 0.777096 1
0 0 0.737682
0 0 0.737591
0 0 0.737072
0.409049 0 0.731106
0.838315 0 0.723918
1 0 0.721523
1 0 0.807401
1 0.358358 0.928405
1 0.791119 1
0 0.159396 0.685054
0 0.153368 0.685176
0 0.143725 0.685374
0.251606 0.107744 0.678218
0.772641 0.0347601 0.672633
1 0 0.689311
1 0.0499275 0.753307
1 0.515099 0.918669
1 0.829938 1
0 0.693294 0.641474
0 0.692592 0.641382
0 0.691417 0.641215
0 0.687831 0.640742
0.664714 0.656947 0.61973
1 0.616968 0.612467
1 0.634501 0.704173
1 0.746715 0.902525
1 0.919707 1
0 1 0.544518
0 1 0.544366
0 1 0.544091
0 1 0.543297
0 1 0.535378
1 0.9888 0.503044
1 0.979126 0.619028
1 1 0.866209
1 1 1
0 1 0.141924
0 1 0.141009
0 1 0.139513
0 1 0.134936
0 1 0.121386
0.598917 1 0.065507
1 1 0
1 1 0.724483
1 1 1
0 1 0
0 1 0
0 1 0
0 1 0
0 1 0
0 1 0
1 1 0
1 1 0
1 1 0.896696
0 1 0
0 1 0
0 1 0
0 1 0
0 1 0
0 1 0
0 1 0
1 1 0
1 1 0
0 0 1
0 0 1
0 0 1
0.350011 0 1
0.818387 0 1
1 0 1
1 0 1
1 0 1
1 0.675288 1
0 0 1
0 0 1
0 0 1
0.327611 0 1
0.81384 0 1
1 0 1
1 0 1
1 0 1
1 0.687999 1
0 0 1
0 0 1
0 0 1
0.286763 0 1
0.80621 0 1
1 0 1
1 0 1
1 0 1
1 0.707622 1
0 0 1
0 0 1
0 0 1
0.101503 0 1
0.781674 0 1
1 0 1
1 0 1
1 0.117632 1
1 0.760021 1
0 0.558434 0.990082
0 0.557321 0.990082
0 0.555474 0.990082
0 0.549676 0.990097
0.622965 0.513237 0.972274
1 0.446906 0.964401
1 0.449332 0.980682
1 0.642435 1
1 0.874067 1
0 0.99649 0.961196
0 0.996292 0.961166
0 0.995956 0.96112
0 0.994949 0.960952
0 0.991821 0.960418
0.990906 0.952346 0.929213
1 0.942718 0.945846
1 0.976104 1
1 1 1
0 1 0.903136
0 1 0.90309
0 1 0.902998
0 1 0.902739
0 1 0.90193
0.49897 1 0.881254
1 1 0.855512
1 1 0.97293
1 1 1
0 1 0.705089
0 1 0.704982
0 1 0.704799
0 1 0.70425
0 1 0.702541
0 1 0.697185
0.988281 1 0.649958
1 1 0.582467
1 1 1
0 1 0
0 1 0
0 1 0
0 1 0
0 1 0
0 1 0
0 1 0
1 1 0
1 1 0
0.334997 0 1
0.398108 0 1
0.479438 0 1
0.644327 0 1
0.894026 0 1
1 0 1
1 0 1
1 0.623804 1
1 1 1
0.312261 0 1
0.380285 0 1
0.465858 0 1
0.636439 0 1
0.890715 0 1
1 0 1
1 0 1
1 0.637598 1
1 1 1
0.271351 0 1
0.34844 0 1
0.442313 0 1
0.623117 0 1
0.885191 0 1
1 0 1
1 0 1
1 0.658869 1
1 1 1
0.0901656 0 1
0.218875 0 1
0.355917 0 1
0.578393 0 1
0.867704 0 1
1 0 1
1 0 1
1 0.714687 1
1 1 1
0 0.363149 1
0 0.360983 1
0 0.356222 1
0.315328 0.335286 1
0.746685 0.287572 1
1 0.0968795 1
1 0 1
1 0.835615 1
1 1 1
0 0.947936 1
0 0.947707 1
0 0.947341 1
0 0.946212 1
0.357244 0.928679 1
1 0.901122 1
1 0.87834 1
1 1 1
1 1 1
0 1 1
0 1 1
0 1 1
0 1 1
0 1 1
0.503807 1 1
1 1 1
1 1 1
1 1 1
0 1 1
0 1 1
0 1 1
0 1 1
0 1 1
0 1 1
0.997101 1 1
1 1 1
1 1 1
0 1 1
0 1 1
0 1 1
0 1 1
0 1 1
0 1 1
0 1 1
1 1 0.983398
1 1 0.939376
0.988724 0 1
0.995956 0 1
1 0 1
1 0 1
1 0 1
1 0 1
1 0 1
1 0 1
1 1 1
0.986496 0 1
0.993805 0 1
1 0 1
1 0 1
1 0 1
1 0 1
1 0 1
1 0 1
1 1 1
0.982803 0 1
0.990188 0 1
1 0 1
1 0 1
1 0 1
1 0 1
1 0 1
1 0 1
1 1 1
0.971176 0 1
0.978851 0 1
0.991028 0 1
1 0 1
1 0 1
1 0 1
1 0 1
1 0 1
1 1 1
0.8757 0.221973 1
0.88481 0.21825 1
0.898924 0.212024 1
0.938277 0.191775 1
1 0.118593 1
1 0 1
1 0 1
1 0 1
1 1 1
0.681086 0.90454 1
0.697169 0.903899 1
0.72166 0.902892 1
0.786084 0.900069 1
0.922133 0.892866 1
1 0.876081 1
1 0.831785 1
1 0.842023 1
1 1 1
0 1 1
0 1 1
0 1 1
0 1 1
0 1 1
0.941573 1 1
1 1 1
1 1 1
1 1 1
0 1 1
0 1 1
0 1 1
0 1 1
0 1 1
0 1 1
1 1 1
1 1 1
1 1 1
0 1 1
0 1 1
0 1 1
0 1 1
0 1 1
0 1 1
0 1 1
1 1 1
1 1 1
1 0 1
1 0 1
1 0 1
1 0 1
1 0 1
1 0 1
1 0 1
1 0 1
1 0 1
1 0 1
1 0 1
1 0 1
1 0 1
1 0 1
1 0 1
1 0 1
1 0 1
1 0 1
1 0 1
1 0 1
1 0 1
1 0 1
1 0 1
1 0 1
1 0 1
1 0 1
1 0 1
1 0 1
1 0 1
1 0 1
1 0 1
1 0 1
1 0 1
1 0 1
1 0 1
1 0 1
1 0 1
1 0 1
1 0 1
1 0 1
1 0 1
1 0 1
1 0 1
1 0 1
1 0 1
1 0.804959 1
1 0.804578 1
1 0.803967 1
1 0.802075 1
1 0.796246 1
1 0.778042 1
1 0.714687 1
1 0.271397 1
1 0.666697 1
1 1 1
1 1 1
1 1 1
1 1 1
1 1 1
1 1 1
1 1 1
1 1 1
1 1 1
0 1 1
0 1 1
0 1 1
0 1 1
0 1 1
0.521614 1 1
1 1 1
1 1 1
1 1 1
0 1 1
0 1 1
0 1 1
0 1 1
0 1 1
0 1 1
0 1 1
1 1 1
1 1 1
