BBLuts/BB_102_0620_LUT.cube
TITLE "Generated by Resolve"
LUT_3D_SIZE 5
0 0 0
0.121569 0 0
0.701671 0 0
0.915373 0.459892 0.0489204
0.869032 0.955276 0.649958
0 0.139116 0
0.0837568 0.140826 0
0.707439 0.00656138 0
0.907515 0.549401 0.0228275
0.868925 0.956802 0.649241
0 0.765789 0
0 0.76524 0
0.615915 0.761135 0
0.880705 0.825299 0
0.868269 0.966613 0.643854
0.460288 1 0.104692
0.511543 1 0.104448
0.687663 1 0.114397
0.865156 1 0.245182
0.865385 1 0.669245
0.831281 1 0.760296
0.831739 1 0.760342
0.835019 1 0.760754
0.852964 1 0.764385
0.863203 1 0.791302
0 0 0.0867933
0.104982 0 0.0835584
0.70515 0 0.0626078
0.919631 0.442741 0.184573
0.868849 0.954711 0.667628
0 0.110933 0.0729229
0.096376 0.106416 0.0677958
0.705959 0 0.0509957
0.912306 0.539223 0.167666
0.868757 0.956252 0.667002
0 0.761196 0
0 0.760571 0
0.621805 0.756802 0
0.883299 0.826123 0.0207675
0.868086 0.96614 0.662303
0.468772 1 0.103929
0.517998 1 0.103792
0.689479 1 0.114046
0.865263 1 0.245136
0.865385 1 0.669154
0.831342 1 0.760296
0.831815 1 0.760342
0.835081 1 0.760739
0.852979 1 0.76437
0.863203 1 0.791302
0 0 0.624079
0 0 0.624308
0.707942 0 0.596307
0.932769 0.131746 0.647089
0.86836 0.951293 0.74519
0 0 0.622202
0 0 0.622461
0.717174 0 0.594308
0.925292 0.368978 0.651576
0.868254 0.952941 0.744854
0 0.708598 0.575708
0 0.709087 0.576059
0.60763 0.705852 0.581537
0.883162 0.797253 0.609674
0.867506 0.963455 0.742443
0.468833 1 0.439734
0.51635 1 0.438621
0.683391 1 0.441169
0.857145 0.99585 0.508339
0.864927 1 0.724773
0.831876 1 0.760235
0.832319 1 0.760281
0.835538 1 0.760678
0.853162 1 0.764324
0.863203 1 0.791302
0 0 0.877943
0 0 0.877943
0 0 0.877943
0.923888 0 0.864515
0.870314 0.913863 0.858152
0 0 0.877943
0 0 0.877943
0 0 0.877943
0.923888 0 0.864515
0.870039 0.917433 0.857847
0 0 0.877943
0 0 0.877943
0.261479 0 0.870237
0.923888 0 0.864515
0.868452 0.938857 0.856062
0 1 0.872862
0 1 0.872633
0.526574 1 0.852476
0.838422 0.98378 0.847013
0.864393 0.995727 0.850568
0.82855 1 0.826719
0.828992 1 0.826734
0.83212 1 0.826871
0.84947 1 0.828122
0.862928 1 0.837674
0 0.219944 0.879591
0 0.219944 0.879591
0 0.219959 0.879591
0 0.220127 0.879591
0.895766 0.682551 0.888121
0 0.219913 0.879591
0 0.219913 0.879591
0 0.219944 0.879591
0 0.220111 0.879591
0.89575 0.682689 0.888106
0 0.219791 0.879591
0 0.219791 0.879591
0 0.219806 0.879591
0.295293 0.204746 0.883589
0.895613 0.683742 0.888029
0 0.218494 0.879606
0 0.218494 0.879606
0 0.218509 0.879606
0.923888 0 0.864515
0.895155 0.687114 0.88777
0.76701 1 0.875166
0.769055 1 0.875181
0.782376 1 0.875242
0.832868 1 0.875563
0.862989 1 0.876081
