BBLuts/BB_102_0480_LUT.cube
TITLE "Generated by Resolve"
LUT_3D_SIZE 9
0.000350958 0.00135805 0.000198367
0.00381476 0.00125124 6.10361e-05
0.158526 0 0
0.365362 0 0
0.698482 0 0
0.95523 0 0
0.93373 0.505974 0.046128
0.912108 0.861494 0.282887
0.902571 0.99379 0.6336
0 0.0458228 0
0 0.0541238 0
0.16141 0.0359655 0
0.372442 0 0
0.70106 0 0
0.955062 0 0
0.931594 0.532799 0.0363317
0.91191 0.864057 0.281926
0.902556 0.994003 0.633494
0 0.181704 0
0 0.184817 0
0.112703 0.184497 0
0.370855 0.165621 0
0.703197 0.0849165 0
0.94847 0.19826 0
0.928466 0.566857 0.0169223
0.911604 0.868223 0.280446
0.902525 0.994339 0.63331
0 0.418357 0
0 0.419318 0
0 0.42034 0
0.292973 0.421256 0
0.687617 0.411627 0
0.930907 0.464714 0
0.920089 0.661723 0
0.910491 0.883284 0.278874
0.902419 0.995895 0.63241
0 0.7617 0
0 0.761685 0
0 0.761395 0
0 0.758938 0
0.589303 0.756252 0
0.871183 0.7626 0
0.908461 0.820996 0
0.907683 0.922072 0.286549
0.902007 1 0.628946
0 0.965331 0
0 0.965331 0
0 0.965331 0
0 0.960555 0
0.532494 0.957153 0
0.803967 0.947921 0
0.898802 0.950805 0
0.903563 0.980682 0.324742
0.900847 1 0.631251
0.442359 1 0.119661
0.442359 1 0.119661
0.442359 1 0.119661
0.442329 1 0.119661
0.631022 1 0.131624
0.792569 1 0.164767
0.888808 1 0.249363
0.900038 1 0.439231
0.899031 1 0.66479
0.76492 1 0.524758
0.76492 1 0.524773
0.76492 1 0.524773
0.76492 1 0.524773
0.764904 1 0.524773
0.819959 1 0.532891
0.87805 1 0.556664
0.898116 1 0.618387
0.897612 1 0.734081
0.858808 1 0.773983
0.858808 1 0.773983
0.858808 1 0.773983
0.858808 1 0.773983
0.858808 1 0.773983
0.858793 1 0.773983
0.879393 1 0.777386
0.897322 1 0.786877
0.897169 1 0.810483
0.00112917 0.00227359 0.0286564
0.00112917 0.00228885 0.0289464
0.157198 0 0.0256809
0.365866 0 0.0225834
0.699031 0 0.0177615
0.956878 0 0.0164492
0.934386 0.503929 0.0645304
0.912108 0.861463 0.282902
0.902571 0.993774 0.633616
0 0.0237736 0.0241703
0.0267185 0.034165 0.0228275
0.168566 0 0.0212253
0.368002 0 0.0162661
0.699107 0 0
0.955749 0 0
0.932174 0.531197 0.0511788
0.91191 0.864027 0.281941
0.902556 0.994003 0.633494
0 0.172656 0.00062562
0 0.175448 0.000656138
0.127855 0.175433 0
0.369177 0.156176 0
0.700145 0.0578012 0
0.949081 0.18587 0
0.929076 0.565667 0.0290532
0.911604 0.868223 0.280446
0.902525 0.994324 0.63331
0 0.413489 0
0 0.414359 0
0 0.415274 0
0.302571 0.415839 0
0.687037 0.407065 0
0.930968 0.46128 0
0.920165 0.660716 0
0.910491 0.883284 0.278874
0.902419 0.995895 0.63241
0 0.759838 0
0 0.759823 0
0 0.759518 0
0 0.757015 0
0.592065 0.754742 0
0.871275 0.761593 0
0.908492 0.820645 0
0.907683 0.922072 0.286549
0.902007 1 0.628946
0 0.964874 0
0 0.964965 0
0 0.964965 0
0 0.960235 0
0.534722 0.956893 0
0.804227 0.947738 0
0.898817 0.950729 0
0.903563 0.980682 0.324742
0.900847 1 0.631251
0.446189 1 0.119524
0.446189 1 0.119524
0.446174 1 0.119524
0.446159 1 0.119524
0.632074 1 0.131441
0.792752 1 0.16463
0.888838 1 0.249348
0.900038 1 0.439231
0.899031 1 0.66479
0.765164 1 0.524742
0.765164 1 0.524742
0.765164 1 0.524742
0.765164 1 0.524742
0.765164 1 0.524742
0.820066 1 0.532876
0.87808 1 0.556634
0.898116 1 0.618387
0.897612 1 0.734081
0.858824 1 0.773983
0.858824 1 0.773983
0.858824 1 0.773983
0.858824 1 0.773983
0.858824 1 0.773983
0.858824 1 0.773983
0.879408 1 0.777386
0.897322 1 0.786877
0.897169 1 0.810483
0.00134279 0.00291447 0.126009
0.00134279 0.00291447 0.126223
0.133318 0.000274662 0.122957
0.375387 0 0.11632
0.700496 0 0.114
0.958892 0 0.124834
0.936858 0.493919 0.170489
0.912291 0.860868 0.310079
0.902571 0.993774 0.633616
0.00134279 0.00291447 0.124086
0.00134279 0.00291447 0.124407
0.151583 0 0.120455
0.374456 0 0.113863
0.701808 0 0.110994
0.958587 0 0.119142
0.934874 0.522728 0.165118
0.912108 0.863462 0.309117
0.902556 0.994003 0.633494
0 0.149355 0.114595
0 0.151705 0.114565
0.118502 0.147662 0.110826
0.358862 0.131502 0.109911
0.70045 0.00631724 0.104112
0.954955 0.143099 0.115801
0.932326 0.559213 0.157153
0.911788 0.867689 0.307454
0.902525 0.994324 0.63331
0 0.401846 0.0587167
0 0.403128 0.0589303
0 0.403983 0.0598154
0.303807 0.404456 0.0605936
0.684184 0.396643 0.0607919
0.934691 0.452247 0.0690929
0.924941 0.659739 0.126604
0.910643 0.882856 0.301167
0.902419 0.995895 0.63241
0 0.756313 0
0 0.756313 0
0 0.756008 0
0 0.753521 0
0.594614 0.750973 0
0.87126 0.758556 0
0.910231 0.820706 0.0152743
0.907713 0.921904 0.28777
0.902007 1 0.628946
0 0.964309 0
0 0.964309 0
0 0.964309 0
0 0.95967 0
0.538598 0.956466 0
0.804822 0.947402 0
0.898848 0.9505 0
0.903563 0.980591 0.324559
0.900847 1 0.631251
0.451301 1 0.119326
0.451301 1 0.119326
0.451301 1 0.119326
0.451286 1 0.119326
0.633509 1 0.131212
0.79321 1 0.164446
0.888884 1 0.249165
0.900038 1 0.439155
0.899031 1 0.66479
0.76553 1 0.524712
0.76553 1 0.524712
0.76553 1 0.524712
0.76553 1 0.524712
0.76553 1 0.524712
0.820203 1 0.532815
0.878126 1 0.556603
0.898116 1 0.618372
0.897612 1 0.734081
0.858854 1 0.773983
0.858854 1 0.773983
0.858854 1 0.773983
0.858854 1 0.773983
0.858854 1 0.773983
0.858854 1 0.773983
0.879423 1 0.777371
0.897322 1 0.786877
0.897169 1 0.810483
0 0.00190738 0.321187
0 0.00190738 0.321279
0 0.00189212 0.321492
0.339132 0 0.313985
0.722408 0 0.309255
0.959457 0 0.319493
0.940597 0.451453 0.366293
0.912993 0.855421 0.462745
0.902525 0.993515 0.647639
0 0.00190738 0.319829
0 0.00190738 0.319936
0.0175784 0.0016022 0.319661
0.352316 0 0.311955
0.720653 0 0.307561
0.959289 0 0.317037
0.93843 0.485206 0.363546
0.912795 0.858198 0.462074
0.90251 0.993729 0.647532
0 0.0403754 0.317311
0 0.0423896 0.317418
0.0195163 0.0427863 0.317128
0.35845 0 0.308843
0.71458 0 0.304402
0.959197 0 0.31397
0.935668 0.52752 0.359457
0.912474 0.862669 0.46099
0.902495 0.994064 0.647379
0 0.355337 0.294179
0 0.356146 0.29424
0 0.358007 0.294759
0.289281 0.358358 0.295888
0.670329 0.350301 0.297093
0.939712 0.409018 0.307454
0.928054 0.640238 0.345388
0.911315 0.878767 0.456977
0.902373 0.995621 0.646601
0 0.747646 0.221424
0 0.747646 0.221424
0 0.74789 0.222049
0 0.74551 0.224582
0.592782 0.743496 0.234348
0.874418 0.75346 0.254765
0.915328 0.819013 0.308537
0.908324 0.919829 0.443458
0.901961 1 0.643549
0 0.965881 0.0378424
0 0.965881 0.0378424
0 0.965881 0.0378424
0 0.961471 0.0389715
0.536446 0.95816 0.0442664
0.808087 0.951232 0.128817
0.904509 0.95613 0.238148
0.903853 0.980148 0.408194
0.900832 1 0.634775
0.466682 1 0.118227
0.466682 1 0.118227
0.466682 1 0.118227
0.466682 1 0.118227
0.637858 1 0.130449
0.794354 1 0.163851
0.889128 1 0.248875
0.900053 1 0.438712
0.899046 1 0.664698
0.766766 1 0.52459
0.766766 1 0.52459
0.766766 1 0.52459
0.766766 1 0.52459
0.766766 1 0.52459
0.820661 1 0.532662
0.878294 1 0.556481
0.898116 1 0.618235
0.897612 1 0.734035
0.858991 1 0.773968
0.858991 1 0.773968
0.858991 1 0.773968
0.858991 1 0.773968
0.858991 1 0.773968
0.858991 1 0.773968
0.879469 1 0.777356
0.897322 1 0.786862
0.897169 1 0.810483
0 0 0.639292
0 0 0.639292
0 0 0.639399
0.0765545 0 0.637888
0.686046 0 0.62385
0.958633 0 0.622934
0.95201 0.234257 0.645594
0.913832 0.835172 0.671427
0.902251 0.990662 0.743145
0 0 0.6392
0 0 0.6392
0 0 0.639277
0.0821851 0 0.637293
0.690196 0 0.623285
0.958633 0 0.622492
0.948287 0.305303 0.644999
0.913588 0.838636 0.671031
0.902235 0.990875 0.743084
0 0 0.638041
0 0 0.638041
0 0 0.638117
0.157656 0 0.634668
0.696406 0 0.621912
0.958648 0 0.621256
0.943832 0.383215 0.643473
0.913222 0.843885 0.67039
0.90222 0.991257 0.742992
0 0.15613 0.633646
0 0.15613 0.633646
0 0.159487 0.633616
0.154971 0.153292 0.631876
0.695735 0.0749371 0.622019
0.954986 0.141253 0.622904
0.933181 0.554314 0.636881
0.911864 0.86305 0.667964
0.902098 0.992889 0.74255
0 0.69398 0.592966
0 0.69398 0.592966
0 0.694041 0.592996
0 0.693797 0.593454
0.566506 0.691814 0.597345
0.868193 0.70901 0.601678
0.917144 0.792004 0.617472
0.908492 0.910704 0.660639
0.901671 0.998993 0.740932
0 0.965728 0.543954
0 0.965728 0.543954
0 0.965835 0.543893
0 0.96231 0.544579
0.487556 0.957565 0.552407
0.797314 0.94818 0.563424
0.904311 0.952392 0.590005
0.903761 0.976837 0.644755
0.900496 1 0.735149
0.445548 1 0.468666
0.445548 1 0.468666
0.445548 1 0.468666
0.445548 1 0.468666
0.621775 1 0.474342
0.786908 1 0.489448
0.882887 1 0.528328
0.899916 1 0.608118
0.898833 1 0.718868
0.770703 1 0.523812
0.770703 1 0.523812
0.770703 1 0.523812
0.770703 1 0.523812
0.770703 1 0.523812
0.822156 1 0.532128
0.878752 1 0.556023
0.898116 1 0.618021
0.897612 1 0.733806
0.85948 1 0.773907
0.85948 1 0.773907
0.85948 1 0.773907
0.85948 1 0.773907
0.85948 1 0.773907
0.859464 1 0.773907
0.879637 1 0.777295
0.897322 1 0.786816
0.897169 1 0.810452
0 0 0.855802
0 0 0.85594
0 0 0.85594
0 0 0.85597
0.461952 0 0.844358
0.9514 0 0.82948
0.95642 0 0.830152
0.9196 0.737362 0.829557
0.902251 0.982742 0.83183
0 0 0.85594
0 0 0.85594
0 0 0.85594
0 0 0.85597
0.461189 0 0.844388
0.9514 0 0.82948
0.95642 0 0.83006
0.919081 0.744854 0.829084
0.902235 0.983032 0.831785
0 0 0.855879
0 0 0.855879
0 0 0.855879
0 0 0.855894
0.47277 0 0.843976
0.951812 0 0.829374
0.95642 0 0.829908
0.918303 0.756298 0.828382
0.902205 0.983459 0.831724
0 0 0.85536
0 0 0.85536
0 0 0.85536
0 0 0.855375
0.535027 0 0.841672
0.952865 0 0.828779
0.956512 0 0.82829
0.915709 0.794034 0.82591
0.902068 0.985397 0.831495
0 0.399832 0.84303
0 0.399832 0.84303
0 0.399832 0.84303
0 0.403662 0.842832
0.503304 0.401892 0.839139
0.927398 0.422583 0.831632
0.926207 0.63975 0.825879
0.91014 0.874006 0.819989
0.901549 0.992569 0.830564
0 0.945006 0.797528
0 0.945006 0.797528
0 0.945006 0.797528
0 0.945006 0.797528
0.250507 0.936248 0.800244
0.777707 0.926238 0.802945
0.899397 0.934447 0.804883
0.903639 0.965515 0.811078
0.900206 1 0.827771
0.26157 1 0.781445
0.26157 1 0.781445
0.262547 1 0.78143
0.262547 1 0.78143
0.528298 1 0.783475
0.760632 1 0.78584
0.869123 1 0.790356
0.899168 1 0.800885
0.898344 1 0.82182
0.755444 1 0.749981
0.755444 1 0.749981
0.755444 1 0.749981
0.755444 1 0.749981
0.755444 1 0.749981
0.807538 1 0.752392
0.867933 1 0.759396
0.897353 1 0.776928
0.897185 1 0.808392
0.861036 1 0.773739
0.861036 1 0.773739
0.861036 1 0.773739
0.861036 1 0.773739
0.861036 1 0.773739
0.861036 1 0.773739
0.880217 1 0.777081
0.897322 1 0.786648
0.897169 1 0.810391
0 0 0.916915
0 0 0.916915
0 0 0.916915
0 0 0.916915
0 0 0.916915
0.848585 0 0.904738
0.955505 0 0.903197
0.955505 0 0.903197
0.904326 0.947051 0.895598
0 0 0.916915
0 0 0.916915
0 0 0.916915
0 0 0.916915
0 0 0.916915
0.848585 0 0.904738
0.955505 0 0.903197
0.955505 0 0.903197
0.90428 0.947662 0.895552
0 0 0.916915
0 0 0.916915
0 0 0.916915
0 0 0.916915
0 0 0.916915
0.848585 0 0.904738
0.955505 0 0.903197
0.955505 0 0.903197
0.904204 0.948714 0.895476
0 0 0.916915
0 0 0.916915
0 0 0.916915
0 0 0.916915
0 0 0.916915
0.85452 0 0.904646
0.955505 0 0.903197
0.955505 0 0.903197
0.903914 0.952773 0.89514
0 0 0.916915
0 0 0.916915
0 0 0.916915
0 0 0.916915
0 0 0.916915
0.895979 0 0.904051
0.955505 0 0.903197
0.943145 0.353231 0.912108
0.902937 0.966644 0.893996
0 0.728557 0.903731
0 0.728557 0.903731
0 0.728557 0.903731
0 0.728557 0.903731
0 0.73257 0.903548
0.773434 0.730251 0.904814
0.91519 0.792462 0.901045
0.907057 0.909072 0.894682
0.900786 0.996674 0.891432
0 1 0.878065
0 1 0.878065
0 1 0.878065
0 1 0.878065
0 1 0.878065
0.703136 1 0.883803
0.860822 1 0.884367
0.899092 1 0.885161
0.898177 1 0.887739
0.717845 1 0.876814
0.717845 1 0.876814
0.717845 1 0.876814
0.717845 1 0.876814
0.717845 1 0.876814
0.775982 1 0.877043
0.856138 1 0.87776
0.895628 1 0.879561
0.896666 1 0.883848
0.854154 1 0.863264
0.854154 1 0.863264
0.854154 1 0.863264
0.854154 1 0.863264
0.854154 1 0.863264
0.854154 1 0.863264
0.873503 1 0.864179
0.894743 1 0.866987
0.896727 1 0.874205
0 0.0582589 0.918959
0 0.0582589 0.918959
0 0.0582589 0.918959
0 0.0582589 0.918959
0 0.0582589 0.918959
0 0.0583352 0.918959
0.955505 0 0.903197
0.9561 0.00437934 0.905348
0.927596 0.605676 0.917662
0 0.0582589 0.918959
0 0.0582589 0.918959
0 0.0582589 0.918959
0 0.0582589 0.918959
0 0.0582589 0.918959
0 0.0583352 0.918959
0.955505 0 0.903197
0.9561 0.00437934 0.905348
0.927596 0.605676 0.917662
0 0.0582589 0.918959
0 0.0582589 0.918959
0 0.0582589 0.918959
0 0.0582589 0.918959
0 0.0582589 0.918959
0 0.0583352 0.918959
0.955505 0 0.903197
0.9561 0.00437934 0.905348
0.927596 0.605631 0.917662
0 0.0582589 0.918959
0 0.0582589 0.918959
0 0.0582589 0.918959
0 0.0582589 0.918959
0 0.0582589 0.918959
0 0.0583352 0.918959
0.955505 0 0.903197
0.9561 0.00437934 0.905348
0.927611 0.605493 0.917662
0 0.0581674 0.918959
0 0.0581674 0.918959
0 0.0581674 0.918959
0 0.0581674 0.918959
0 0.0581674 0.918959
0 0.0582284 0.918959
0.955505 0 0.903197
0.956115 0.00608835 0.905501
0.927642 0.605097 0.917662
0 0.0568551 0.918944
0 0.0568551 0.918944
0 0.0568551 0.918944
0 0.0568551 0.918944
0 0.0568551 0.918944
0 0.0569162 0.918944
0.955505 0 0.903197
0.956085 0.0383459 0.90782
0.915267 0.789288 0.917403
0 0.939086 0.908751
0 0.939086 0.908751
0 0.939086 0.908751
0 0.939086 0.908751
0 0.939086 0.908751
0 0.941512 0.908705
0.862623 0.923171 0.916579
0.902861 0.964996 0.916472
0.899565 1 0.916152
0.359075 1 0.912062
0.359075 1 0.912062
0.359075 1 0.912062
0.359075 1 0.912062
0.359075 1 0.912062
0.359075 1 0.912062
0.833463 1 0.914504
0.893034 1 0.914733
0.896513 1 0.914931
0.839734 1 0.912535
0.839734 1 0.912535
0.839734 1 0.912535
0.839734 1 0.912535
0.839734 1 0.912535
0.839734 1 0.912535
0.86186 1 0.912612
0.890379 1 0.912825
0.896437 1 0.913298
0 0.252155 0.918868
0 0.252155 0.918868
0 0.252155 0.918868
0 0.252155 0.918868
0 0.252155 0.918868
0 0.252155 0.918868
0 0.252232 0.918868
0.955093 0.0895247 0.91046
0.924834 0.647837 0.917678
0 0.252155 0.918868
0 0.252155 0.918868
0 0.252155 0.918868
0 0.252155 0.918868
0 0.252155 0.918868
0 0.252155 0.918868
0 0.252232 0.918868
0.955093 0.0895247 0.91046
0.924834 0.647837 0.917678
0 0.252155 0.918868
0 0.252155 0.918868
0 0.252155 0.918868
0 0.252155 0.918868
0 0.252155 0.918868
0 0.252155 0.918868
0 0.252232 0.918868
0.955093 0.0895247 0.91046
0.924834 0.647837 0.917678
0 0.252155 0.918868
0 0.252155 0.918868
0 0.252155 0.918868
0 0.252155 0.918868
0 0.252155 0.918868
0 0.252155 0.918868
0 0.252232 0.918868
0.955093 0.0895247 0.91046
0.924834 0.647837 0.917678
0 0.252155 0.918868
0 0.252155 0.918868
0 0.252155 0.918868
0 0.252155 0.918868
0 0.252155 0.918868
0 0.252155 0.918868
0 0.252232 0.918868
0.955093 0.0895247 0.91046
0.924834 0.647837 0.917678
0 0.252094 0.918868
0 0.252094 0.918868
0 0.252094 0.918868
0 0.252094 0.918868
0 0.252094 0.918868
0 0.252094 0.918868
0 0.25214 0.918868
0.955077 0.0903334 0.910506
0.924727 0.649546 0.917678
0 0.251087 0.918868
0 0.251087 0.918868
0 0.251087 0.918868
0 0.251087 0.918868
0 0.251087 0.918868
0 0.251087 0.918868
0 0.251133 0.918868
0.951171 0.195819 0.913878
0.924514 0.652644 0.917678
0 1 0.906966
0 1 0.906966
0 1 0.906966
0 1 0.906966
0 1 0.906966
0 1 0.906966
0 1 0.906966
0.891096 1 0.915969
0.897551 1 0.915953
0.777264 1 0.91519
0.777264 1 0.91519
0.777264 1 0.91519
0.777264 1 0.91519
0.777264 1 0.91519
0.777264 1 0.91519
0.777264 1 0.91519
0.884001 1 0.91577
0.896422 1 0.915831
