BBLuts/BB_104_0140_LUT.cube
TITLE "Generated by Resolve"
LUT_3D_SIZE 5
0 0 0
0.162402 0 0
0.725475 0 0
0.909407 0.567681 0.156802
0.883726 0.850065 0.753399
0 0.178958 0
0.137652 0.186954 0
0.741238 0.0463722 0
0.903578 0.629129 0.111604
0.883726 0.850935 0.753002
0.0263066 0.769146 0.0263066
0.0261234 0.768795 0.0261234
0.732448 0.755398 0.013489
0.894514 0.787106 0.0181888
0.883726 0.85655 0.750057
0.636088 0.898375 0.217487
0.671366 0.894926 0.215213
0.7794 0.888045 0.231434
0.886397 0.879469 0.413901
0.883711 0.876554 0.764279
0.863859 0.883741 0.81619
0.864149 0.883741 0.81622
0.866209 0.883741 0.816449
0.87744 0.883726 0.819043
0.883726 0.883726 0.834836
0 0 0.167987
0.140002 0 0.165621
0.726619 0 0.126345
0.911055 0.550332 0.351171
0.883711 0.849836 0.763165
0 0.146654 0.147341
0.147265 0.147265 0.147265
0.727245 0 0.109026
0.904952 0.620096 0.317098
0.883711 0.850721 0.762829
0.0247654 0.766125 0.0247654
0.0245518 0.765728 0.0245518
0.735668 0.753002 0.0132143
0.894453 0.786007 0.0986954
0.883726 0.856367 0.760281
0.6421 0.897734 0.215991
0.675746 0.894514 0.21413
0.780468 0.887968 0.230961
0.886458 0.879438 0.41384
0.883711 0.876539 0.764233
0.863905 0.883741 0.81619
0.864195 0.883741 0.81622
0.866255 0.883741 0.816449
0.877455 0.883726 0.819043
0.883726 0.883726 0.834836
0 0 0.72665
0 0 0.726787
0.728191 0 0.708614
0.909422 0.211383 0.772274
0.883741 0.848219 0.80679
0 0 0.725597
0 0 0.725734
0.734005 0 0.707973
0.914626 0.478828 0.775189
0.883741 0.849165 0.806607
0.0110781 0.727352 0.720119
0.0112001 0.727672 0.720394
0.71426 0.71426 0.71426
0.88365 0.760586 0.729
0.883741 0.855177 0.805249
0.636439 0.889158 0.62005
0.669093 0.886351 0.618662
0.771069 0.879698 0.621302
0.877943 0.873137 0.668315
0.883741 0.87628 0.79527
0.86424 0.883741 0.816159
0.864515 0.883741 0.81619
0.866545 0.883741 0.816403
0.877562 0.883726 0.819013
0.883726 0.883726 0.834836
0 0 0.872892
0 0 0.872892
0 0 0.872892
0.880705 0 0.880705
0.883726 0.826993 0.873274
0 0 0.872892
0 0 0.872892
0 0 0.872892
0.880705 0 0.880705
0.883726 0.829038 0.873121
0 0 0.872892
0 0 0.872892
0.325612 0 0.866758
0.880705 0 0.880705
0.883726 0.841321 0.872206
0.0566415 0.914199 0.89984
0.056672 0.913115 0.899763
0.676356 0.877226 0.869917
0.86714 0.86714 0.86714
0.883726 0.873869 0.869245
0.862394 0.883726 0.855665
0.862669 0.883726 0.855665
0.864637 0.883726 0.855741
0.875502 0.883726 0.856413
0.883726 0.883726 0.861997
0 0.279103 0.881209
0 0.279103 0.881209
0 0.279118 0.881209
0 0.279332 0.881209
0.888151 0.699306 0.888151
0 0.279088 0.881209
0 0.279088 0.881209
0 0.279103 0.881209
0 0.279301 0.881209
0.888136 0.699367 0.888136
0 0.27892 0.881209
0 0.27892 0.881209
0 0.27895 0.881209
0.417578 0.27393 0.892989
0.88806 0.699947 0.88806
0 0.277378 0.881209
0 0.277378 0.881209
0 0.277409 0.881209
0.880705 0 0.880705
0.887785 0.701778 0.887785
0.823987 0.883726 0.883726
0.825254 0.883726 0.883726
0.833616 0.883726 0.883726
0.865339 0.883726 0.883726
0.883726 0.883726 0.883726
