BBLuts/BB_103_0270_LUT.cube
TITLE "Generated by Resolve"
LUT_3D_SIZE 5
0 0 0
0.138613 0 0
0.675883 0 0
0.862516 0.519936 0.0431373
0.825162 0.918944 0.617365
0 0.157977 0
0.0923018 0.160281 0
0.680079 0.052369 0
0.856153 0.580209 0.0140383
0.825147 0.919341 0.617121
0 0.744595 0
0 0.74432 0
0.585931 0.741131 0
0.835859 0.798901 0
0.824796 0.92462 0.613565
0.466529 0.971588 0.119127
0.466529 0.971588 0.119127
0.630564 0.960723 0.123781
0.820188 0.950774 0.244755
0.822431 0.951629 0.642329
0.792554 0.96173 0.724193
0.792554 0.96173 0.724193
0.792554 0.96173 0.724193
0.807401 0.961883 0.72665
0.820569 0.961868 0.750347
0 0 0.108446
0.114397 0 0.105806
0.67837 0 0.0856336
0.866545 0.50869 0.166995
0.825162 0.918944 0.61738
0 0.126909 0.0971084
0.0986191 0.12462 0.0928817
0.677958 0 0.0760357
0.860899 0.573831 0.151904
0.825147 0.919341 0.617121
0 0.739681 0
0 0.739391 0
0.590372 0.736568 0
0.837263 0.798718 0.0100252
0.824796 0.92462 0.613565
0.475013 0.971023 0.118379
0.475013 0.971023 0.118379
0.632563 0.960555 0.123308
0.820249 0.950729 0.244541
0.822431 0.951629 0.642329
0.792584 0.96173 0.724193
0.792584 0.96173 0.724193
0.792584 0.96173 0.724193
0.807416 0.961883 0.72665
0.820569 0.961868 0.750347
0 0 0.621317
0 0 0.621408
0.664485 0 0.597131
0.884413 0.230716 0.641779
0.824506 0.916197 0.701869
0 0 0.620295
0 0 0.620356
0.673167 0 0.595636
0.875532 0.392828 0.640558
0.824475 0.916625 0.701762
0 0.685176 0.582208
0 0.685237 0.582238
0.563561 0.68455 0.586709
0.838026 0.770733 0.605692
0.824079 0.922179 0.700236
0.463996 0.967376 0.481621
0.463996 0.967376 0.481621
0.618189 0.956771 0.479881
0.811734 0.945998 0.527382
0.822095 0.950896 0.683848
0.793027 0.961746 0.724132
0.793027 0.961746 0.724132
0.793027 0.961746 0.724132
0.807584 0.961898 0.726589
0.820569 0.961868 0.750332
0 0 0.827955
0 0 0.827955
0 0 0.827955
0.877317 0 0.816052
0.826032 0.884916 0.810864
0 0 0.827955
0 0 0.827955
0 0 0.827955
0.877317 0 0.816052
0.825956 0.886107 0.810773
0 0 0.827955
0 0 0.827955
0 0 0.827955
0.877317 0 0.816052
0.82501 0.89897 0.809705
0 0.977371 0.826154
0 0.977371 0.826154
0 0.977371 0.826154
0.794354 0.934905 0.802976
0.821622 0.946258 0.80528
0.789258 0.961501 0.787991
0.789258 0.961501 0.787991
0.789258 0.961501 0.787991
0.803204 0.961669 0.788647
0.82031 0.961746 0.795361
0 0.231174 0.829358
0 0.231174 0.829358
0 0.231174 0.829358
0 0.231235 0.829358
0.851408 0.654948 0.837476
0 0.231174 0.829358
0 0.231174 0.829358
0 0.231174 0.829358
0 0.231235 0.829358
0.851408 0.654948 0.837476
0 0.231174 0.829358
0 0.231174 0.829358
0 0.231174 0.829358
0 0.231235 0.829358
0.851408 0.654948 0.837476
0 0.23003 0.829374
0 0.23003 0.829374
0 0.23003 0.829374
0 0.230091 0.829374
0.850858 0.659068 0.837171
0.734142 0.960723 0.825025
0.734142 0.960723 0.825025
0.734142 0.960723 0.825025
0.734142 0.960723 0.825025
0.820417 0.961975 0.825788
