BBLuts/BB_102_0630_LUT.cube
TITLE "Generated by Resolve"
LUT_3D_SIZE 33
0 0 0
0 0 0
0 0 0
0 0 0
0 0 0
0.0199435 0 0
0.0786755 0 0
0.121141 0 0
0.164401 0 0
0.217304 0 0
0.280522 0 0
0.351827 0 0
0.432197 0 0
0.520668 0 0
0.600534 0 0
0.675624 0 0
0.748745 0 0
0.817288 0 0
0.877119 0 0
0.923903 0 0
0.932876 0 0
0.932876 0 0
0.934676 0.146288 0.00425727
0.928222 0.388434 0.0440223
0.917556 0.553597 0.0783093
0.910018 0.663264 0.120607
0.902174 0.752743 0.176608
0.895582 0.824277 0.266011
0.890486 0.875151 0.37586
0.886366 0.912474 0.477821
0.882918 0.93962 0.55726
0.880079 0.959899 0.632883
0.877943 0.976272 0.695674
0 0 0
0 0 0
0 0 0
0 0 0
0 0 0
0.0318914 0 0
0.0827497 0 0
0.124498 0 0
0.169818 0 0
0.223865 0 0
0.287297 0 0
0.357839 0 0
0.435828 0 0
0.522774 0 0
0.601938 0 0
0.676585 0 0
0.749294 0 0
0.817533 0 0
0.877058 0 0
0.923598 0 0
0.932876 0 0
0.932876 0 0
0.933867 0.190524 0
0.926772 0.407141 0.0395666
0.916808 0.563622 0.075761
0.909514 0.668559 0.118898
0.901808 0.756222 0.174594
0.895415 0.826246 0.264836
0.89041 0.876204 0.375204
0.88632 0.9131 0.477501
0.882902 0.939956 0.557107
0.880064 0.960113 0.632776
0.877943 0.976394 0.695613
0 0 0
0 0 0
0 0 0
0 0 0
0 0 0
0.0389563 0 0
0.0841535 0 0
0.127718 0 0
0.175494 0 0
0.229984 0 0
0.29247 0 0
0.361059 0 0
0.438865 0 0
0.525017 0 0
0.603372 0 0
0.677516 0 0
0.749844 0 0
0.817761 0 0
0.876951 0 0
0.923262 0 0
0.932876 0 0
0.932876 0 0
0.932219 0.226566 0
0.925353 0.424536 0.034638
0.916075 0.573144 0.0731212
0.90901 0.673716 0.117174
0.901442 0.759625 0.172641
0.895232 0.828168 0.263645
0.890318 0.877256 0.374548
0.886275 0.91371 0.47718
0.882872 0.940291 0.556939
0.880049 0.960311 0.63267
0.877928 0.976516 0.695552
0 0 0
0 0 0
0 0 0
0 0 0
0 0 0
0.0443427 0 0
0.0847944 0 0
0.128008 0 0
0.176471 0 0
0.232456 0 0
0.295827 0 0
0.363973 0 0
0.441825 0 0
0.527276 0 0
0.604807 0 0
0.678477 0 0
0.750378 0 0
0.817975 0 0
0.876844 0 0
0.922911 0 0
0.932876 0 0
0.932876 0 0
0.931441 0.25922 0
0.923934 0.441108 0.0291295
0.915358 0.582208 0.0704051
0.908507 0.678782 0.11545
0.901106 0.762951 0.171664
0.895064 0.830076 0.262486
0.890242 0.878309 0.373892
0.886244 0.914321 0.47686
0.882856 0.940627 0.556771
0.880034 0.960525 0.632578
0.877913 0.976638 0.695506
0 0.0237125 0
0 0.0268711 0
0 0.0299229 0
0 0.0328527 0
0 0.0340124 0
0.030808 0.0321508 0
0.0752728 0.0292821 0
0.120867 0.0230869 0
0.17232 0.00920119 0
0.233555 0 0
0.29778 0 0
0.366629 0 0
0.444694 0 0
0.529564 0 0
0.606287 0 0
0.679454 0 0
0.750912 0 0
0.818158 0 0
0.876722 0 0
0.92256 0 0
0.932876 0 0
0.932631 0.000686656 0
0.930465 0.288273 0
0.922499 0.45687 0.0228275
0.914641 0.590875 0.0675822
0.908003 0.683726 0.113725
0.900786 0.766186 0.170687
0.894911 0.831937 0.261341
0.890166 0.879316 0.37322
0.886198 0.914916 0.476555
0.882841 0.940963 0.556603
0.880018 0.960739 0.632471
0.877913 0.976761 0.695445
0 0.0585336 0
0 0.0610666 0
0 0.0635538 0
0 0.065507 0
0 0.066453 0
0.00775158 0.0656901 0
0.0648508 0.0641184 0
0.113436 0.061326 0
0.166415 0.0556039 0
0.227604 0.0443885 0
0.294575 0.0227512 0
0.368994 0 0
0.447593 0 0
0.531991 0 0
0.607858 0 0
0.680491 0 0
0.751461 0 0
0.818357 0 0
0.876585 0 0
0.922164 0 0
0.932876 0 0
0.932845 0.105074 0
0.929305 0.315572 0
0.920958 0.472679 0.014847
0.913893 0.599527 0.0645304
0.9075 0.688777 0.111894
0.90045 0.769482 0.169696
0.894743 0.833844 0.260121
0.890089 0.880385 0.372549
0.886152 0.915541 0.476234
0.882811 0.941314 0.556435
0.880018 0.960952 0.632364
0.877897 0.976898 0.695384
0 0.0954452 0
0 0.0975814 0
0 0.0996872 0
0 0.100862 0
0 0.101625 0
0 0.1019 0
0.0456092 0.100465 0
0.102159 0.09897 0
0.158572 0.0957351 0
0.222354 0.0892805 0
0.290639 0.0773938 0
0.365026 0.0584115 0
0.447181 0.0238499 0
0.535073 0 0
0.609903 0 0
0.681834 0 0
0.752178 0 0
0.818616 0 0
0.876402 0 0
0.921645 0 0
0.932876 0 0
0.932891 0.173495 0
0.927626 0.347311 0
0.918578 0.491508 0
0.912978 0.610025 0.0604562
0.906859 0.69514 0.109575
0.900038 0.773648 0.16846
0.89453 0.836255 0.258595
0.889967 0.882063 0.371679
0.886107 0.91632 0.475807
0.88278 0.941756 0.556222
0.879988 0.961227 0.632212
0.877897 0.97705 0.695308
0 0.137819 0
0 0.139712 0
0 0.141115 0
0 0.142031 0
0 0.142702 0
0 0.143069 0
0 0.143008 0
0.0816968 0.141649 0
0.145495 0.13994 0
0.212726 0.135454 0
0.284321 0.126909 0
0.362783 0.114366 0
0.447227 0.0961929 0
0.532876 0.067216 0
0.609201 0.00860609 0
0.683619 0 0
0.753155 0 0
0.818952 0 0
0.876112 0 0
0.920897 0 0
0.932601 0.0525826 0
0.931945 0.239261 0
0.925231 0.384634 0
0.915877 0.513985 0
0.911879 0.621439 0.0547494
0.90602 0.703288 0.106462
0.899519 0.778943 0.166888
0.89427 0.839338 0.25658
0.889845 0.883803 0.370535
0.88603 0.917357 0.475257
0.88275 0.942336 0.555932
0.879973 0.961578 0.632044
0.877882 0.977279 0.695201
0 0.188388 0
0 0.189853 0
0 0.190677 0
0 0.191516 0
0 0.192096 0
0 0.192493 0
0 0.192737 0
0.0355688 0.192203 0
0.121111 0.190661 0
0.195193 0.18735 0
0.272602 0.181445 0
0.356817 0.172259 0
0.446738 0.159289 0
0.534066 0.141299 0
0.608148 0.117006 0
0.680629 0.0841077 0
0.751461 0.0355077 0
0.819394 0 0
0.8757 0 0
0.919371 0.0598764 0
0.932815 0.184268 0
0.929702 0.306813 0
0.92221 0.427176 0
0.913954 0.54136 0
0.91046 0.635233 0.046479
0.904936 0.713603 0.102327
0.898863 0.785657 0.164874
0.893935 0.843275 0.253956
0.889677 0.886061 0.369024
0.885939 0.9187 0.474525
0.882704 0.943084 0.55555
0.879942 0.962051 0.631785
0.877867 0.977554 0.695064
0 0.247303 0
0 0.247776 0
0 0.248219 0
0 0.2486 0
0 0.248829 0
0 0.24889 0
0 0.248768 0
0 0.248356 0
0.0745556 0.248188 0
0.166445 0.247089 0
0.252598 0.243565 0
0.344121 0.237049 0
0.441474 0.227268 0
0.533913 0.214099 0
0.608728 0.199039 0
0.680858 0.182437 0
0.750744 0.166217 0
0.816999 0.154391 0
0.873442 0.163455 0
0.917525 0.209461 0
0.930617 0.284245 0
0.925734 0.377234 0
0.918578 0.476829 0
0.911833 0.572519 0
0.908492 0.652781 0.0337682
0.903578 0.726558 0.096849
0.89807 0.794034 0.162387
0.893523 0.848234 0.250568
0.889464 0.88893 0.367041
0.885832 0.920424 0.473579
0.882628 0.944091 0.555032
0.879896 0.962676 0.631464
0.877836 0.97792 0.694881
0 0.312322 0
0 0.312795 0
0 0.313283 0
0 0.313619 0
0 0.313893 0
0 0.314046 0
0 0.314107 0
0 0.313985 0
0 0.313481 0
0.116701 0.315663 0
0.21973 0.314824 0
0.321279 0.311009 0
0.428046 0.304204 0
0.529259 0.295354 0
0.607279 0.285527 0
0.680293 0.276585 0
0.749493 0.270771 0
0.814664 0.270878 0
0.86952 0.285496 0
0.911604 0.322621 0
0.925597 0.379431 0
0.920562 0.449882 0
0.914656 0.531167 0
0.90927 0.607309 0
0.905547 0.673625 0.00968948
0.901869 0.742535 0.0895247
0.897108 0.804303 0.15935
0.893004 0.854353 0.246159
0.889204 0.892592 0.364477
0.885679 0.922606 0.472328
0.882551 0.945357 0.554376
0.87985 0.96347 0.631052
0.877806 0.978408 0.694652
0 0.391485 0
0 0.391959 0
0 0.392401 0
0 0.392752 0
0 0.393027 0
0 0.393225 0
0 0.393393 0
0 0.393469 0
0 0.393301 0
0 0.394705 0
0.162631 0.398291 0
0.282826 0.397665 0
0.402426 0.394339 0
0.515846 0.389273 0
0.599802 0.38291 0
0.675959 0.377905 0
0.745403 0.377127 0
0.808927 0.382681 0
0.861341 0.399023 0
0.901488 0.428595 0
0.918944 0.471778 0
0.914992 0.526375 0
0.910918 0.585245 0
0.906554 0.640757 0
0.901488 0.698054 0
0.899825 0.761608 0.0800031
0.895979 0.816648 0.155764
0.892409 0.861769 0.245335
0.888884 0.897169 0.361135
0.885496 0.925383 0.470695
0.882445 0.94699 0.553491
0.879774 0.964508 0.630488
0.87776 0.979034 0.694347
0 0.485954 0
0 0.486397 0
0 0.486793 0
0 0.487114 0
0 0.487358 0
0 0.487602 0
0 0.487816 0
0 0.487984 0
0 0.488136 0
0 0.488243 0
0.0323644 0.493034 0
0.21857 0.497978 0
0.360861 0.49749 0
0.490486 0.494728 0
0.583734 0.490669 0
0.664729 0.487282 0
0.73698 0.487388 0
0.8 0.493294 0
0.85069 0.507149 0
0.889891 0.529854 0
0.912703 0.560006 0
0.910094 0.596567 0
0.907012 0.635279 0
0.903181 0.679454 0
0.89868 0.728771 0
0.897536 0.783429 0.0679484
0.894697 0.831067 0.151797
0.891691 0.870542 0.244755
0.888502 0.902815 0.356832
0.885267 0.928847 0.468544
0.882322 0.949081 0.552346
0.879698 0.965835 0.629755
0.877714 0.979843 0.693919
0 0.583413 0
0 0.583703 0
0 0.583963 0
0 0.584161 0
0 0.58436 0
0 0.584527 0
0 0.584695 0
0 0.584863 0
0 0.584985 0
0 0.585016 0
0 0.584863 0
0.10045 0.590997 0
0.298741 0.593133 0
0.453056 0.591485 0
0.560403 0.588983 0
0.647791 0.586633 0
0.725353 0.58674 0
0.79057 0.590814 0
0.840482 0.600351 0
0.878492 0.614755 0
0.907225 0.632776 0
0.905241 0.656214 0
0.902556 0.686336 0
0.89926 0.722454 0
0.895537 0.763134 0
0.895048 0.807477 0.0528115
0.893324 0.847333 0.147784
0.890898 0.880796 0.244556
0.888045 0.909606 0.352041
0.885008 0.933074 0.465766
0.882155 0.951705 0.550835
0.879591 0.967514 0.628779
0.877638 0.98088 0.693385
0 0.663142 0
0 0.663279 0
0 0.663417 0
0 0.663508 0
0 0.6636 0
0 0.663661 0
0 0.663737 0
0 0.663798 0
0 0.663798 0
0 0.663752 0
0 0.663554 0
0 0.66305 0
0.201617 0.66894 0
0.398795 0.668635 0
0.531258 0.667338 0
0.625437 0.66566 0
0.709331 0.66537 0
0.778058 0.667811 0
0.828794 0.673869 0
0.865934 0.684062 0
0.895155 0.698558 0
0.899779 0.716793 0
0.897627 0.740154 0
0.895094 0.768109 0
0.8925 0.798703 0
0.892454 0.832837 0.0338903
0.891905 0.864973 0.144442
0.889982 0.892973 0.245029
0.887449 0.917479 0.353719
0.884688 0.938125 0.462165
0.881956 0.954971 0.548867
0.879454 0.969635 0.627512
0.877546 0.982177 0.692653
0 0.740246 0
0 0.740307 0
0 0.740353 0
0 0.740398 0
0 0.740414 0
0 0.740429 0
0 0.740444 0
0 0.740414 0
0 0.740353 0
0 0.7402 0
0 0.739895 0
0 0.73933 0
0 0.741451 0
0.323323 0.745144 0
0.492988 0.744045 0
0.597681 0.742168 0
0.687877 0.741115 0
0.760571 0.74229 0
0.813214 0.746242 0
0.851026 0.753262 0
0.879759 0.763577 0
0.894347 0.776822 0
0.892989 0.79292 0
0.891432 0.812085 0
0.889784 0.833631 0
0.889708 0.858015 0.0101015
0.890501 0.883711 0.142809
0.889021 0.906172 0.246784
0.886778 0.926467 0.356451
0.884321 0.943969 0.458564
0.881712 0.958968 0.546319
0.879301 0.972244 0.625834
0.87744 0.98381 0.691722
0 0.815122 0
0 0.815106 0
0 0.815091 0
0 0.815061 0
0 0.815045 0
0 0.815 0
0 0.814923 0
0 0.814832 0
0 0.814649 0
0 0.814404 0
0 0.813947 0
0 0.813214 0
0 0.812085 0
0.220539 0.817823 0
0.444892 0.816556 0
0.568185 0.813977 0
0.664179 0.811566 0
0.73994 0.810971 0
0.795209 0.812482 0
0.834974 0.816007 0
0.86479 0.821668 0
0.886336 0.829801 0
0.889326 0.839689 0
0.888472 0.851835 0
0.88751 0.865858 0
0.886473 0.881636 0
0.889158 0.902861 0.143938
0.887999 0.920317 0.250721
0.88603 0.936294 0.3608
0.883803 0.950591 0.461784
0.881422 0.963699 0.542977
0.879103 0.975402 0.623636
0.877317 0.985855 0.690486
0 0.877821 0
0 0.877745 0
0 0.877668 0
0 0.877592 0
0 0.877501 0
0 0.877409 0
0 0.877272 0
0 0.877073 0
0 0.876799 0
0 0.876402 0
0 0.875776 0
0 0.87454 0
0 0.873259 0
0.107012 0.876722 0
0.402258 0.875944 0
0.545068 0.871946 0
0.644968 0.86807 0
0.722011 0.865919 0
0.778485 0.865553 0
0.820111 0.86656 0
0.851392 0.86894 0
0.873991 0.872969 0
0.886656 0.878782 0
0.886198 0.885969 0
0.885618 0.895003 0
0.88539 0.906157 0
0.887877 0.921981 0.149798
0.886946 0.934752 0.258015
0.885222 0.946593 0.367544
0.883192 0.958099 0.46627
0.881041 0.969116 0.542901
0.878874 0.979156 0.620783
0.87715 0.988342 0.688853
0 0.924651 0
0 0.924529 0
0 0.924422 0
0 0.9243 0
0 0.924163 0
0 0.924025 0
0 0.923842 0
0 0.923583 0
0 0.923217 0
0 0.922713 0
0 0.921981 0
0 0.920989 0
0 0.919661 0
0.0486152 0.920851 0
0.385504 0.920027 0
0.534844 0.915434 0
0.634119 0.910674 0
0.709667 0.907591 0
0.76524 0.906157 0
0.807416 0.905791 0
0.839612 0.906386 0
0.863279 0.908156 0
0.881682 0.911147 0
0.884352 0.915297 0
0.884001 0.920882 0
0.885679 0.930114 0.0325322
0.886717 0.940017 0.162707
0.885924 0.948699 0.270176
0.884367 0.957366 0.377462
0.882506 0.966308 0.472541
0.880522 0.975097 0.546975
0.878599 0.983444 0.61825
0.876966 0.991318 0.686717
0 0.96054 0
0 0.960388 0
0 0.960235 0
0 0.960067 0
0 0.959915 0
0 0.959747 0
0 0.959518 0
0 0.959213 0
0 0.958785 0
0 0.958221 0
0 0.957473 0
0 0.956466 0
0 0.955139 0
0.130343 0.956847 0
0.403906 0.953536 0
0.538903 0.948394 0
0.631754 0.943313 0
0.702724 0.939818 0
0.755734 0.937804 0
0.796963 0.93669 0
0.829114 0.936294 0
0.85359 0.93666 0
0.872953 0.937819 0
0.882826 0.939818 0
0.882643 0.94284 0
0.885237 0.950149 0.0740215
0.885649 0.956329 0.184619
0.884855 0.962219 0.288289
0.883421 0.968383 0.391257
0.881758 0.974914 0.481147
0.879942 0.981552 0.55256
0.878187 0.988098 0.62237
0.876738 0.994766 0.683879
0 0.986572 0
0 0.986389 0
0 0.986221 0
0 0.986038 0
0 0.985855 0
0 0.985672 0
0 0.985428 0
0 0.985107 0
0 0.98468 0
0 0.984115 0
0 0.983368 0
0 0.982376 0
0 0.981094 0
0.268635 0.982071 0
0.453132 0.977279 0
0.558556 0.97203 0
0.639063 0.967224 0
0.702296 0.963806 0
0.751064 0.961608 0
0.790188 0.960159 0
0.821027 0.959258 0
0.845533 0.958877 0
0.865446 0.959045 0
0.88069 0.959884 0
0.881453 0.961349 0
0.884596 0.967651 0.120119
0.884581 0.971389 0.216419
0.883741 0.975097 0.3131
0.882445 0.979126 0.409339
0.880934 0.983536 0.4925
0.879316 0.988205 0.560159
0.877714 0.993194 0.627787
0.876432 0.998566 0.686488
0 1 0
0 1 0
0 1 0
0 1 0
0 1 0
0 1 0
0 1 0
0 1 0
0 1 0
0 1 0
0 1 0
0 1 0
0.243183 1 0
0.406043 0.99881 0
0.512032 0.994354 0
0.588586 0.989639 0
0.653895 0.985595 0
0.707073 0.982635 0
0.7505 0.980545 0
0.786419 0.979004 0
0.815198 0.97792 0
0.83888 0.977218 0
0.858656 0.976837 0
0.87425 0.976944 0
0.883223 0.980713 0.0779583
0.883787 0.982864 0.172763
0.883452 0.984741 0.258961
0.882582 0.98674 0.345876
0.881422 0.989059 0.432273
0.880079 0.991821 0.505425
0.878614 0.994965 0.570275
0.877195 0.99855 0.634913
0.876066 1 0.690745
0 1 0
0 1 0
0 1 0
0 1 0
0 1 0
0 1 0
0 1 0
0 1 0
0 1 0
0.13341 1 0
0.252522 1 0
0.352407 1 0
0.441627 1 0
0.511101 1 0
0.56965 1 0
0.624765 1 0
0.674159 0.999664 0
0.716564 0.997299 0
0.753964 0.995422 0
0.785733 0.993957 0
0.811826 0.992828 0
0.834195 0.991943 0
0.853178 0.991287 0
0.871275 0.993988 0.0669413
0.882856 0.994934 0.154055
0.882795 0.995438 0.231952
0.882246 0.996017 0.309743
0.881392 0.996872 0.387717
0.880369 0.998093 0.460212
0.879164 0.999664 0.522683
0.877867 1 0.583581
0.876646 1 0.644083
0.875669 1 0.696269
0.278538 1 0
0.297871 1 0
0.315328 1 0
0.331838 1 0
0.347494 1 0
0.363134 1 0
0.3823 1 0
0.404807 1 0
0.43032 1 0
0.458686 1 0
0.489815 1 0
0.519234 1 0
0.552285 1 0
0.588067 1 0
0.625345 1 0
0.662318 1 0
0.697246 1 0
0.730236 1 0
0.760952 1 0
0.787839 1 0
0.812879 1 0.0309148
0.834272 1 0.0754406
0.852415 1 0.114717
0.86743 1 0.168368
0.879683 1 0.230381
0.881621 1 0.297047
0.88098 1 0.365286
0.880171 1 0.432456
0.879255 1 0.492638
0.878202 1 0.544839
0.877089 1 0.600687
0.876066 1 0.65568
0.875273 1 0.703319
0.534798 1 0.147066
0.539269 1 0.147005
0.543618 1 0.14696
0.54786 1 0.146899
0.55201 1 0.146868
0.556237 1 0.146838
0.561532 1 0.146807
0.568276 1 0.146792
0.576822 1 0.146792
0.587442 1 0.146868
0.600473 1 0.147021
0.616068 1 0.147356
0.634272 1 0.148043
0.654795 1 0.149218
0.677089 1 0.151186
0.700633 1 0.154208
0.725231 1 0.158633
0.75024 1 0.164828
0.773953 1 0.173236
0.795605 1 0.184314
0.815579 1 0.198672
0.833906 1 0.216968
0.849973 1 0.239841
0.863691 1 0.26807
0.875166 1 0.312184
0.880308 1 0.366018
0.879683 1 0.423468
0.878965 1 0.477241
0.878141 1 0.524117
0.877226 1 0.571832
0.87631 1 0.621881
0.875502 1 0.669871
0.874861 1 0.712077
0.642115 1 0.290745
0.64416 1 0.290776
0.646174 1 0.290837
0.648142 1 0.290867
0.650095 1 0.290929
0.652094 1 0.290974
0.654597 1 0.291066
0.657832 1 0.291173
0.661982 1 0.291341
0.667185 1 0.291569
0.673686 1 0.291905
0.681712 1 0.292409
0.691524 1 0.293111
0.703227 1 0.294179
0.717083 1 0.29604
0.732479 1 0.298238
0.749493 1 0.301228
0.766964 1 0.305257
0.784375 1 0.31078
0.801389 1 0.318105
0.818097 1 0.327688
0.833844 1 0.340108
0.847944 1 0.356054
0.860456 1 0.376532
0.871275 1 0.401129
0.878965 1 0.437049
0.878431 1 0.478767
0.877775 1 0.518166
0.877043 1 0.559518
0.87628 1 0.602869
0.875547 1 0.646128
0.874937 1 0.686534
0.874449 1 0.722576
0.707698 1 0.418112
0.708721 1 0.418173
0.709743 1 0.41825
0.71075 1 0.418311
0.711757 1 0.418372
0.712795 1 0.418463
0.714107 1 0.418555
0.715816 1 0.418677
0.718029 1 0.41883
0.720867 1 0.419074
0.724498 1 0.419379
0.729076 1 0.419791
0.734737 1 0.420371
0.74165 1 0.42118
0.750225 1 0.422232
0.759808 1 0.423682
0.770581 1 0.425666
0.782208 1 0.42829
0.794766 1 0.431769
0.808011 1 0.436332
0.821698 1 0.442588
0.83476 1 0.450217
0.846891 1 0.459907
0.858061 1 0.472099
0.867918 1 0.48719
0.876158 1 0.503334
0.87715 1 0.52871
0.876616 1 0.561181
0.87599 1 0.597574
0.87538 1 0.63566
0.874861 1 0.671855
0.874418 1 0.705043
0.874083 1 0.734646
0.752499 1 0.514366
0.753048 1 0.514427
0.753597 1 0.514473
0.754131 1 0.514519
0.75465 1 0.514549
0.755215 1 0.514611
0.755901 1 0.514687
0.756832 1 0.514763
0.758022 1 0.514885
