BBLuts/BB_106_0270_LUT.cube
TITLE "Generated by Resolve"
LUT_3D_SIZE 33
0.0229191 0.0391699 0.0644999
0.0229191 0.0391699 0.0644999
0.0229191 0.0391699 0.0644999
0.0229191 0.0391699 0.0644999
0.0229191 0.0391699 0.0644999
0.0751965 0.0408942 0.0660868
0.136278 0.0429694 0.0663157
0.179522 0.0444343 0.06804
0.223728 0.0459297 0.0697948
0.275624 0.0480507 0.0754559
0.339086 0.0510414 0.0793774
0.409232 0.0554513 0.08542
0.489448 0.0629282 0.0961013
0.567956 0.0778821 0.117998
0.634928 0.11191 0.167926
0.702571 0.193301 0.283207
0.76997 0.340505 0.423041
0.838758 0.477974 0.545861
0.901061 0.57731 0.623377
0.95021 0.633341 0.677821
0.959274 0.643488 0.687785
0.959274 0.643488 0.687785
0.959121 0.646677 0.688136
0.95874 0.654215 0.687984
0.957885 0.671031 0.686824
0.956298 0.702785 0.683406
0.953918 0.750301 0.675349
0.951202 0.802396 0.659861
0.948699 0.847349 0.637186
0.946441 0.883543 0.617212
0.94432 0.911879 0.639185
0.942458 0.933928 0.711284
0.940993 0.951965 0.782879
0.0229191 0.0391699 0.0644999
0.0229191 0.0391699 0.0644999
0.0229191 0.0391699 0.0644999
0.0229191 0.0391699 0.0644999
0.0229191 0.0391699 0.0644999
0.0879835 0.0413214 0.0649271
0.140459 0.0431067 0.0664836
0.18294 0.0445563 0.0681621
0.229404 0.0461433 0.0700389
0.282261 0.0483406 0.0758221
0.3458 0.0513924 0.0798657
0.415122 0.0558938 0.0860456
0.492821 0.0633402 0.0967422
0.569848 0.0784314 0.118776
0.636194 0.112886 0.169345
0.703441 0.194873 0.285084
0.770504 0.341619 0.424094
0.839002 0.478431 0.546242
0.900984 0.577218 0.623285
0.949889 0.632975 0.67747
0.959274 0.643488 0.687785
0.959274 0.643488 0.687785
0.959091 0.647364 0.687846
0.958679 0.65539 0.687785
0.957809 0.672862 0.686564
0.956176 0.705104 0.683024
0.953796 0.752575 0.674693
0.95111 0.804013 0.65893
0.948638 0.848325 0.635935
0.946395 0.884138 0.615686
0.944305 0.912215 0.638148
0.942428 0.934127 0.710857
0.940993 0.952102 0.782727
0.0229191 0.0391699 0.0644999
0.0229191 0.0391699 0.0644999
0.0229191 0.0391699 0.0644999
0.0229191 0.0391699 0.0644999
0.0229191 0.0391699 0.0644999
0.0953841 0.0415656 0.0647898
0.141894 0.0431525 0.0665293
0.186175 0.0446632 0.0682994
0.23534 0.0463569 0.0702678
0.288426 0.0486152 0.0761578
0.350927 0.0516976 0.0802625
0.418265 0.0561227 0.0863966
0.495613 0.0637217 0.0972763
0.571847 0.0790112 0.119631
0.637491 0.113878 0.170794
0.70428 0.196429 0.286915
0.771023 0.342718 0.425132
0.839246 0.478889 0.546609
0.900877 0.577081 0.623178
0.949554 0.632593 0.677089
0.959274 0.643488 0.687785
0.959274 0.643488 0.687785
0.95906 0.648081 0.687343
0.958618 0.656641 0.687587
0.957702 0.674754 0.68632
0.956069 0.707424 0.682643
0.953674 0.754849 0.674022
0.951034 0.805585 0.657969
0.948592 0.849287 0.634668
0.946365 0.884749 0.614099
0.944274 0.912551 0.637079
0.942412 0.934325 0.710445
0.940978 0.952224 0.782559
0.0229191 0.0391699 0.0644999
0.0229191 0.0391699 0.0644999
0.0229191 0.0391699 0.0644999
0.0218967 0.0448768 0.0638285
0.045655 0.0507515 0.0641337
0.100984 0.0417487 0.0649271
0.142565 0.0431678 0.0665599
0.18645 0.0446784 0.0682994
0.236347 0.0464027 0.0703136
0.290913 0.0487221 0.0763104
0.354238 0.0518654 0.0805066
0.421118 0.0563516 0.086717
0.498283 0.0640726 0.0977798
0.573846 0.0796063 0.120531
0.638804 0.114916 0.172305
0.70515 0.198047 0.288808
0.771542 0.343786 0.426154
0.83946 0.479301 0.546929
0.900771 0.576913 0.623056
0.949187 0.632181 0.676677
0.959274 0.643488 0.687785
0.959274 0.643488 0.687785
0.958999 0.648905 0.687266
0.958541 0.657954 0.687358
0.95761 0.676677 0.686046
0.955947 0.709758 0.682246
0.953567 0.757061 0.673396
0.950942 0.807157 0.657008
0.948531 0.850248 0.633387
0.946334 0.885328 0.612512
0.944259 0.912886 0.636027
0.942397 0.934554 0.710002
0.940963 0.952346 0.782406
0.0138247 0.090959 0.0584115
0.0133211 0.0938125 0.0580758
0.0128328 0.0965591 0.0577554
0.0123751 0.0992142 0.0574655
0.012192 0.100252 0.0573434
0.0819104 0.101274 0.0571756
0.127596 0.100389 0.0586557
0.174121 0.0966812 0.060914
0.22855 0.0866865 0.0643931
0.292042 0.0487678 0.0763714
0.356146 0.0519722 0.0806592
0.423713 0.0565499 0.0870069
0.500847 0.0644236 0.0982986
0.575891 0.0802319 0.121431
0.640131 0.115969 0.173877
0.70602 0.19968 0.2907
0.772061 0.344869 0.427161
0.839658 0.479683 0.547219
0.900633 0.576745 0.622904
0.948821 0.631785 0.67628
0.959274 0.643488 0.687785
0.959228 0.64448 0.687678
0.958953 0.64979 0.68719
0.95848 0.659327 0.687083
0.957519 0.678645 0.685756
0.955825 0.712108 0.681819
0.953445 0.759243 0.672724
0.950866 0.808698 0.656016
0.948486 0.851194 0.63209
0.946288 0.885908 0.61088
0.944213 0.913222 0.634958
0.942382 0.934752 0.70959
0.940948 0.952468 0.782223
0.00836194 0.122255 0.0548409
0.00796521 0.124483 0.0545968
0.00758373 0.126696 0.0543374
0.00727855 0.128435 0.054139
0.00714122 0.129274 0.0540475
0.0551614 0.130282 0.0554055
0.114717 0.130846 0.0545205
0.163928 0.130098 0.0563821
0.219425 0.127275 0.058793
0.285389 0.120958 0.0626383
0.350607 0.107408 0.0724498
0.426017 0.0567483 0.0872663
0.503426 0.0647898 0.0988327
0.578027 0.0809033 0.122423
0.641566 0.117128 0.17557
0.70695 0.20148 0.292744
0.772595 0.345983 0.428199
0.839857 0.480064 0.547539
0.900496 0.576547 0.622751
0.948409 0.631312 0.675837
0.959274 0.643488 0.687785
0.959152 0.646036 0.687541
0.958907 0.650767 0.687099
0.958404 0.660822 0.686793
0.957397 0.680751 0.68545
0.955718 0.71458 0.681376
0.953338 0.761517 0.672038
0.950774 0.810285 0.654978
0.948425 0.852171 0.630701
0.946258 0.886519 0.609186
0.944198 0.913573 0.633799
0.942351 0.934966 0.709117
0.940932 0.952605 0.782055
0.00437934 0.154818 0.0511788
0.0043183 0.156664 0.0509499
0.00424201 0.158511 0.0507362
0.00421149 0.159533 0.0506142
0.00418097 0.160204 0.0505531
0.00418097 0.160433 0.0505226
0.0907607 0.161944 0.0530404
0.150225 0.162234 0.052018
0.208423 0.16144 0.054139
0.278614 0.159152 0.0574197
0.345418 0.154086 0.0660563
0.419547 0.145205 0.0745098
0.501396 0.127321 0.090074
0.580758 0.0818036 0.123735
0.643397 0.118685 0.177813
0.708156 0.20383 0.295338
0.773281 0.347433 0.429587
0.840116 0.480552 0.547921
0.900282 0.576257 0.622522
0.94786 0.630701 0.675227
0.959274 0.643488 0.687785
0.959106 0.647044 0.687449
0.958846 0.65214 0.686961
0.958297 0.662821 0.686229
0.957275 0.683513 0.685039
0.95555 0.717754 0.680781
0.953185 0.764401 0.671122
0.950668 0.812299 0.65362
0.948348 0.853407 0.628885
0.946212 0.887282 0.606928
0.944167 0.914 0.632349
0.942321 0.935241 0.708522
0.940902 0.952758 0.781826
0.00311284 0.191318 0.0470436
0.00306706 0.192905 0.0468605
0.00302129 0.19411 0.0467079
0.00299077 0.194888 0.0466468
0.00297551 0.195438 0.0465858
0.00296025 0.195758 0.0465248
0.0296941 0.196262 0.0472572
0.124514 0.197803 0.0500801
0.19147 0.197925 0.049134
0.267277 0.197009 0.0521553
0.338155 0.194644 0.0604715
0.416571 0.191272 0.0683909
0.500496 0.187457 0.082475
0.578317 0.183536 0.11075
0.643229 0.176776 0.172793
0.709773 0.207019 0.298833
0.774227 0.349401 0.431449
0.840467 0.481193 0.54844
0.899992 0.575845 0.622202
0.947082 0.629831 0.674388
0.959197 0.645274 0.687617
0.95903 0.648386 0.687327
0.958755 0.654108 0.686778
0.95816 0.665644 0.685573
0.957076 0.687297 0.684459
0.955337 0.721981 0.679973
0.953002 0.768139 0.669886
0.950515 0.814908 0.651789
0.948257 0.855024 0.626429
0.946136 0.888304 0.603845
0.944121 0.91458 0.63035
0.94229 0.935607 0.707759
0.940887 0.952972 0.781537
0.00149538 0.239612 0.0415045
0.00144961 0.241138 0.0413214
0.00141909 0.242008 0.0411994
0.00138857 0.242863 0.0411078
0.00137331 0.243473 0.0410163
0.00135805 0.243885 0.0409857
0.00134279 0.244144 0.0409552
0.0754864 0.245106 0.0429999
0.159503 0.244938 0.0457008
0.246494 0.243473 0.0455177
0.325246 0.241856 0.0537423
0.410056 0.239612 0.0617075
0.499367 0.238422 0.0761883
0.579278 0.242222 0.104952
0.643061 0.261189 0.165591
0.708263 0.306081 0.291798
0.774426 0.383108 0.430793
0.840925 0.482048 0.549111
0.89955 0.575235 0.621698
0.945861 0.630854 0.672953
0.959091 0.647242 0.687434
0.958923 0.650431 0.687129
0.958587 0.657023 0.686488
0.957961 0.669703 0.68513
0.956817 0.692424 0.683635
0.955047 0.727596 0.678828
0.952743 0.772961 0.668177
0.950347 0.81825 0.649287
0.948135 0.85713 0.623072
0.946059 0.889601 0.599695
0.94406 0.915343 0.627649
0.942245 0.93608 0.706722
0.940856 0.953262 0.78114
3.0518e-05 0.30042 0.0325017
1.5259e-05 0.300908 0.0324102
0 0.301366 0.0323339
0 0.301762 0.0322728
0 0.301991 0.0322118
0 0.302052 0.0322118
0 0.30193 0.0322423
0 0.301503 0.0323033
0.10779 0.301625 0.035523
0.204013 0.301137 0.0386053
0.302434 0.300023 0.043473
0.396689 0.29836 0.051545
0.494163 0.297032 0.0666667
0.579553 0.299184 0.0975662
0.644678 0.313588 0.161776
0.709636 0.349752 0.291402
0.775113 0.416129 0.430671
0.840635 0.506722 0.547921
0.898466 0.583429 0.620203
0.944137 0.631968 0.670939
0.958968 0.649668 0.687205
0.95877 0.653681 0.686824
0.958373 0.661402 0.68603
0.957671 0.675517 0.684459
0.956466 0.699443 0.682399
0.954681 0.734997 0.677195
0.952438 0.779141 0.665827
0.950118 0.822477 0.645884
0.947967 0.8598 0.618433
0.945953 0.891295 0.594217
0.943999 0.916335 0.623941
0.942184 0.936706 0.705333
0.94081 0.953628 0.780606
0 0.366171 0.0176699
0 0.366613 0.0175174
0 0.367117 0.0174105
0 0.367453 0.0172885
0 0.367712 0.0172274
0 0.36788 0.0171664
0 0.367941 0.0171664
0 0.367819 0.0171969
0 0.367315 0.0173495
0.135149 0.367056 0.0218204
0.260578 0.366552 0.0264744
0.372137 0.365377 0.0344701
0.481483 0.363867 0.0500801
0.576425 0.36463 0.0831464
0.645167 0.373648 0.151873
0.710994 0.39913 0.28838
0.776104 0.450217 0.430472
0.840635 0.523095 0.547234
0.897063 0.588769 0.618372
0.941604 0.633692 0.667979
0.95877 0.653788 0.686793
0.958495 0.658885 0.68629
0.958038 0.668086 0.685313
0.957244 0.683864 0.683436
0.955993 0.70898 0.68043
0.954192 0.744747 0.67483
0.952026 0.786938 0.662516
0.949813 0.828107 0.641169
0.947784 0.863233 0.611917
0.94583 0.893446 0.586175
0.943908 0.917601 0.618875
0.942123 0.937499 0.703502
0.940764 0.954116 0.779934
0 0.443778 0.00729381
0 0.444251 0.00727855
0 0.444663 0.00727855
0 0.445014 0.00726329
0 0.445289 0.00726329
0 0.445487 0.00726329
0 0.445655 0.00726329
0 0.445716 0.00726329
0 0.445548 0.00726329
0 0.445151 0.00726329
0.161486 0.444495 0.00743114
0.324559 0.443992 0.00857557
0.454932 0.443107 0.0178225
0.566049 0.442832 0.0524453
0.64155 0.446983 0.125017
0.71046 0.462715 0.272984
0.776333 0.497108 0.426261
0.839948 0.547662 0.544701
0.894667 0.597787 0.615122
0.937926 0.638224 0.663554
0.958404 0.660899 0.686076
0.958068 0.667384 0.685389
0.957519 0.678325 0.684123
0.956634 0.695811 0.681819
0.955337 0.72192 0.677485
0.953552 0.757214 0.671336
0.951507 0.796628 0.657832
0.949447 0.834653 0.634943
0.947524 0.867567 0.602518
0.945678 0.896193 0.571878
0.943786 0.919249 0.611749
0.942016 0.938537 0.700999
0.940673 0.954726 0.779049
0 0.530144 0.00601205
0 0.530495 0.0059968
0 0.530816 0.0059968
0 0.531075 0.0059968
0 0.531273 0.00598154
0 0.531456 0.00598154
0 0.531624 0.00598154
0 0.531762 0.00598154
0 0.531899 0.00598154
0 0.531975 0.00598154
0 0.531975 0.00598154
0.191897 0.53135 0.0059205
0.400366 0.531243 0.00715648
0.542687 0.530816 0.00831617
0.630976 0.531289 0.0596323
0.70489 0.536583 0.216587
0.773968 0.552987 0.409339
0.837812 0.583062 0.537743
0.891035 0.615061 0.609705
0.932921 0.648508 0.657191
0.957778 0.673014 0.684749
0.957382 0.681041 0.683787
0.956756 0.693706 0.682109
0.95581 0.712596 0.679179
0.954467 0.739147 0.673838
0.952773 0.772595 0.666133
0.950881 0.808362 0.651057
0.94902 0.842542 0.626078
0.947219 0.872953 0.58912
0.945495 0.899641 0.548012
0.943633 0.921355 0.601465
0.941878 0.939864 0.697658
0.940597 0.955535 0.777829
0 0.604776 0.00462348
0 0.60499 0.00460822
0 0.605173 0.00460822
0 0.60531 0.00460822
0 0.605447 0.00460822
0 0.60557 0.00459297
0 0.605692 0.00459297
0 0.605814 0.00459297
0 0.605905 0.00459297
0 0.605936 0.00459297
0 0.605814 0.00459297
0 0.605509 0.00460822
0.247135 0.604395 0.00434882
0.493095 0.603784 0.00561532
0.611109 0.603372 0.00668345
0.693141 0.603906 0.079469
0.766934 0.608515 0.356909
0.833112 0.622232 0.520256
0.885634 0.64361 0.600275
0.926207 0.668406 0.647684
0.956802 0.69276 0.682246
0.956329 0.702083 0.680873
0.955642 0.715938 0.678584
0.954665 0.735409 0.674693
0.953353 0.76112 0.667872
0.951812 0.790951 0.658183
0.950149 0.822095 0.641016
0.94847 0.851942 0.612894
0.946853 0.879499 0.56286
0.945327 0.903899 0.503548
0.943465 0.923995 0.586709
0.941726 0.941558 0.693126
0.940475 0.956573 0.776242
0 0.670893 0.00323491
0 0.671016 0.00321965
0 0.671122 0.00321965
0 0.671199 0.00321965
0 0.671275 0.00321965
0 0.671336 0.00321965
0 0.671397 0.00321965
0 0.671443 0.00321965
0 0.671458 0.00321965
0 0.671412 0.00321965
0 0.671244 0.00321965
0 0.670817 0.00323491
0 0.670008 0.00325017
0.343175 0.668208 0.00283818
0.574731 0.667292 0.00401312
0.672541 0.666789 0.00495918
0.754314 0.667262 0.126879
0.823194 0.672343 0.467201
0.877256 0.684459 0.581415
0.91725 0.700816 0.632227
0.949004 0.719722 0.669886
0.954818 0.732143 0.67541
0.954116 0.74609 0.672129
0.95317 0.764538 0.666773
0.952041 0.786801 0.658122
0.950713 0.81178 0.64564
0.949279 0.837888 0.62565
0.947845 0.863005 0.592248
0.946487 0.887297 0.513848
0.945342 0.909224 0.386099
0.943267 0.927337 0.556237
0.941512 0.943679 0.68687
0.940322 0.957885 0.774136
0 0.737591 0.00187686
0 0.737652 0.00187686
0 0.737697 0.00187686
0 0.737728 0.00187686
0 0.737743 0.00187686
0 0.737758 0.00187686
0 0.737758 0.00187686
0 0.737743 0.00187686
0 0.737697 0.00187686
0 0.73756 0.00187686
0 0.737301 0.00189212
0 0.736797 0.00189212
0 0.735912 0.00190738
0 0.734661 0.0019379
0.450584 0.732311 0.00132753
0.637507 0.731121 0.00234989
0.733532 0.730571 0.00317388
0.808362 0.731167 0.14638
0.863981 0.735698 0.51696
0.90518 0.745266 0.601968
0.936767 0.7579 0.645426
0.952865 0.770657 0.664683
0.952255 0.782437 0.66006
0.951476 0.797192 0.652918
0.950545 0.814694 0.641703
0.949477 0.834394 0.624979
0.948333 0.854673 0.60061
0.947173 0.875654 0.545922
0.94638 0.896559 0.363027
0.947692 0.917601 0
0.94313 0.931487 0.48835
0.941253 0.946319 0.678141
0.940124 0.959518 0.771374
0 0.802625 0.00109865
0 0.802609 0.00109865
0 0.802594 0.00109865
0 0.802563 0.00109865
0 0.802548 0.00109865
0 0.802518 0.00109865
0 0.802457 0.00109865
0 0.802365 0.00109865
0 0.802213 0.00109865
0 0.801984 0.00111391
0 0.801587 0.00111391
0 0.800961 0.00112917
0 0.799969 0.00114443
0 0.798611 0.00117494
0 0.796887 0.00120546
0.55967 0.79382 0.000335698
0.70103 0.792172 0.00122072
0.786831 0.791592 0.00140383
0.848554 0.793332 0.00183108
0.890013 0.795102 0.495262
0.923018 0.801907 0.597528
0.946929 0.811017 0.637507
0.950271 0.819791 0.637659
0.949706 0.830503 0.627894
0.94902 0.842893 0.61265
0.948241 0.856977 0.58793
0.947356 0.87277 0.542611
0.946792 0.889815 0.377539
0.948363 0.908827 0
0.947143 0.924315 0
0.944427 0.937743 0.142596
0.940948 0.949508 0.665675
0.939879 0.961547 0.767666
0 0.857847 4.57771e-05
0 0.857786 4.57771e-05
0 0.85771 4.57771e-05
0 0.857633 4.57771e-05
0 0.857557 4.57771e-05
0 0.857466 4.57771e-05
0 0.857359 4.57771e-05
0 0.857191 4.57771e-05
0 0.856931 6.10361e-05
0 0.85658 6.10361e-05
0 0.856031 7.62951e-05
0 0.855222 9.15541e-05
0 0.854078 0.000106813
0 0.852598 0.000137331
0 0.85066 0.000183108
0 0.84831 0.000228885
0.655238 0.84448 0
0.760739 0.842664 0
0.828077 0.842176 0.000381476
0.876402 0.843412 0.000686656
0.910002 0.84445 0.270176
0.934524 0.848447 0.550683
0.948379 0.854337 0.593408
0.948013 0.861006 0.576715
0.947585 0.86952 0.541329
0.947173 0.87985 0.452949
0.948226 0.893019 0.11249
0.948516 0.9066 0
0.947524 0.919219 0
0.946471 0.931991 0
0.945357 0.94464 0
0.940566 0.953307 0.647028
0.939559 0.96405 0.762692
0 0.899901 0
0 0.899794 0
0 0.899687 0
0 0.89958 0
0 0.899458 0
0 0.899336 0
0 0.899168 0
0 0.898924 0
0 0.898604 0
0 0.898146 0
0 0.897475 0
0 0.89659 0
0 0.895369 0
0 0.893797 0
0 0.891783 0
0 0.889311 0
0.572564 0.884901 0
0.733867 0.882612 0
0.807919 0.881148 0
0.860044 0.880766 0
0.898268 0.881666 0
0.92578 0.883986 0
0.945342 0.886229 0.151614
0.948852 0.891157 0.0613565
0.949203 0.897292 0
0.948699 0.904021 0
0.948104 0.911894 0
0.947402 0.920607 0
0.946593 0.93019 0
0.945693 0.940429 0
0.944747 0.950851 0
0.940154 0.957656 0.621088
0.939193 0.96701 0.755993
0 0.932692 0
0 0.932555 0
0 0.932418 0
0 0.932265 0
0 0.932128 0
0 0.931975 0
0 0.931762 0
0 0.931472 0
0 0.931075 0
0 0.930556 0
0 0.92987 0
0 0.928954 0
0 0.927733 0
0 0.926131 0
0 0.924147 0
0 0.921675 0
0 0.918929 0
0.704479 0.914656 0
0.789212 0.912795 0
0.844495 0.91162 0
0.88452 0.911299 0
0.913939 0.911971 0
0.936645 0.913588 0
0.947768 0.915969 0
0.947524 0.918975 0
0.947188 0.923033 0
0.946746 0.928176 0
0.946197 0.934386 0
0.945541 0.941527 0
0.944808 0.949355 0
0.944045 0.957565 0
0.939651 0.962524 0.61059
0.938735 0.970474 0.746822
0 0.956863 0
0 0.95668 0
0 0.956527 0
0 0.956359 0
0 0.956191 0
0 0.956008 0
0 0.955795 0
0 0.955489 0
0 0.955077 0
0 0.954559 0
0 0.953857 0
0 0.952941 0
0 0.951751 0
0 0.95021 0
0 0.948272 0
0 0.945907 0
0 0.943358 0
0.677058 0.938994 0
0.774289 0.937041 0
0.832059 0.935515 0
0.872709 0.934615 0
0.903304 0.934371 0
0.927337 0.934813 0
0.945312 0.936019 0
0.945876 0.937606 0
0.945647 0.940078 0
0.945327 0.943465 0
0.944915 0.947692 0
0.944411 0.952728 0
0.943847 0.958404 0
0.943267 0.964553 0
0.939071 0.967865 0.6009
0.938262 0.97438 0.746303
0 0.975158 0
0 0.974975 0
0 0.974823 0
0 0.97464 0
0 0.974472 0
0 0.974319 0
0 0.97409 0
0 0.97377 0
0 0.973388 0
0 0.972885 0
0 0.972198 0
0 0.971344 0
0 0.970199 0
0 0.96875 0
0 0.966934 0
0 0.964843 0
0 0.9626 0
0.655787 0.958389 0
0.763699 0.956527 0
0.822202 0.954925 0
0.862852 0.953796 0
0.893736 0.953124 0
0.91841 0.952911 0
0.937255 0.953262 0
0.944244 0.953994 0
0.944106 0.955261 0
0.943893 0.957244 0
0.943618 0.959915 0
0.943267 0.963211 0
0.94287 0.967163 0
0.942443 0.97171 0
0.938399 0.973526 0.597055
0.937743 0.978637 0.748425
0 0.988739 0
0 0.988586 0
0 0.988418 0
0 0.988266 0
0 0.988113 0
0 0.987945 0
0 0.987732 0
0 0.987457 0
0 0.987076 0
0 0.986603 0
0 0.985992 0
0 0.985183 0
0 0.984131 0
0 0.982818 0
0 0.981277 0
0 0.979507 0
0 0.977646 0
0.6542 0.973678 0
0.760189 0.971954 0
0.816556 0.970428 0
0.855741 0.969223 0
0.886213 0.968322 0
0.910674 0.967742 0
0.92987 0.967575 0
0.942702 0.967758 0
0.942641 0.968154 0
0.942535 0.969162 0
0.942367 0.970733 0
0.942123 0.972869 0
0.941848 0.97557 0
0.941573 0.97879 0
0.937652 0.979232 0.605158
0.937179 0.983093 0.75288
0 0.998306 0
0 0.998184 0
0 0.998047 0
0 0.997894 0
0 0.997742 0
0 0.997604 0
0 0.997406 0
0 0.997162 0
0 0.996826 0
0 0.996384 0
0 0.99585 0
0 0.995163 0
0 0.994308 0
0 0.993255 0
0 0.992035 0
0 0.990662 0
0 0.989212 0
0.679957 0.985458 0
0.765438 0.983993 0
0.815564 0.982635 0
0.851865 0.981476 0
0.881025 0.980529 0
0.904646 0.979797 0
0.923491 0.979339 0
0.938766 0.979187 0
0.941268 0.979171 0
0.941222 0.979522 0
0.941146 0.980331 0
0.941024 0.981613 0
0.940856 0.983337 0
0.940719 0.985473 0
0.936873 0.984726 0.629892
0.936614 0.987518 0.760525
0 1 0
0 1 0
0 1 0
0 1 0
0 1 0
0 1 0
0 1 0
0 1 0
0 1 0
0 1 0
0 1 0
0 1 0
0 1 0
0 1 0
0 1 0
0 0.999268 0
0.580652 0.995895 0
0.718242 0.994644 0
0.778149 0.993423 0
0.818906 0.992294 0
0.851377 0.991226 0
0.878172 0.99028 0
0.900267 0.989502 0
0.918395 0.988922 0
0.933318 0.988571 0
0.940002 0.988312 0
0.940047 0.988266 0
0.940032 0.988525 0
0.940002 0.989151 0
0.939956 0.990158 0
0.939941 0.991485 0
0.93611 0.989822 0.666529
0.936049 0.991821 0.771908
0 1 0
0 1 0
0 1 0
0 1 0
0 1 0
0 1 0
0 1 0
0 1 0
0 1 0
0 1 0
0 1 0
0 1 0
0 1 0
0 1 0
0 1 0
0.604791 1 0
0.703532 1 0
0.756878 1 0
0.795575 1 0
0.827222 0.999557 0
0.854414 0.998627 0
0.877943 0.997757 0
0.897841 0.996994 0
0.914794 0.996384 0
0.929061 0.995911 0
0.938949 0.995575 0
0.939025 0.995285 0
0.939071 0.995239 0
0.939132 0.995453 0
0.939178 0.995972 0
0.939269 0.996765 0
0.935424 0.994476 0.707088
0.935561 0.99585 0.786877
0 1 0
0 1 0
0 1 0
0 1 0
0 1 0
0 1 0
0 1 0
0 1 0
0 1 0
0 1 0
0.410666 1 0
0.575433 1 0
0.632319 1 0
0.673732 1 0
0.708309 1 0
0.738842 1 0
0.766537 1 0
0.791882 1 0
0.815885 1 0
0.838987 1 0
0.860426 1 0
0.880018 1 0
0.897292 1 0
0.912627 1 0
0.925811 1 0
0.93666 1 0
0.938186 1 0
0.938293 1 0
0.938415 1 0
0.938552 1 0
0.934936 0.998032 0.631296
0.93492 0.998566 0.746731
0.93518 0.999481 0.804807
0.721767 1 0
0.723507 1 0
0.725216 1 0
0.726879 1 0
0.728511 1 0
0.73019 1 0
0.732296 1 0
0.734981 1 0
0.738415 1 0
