BBLuts/BB_102_0288_LUT.cube
TITLE "Generated by Resolve"
LUT_3D_SIZE 9
0 0 0
0 0 0
0.285893 0 0
0.645624 0 0
0.935592 0 0
1 0 0
1 0.625971 0.00393683
1 0.851453 0.472724
0.983825 0.933059 0.760113
0 0.0583047 0
0 0.0741131 0
0.272557 0.0436408 0
0.654017 0 0
0.937789 0 0
1 0 0
1 0.642802 0
1 0.853193 0.471122
0.98381 0.933211 0.760006
0 0.304036 0
0 0.309422 0
0.165393 0.309056 0
0.503929 0.299886 0
0.902098 0.11371 0
0.892073 0.374243 0
1 0.666056 0
1 0.855955 0.468544
0.98378 0.93344 0.759823
0 0.617609 0
0 0.618173 0
0 0.618784 0
0.481849 0.606455 0
0.836515 0.582559 0
1 0.603052 0
1 0.731197 0
1 0.865965 0.465431
0.983642 0.934478 0.758938
0 0.845106 0
0 0.845106 0
0 0.844907 0
0 0.843198 0
0.743496 0.811917 0
0.987182 0.801358 0
1 0.837858 0
0.996536 0.891325 0.473152
0.983185 0.938186 0.755779
0 0.980774 0
0 0.980774 0
0 0.980774 0
0 0.9776 0
0.691615 0.947417 0
0.924941 0.927031 0
1 0.923384 0
0.990433 0.928954 0.509606
0.981796 0.948211 0.756359
0.605692 1 0.175036
0.605692 1 0.175036
0.605692 1 0.175036
0.605661 1 0.175051
0.763775 0.987961 0.192508
0.900526 0.973861 0.255818
0.978882 0.96347 0.412528
0.9841 0.960388 0.597955
0.979355 0.962631 0.78175
0.865583 0.980667 0.672923
0.865583 0.980667 0.672938
0.865583 0.980667 0.672938
0.865583 0.980667 0.672938
0.865568 0.980667 0.672938
0.91281 0.977996 0.676997
0.962036 0.974823 0.693584
0.978729 0.972915 0.74313
0.976577 0.97145 0.835523
0.942245 0.973022 0.869001
0.942245 0.973022 0.869001
0.942245 0.973022 0.869001
0.942245 0.973022 0.869001
0.942245 0.973022 0.869001
0.942229 0.973007 0.869001
0.959915 0.971862 0.870604
0.97557 0.970733 0.87686
0.975113 0.970428 0.895323
0 0 0.0779583
0 0 0.0788281
0.280201 0 0.0812848
0.645365 0 0.0723735
0.936507 0 0.0602884
1 0 0.0545663
1 0.626947 0.0449226
1 0.851438 0.472755
0.983825 0.933059 0.760128
0 0.0122683 0.0550698
0.0200809 0.0358129 0.0511788
0.303365 0 0.0688334
0.648646 0 0.0533455
0.938628 0 0
1 0 0
1 0.64123 0.016556
1 0.853162 0.471168
0.98381 0.933211 0.760006
0 0.288472 0
0 0.292927 0
0.194736 0.292897 0
0.482078 0.292012 0
0.910567 0.0640879 0
0.919585 0.345617 0
1 0.66453 0
1 0.855955 0.468544
0.98378 0.933425 0.759823
0 0.614954 0
0 0.615457 0
0 0.615946 0
0.49514 0.602762 0
0.835996 0.579568 0
1 0.600885 0
1 0.730495 0
1 0.865965 0.465431
0.983642 0.934478 0.758938
0 0.843824 0
0 0.843809 0
0 0.843595 0
0 0.841917 0
0.745724 0.810803 0
0.987289 0.800641 0
1 0.837613 0
0.996536 0.891325 0.473152
0.983185 0.938186 0.755779
0 0.980468 0
0 0.980545 0
0 0.980545 0
0 0.977386 0
0.693568 0.947127 0
0.925155 0.926909 0
1 0.923323 0
0.990433 0.928954 0.509606
0.981796 0.948211 0.756359
0.608698 1 0.174609
0.608698 1 0.174609
0.608682 1 0.174609
0.608682 1 0.174594
0.764721 0.987884 0.19205
0.90071 0.973816 0.255497
0.978912 0.96347 0.412497
0.9841 0.960388 0.597955
0.979355 0.962631 0.78175
0.865797 0.980652 0.672892
0.865797 0.980652 0.672892
0.865797 0.980652 0.672892
0.865797 0.980652 0.672892
0.865782 0.980652 0.672892
0.912886 0.977996 0.676997
0.962066 0.974823 0.693553
0.978729 0.972915 0.74313
0.976577 0.97145 0.835523
0.94226 0.973022 0.869017
0.94226 0.973022 0.869017
0.94226 0.973022 0.869017
0.94226 0.973022 0.869017
0.94226 0.973022 0.869017
0.94226 0.973022 0.869017
0.95993 0.971862 0.870588
0.97557 0.970733 0.87686
0.975113 0.970428 0.895323
0 0 0.333364
0 0 0.333867
0.226017 0 0.33518
0.649439 0 0.3178
0.930129 0 0.313115
1 0 0.336553
0.900877 0.664912 0.185107
1 0.850446 0.50602
0.983825 0.933059 0.760128
0 0 0.328969
0 0 0.329549
0.262181 0 0.329381
0.648478 0 0.312032
0.931533 0 0.305913
1 0 0.323461
0.907988 0.679347 0.184787
1 0.852049 0.504585
0.98381 0.933211 0.760006
0 0.238911 0.256443
0 0.242969 0.256123
0.169192 0.236759 0.252995
0.589456 0.193606 0.248081
0.925124 0 0.281834
1 0.192187 0.247349
0.951782 0.685496 0.202533
1 0.854948 0.502586
0.98378 0.933425 0.759823
0 0.602701 0.0743572
0 0.603845 0.0748302
0 0.604517 0.0771496
0.489525 0.590921 0.0729229
0.828656 0.566278 0.0615244
0.99263 0.609781 0.0301213
1 0.722438 0.190311
0.999466 0.865141 0.49398
0.983642 0.934478 0.758938
0 0.841443 0
0 0.841443 0
0 0.84123 0
0 0.839506 0
0.748348 0.808072 0
0.98735 0.798581 0
1 0.835294 0
0.996521 0.891188 0.474784
0.983185 0.938186 0.755779
0 0.980102 0
0 0.980102 0
0 0.980102 0
0 0.97702 0
0.696834 0.946685 0
0.925689 0.92665 0
1 0.923171 0
0.990448 0.928908 0.509483
0.981796 0.948211 0.756359
0.612955 1 0.173785
0.612955 1 0.173785
0.612955 1 0.173785
0.612955 1 0.1738
0.765988 0.987747 0.191424
0.901122 0.973754 0.2551
0.978958 0.963424 0.412192
0.9841 0.960372 0.597879
0.979355 0.962631 0.78175
0.866117 0.980636 0.672847
0.866117 0.980636 0.672847
0.866117 0.980636 0.672847
0.866117 0.980636 0.672847
0.866117 0.980636 0.672847
0.913008 0.977996 0.676936
0.962097 0.974823 0.693523
0.978729 0.972915 0.743114
0.976577 0.97145 0.835523
0.942275 0.973022 0.869017
0.942275 0.973022 0.869017
0.942275 0.973022 0.869017
0.942275 0.973022 0.869017
0.942275 0.973022 0.869017
0.942275 0.973022 0.869017
0.959945 0.971862 0.870588
0.97557 0.970733 0.87686
0.975113 0.970428 0.895323
0 0 0.693431
0 0 0.693523
0 0 0.693721
0.594339 0 0.683055
0.940002 0 0.669795
1 0 0.670237
1 0.579782 0.587457
0.99649 0.845335 0.628305
0.983612 0.932738 0.771405
0 0 0.692073
0 0 0.692195
0.00491341 0 0.693751
0.612238 0 0.680369
0.93843 0 0.668238
1 0 0.66836
1 0.601587 0.579873
0.996979 0.846738 0.628077
0.983597 0.932876 0.771298
0 0.0335393 0.670939
0 0.0374914 0.670222
0 0.0397345 0.67155
0.620172 0 0.676677
0.933181 0 0.665049
1 0 0.662303
1 0.628519 0.573053
0.997711 0.849363 0.627787
0.983566 0.933104 0.771145
0 0.546151 0.563378
0 0.547112 0.563317
0 0.548928 0.563546
0.456275 0.536416 0.558419
0.809613 0.508827 0.548318
1 0.554879 0.539742
0.965042 0.725017 0.491264
0.996994 0.859892 0.623758
0.983261 0.934005 0.770199
0 0.824109 0.422217
0 0.824109 0.422217
0 0.824247 0.423499
0 0.822568 0.428397
0.73077 0.791882 0.421851
0.9729 0.783047 0.441581
1 0.822675 0.5075
0.993545 0.887098 0.609628
0.982956 0.937865 0.767575
0 0.977218 0
0 0.977218 0
0 0.977218 0
0 0.974273 0.00184634
0.689403 0.943847 0
0.917433 0.921462 0.181277
0.994598 0.915099 0.397986
0.98909 0.927291 0.576562
0.981735 0.948119 0.759304
0.625406 0.999557 0.170199
0.625406 0.999557 0.170199
0.625406 0.999557 0.170199
0.625406 0.999557 0.170199
0.769711 0.987381 0.189563
0.90219 0.973587 0.253712
0.979202 0.963333 0.411719
0.984115 0.960327 0.597513
0.979355 0.962631 0.781674
0.867216 0.980575 0.672679
0.867216 0.980575 0.672679
0.867216 0.980575 0.672679
0.867216 0.980575 0.672679
0.867216 0.980575 0.672679
0.913436 0.977966 0.676783
0.962249 0.974807 0.693416
0.978729 0.972915 0.743008
0.976577 0.97145 0.835492
0.942367 0.973022 0.869001
0.942367 0.973022 0.869001
0.942367 0.973022 0.869001
0.942367 0.973022 0.869001
0.942367 0.973022 0.869001
0.942367 0.973022 0.869001
0.959976 0.971862 0.870573
0.97557 0.970733 0.87686
0.975113 0.970428 0.895323
0 0 0.956542
0 0 0.956542
0 0 0.956634
0.112001 0 0.959731
0.902876 0 0.929015
1 0 0.919661
1 0.328344 0.852644
0.996628 0.828275 0.802243
0.981888 0.929747 0.847532
0 0 0.956466
0 0 0.956466
0 0 0.956527
0.122286 0 0.959152
0.906615 0 0.92842
1 0 0.919295
1 0.432639 0.836301
0.996399 0.830518 0.801785
0.981903 0.929885 0.847486
0 0 0.955489
0 0 0.955489
0 0 0.95555
0.26862 0 0.955413
0.912123 0 0.927306
1 0 0.918242
1 0.526253 0.821302
0.995972 0.834089 0.800916
0.981933 0.930114 0.84744
0 0.243137 0.893614
0 0.243137 0.893614
0 0.248936 0.892805
0.228061 0.236301 0.89485
0.880034 0.0742199 0.890654
1 0.178592 0.859785
1 0.641871 0.799619
0.986847 0.849943 0.787137
0.981857 0.931197 0.847013
0 0.781689 0.787274
0 0.781689 0.787274
0 0.781735 0.787289
0 0.781567 0.787686
0.701793 0.752392 0.770932
0.962173 0.747997 0.760113
1 0.800381 0.762264
0.956451 0.89099 0.760418
0.981155 0.935164 0.84506
0 0.963302 0.727092
0 0.963302 0.727092
0 0.963378 0.727001
0 0.960998 0.727871
0.630518 0.932631 0.715969
0.89514 0.910124 0.711696
0.986618 0.906661 0.72784
0.984985 0.921782 0.770336
0.97998 0.945739 0.83946
0.596597 0.992981 0.642374
0.596597 0.992981 0.642374
0.596597 0.992981 0.642374
0.596597 0.992981 0.642374
0.744488 0.981018 0.639567
0.885832 0.967575 0.64448
0.967483 0.958846 0.672099
0.981125 0.957473 0.736721
0.978286 0.961456 0.824826
0.87071 0.980392 0.671809
0.87071 0.980392 0.671809
0.87071 0.980392 0.671809
0.87071 0.980392 0.671809
0.87071 0.980392 0.671809
0.914763 0.977905 0.676341
0.962676 0.974792 0.693004
0.978744 0.97293 0.742824
0.976593 0.97145 0.835294
0.942809 0.972992 0.868925
0.942809 0.972992 0.868925
0.942809 0.972992 0.868925
0.942809 0.972992 0.868925
0.942809 0.972992 0.868925
0.942794 0.972992 0.868925
0.960143 0.971847 0.870512
0.97557 0.970733 0.876829
0.975113 0.970428 0.895308
0 0 1
0 0 1
0 0 1
0 0 1
0.707088 0 1
1 0 1
1 0 1
1 0.761669 0.935836
0.981003 0.923659 0.917311
0 0 1
0 0 1
0 0 1
0 0 1
0.706462 0 1
1 0 1
1 0 1
1 0.766751 0.934951
0.980972 0.923858 0.917235
0 0 1
0 0 1
0 0 1
0 0 1
0.715816 0 1
1 0 1
1 0 1
1 0.774395 0.933364
0.98088 0.924178 0.917052
0 0 1
0 0 1
0 0 1
0 0 1
0.768093 0 1
1 0 1
1 0 1
0.997482 0.799435 0.928344
0.980224 0.925704 0.915953
0 0.58648 1
0 0.58648 1
0 0.58648 1
0 0.589853 1
0.652308 0.564416 0.990662
1 0.558206 0.965759
1 0.696086 0.941482
0.990585 0.852277 0.917174
0.972641 0.933165 0.907027
0 0.946792 0.931853
0 0.946792 0.931853
0 0.946792 0.931853
0 0.946792 0.931853
0.411444 0.928008 0.92607
0.875227 0.894041 0.905684
0.979736 0.892576 0.900908
0.982727 0.912581 0.90248
0.975036 0.943526 0.909285
0.430472 0.995987 0.902739
0.430472 0.995987 0.902739
0.431785 0.995941 0.902663
0.431785 0.995941 0.902663
0.659815 0.980636 0.893187
0.858717 0.962905 0.884978
0.95169 0.953979 0.88365
0.977752 0.953155 0.890059
0.976715 0.959213 0.905669
0.854139 0.978286 0.85536
0.854139 0.978286 0.85536
0.854139 0.978286 0.85536
0.854139 0.978286 0.85536
0.854139 0.978286 0.85536
0.898772 0.975662 0.85452
0.950256 0.972717 0.85713
0.975525 0.971038 0.869368
0.975158 0.970459 0.893645
0.944198 0.972915 0.868696
0.944198 0.972915 0.868696
0.944198 0.972915 0.868696
0.944198 0.972915 0.868696
0.944198 0.972915 0.868696
0.944198 0.972915 0.868696
0.960662 0.971832 0.870298
0.97557 0.970748 0.876722
0.975128 0.970428 0.895247
0 0 1
0 0 1
0 0 1
0 0 1
0 0 1
1 0 1
1 0 1
1 0 1
0.982696 0.899626 0.969146
0 0 1
0 0 1
0 0 1
0 0 1
0 0 1
1 0 1
1 0 1
1 0 1
0.982742 0.899992 0.969146
0 0 1
0 0 1
0 0 1
0 0 1
0 0 1
1 0 1
1 0 1
1 0 1
0.982651 0.900694 0.969009
0 0 1
0 0 1
0 0 1
0 0 1
0 0 1
1 0 1
1 0 1
1 0 1
0.982315 0.903456 0.968414
0 0 1
0 0 1
0 0 1
0 0 1
0 0 1
1 0 1
1 0 1
1 0.493202 1
0.981262 0.912535 0.966522
0 0.802075 1
0 0.802075 1
0 0.802075 1
0 0.802075 1
0 0.804791 1
0.8748 0.764446 1
0.995956 0.797726 0.985901
0.985916 0.874678 0.97142
0.978637 0.932143 0.962005
0 1 0.987411
0 1 0.987411
0 1 0.987411
0 1 0.987411
0 1 0.987411
0.808148 0.960143 0.963577
0.943587 0.947555 0.957153
0.976852 0.947463 0.955474
0.972854 0.956695 0.953338
0.820172 0.978393 0.955169
0.820172 0.978393 0.955169
0.820172 0.978393 0.955169
0.820172 0.978393 0.955169
0.820172 0.978393 0.955169
0.870115 0.975631 0.95256
0.93872 0.971756 0.949203
0.972717 0.969802 0.948623
0.973922 0.969619 0.95169
0.937102 0.972015 0.938567
0.937102 0.972015 0.938567
0.937102 0.972015 0.938567
0.937102 0.972015 0.938567
0.937102 0.972015 0.938567
0.937102 0.972015 0.938567
0.953628 0.970993 0.938155
0.972061 0.969985 0.939269
0.974075 0.969726 0.944228
0 0.0721141 1
0 0.0721141 1
0 0.0721141 1
0 0.0721141 1
0 0.0721141 1
0 0.0722362 1
1 0 1
1 0 1
1 0.672877 1
0 0.0721141 1
0 0.0721141 1
0 0.0721141 1
0 0.0721141 1
0 0.0721141 1
0 0.0722362 1
1 0 1
1 0 1
1 0.672877 1
0 0.0721141 1
0 0.0721141 1
0 0.0721141 1
0 0.0721141 1
0 0.0721141 1
0 0.0722362 1
1 0 1
1 0 1
1 0.672847 1
0 0.0721141 1
0 0.0721141 1
0 0.0721141 1
0 0.0721141 1
0 0.0721141 1
0 0.0722362 1
1 0 1
1 0 1
1 0.672755 1
0 0.0719768 1
0 0.0719768 1
0 0.0719768 1
0 0.0719768 1
0 0.0719768 1
0 0.0720684 1
1 0 1
1 0 1
1 0.672541 1
0 0.069688 1
0 0.069688 1
0 0.069688 1
0 0.069688 1
0 0.069688 1
0 0.06981 1
1 0 1
1 0.000564584 1
0.995727 0.795483 0.998917
0 0.941985 1
0 0.941985 1
0 0.941985 1
0 0.941985 1
0 0.941985 1
0 0.943481 1
0.94699 0.886259 0.989487
0.98085 0.911284 0.9841
0.977081 0.940795 0.980362
0.521614 0.99324 0.99823
0.521614 0.99324 0.99823
0.521614 0.99324 0.99823
0.521614 0.99324 0.99823
0.521614 0.99324 0.99823
0.521614 0.99324 0.99823
0.919219 0.972229 0.978744
0.970321 0.96817 0.97612
0.973587 0.968246 0.975921
0.924514 0.972091 0.976593
0.924514 0.972091 0.976593
0.924514 0.972091 0.976593
0.924514 0.972091 0.976593
0.924514 0.972091 0.976593
0.924514 0.972091 0.976593
0.943069 0.970962 0.975525
0.967712 0.969665 0.974395
0.973236 0.969116 0.974197
0 0.399924 1
0 0.399924 1
0 0.399924 1
0 0.399924 1
0 0.399924 1
0 0.399924 1
0 0.400015 1
1 0.0905928 1
1 0.700923 1
0 0.399924 1
0 0.399924 1
0 0.399924 1
0 0.399924 1
0 0.399924 1
0 0.399924 1
0 0.400015 1
1 0.0905928 1
1 0.700923 1
0 0.399924 1
0 0.399924 1
0 0.399924 1
0 0.399924 1
0 0.399924 1
0 0.399924 1
0 0.400015 1
1 0.0905928 1
1 0.700923 1
0 0.399924 1
0 0.399924 1
0 0.399924 1
0 0.399924 1
0 0.399924 1
0 0.399924 1
0 0.400015 1
1 0.0905928 1
1 0.700923 1
0 0.399924 1
0 0.399924 1
0 0.399924 1
0 0.399924 1
0 0.399924 1
0 0.399924 1
0 0.400015 1
1 0.0905928 1
1 0.700923 1
0 0.399817 1
0 0.399817 1
0 0.399817 1
0 0.399817 1
0 0.399817 1
0 0.399817 1
0 0.399893 1
1 0.0920424 1
1 0.702129 1
0 0.398306 1
0 0.398306 1
0 0.398306 1
0 0.398306 1
0 0.398306 1
0 0.398306 1
0 0.398367 1
1 0.268101 1
1 0.704234 1
0 1 1
0 1 1
0 1 1
0 1 1
0 1 1
0 1 1
0 1 1
0.968811 0.954849 0.978897
0.974807 0.958938 0.978088
0.870619 0.975082 0.982025
0.870619 0.975082 0.982025
0.870619 0.975082 0.982025
0.870619 0.975082 0.982025
0.870619 0.975082 0.982025
0.870619 0.975082 0.982025
0.870619 0.975082 0.982025
0.962173 0.969909 0.977264
0.973465 0.969421 0.976761
