BBLuts/BB_102_0480_LUT.cube
TITLE "Generated by Resolve"
LUT_3D_SIZE 33
0.000350958 0.00135805 0.000198367
0.000350958 0.00135805 0.000198367
0.000350958 0.00135805 0.000198367
0.000350958 0.00135805 0.000198367
0.00381476 0.00125124 6.10361e-05
0.0442969 0.000122072 0
0.0895094 0 0
0.123583 0 0
0.158526 0 0
0.200031 0 0
0.248676 0 0
0.303059 0 0
0.365362 0 0
0.437476 0 0
0.521294 0 0
0.609232 0 0
0.698482 0 0
0.789151 0 0
0.871931 0 0
0.93875 0 0
0.95523 0 0
0.956176 0 0
0.949081 0.214694 0
0.941085 0.374868 0.0135958
0.93373 0.505974 0.046128
0.926909 0.620523 0.0861067
0.92076 0.720577 0.134798
0.915831 0.800793 0.198825
0.912108 0.861494 0.282887
0.909041 0.908614 0.373342
0.906554 0.943984 0.465034
0.904402 0.971984 0.553735
0.902571 0.99379 0.6336
0.000350958 0.00135805 0.000198367
0.000350958 0.00135805 0.000198367
0.000350958 0.00135805 0.000198367
0.000350958 0.00135805 0.000198367
0.00422675 0.00123598 4.57771e-05
0.0527047 0 0
0.0923934 0 0
0.125978 0 0
0.162432 0 0
0.204654 0 0
0.253513 0 0
0.306966 0 0
0.366629 0 0
0.439002 0 0
0.522698 0 0
0.610056 0 0
0.699199 0 0
0.789151 0 0
0.871855 0 0
0.938323 0 0
0.9552 0 0
0.956588 0 0
0.947753 0.238956 0
0.939727 0.387457 0.00401312
0.93315 0.513329 0.043473
0.926558 0.625254 0.0847486
0.920577 0.723125 0.13434
0.91574 0.80209 0.198734
0.912062 0.862165 0.282628
0.90901 0.908965 0.37319
0.906554 0.944152 0.464973
0.904402 0.972076 0.553689
0.902556 0.993835 0.63357
0.000350958 0.00135805 0.000198367
0.000350958 0.00135805 0.000198367
0.000350958 0.00138857 0.000198367
0.000381476 0.00146487 0.000198367
0.00419623 0.00141909 4.57771e-05
0.0571298 0 0
0.0927596 0 0
0.127871 0 0
0.166125 0 0
0.207858 0 0
0.255573 0 0
0.307866 0 0
0.368338 0 0
0.440894 0 0
0.524102 0 0
0.611231 0 0
0.69958 0 0
0.789502 0 0
0.871733 0 0
0.93785 0 0
0.955154 0 0
0.955901 0.0554818 0
0.946395 0.263111 0
0.938445 0.399008 0
0.932601 0.520363 0.041062
0.926238 0.629419 0.0835279
0.920409 0.725475 0.133913
0.915648 0.803311 0.198657
0.912016 0.862791 0.282399
0.908995 0.9093 0.373037
0.906538 0.94435 0.464866
0.904387 0.972183 0.553628
0.902556 0.993881 0.633555
0.000259403 0.00233463 0.000183108
0.000259403 0.00239567 0.000183108
0.000228885 0.00267033 0.000183108
0.000442512 0.007187 0.000122072
0.017792 0.010605 0
0.0580911 0.0015259 0
0.0908217 0.00062562 0
0.125826 0 0
0.164797 0 0
0.208682 0 0
0.257511 0 0
0.309529 0 0
0.370428 0 0
0.442802 0 0
0.525551 0 0
0.6121 0 0
0.700328 0 0
0.789807 0 0
0.871595 0 0
0.937362 0 0
0.955108 0 0
0.95378 0.117098 0
0.945266 0.282475 0
0.937423 0.408743 0
0.932113 0.526421 0.0390021
0.925948 0.633143 0.0824445
0.920241 0.727687 0.133516
0.915557 0.804471 0.198566
0.911955 0.863432 0.282155
0.908965 0.909636 0.372885
0.906523 0.944518 0.46479
0.904387 0.972274 0.553582
0.902556 0.993957 0.633524
0 0.0458228 0
0 0.0483253 0
0 0.0507515 0
0 0.0531319 0
0 0.0541238 0
0.0450599 0.0530861 0
0.0824445 0.0509346 0
0.11989 0.0462196 0
0.16141 0.0359655 0
0.208713 0.00263981 0
0.258503 0 0
0.311315 0 0
0.372442 0 0
0.44477 0 0
0.527367 0 0
0.613321 0 0
0.70106 0 0
0.790097 0 0
0.871427 0 0
0.936812 0 0
0.955062 0 0
0.952224 0.152636 0
0.944259 0.299382 0
0.936751 0.419089 0
0.931594 0.532799 0.0363317
0.925658 0.636942 0.0812085
0.920089 0.729778 0.133135
0.91548 0.8056 0.198505
0.91191 0.864057 0.281926
0.908949 0.909957 0.372747
0.906508 0.944686 0.464714
0.904372 0.972381 0.553521
0.902556 0.994003 0.633494
0 0.0742504 0
0 0.0763104 0
0 0.0784314 0
0 0.0800946 0
0 0.0809491 0
0.0254368 0.0807507 0
0.0717937 0.0798962 0
0.11281 0.0778515 0
0.156313 0.0738079 0
0.204639 0.06598 0
0.25655 0.0510262 0
0.31249 0.00563058 0
0.374502 0 0
0.446921 0 0
0.529076 0 0
0.614374 0 0
0.701869 0 0
0.790433 0 0
0.871244 0 0
0.936233 0 0
0.955444 0.005066 0
0.950774 0.182208 0
0.943358 0.31426 0
0.936172 0.428046 0
0.93109 0.53875 0.0337835
0.925353 0.640864 0.0798352
0.919905 0.732113 0.132708
0.915404 0.806699 0.198428
0.911864 0.864668 0.281697
0.908919 0.910292 0.372595
0.906493 0.944884 0.464622
0.904372 0.972488 0.553475
0.902541 0.994049 0.633463
0 0.104738 0
0 0.106508 0
0 0.108217 0
0 0.109285 0
0 0.110033 0
0 0.110277 0
0.0514839 0.110002 0
0.101946 0.109041 0
0.14876 0.106828 0
0.199496 0.102495 0
0.252872 0.094667 0
0.310124 0.0821698 0
0.374762 0.0590677 0
0.449546 0.00682078 0
0.531624 0 0
0.616022 0 0
0.702495 0 0
0.790478 0 0
0.870695 0 0
0.935531 0 0
0.954589 0.0593118 0
0.949218 0.212024 0
0.942367 0.330648 0
0.93547 0.43859 0
0.930556 0.545266 0.0309911
0.925002 0.645274 0.0782788
0.919707 0.734905 0.132204
0.915282 0.80824 0.198352
0.911818 0.86537 0.281437
0.908888 0.910658 0.372427
0.906477 0.945083 0.464515
0.904356 0.97258 0.553414
0.902541 0.99411 0.633433
0 0.139971 0
0 0.141527 0
0 0.142672 0
0 0.143572 0
0 0.144106 0
0 0.144579 0
0.00836194 0.14464 0
0.0796826 0.144366 0
0.13637 0.143069 0
0.190539 0.140368 0
0.246769 0.134966 0
0.30695 0.127214 0
0.373465 0.115755 0
0.449241 0.0968185 0
0.532906 0.0577554 0
0.61796 0.00923171 0
0.704021 0.00247196 0
0.791028 0 0
0.870359 0 0
0.934554 0.0254368 0
0.951919 0.130694 0
0.94728 0.247303 0
0.941039 0.351904 0
0.934524 0.452903 0
0.929686 0.554574 0.0254063
0.924544 0.651118 0.0762188
0.919417 0.738643 0.131518
0.915129 0.810315 0.198245
0.911727 0.866575 0.281025
0.908843 0.911223 0.372183
0.906462 0.945373 0.464378
0.904356 0.972763 0.553323
0.902541 0.994202 0.633387
0 0.181704 0
0 0.182895 0
0 0.183703 0
0 0.184344 0
0 0.184817 0
0 0.185306 0
0 0.185534 0
0.0404517 0.18555 0
0.112703 0.184497 0
0.174884 0.182239 0
0.235981 0.178607 0
0.300542 0.173175 0
0.370855 0.165621 0
0.449226 0.154177 0
0.532326 0.138506 0
0.616739 0.116823 0
0.703197 0.0849165 0
0.79176 0.0224155 0
0.869963 0.0284123 0
0.930617 0.110521 0
0.94847 0.19826 0
0.945006 0.286885 0
0.939391 0.378073 0
0.933288 0.471489 0
0.928466 0.566857 0.0169223
0.923873 0.659556 0.073106
0.919051 0.743603 0.130617
0.914931 0.813169 0.198108
0.911604 0.868223 0.280446
0.908782 0.912154 0.371801
0.906432 0.945815 0.464164
0.904326 0.972992 0.553201
0.902525 0.994339 0.63331
0 0.229328 0
0 0.229892 0
0 0.230243 0
0 0.230518 0
0 0.23093 0
0 0.230991 0
0 0.230945 0
0 0.230671 0
0.0658427 0.230472 0
0.148882 0.229145 0
0.218555 0.226886 0
0.288853 0.223148 0
0.364538 0.217594 0
0.447333 0.209354 0
0.531991 0.199847 0
0.615534 0.188769 0
0.700465 0.177371 0
0.786435 0.168368 0
0.863203 0.173968 0
0.923964 0.206256 0
0.944808 0.26183 0
0.942275 0.332158 0
0.937285 0.41088 0
0.931685 0.495094 0
0.926757 0.58294 0.00595102
0.922972 0.670817 0.0688182
0.918532 0.750607 0.129366
0.914641 0.816983 0.19794
0.911437 0.870481 0.279667
0.90869 0.913405 0.371267
0.906371 0.946532 0.463783
0.904311 0.973342 0.553017
0.90251 0.994522 0.633204
0 0.281468 0
0 0.282032 0
0 0.282383 0
0 0.282673 0
0 0.282887 0
0 0.283024 0
0 0.283101 0
0 0.283299 0
0 0.282963 0
0.0945449 0.282841 0
0.189975 0.281788 0
0.269245 0.2795 0
0.351827 0.275502 0
0.440986 0.269642 0
0.529686 0.263371 0
0.614374 0.25684 0
0.698299 0.251362 0
0.78233 0.24918 0
0.857206 0.257496 0
0.916381 0.283131 0
0.940734 0.326223 0
0.939071 0.383154 0
0.934707 0.450233 0
0.929671 0.52488 0
0.924331 0.602853 0
0.921798 0.685496 0.0637522
0.91783 0.759823 0.127718
0.91426 0.822248 0.197757
0.911208 0.873472 0.278645
0.908553 0.915129 0.37055
0.906294 0.94754 0.463279
0.904265 0.973922 0.552697
0.902495 0.994797 0.633066
0 0.34374 0
0 0.343999 0
0 0.344335 0
0 0.344915 0
0 0.345144 0
0 0.345312 0
0 0.34548 0
0 0.345556 0
0 0.34548 0
0 0.345953 0
0.131502 0.345815 0
0.236622 0.3449 0
0.32958 0.342779 0
0.426719 0.339239 0
0.52166 0.33463 0
0.609979 0.330373 0
0.694926 0.328267 0
0.777325 0.329397 0
0.849699 0.338643 0
0.907454 0.359838 0
0.936049 0.393591 0
0.935409 0.439551 0
0.931609 0.496284 0
0.927214 0.56051 0
0.922347 0.629862 0
0.920333 0.703716 0.0580301
0.916945 0.771695 0.125628
0.913741 0.829297 0.197574
0.910903 0.877684 0.278309
0.908385 0.917403 0.369604
0.906203 0.948898 0.462593
0.904204 0.974731 0.552224
0.902464 0.995254 0.632807
0 0.418357 0
0 0.418524 0
0 0.41883 0
0 0.419104 0
0 0.419318 0
0 0.419837 0
0 0.420035 0
0 0.420188 0
0 0.42034 0
0 0.420432 0
0.0354925 0.421256 0
0.175021 0.422065 0
0.292973 0.421256 0
0.4009 0.419303 0
0.504128 0.416297 0
0.598779 0.413413 0
0.687617 0.411627 0
0.770443 0.413108 0
0.840696 0.42121 0
0.896223 0.43798 0
0.930907 0.464714 0
0.931228 0.50193 0
0.928054 0.548241 0
0.924315 0.60209 0
0.920089 0.661723 0
0.918456 0.726406 0.0495613
0.915846 0.786313 0.123125
0.913085 0.838346 0.197498
0.910491 0.883284 0.278874
0.908156 0.920577 0.368414
0.906065 0.950698 0.461692
0.904128 0.975814 0.551614
0.902419 0.995895 0.63241
0 0.503853 0
0 0.503914 0
0 0.504158 0
0 0.504387 0
0 0.50457 0
0 0.504753 0
0 0.504936 0
0 0.50515 0
0 0.505638 0
0 0.505714 0
0 0.505623 0
0.073167 0.506691 0
0.232105 0.507195 0
0.36202 0.505867 0
0.476219 0.503807 0
0.579171 0.501137 0
0.67422 0.499245 0
0.75993 0.499657 0
0.829679 0.505592 0
0.883391 0.518868 0
0.924285 0.539406 0
0.926589 0.5682 0
0.924102 0.605158 0
0.920989 0.649104 0
0.917433 0.698543 0
0.916197 0.752712 0.0390326
0.914488 0.804044 0.119997
0.912276 0.849561 0.197574
0.909972 0.89044 0.279774
0.907835 0.924788 0.366918
0.905882 0.953246 0.460441
0.904021 0.977249 0.550805
0.902358 0.99675 0.631922
0 0.591226 0
0 0.591226 0
0 0.591333 0
0 0.591485 0
0 0.591592 0
0 0.591684 0
0 0.591791 0
0 0.591897 0
0 0.591959 0
0 0.591928 0
0 0.592081 0
0 0.591592 0
0.128923 0.592905 0
0.306065 0.59295 0
0.437888 0.591348 0
0.550866 0.589319 0
0.65301 0.587137 0
0.74313 0.58677 0
0.814832 0.590372 0
0.86807 0.599756 0
0.910262 0.615518 0
0.921004 0.637278 0
0.919814 0.665614 0
0.917327 0.700175 0
0.914504 0.738964 0
0.913558 0.781735 0.0253452
0.912963 0.824353 0.117266
0.911254 0.863416 0.197986
0.909331 0.899214 0.281086
0.907454 0.930144 0.366873
0.905638 0.956634 0.458839
0.903883 0.979294 0.549661
0.902266 0.997894 0.631251
0 0.677394 0
0 0.677394 0
0 0.677394 0
0 0.67747 0
0 0.677501 0
0 0.677546 0
0 0.677562 0
0 0.677592 0
0 0.677562 0
0 0.67744 0
0 0.67715 0
0 0.676905 0
0 0.677241 0
0.212146 0.677623 0
0.386984 0.677256 0
0.513573 0.675456 0
0.623835 0.673472 0
0.719295 0.672267 0
0.794079 0.674159 0
0.849439 0.680201 0
0.891554 0.691066 0
0.914427 0.707118 0
0.915297 0.727489 0
0.913527 0.75227 0
0.911452 0.780499 0
0.910414 0.812192 0.00749218
0.911269 0.846876 0.1149
0.910094 0.879469 0.199634
0.908568 0.909895 0.283055
0.906966 0.936782 0.368902
0.905318 0.960998 0.457908
0.903685 0.98201 0.548135
0.902159 0.999496 0.630274
0 0.7617 0
0 0.7617 0
0 0.7617 0
0 0.7617 0
0 0.761685 0
0 0.761654 0
0 0.761608 0
0 0.761547 0
0 0.761395 0
0 0.76112 0
0 0.760662 0
0 0.759869 0
0 0.758938 0
0.112001 0.759945 0
0.32253 0.759884 0
0.470146 0.758633 0
0.589303 0.756252 0
0.689693 0.75433 0
0.768414 0.75404 0
0.827039 0.756725 0
0.871183 0.7626 0
0.903288 0.772244 0
0.910552 0.785504 0
0.90988 0.801785 0
0.908461 0.820996 0
0.906966 0.842618 0
0.909468 0.871305 0.114748
0.908827 0.897307 0.202853
0.907683 0.922072 0.286549
0.906371 0.945022 0.371725
0.904921 0.966384 0.458045
0.903426 0.985458 0.546548
0.902007 1 0.628946
0 0.833692 0
0 0.833692 0
0 0.833692 0
0 0.833692 0
0 0.833692 0
0 0.833646 0
0 0.833539 0
0 0.833356 0
0 0.833066 0
0 0.832609 0
0 0.831937 0
0 0.830884 0
0 0.829404 0
0.0264591 0.82948 0
0.254078 0.829862 0
0.431434 0.828504 0
0.558999 0.825925 0
0.662028 0.823377 0
0.742763 0.821714 0
0.804639 0.821653 0
0.851392 0.823911 0
0.885771 0.828672 0
0.905287 0.836011 0
0.906554 0.846174 0
0.905638 0.858854 0
0.905394 0.875013 0.00230411
0.907713 0.89633 0.120241
0.907485 0.916213 0.208576
0.906722 0.935531 0.291752
0.905669 0.954665 0.37615
0.904433 0.973022 0.461021
0.90312 0.9897 0.544945
0.901808 1 0.627298
0 0.889357 0
0 0.889357 0
0 0.889357 0
0 0.889357 0
0 0.889357 0
0 0.889357 0
0 0.889357 0
0 0.889143 0
0 0.888762 0
0 0.888106 0
0 0.887236 0
0 0.886 0
0 0.884337 0
0 0.884184 0
0.204135 0.883986 0
0.406561 0.883101 0
0.53846 0.880491 0
0.641413 0.877501 0
0.721614 0.875227 0
0.784527 0.873915 0
0.833204 0.873991 0
0.869505 0.876005 0
0.896925 0.879896 0
0.903181 0.885847 0
0.903014 0.893828 0
0.904646 0.906538 0.0329595
0.906111 0.920989 0.133333
0.906172 0.935134 0.217456
0.905684 0.950149 0.299351
0.904875 0.965515 0.382315
0.903853 0.980713 0.465751
0.902739 0.994888 0.547906
0.901534 1 0.62533
0 0.932998 0
0 0.932998 0
0 0.932998 0
0 0.932998 0
0 0.932998 0
0 0.932998 0
0 0.932998 0
0 0.932998 0
0 0.932815 0
0 0.932097 0
0 0.930953 0
0 0.929549 0
0 0.92784 0
0 0.927687 0
0.207004 0.927581 0
0.399939 0.926497 0
0.528939 0.924086 0
0.628122 0.921126 0
0.705821 0.918471 0
0.767803 0.916533 0
0.816739 0.915496 0
0.854139 0.915602 0
0.88368 0.917098 0
0.899474 0.919982 0
0.90071 0.924376 0
0.903578 0.934127 0.0628672
0.904707 0.943893 0.151644
0.904891 0.954208 0.231266
0.904616 0.965347 0.309728
0.904036 0.977295 0.390875
0.903227 0.989273 0.472236
0.902281 1 0.552697
0.901213 1 0.627314
0 0.965331 0
0 0.965331 0
0 0.965331 0
0 0.965331 0
0 0.965331 0
0 0.965331 0
0 0.965331 0
0 0.965331 0
0 0.965331 0
0 0.965286 0
0 0.964065 0
0 0.962432 0
0 0.960555 0
0 0.95935 0
0.251667 0.961028 0
0.414405 0.959625 0
0.532494 0.957153 0
0.624063 0.954437 0
0.696971 0.951782 0
0.756466 0.949493 0
0.803967 0.947921 0
0.84155 0.947112 0
0.872145 0.947143 0
0.895186 0.948333 0
0.898802 0.950805 0
0.902556 0.958953 0.0956893
0.903441 0.965484 0.17673
0.903685 0.972686 0.250172
0.903563 0.980682 0.324742
0.903166 0.989319 0.402213
0.902541 0.998474 0.481071
0.901732 1 0.559091
0.900847 1 0.631251
0 0.989883 0
0 0.989883 0
0 0.989883 0
0 0.989883 0
0 0.989883 0
0 0.989883 0
0 0.989883 0
0 0.989883 0
0 0.989883 0
0 0.989883 0
0 0.989883 0
0 0.988266 0
0 0.986419 0
0.066331 0.986999 0
0.313344 0.987594 0
0.445624 0.985931 0
0.546288 0.983566 0
0.627329 0.980987 0
0.693767 0.9785 0
0.749538 0.976303 0
0.794583 0.974487 0
0.831159 0.973281 0
0.861723 0.97261 0
0.885588 0.972824 0
0.899336 0.977462 0.0632639
0.901747 0.981216 0.141451
0.902358 0.985183 0.208927
0.902602 0.989792 0.275395
0.902571 0.995193 0.34464
0.902296 1 0.417899
0.901808 1 0.492576
0.901167 1 0.56762
0.90042 1 0.636759
0 1 0
0 1 0
0 1 0
0 1 0
0 1 0
0 1 0
0 1 0
0 1 0
0 1 0
0 1 0
0 1 0
0 1 0
0 1 0
0.239322 1 0
0.381796 1 0
0.486397 1 0
0.56878 1 0
0.637781 1 0
0.69659 0.999832 0
0.747005 0.997681 0
0.788708 0.995956 0
0.823774 0.994522 0
0.85304 0.993545 0
0.880018 0.996399 0.0527657
0.898161 0.998367 0.125643
0.900984 1 0.187884
0.901442 1 0.247028
0.90164 1 0.306996
0.90161 1 0.37052
0.901427 1 0.437995
0.901076 1 0.508217
0.900587 1 0.578424
0.899977 1 0.643992
0.205219 1 0
0.205219 1 0
0.205219 1 0
0.205219 1 0
0.205203 1 0
0.205203 1 0
0.205203 1 0
0.205203 1 0
0.205188 1 0
0.205173 1 0
0.205173 1 0
0.205142 1 0
0.205112 1 0
0.337789 1 0
0.449912 1 0
0.530419 1 0
0.596902 1 0
0.653864 1 0
0.704677 1 0
0.749081 1 0
0.788403 1 0.0204776
0.822217 1 0.0625162
0.850843 1 0.0972457
0.87483 1 0.138872
0.894179 1 0.186511
0.899901 1 0.236866
0.900603 1 0.289555
0.900771 1 0.34432
0.900786 1 0.402441
0.900649 1 0.463462
0.900389 1 0.527672
0.899992 1 0.592813
0.899504 1 0.653025
0.442359 1 0.119661
0.442359 1 0.119661
0.442359 1 0.119661
0.442359 1 0.119661
0.442359 1 0.119661
0.442359 1 0.119661
0.442359 1 0.119661
0.442359 1 0.119661
0.442359 1 0.119661
0.442344 1 0.119661
0.442344 1 0.119661
0.442344 1 0.119661
0.442329 1 0.119661
0.442313 1 0.119661
0.510292 1 0.122652
0.577585 1 0.126864
0.631022 1 0.131624
0.678141 1 0.13724
0.721309 1 0.144518
0.759167 1 0.153506
0.792569 1 0.164767
0.822217 1 0.178775
0.848035 1 0.196399
0.870359 1 0.217395
0.888808 1 0.249363
0.898573 1 0.290043
0.899916 1 0.336034
0.900038 1 0.386496
0.900038 1 0.439231
0.899947 1 0.494469
0.899733 1 0.552209
0.899428 1 0.610437
0.899031 1 0.66479
0.572442 1 0.234623
0.572442 1 0.234623
0.572442 1 0.234623
0.572442 1 0.234623
0.572442 1 0.234623
0.572442 1 0.234623
0.572442 1 0.234623
0.572442 1 0.234623
0.572442 1 0.234623
0.572442 1 0.234623
0.572442 1 0.234623
0.572442 1 0.234623
0.572427 1 0.234623
0.572427 1 0.234623
0.572412 1 0.234623
0.615015 1 0.236988
0.66186 1 0.240406
0.701503 1 0.244312
0.736782 1 0.248981
0.768414 1 0.255085
0.797086 1 0.262669
0.823499 1 0.272328
0.846708 1 0.284489
0.867308 1 0.30013
0.884596 1 0.319142
0.897322 1 0.348959
0.899321 1 0.387945
0.899397 1 0.432105
0.899397 1 0.479866
0.899306 1 0.529732
0.899138 1 0.581033
0.898878 1 0.631556
0.898573 1 0.678843
0.658076 1 0.335729
0.658076 1 0.335729
0.658076 1 0.335729
0.658076 1 0.335729
0.658076 1 0.335729
0.658076 1 0.335729
0.658076 1 0.335729
0.658076 1 0.335729
0.658061 1 0.335729
0.658061 1 0.335729
0.658061 1 0.335729
0.658061 1 0.335729
0.658061 1 0.335729
0.658061 1 0.335729
0.658045 1 0.335729
0.658045 1 0.335729
0.689021 1 0.337926
0.724041 1 0.341146
0.75288 1 0.344839
0.778836 1 0.349264
0.803479 1 0.355016
0.826261 1 0.362295
0.846754 1 0.371542
0.865461 1 0.383322
0.881392 1 0.398383
0.894682 1 0.416617
0.898528 1 0.444984
0.898848 1 0.481743
0.898833 1 0.52343
0.898726 1 0.568093
0.898589 1 0.61265
0.89839 1 0.655467
0.898146 1 0.695323
0.720592 1 0.432883
0.720592 1 0.432883
0.720592 1 0.432883
0.720592 1 0.432883
0.720592 1 0.432883
0.720592 1 0.432883
0.720592 1 0.432883
0.720592 1 0.432883
0.720592 1 0.432883
