BBLuts/BB_102_0610_LUT.cube
TITLE "Generated by Resolve"
LUT_3D_SIZE 33
0 0 0
0 0 0
0 0 0
0 0 0
0 0 0
0.0053254 0 0
0.0675364 0 0
0.112169 0 0
0.157595 0 0
0.213123 0 0
0.27895 0 0
0.352438 0 0
0.433387 0 0
0.522393 0 0
0.605493 0 0
0.68513 0 0
0.762661 0 0
0.83534 0 0
0.898772 0 0
0.948363 0 0
0.957885 0 0
0.957885 0 0
0.95967 0.136461 0
0.953445 0.388296 0.0350805
0.94287 0.554314 0.0704814
0.935027 0.668894 0.114473
0.926726 0.763821 0.172885
0.919738 0.839689 0.265232
0.914336 0.893629 0.37583
0.909972 0.933242 0.479332
0.906325 0.96202 0.563409
0.903304 0.983536 0.643732
0.90103 1 0.710491
0 0 0
0 0 0
0 0 0
0 0 0
0 0 0
0.0181277 0 0
0.0718242 0 0
0.115709 0 0
0.163287 0 0
0.220005 0 0
0.285985 0 0
0.358587 0 0
0.437018 0 0
0.524544 0 0
0.606989 0 0
0.686137 0 0
0.763241 0 0
0.835599 0 0
0.898695 0 0
0.948043 0 0
0.957885 0 0
0.957885 0 0
0.958953 0.18291 0
0.951965 0.407187 0.030518
0.942107 0.564538 0.0678416
0.934493 0.674495 0.112688
0.926329 0.767514 0.170794
0.919554 0.841794 0.264027
0.914244 0.894759 0.375158
0.909926 0.933898 0.478996
0.906294 0.962386 0.563226
0.903288 0.983749 0.643626
0.901015 1 0.71043
0 0 0
0 0 0
0 0 0
0 0 0
0 0 0
0.0256199 0 0
0.0733043 0 0
0.119081 0 0
0.169238 0 0
0.226398 0 0
0.291325 0 0
0.361883 0 0
0.440055 0 0
0.526848 0 0
0.608499 0 0
0.687129 0 0
0.763821 0 0
0.835843 0 0
0.898604 0 0
0.947692 0 0
0.957885 0 0
0.957885 0 0
0.957382 0.220874 0
0.95053 0.424582 0.0255283
0.941344 0.574289 0.0651102
0.933944 0.679973 0.110887
0.925948 0.77113 0.16878
0.919371 0.843824 0.262806
0.914168 0.895888 0.374517
0.90988 0.934554 0.478676
0.906279 0.962737 0.563058
0.903273 0.983963 0.643519
0.901015 1 0.710369
0 0 0
0 0 0
0 0 0
0 0 0
0 0 0
0.0313268 0 0
0.0739757 0 0
0.119387 0 0
0.17026 0 0
0.228992 0 0
0.294804 0 0
0.364874 0 0
0.443 0 0
0.529152 0 0
0.610025 0 0
0.688151 0 0
0.764401 0 0
0.836072 0 0
0.898482 0 0
0.947326 0 0
0.957885 0 0
0.957885 0 0
0.956573 0.254948 0
0.949096 0.441123 0.0199588
0.940597 0.583597 0.0623026
0.93341 0.685344 0.109087
0.925597 0.774639 0.167758
0.919188 0.845838 0.261616
0.914076 0.896986 0.373846
0.909834 0.935195 0.47834
0.906249 0.963104 0.56289
0.903258 0.984192 0.643412
0.900999 1 0.710307
0 0.00822461 0
0 0.0115358 0
0 0.014725 0
0 0.0178073 0
0 0.0190127 0
0.0169985 0.0171664 0
0.0639811 0.0140383 0
0.11191 0.0075227 0
0.165957 0 0
0.230121 0 0
0.296818 0 0
0.36759 0 0
0.445853 0 0
0.531487 0 0
0.611582 0 0
0.689189 0 0
0.764965 0 0
0.836271 0 0
0.89836 0 0
0.946944 0 0
0.957885 0 0
0.957732 0 0
0.955596 0.2851 0
0.947631 0.456855 0.0136263
0.939864 0.592493 0.0593881
0.932891 0.690593 0.107301
0.925261 0.778088 0.166751
0.91902 0.847837 0.260441
0.914 0.89807 0.37319
0.909804 0.935821 0.478019
0.906233 0.963439 0.562692
0.903243 0.984405 0.643305
0.900999 1 0.710246
0 0.0447242 0
0 0.0473793 0
0 0.0499733 0
0 0.0520333 0
0 0.0530251 0
0 0.0525521 0
0.0529793 0.0505837 0
0.104082 0.0476081 0
0.159701 0.0415961 0
0.223896 0.0298314 0
0.293446 0.00714122 0
0.370001 0 0
0.448768 0 0
0.533959 0 0
0.61326 0 0
0.690288 0 0
0.765545 0 0
0.836469 0 0
0.898207 0 0
0.946532 0 0
0.957885 0 0
0.957977 0.0935073 0
0.954406 0.313344 0
0.946029 0.472587 0.00581369
0.939086 0.601434 0.0562295
0.932357 0.695949 0.105394
0.92491 0.781582 0.165713
0.918853 0.849851 0.25919
0.913924 0.899199 0.372519
0.909758 0.936477 0.477699
0.906203 0.963821 0.562524
0.903227 0.984634 0.643183
0.900984 1 0.710185
0 0.0834211 0
0 0.0856489 0
0 0.0878462 0
0 0.0890974 0
0 0.0898909 0
0 0.0901808 0
0.0326696 0.0887312 0
0.0922255 0.0870832 0
0.151461 0.0836652 0
0.218387 0.0768902 0
0.289296 0.0644236 0
0.365743 0.0445411 0
0.448081 0.00830091 0
0.537118 0 0
0.615427 0 0
0.691707 0 0
0.766308 0 0
0.836744 0 0
0.898009 0 0
0.945968 0 0
0.957885 0 0
0.958053 0.165225 0
0.952697 0.346044 0
0.943496 0.491234 0
0.938125 0.612314 0.0520333
0.93167 0.702693 0.102968
0.924468 0.785992 0.164431
0.918624 0.852415 0.257618
0.913787 0.900984 0.371649
0.909697 0.937316 0.477256
0.906172 0.964279 0.562295
0.903212 0.984924 0.64303
0.900969 1 0.710094
0 0.127825 0
0 0.129793 0
0 0.131273 0
0 0.132235 0
0 0.132937 0
0 0.133333 0
0 0.133379 0
0.0707103 0.131838 0
0.137728 0.130007 0
0.208316 0.125277 0
0.282704 0.116335 0
0.363317 0.103182 0
0.447807 0.084123 0
0.534661 0.0537423 0
0.614816 0 0
0.693614 0 0
0.767346 0 0
0.837095 0 0
0.897704 0 0
0.94519 0 0
0.957687 0.0384985 0
0.957092 0.234165 0
0.950256 0.384314 0
0.940902 0.513954 0
0.936965 0.624399 0.0461433
0.93077 0.71133 0.0997177
0.923919 0.791608 0.162783
0.918349 0.85568 0.255543
0.913649 0.902815 0.370504
0.909621 0.938415 0.476692
0.906142 0.964904 0.561975
0.903181 0.985306 0.642847
0.900954 1 0.709987
0 0.180819 0
0 0.182361 0
0 0.183215 0
0 0.1841 0
0 0.184695 0
0 0.185122 0
0 0.185382 0
0.022034 0.184939 0
0.112139 0.183185 0
0.189914 0.17969 0
0.270512 0.173495 0
0.357092 0.163867 0
0.447074 0.150256 0
0.535729 0.13138 0
0.613718 0.105943 0
0.690562 0.0714733 0
0.765667 0.0205539 0
0.837568 0 0
0.897261 0 0
0.943664 0.0461433 0
0.957977 0.176501 0
0.954818 0.304311 0
0.947234 0.4271 0
0.938964 0.541695 0
0.935439 0.639109 0.037644
0.929641 0.722286 0.0954299
0.923217 0.798733 0.160678
0.917998 0.859861 0.252857
0.913481 0.905226 0.368994
0.909529 0.939834 0.475929
0.906081 0.965698 0.561578
0.903151 0.985809 0.642573
0.900938 1 0.709834
0 0.242527 0
0 0.243015 0
0 0.243488 0
0 0.24387 0
0 0.244129 0
0 0.244175 0
0 0.244053 0
0 0.243626 0
0.0632029 0.243473 0
0.159731 0.242267 0
0.249744 0.238575 0
0.343999 0.231785 0
0.44155 0.221561 0
0.535454 0.207736 0
0.614389 0.191943 0
0.690883 0.174548 0
0.764965 0.157565 0
0.835203 0.145159 0
0.895033 0.154681 0
0.941787 0.20293 0
0.955749 0.280949 0
0.950774 0.376745 0
0.943603 0.476707 0
0.936812 0.57351 0
0.933318 0.657694 0.0246738
0.928176 0.736019 0.0897231
0.922362 0.807614 0.158083
0.917556 0.86511 0.249363
0.913252 0.908263 0.367025
0.909407 0.941665 0.474952
0.90602 0.966766 0.561028
0.903105 0.986465 0.642237
0.900908 1 0.709651
0 0.309972 0
0 0.310445 0
0 0.310948 0
0 0.311315 0
0 0.311589 0
0 0.311757 0
0 0.311818 0
0 0.311681 0
0 0.311162 0
0.107576 0.31339 0
0.215595 0.31249 0
0.320531 0.308537 0
0.427893 0.301503 0
0.530602 0.292348 0
0.61297 0.28217 0
0.690379 0.272923 0
0.763745 0.266911 0
0.832822 0.267033 0
0.89099 0.282216 0
0.935668 0.320607 0
0.950622 0.378988 0
0.945586 0.44979 0
0.939666 0.531334 0
0.934173 0.6094 0
0.930083 0.679683 0.00105287
0.926375 0.752972 0.0821088
0.92134 0.818509 0.15491
0.917021 0.871611 0.244831
0.912978 0.912154 0.364446
0.909255 0.943984 0.473671
0.905928 0.968109 0.560327
0.903059 0.987305 0.641794
0.900877 1 0.709407
0 0.391241 0
0 0.39173 0
0 0.392187 0
0 0.392554 0
0 0.392828 0
0 0.393027 0
0 0.39321 0
0 0.393271 0
0 0.393103 0
0 0.394614 0
0.155962 0.397986 0
0.281025 0.39733 0
0.402136 0.394034 0
0.516793 0.388907 0
0.605264 0.382437 0
0.686 0.37734 0
0.75964 0.376562 0
0.826978 0.382284 0
0.882597 0.398917 0
0.925277 0.428504 0
0.943969 0.471672 0
0.940017 0.526497 0
0.935866 0.586587 0
0.931289 0.644953 0
0.925933 0.705745 0
0.924193 0.773205 0.0722362
0.92015 0.831617 0.151186
0.916365 0.879469 0.243977
0.912642 0.917006 0.36112
0.909056 0.946929 0.471977
0.905821 0.969848 0.559396
0.902983 0.988418 0.641199
0.900832 1 0.709072
0 0.485695 0
0 0.486137 0
0 0.486534 0
0 0.486839 0
0 0.487098 0
0 0.487327 0
0 0.487541 0
0 0.487709 0
0 0.487877 0
0 0.487984 0
0.0192721 0.492851 0
0.214801 0.497627 0
0.360586 0.497139 0
0.49099 0.494362 0
0.588693 0.490333 0
0.674586 0.486976 0
0.751186 0.487129 0
0.818021 0.49308 0
0.871809 0.507042 0
0.91342 0.530007 0
0.937682 0.560693 0
0.935012 0.59826 0
0.931777 0.639139 0
0.927703 0.686 0
0.922942 0.738338 0
0.921752 0.796323 0.0597543
0.918807 0.846906 0.147036
0.915618 0.888777 0.243366
0.91223 0.922988 0.356817
0.908827 0.950607 0.469764
0.905684 0.972061 0.558175
0.902892 0.989822 0.640406
0.900771 1 0.708629
0 0.584634 0
0 0.584924 0
0 0.585199 0
0 0.585397 0
0 0.585595 0
0 0.585779 0
0 0.585946 0
0 0.58613 0
0 0.586252 0
0 0.586282 0
0 0.58613 0
0.0912642 0.592477 0
0.297658 0.594629 0
0.452888 0.59292 0
0.564279 0.590326 0
0.656947 0.587945 0
0.739193 0.588067 0
0.808331 0.592294 0
0.86125 0.602167 0
0.901549 0.617258 0
0.931991 0.636484 0
0.929885 0.661341 0
0.927047 0.693309 0
0.923552 0.731624 0
0.919631 0.774777 0
0.919112 0.821836 0.0441291
0.917342 0.864164 0.14284
0.914778 0.899657 0.243168
0.911742 0.93019 0.352026
0.908537 0.955077 0.466911
0.905516 0.974853 0.556573
0.902785 0.991592 0.639384
0.900694 1 0.708049
0 0.668711 0
0 0.668849 0
0 0.668986 0
0 0.669093 0
0 0.669184 0
0 0.669261 0
0 0.669337 0
0 0.669383 0
0 0.669398 0
0 0.669352 0
0 0.669139 0
0 0.668605 0
0.197208 0.674907 0
0.398016 0.674556 0
0.533349 0.673152 0
0.63328 0.671366 0
0.722225 0.671077 0
0.795087 0.673655 0
0.848875 0.680079 0
0.888243 0.690898 0
0.919219 0.706264 0
0.924117 0.725612 0
0.921828 0.750393 0
0.919158 0.780056 0
0.916411 0.812512 0
0.91632 0.848692 0.0247807
0.915846 0.882872 0.13933
0.913817 0.912566 0.243656
0.911116 0.938552 0.353704
0.908202 0.960433 0.463203
0.905303 0.978317 0.554482
0.902647 0.993851 0.638025
0.900618 1 0.707286
0 0.750484 0
0 0.750561 0
0 0.750607 0
0 0.750652 0
0 0.750668 0
0 0.750683 0
0 0.750698 0
0 0.750668 0
0 0.750607 0
0 0.750439 0
0 0.750118 0
0 0.749508 0
0 0.751965 0
0.32221 0.755734 0
0.493233 0.754513 0
0.603845 0.752529 0
0.699489 0.751431 0
0.776562 0.752667 0
0.832349 0.756863 0
0.872435 0.764309 0
0.902907 0.77525 0
0.918349 0.789319 0
0.916915 0.806394 0
0.915267 0.826719 0
0.913527 0.849561 0
0.913298 0.875288 0.00143435
0.914351 0.902739 0.137636
0.912779 0.926574 0.245457
0.910399 0.948089 0.35642
0.907805 0.966644 0.45951
0.905043 0.982544 0.551766
0.902464 0.996628 0.63624
0.900496 1 0.706279
0 0.829908 0
0 0.829892 0
0 0.829877 0
0 0.829847 0
0 0.829816 0
0 0.82977 0
0 0.829709 0
0 0.829602 0
0 0.829419 0
0 0.829145 0
0 0.828656 0
0 0.827878 0
0 0.826688 0
0.216571 0.832837 0
0.443824 0.831434 0
0.572549 0.828702 0
0.674342 0.826154 0
0.754681 0.825528 0
0.813275 0.827131 0
0.855421 0.830869 0
0.887022 0.836881 0
0.909865 0.845502 0
0.913054 0.856001 0
0.912139 0.868894 0
0.911116 0.883757 0
0.910018 0.900496 0
0.912917 0.923064 0.138811
0.911696 0.941573 0.2495
0.909606 0.958511 0.360769
0.907256 0.973663 0.462806
0.904738 0.987579 0.548226
0.902266 0.999985 0.633921
0.900359 1 0.704967
0 0.896391 0
0 0.89633 0
0 0.896239 0
0 0.896162 0
0 0.896056 0
0 0.895964 0
0 0.895811 0
0 0.895613 0
0 0.895323 0
0 0.894896 0
0 0.89424 0
0 0.892927 0
0 0.891569 0
0.0978561 0.895323 0
0.400504 0.894438 0
0.548012 0.890166 0
0.653971 0.886076 0
0.735668 0.883803 0
0.795544 0.883421 0
0.839673 0.884489 0
0.872831 0.887022 0
0.896788 0.891295 0
0.910216 0.897475 0
0.909728 0.905104 0
0.909117 0.914687 0
0.908797 0.926452 0
0.911559 0.943343 0.14493
0.910597 0.956878 0.257008
0.908766 0.969436 0.367483
0.906615 0.981628 0.46743
0.904326 0.993317 0.54815
0.902022 1 0.630884
0.900191 1 0.703243
0 0.946059 0
0 0.945937 0
0 0.945815 0
0 0.945693 0
0 0.945556 0
0 0.945388 0
0 0.945205 0
0 0.94493 0
0 0.944549 0
0 0.943999 0
0 0.943221 0
0 0.942184 0
0 0.940764 0
0.0363317 0.942184 0
0.38352 0.941176 0
0.537163 0.936294 0
0.642466 0.931273 0
0.722576 0.928008 0
0.781491 0.926497 0
0.826215 0.926116 0
0.860334 0.926741 0
0.88542 0.928618 0
0.904952 0.931807 0
0.907774 0.936202 0
0.907408 0.942123 0
0.909148 0.951888 0.0233921
0.910338 0.962478 0.158419
0.909499 0.971679 0.269474
0.907851 0.980865 0.377386
0.905882 0.990326 0.473869
0.903777 0.999664 0.552483
0.901732 1 0.628199
0.899992 1 0.700954
0 0.984115 0
0 0.983948 0
0 0.983795 0
0 0.983612 0
0 0.983459 0
0 0.983276 0
0 0.983032 0
0 0.982712 0
0 0.982254 0
0 0.981659 0
0 0.980865 0
0 0.979797 0
0 0.978393 0
0.122271 0.980255 0
0.401831 0.976699 0
0.541451 0.971252 0
0.639948 0.965881 0
0.715221 0.962188 0
0.771405 0.960067 0
0.815137 0.958892 0
0.84921 0.958465 0
0.875166 0.958862 0
0.895689 0.960098 0
0.906157 0.962203 0
0.905959 0.965408 0
0.908736 0.97319 0.0660105
0.909209 0.979782 0.181201
0.90837 0.986023 0.288014
0.906859 0.992538 0.39118
0.905089 0.999466 0.48275
0.903166 1 0.558404
0.901305 1 0.632563
0.899763 1 0.697948
0 1 0
0 1 0
0 1 0
0 1 0
0 1 0
0 1 0
0 1 0
0 1 0
0 1 0
0 1 0
0 1 0
0 1 0
0 1 0
0.265675 1 0
0.451682 1 0
0.562295 0.996323 0
0.647684 0.991241 0
0.714748 0.987625 0
0.766461 0.985321 0
0.807935 0.98378 0
0.84065 0.982834 0
0.866621 0.982437 0
0.887724 0.982605 0
0.903883 0.983505 0
0.904707 0.985061 0
0.90808 0.991791 0.113939
0.90808 0.995758 0.214115
0.907179 0.99968 0.313054
0.905806 1 0.409384
0.904219 1 0.49456
0.902495 1 0.566461
0.900801 1 0.638331
0.899428 1 0.70071
0 1 0
0 1 0
0 1 0
0 1 0
0 1 0
0 1 0
0 1 0
0 1 0
0 1 0
0 1 0
0 1 0
0 1 0
0.23946 1 0
0.403784 1 0
0.512932 1 0
0.594156 1 0
0.663417 1 0
0.719814 1 0
0.765866 1 0
0.803952 1 0
0.834455 1 0
0.859571 1 0
0.880537 1 0
0.897063 1 0
0.9066 1 0.0700999
0.90724 1 0.168872
0.906874 1 0.257969
0.905959 1 0.34583
0.904738 1 0.432639
0.903319 1 0.508339
0.901762 1 0.577218
0.900252 1 0.645899
0.899031 1 0.705242
0 1 0
0 1 0
0 1 0
0 1 0
0 1 0
0 1 0
0 1 0
0 1 0
0 1 0
0.125399 1 0
0.249027 1 0
0.350011 1 0
0.439826 1 0
0.511925 1 0
0.57406 1 0
0.632517 1 0
0.684916 1 0
0.729885 1 0
0.769543 1 0
0.80322 1 0
0.830884 1 0
0.854612 1 0
0.874723 1 0
0.893935 1 0.0587015
0.906264 1 0.149371
0.906188 1 0.230152
0.905608 1 0.309697
0.904707 1 0.38761
0.903609 1 0.461173
0.902342 1 0.52668
0.900969 1 0.591363
0.899657 1 0.65565
0.898619 1 0.711131
0.275685 1 0
0.295415 1 0
0.31284 1 0
0.329366 1 0
0.345037 1 0
0.360662 1 0
0.379797 1 0
0.402426 1 0
0.42826 1 0
0.457237 1 0
0.489326 1 0
0.520562 1 0
0.555627 1 0
0.593606 1 0
0.633143 1 0
0.672358 1 0
0.709407 1 0
0.744381 1 0
0.776959 1 0
0.805463 1 0
0.831968 1 0.0217441
0.854704 1 0.0674754
0.873976 1 0.108293
0.889891 1 0.164294
0.902892 1 0.228534
0.904936 1 0.296971
0.904265 1 0.365225
0.90341 1 0.432822
0.902434 1 0.494697
0.901335 1 0.55021
0.900145 1 0.609537
0.899046 1 0.667979
0.898192 1 0.718608
0.537194 1 0.142016
0.541924 1 0.141955
0.546532 1 0.141894
0.551049 1 0.141848
0.555444 1 0.141802
0.559915 1 0.141772
0.565545 1 0.141741
0.572702 1 0.141726
0.58175 1 0.141726
0.593027 1 0.141802
0.606836 1 0.141955
0.623377 1 0.142321
0.64268 1 0.143038
0.664454 1 0.144274
0.68809 1 0.146319
0.713054 1 0.149493
0.739147 1 0.154116
0.765652 1 0.160586
0.790799 1 0.169329
0.813764 1 0.18085
0.834943 1 0.195743
0.854353 1 0.214664
0.871397 1 0.238285
0.885939 1 0.267292
0.8981 1 0.312123
0.903548 1 0.365942
0.902907 1 0.423682
0.902129 1 0.478721
0.901259 1 0.528206
0.900298 1 0.578866
0.899306 1 0.632059
0.898436 1 0.683055
0.897749 1 0.727932
0.650996 1 0.29044
0.653178 1 0.290471
0.655314 1 0.290532
0.657404 1 0.290578
0.659464 1 0.290623
0.661585 1 0.290684
0.664256 1 0.290776
0.667674 1 0.290883
0.672068 1 0.291051
0.677592 1 0.291295
0.684489 1 0.29163
0.693004 1 0.292149
0.703395 1 0.292882
0.715816 1 0.29395
0.730495 1 0.295872
0.746822 1 0.298116
0.764874 1 0.301137
0.783398 1 0.30515
0.801846 1 0.310674
0.819883 1 0.318013
0.837598 1 0.327611
0.854292 1 0.340032
0.869245 1 0.355978
0.882506 1 0.376425
0.89398 1 0.401083
0.902129 1 0.437491
0.901564 1 0.480293
0.900877 1 0.521889
0.900099 1 0.565805
0.899275 1 0.611841
0.898497 1 0.657816
0.897841 1 0.700771
0.897322 1 0.739086
0.720546 1 0.418189
0.721645 1 0.41825
0.722728 1 0.418326
0.723796 1 0.418402
0.724865 1 0.418463
0.725948 1 0.41854
0.727337 1 0.418647
0.729152 1 0.418769
0.731502 1 0.418921
0.734524 1 0.419165
0.738369 1 0.419486
0.743221 1 0.419898
0.749218 1 0.420493
0.756558 1 0.421302
0.765637 1 0.422385
0.775814 1 0.423865
0.787228 1 0.425864
0.799558 1 0.428534
0.812863 1 0.432074
0.826902 1 0.436728
0.841428 1 0.443107
0.855283 1 0.450919
0.868132 1 0.460868
0.879973 1 0.473396
0.890425 1 0.489006
0.899153 1 0.506096
0.900206 1 0.533074
0.899626 1 0.567559
0.898985 1 0.606226
0.898329 1 0.646693
0.897765 1 0.685161
0.897292 1 0.720439
0.896925 1 0.751919
0.768063 1 0.51783
0.768643 1 0.517891
0.769223 1 0.517937
0.769787 1 0.517998
0.770352 1 0.518029
0.770932 1 0.51809
0.771679 1 0.518166
0.772641 1 0.518242
0.773922 1 0.51838
