BBLuts/BB_102_0660_LUT.cube
TITLE "Generated by Resolve"
LUT_3D_SIZE 5
0 0 0
0.167758 0 0
0.710307 0 0
0.902831 0.544305 0.0394598
0.875639 0.970779 0.641215
0 0.192767 0
0.112337 0.195636 0
0.710872 0.0771954 0
0.897642 0.601007 0.00581369
0.875608 0.971252 0.64097
0 0.769528 0
0 0.769284 0
0.604135 0.76405 0
0.880125 0.820035 0
0.875151 0.977569 0.637186
0.477821 1 0.128725
0.477821 1 0.128725
0.641077 1 0.143038
0.863996 1 0.278981
0.872618 1 0.668208
0.837827 1 0.76257
0.837827 1 0.76257
0.837827 1 0.76257
0.855619 1 0.765515
0.871 1 0.794064
0 0 0.135271
0.137911 0 0.131624
0.712932 0 0.122148
0.905974 0.533074 0.187625
0.875639 0.970764 0.64123
0 0.154208 0.121248
0.11931 0.151705 0.116335
0.712093 0 0.109911
0.901656 0.594583 0.172061
0.875608 0.971237 0.64097
0 0.764889 0
0 0.764614 0
0.608713 0.759472 0
0.881865 0.820035 0.00445563
0.875151 0.977569 0.637186
0.486076 1 0.128313
0.486076 1 0.128313
0.643229 1 0.142535
0.864057 1 0.278752
0.872618 1 0.668208
0.837858 1 0.76257
0.837858 1 0.76257
0.837858 1 0.76257
0.85565 1 0.765499
0.871 1 0.794064
0 0 0.649454
0 0 0.649546
0.70045 0 0.63566
0.92314 0.253422 0.652354
0.875364 0.968078 0.735943
0 0 0.648386
0 0 0.648447
0.709422 0 0.633982
0.913146 0.419791 0.65005
0.875334 0.968582 0.735805
0 0.711986 0.607492
0 0.712032 0.607507
0.585107 0.7093 0.609827
0.888289 0.795941 0.627253
0.874861 0.975265 0.734035
0.480598 1 0.499229
0.480598 1 0.499229
0.632929 1 0.504036
0.858671 1 0.54992
0.872435 1 0.714977
0.838392 1 0.762509
0.838392 1 0.762509
0.838392 1 0.762509
0.855848 1 0.765423
0.871 1 0.794034
0 0 0.889433
0 0 0.889433
0 0 0.889433
0.933837 0 0.877211
0.877211 0.930007 0.867399
0 0 0.889433
0 0 0.889433
0 0 0.889433
0.933837 0 0.877211
0.877119 0.931441 0.867292
0 0 0.889433
0 0 0.889433
0 0 0.889433
0.933837 0 0.877211
0.875975 0.947326 0.866026
0 1 0.85388
0 1 0.85388
0 1 0.85388
0.839582 0.990478 0.85774
0.8719 1 0.860639
0.833814 1 0.839948
0.833814 1 0.839948
0.833814 1 0.839948
0.850553 1 0.840742
0.870634 1 0.848981
0 0.276005 0.889357
0 0.276005 0.889357
0 0.276005 0.889357
0 0.276081 0.889357
0.895003 0.67126 0.886458
0 0.276005 0.889357
0 0.276005 0.889357
0 0.276005 0.889357
0 0.276081 0.889357
0.895003 0.67126 0.886458
0 0.276005 0.889357
0 0.276005 0.889357
0 0.276005 0.889357
0 0.276081 0.889357
0.895003 0.67126 0.886458
0 0.274769 0.889372
0 0.274769 0.889372
0 0.274769 0.889372
0 0.27483 0.889372
0.894728 0.675456 0.886442
0.767346 1 0.884291
0.767346 1 0.884291
0.767346 1 0.884291
0.767346 1 0.884291
0.870375 1 0.884825
