BBLuts/BB_103_0650_LUT.cube
TITLE "Generated by Resolve"
LUT_3D_SIZE 9
0 0 0
0.0292821 0 0
0.223896 0 0
0.522454 0 0
0.846052 0 0
0.915724 0.0265507 0
0.896651 0.584451 0.0829175
0.874113 0.845487 0.353811
0.863111 0.944701 0.637873
0 0.0415351 0
0 0.0449378 0
0.228672 0.0157778 0
0.529641 0 0
0.845518 0 0
0.916365 0.175982 0
0.894163 0.610803 0.0712291
0.873777 0.849989 0.351873
0.863066 0.945434 0.637552
0 0.246342 0
0 0.247425 0
0.163897 0.244877 0
0.533318 0.214801 0
0.841474 0.193713 0
0.905867 0.39469 0
0.889113 0.663127 0.0501106
0.873075 0.859754 0.347402
0.862959 0.947051 0.63679
0 0.58114 0
0 0.581659 0
0 0.581674 0
0.453895 0.583368 0
0.802319 0.588266 0
0.886152 0.651514 0
0.878752 0.771969 0
0.871336 0.885115 0.333791
0.862623 0.951934 0.634302
0 0.882094 0
0 0.881483 0
0 0.879667 0
0.27071 0.876982 0
0.727764 0.862409 0
0.855848 0.866712 0
0.870405 0.890166 0
0.868177 0.927489 0.344778
0.86186 0.963561 0.626856
0 0.985885 0
0 0.985016 0
0 0.984421 0
0.456641 0.973465 0
0.712337 0.960693 0
0.824964 0.956359 0
0.867338 0.9608 0.148516
0.864668 0.967605 0.399451
0.860548 0.980255 0.635081
0.581308 1 0.225238
0.592157 1 0.225574
0.614496 1 0.22652
0.667903 1 0.230457
0.750042 1 0.2448
0.818143 1 0.279698
0.862089 0.997971 0.357717
0.861051 0.996094 0.510979
0.858915 0.997589 0.670771
0.762066 1 0.564553
0.763378 1 0.564691
0.766384 1 0.565057
0.775341 1 0.566278
0.796017 1 0.570016
0.824475 1 0.579187
0.852705 1 0.60058
0.858488 1 0.649592
0.857786 1 0.727535
0.824384 1 0.750332
0.824598 1 0.750362
0.825101 1 0.750408
0.826688 1 0.750607
0.830991 1 0.751186
0.839033 1 0.752621
0.850721 1 0.75613
0.857496 1 0.764416
0.857374 1 0.783276
0 0 0.00956741
0.00753796 0 0.0077821
0.228717 0 0.00512703
0.524514 0 0
0.848463 0 0.00419623
0.918929 0.0168002 0.0460059
0.898054 0.579965 0.154665
0.873884 0.844221 0.386404
0.863035 0.944457 0.646189
0 0.0239414 0.00210575
0.0173648 0.0237888 0
0.229847 0 0
0.527367 0 0
0.84712 0 0
0.920134 0.14197 0.0402686
0.895598 0.60705 0.146059
0.873549 0.848768 0.38471
0.862989 0.945174 0.645884
0 0.237217 0
0 0.238468 0
0.176928 0.235157 0
0.529717 0.204639 0
0.840772 0.176654 0
0.908415 0.387884 0
0.890547 0.660838 0.124926
0.872831 0.85864 0.380682
0.862882 0.946807 0.645151
0 0.577905 0
0 0.578378 0
0 0.578317 0
0.461006 0.579919 0
0.80238 0.585489 0
0.88632 0.649363 0
0.879911 0.771862 0.0477913
0.871046 0.884215 0.368277
0.862547 0.95172 0.642802
0 0.881453 0
0 0.880812 0
0 0.878965 0
0.285588 0.876158 0
0.728862 0.861891 0
0.855985 0.866331 0
0.87039 0.889876 0
0.868177 0.927352 0.345785
0.861769 0.963363 0.635813
0 0.985672 0
0 0.984802 0
0.000381476 0.984268 0
0.460746 0.97319 0
0.713039 0.960571 0
0.825132 0.956283 0
0.867338 0.960739 0.148302
0.864683 0.967575 0.399283
0.860548 0.980224 0.635035
0.582986 1 0.225071
0.593698 1 0.225406
0.615778 1 0.226383
0.668711 1 0.230335
0.750362 1 0.244694
0.81825 1 0.279606
0.862104 0.997955 0.357702
0.861051 0.996094 0.510933
0.858915 0.997574 0.670726
0.762264 1 0.564523
0.763561 1 0.564675
0.766567 1 0.565042
0.775494 1 0.566262
0.796124 1 0.570001
0.824521 1 0.579156
0.85272 1 0.600549
0.858488 1 0.649577
0.857786 1 0.72752
0.824414 1 0.750317
0.824628 1 0.750347
0.825132 1 0.750408
0.826719 1 0.750607
0.831022 1 0.751171
0.839048 1 0.752621
0.850736 1 0.75613
0.857496 1 0.764416
0.857374 1 0.783276
0 0 0.158358
0 0 0.158343
0.205554 0 0.151614
0.5393 0 0.139086
0.850767 0 0.148272
0.920348 0 0.184436
0.899702 0.566583 0.283528
0.873396 0.84123 0.449332
0.862898 0.943893 0.663691
0 0 0.155077
0 0 0.155001
0.224537 0 0.148104
0.535882 0 0.135943
0.85008 0 0.143908
0.920958 0.0562905 0.185412
0.897169 0.595178 0.277775
0.873045 0.845869 0.447898
0.862837 0.94461 0.663417
0 0.204578 0.134371
0 0.206531 0.134432
0.172549 0.202014 0.131899
0.520424 0.17084 0.129396
0.844388 0.087602 0.138094
0.91458 0.361593 0.180804
0.891905 0.651774 0.264164
0.872282 0.85597 0.444648
0.86273 0.946258 0.662776
0 0.568475 0.0141756
0 0.569055 0.0146029
0 0.569146 0.0154879
0.464012 0.571038 0.0281987
0.804562 0.57821 0.0599222
0.891798 0.645045 0.110002
0.881285 0.768399 0.223682
0.870405 0.882078 0.434867
0.862379 0.951202 0.660716
0 0.879637 0
0 0.878981 0
0 0.877119 0
0.299184 0.874235 0
0.730022 0.860304 0
0.855955 0.86508 0
0.872099 0.890959 0.128542
0.867521 0.926024 0.409766
0.861601 0.962921 0.654627
0 0.985168 0
0 0.984298 0
0.016083 0.983917 0
0.470161 0.972549 0
0.714702 0.960311 0
0.825528 0.9561 0
0.867353 0.960601 0.147814
0.864683 0.967498 0.398856
0.860487 0.980087 0.641627
0.586862 1 0.224689
0.597269 1 0.225055
0.618723 1 0.226047
0.670634 1 0.23006
0.751125 1 0.24448
0.818494 1 0.279408
0.862104 0.997925 0.357656
0.861067 0.996063 0.510811
0.858915 0.997574 0.670634
0.762722 1 0.564462
0.764035 1 0.564614
0.76701 1 0.564981
0.775876 1 0.566186
0.796384 1 0.56994
0.824643 1 0.57911
0.85275 1 0.600519
0.858488 1 0.649561
0.857786 1 0.727504
0.824491 1 0.750317
0.824704 1 0.750347
0.825208 1 0.750408
0.82678 1 0.750591
0.831083 1 0.751171
0.839078 1 0.752621
0.850752 1 0.75613
0.857511 1 0.764416
0.857374 1 0.783276
0 0 0.45417
0 0 0.454368
0.0269322 0 0.452613
0.525078 0 0.437339
0.861295 0 0.439689
0.919356 0 0.458335
0.903792 0.512566 0.515984
0.872511 0.831556 0.588113
0.862608 0.942229 0.705516
0 0 0.452674
0 0 0.452888
0.0587167 0 0.450523
0.534401 0 0.435462
0.860273 0 0.438071
0.919356 0 0.456275
0.900816 0.547616 0.512871
0.872084 0.836606 0.587152
0.862547 0.942977 0.705318
0 0.0357824 0.44744
0 0.0382849 0.447562
0.0761425 0.0337224 0.444984
0.53901 0 0.431693
0.852934 0 0.433341
0.922545 0.18204 0.468757
0.89456 0.614694 0.505394
0.871199 0.847517 0.584955
0.862425 0.944686 0.70486
0 0.522194 0.410697
0 0.523278 0.410986
0 0.523949 0.411582
0.454749 0.525307 0.416907
0.798718 0.534539 0.427253
0.895445 0.609094 0.44625
0.881178 0.749355 0.48426
0.869032 0.875532 0.578607
0.862074 0.949767 0.703395
0 0.87895 0.35053
0 0.878386 0.350988
0 0.876692 0.351995
0.22385 0.873335 0.356313
0.727352 0.856596 0.361105
0.854337 0.861433 0.391241
0.870039 0.884428 0.449653
0.865721 0.921813 0.56347
0.861234 0.961746 0.699184
0 0.9897 0.226139
0 0.988846 0.226856
0.0208438 0.987961 0.228519
0.465263 0.97554 0.230579
0.71429 0.962402 0.252842
0.825071 0.957504 0.305516
0.865415 0.957671 0.396796
0.862989 0.964904 0.533837
0.860044 0.979171 0.689601
0.598871 1 0.223499
0.608316 1 0.223911
0.628016 1 0.224979
0.676753 1 0.229145
0.753536 1 0.243717
0.819303 1 0.278767
0.862135 0.997803 0.358633
0.861051 0.995972 0.512291
0.8589 0.997497 0.672053
0.764248 1 0.564248
0.765515 1 0.564401
0.768429 1 0.564782
0.777096 1 0.566003
0.797192 1 0.569741
0.825055 1 0.578927
0.852888 1 0.600351
0.858488 1 0.649516
0.857786 1 0.727428
0.82475 1 0.750286
0.824964 1 0.750317
0.825452 1 0.750378
0.827008 1 0.750561
0.831266 1 0.751141
0.839216 1 0.752575
0.850828 1 0.7561
0.857496 1 0.764385
0.857374 1 0.783276
0 0 0.743008
0 0 0.743053
0 0 0.74313
0.372549 0 0.730587
0.850843 0 0.72076
0.918257 0 0.724727
0.922255 0.204318 0.750301
0.874098 0.799634 0.743816
0.862409 0.937743 0.769848
0 0 0.742733
0 0 0.742779
0 0 0.742855
0.392294 0 0.729488
0.853284 0 0.720546
0.918257 0 0.724437
0.918929 0.295491 0.751354
0.873426 0.806729 0.743053
0.862348 0.938567 0.769726
0 0 0.742092
0 0 0.742123
0 0 0.742153
0.429206 0 0.727291
0.855589 0 0.71989
0.918257 0 0.723537
0.908812 0.445777 0.747723
0.872038 0.821653 0.741421
0.862211 0.940444 0.769436
0 0.288548 0.731868
0 0.291432 0.731777
0 0.296468 0.731487
0.422232 0.279545 0.732525
0.845502 0.24535 0.735271
0.910536 0.42211 0.738201
0.887175 0.675364 0.731868
0.868925 0.857557 0.737362
0.861799 0.946044 0.768566
0 0.849058 0.705364
0 0.848829 0.705364
0 0.847745 0.705303
0.0207218 0.8439 0.706233
0.710353 0.827115 0.698619
0.84268 0.836408 0.702312
0.868391 0.86656 0.710185
0.864561 0.913191 0.730022
0.860868 0.958984 0.766247
0 0.984833 0.690425
0 0.983978 0.690394
0 0.981979 0.690364
0.352667 0.971206 0.683497
0.687083 0.953857 0.676341
0.809735 0.948867 0.68191
0.861357 0.950545 0.694896
0.861143 0.960403 0.720088
0.859556 0.977386 0.761624
0.562448 1 0.63415
0.573663 1 0.633967
0.59678 1 0.633692
0.651774 1 0.633677
0.735515 0.998749 0.636439
0.804837 0.995117 0.645228
0.851774 0.992813 0.665339
0.858946 0.992889 0.701991
0.858274 0.996307 0.752178
0.768627 1 0.563607
0.769802 1 0.56376
0.772519 1 0.564141
0.780621 1 0.565362
0.799558 1 0.569131
0.82623 1 0.578347
0.8533 1 0.599832
0.858412 1 0.657511
0.857725 1 0.734112
0.825513 1 0.750195
0.825711 1 0.750225
0.8262 1 0.750286
0.82771 1 0.750469
0.831846 1 0.751049
0.839612 1 0.752499
0.851026 1 0.756008
0.857511 1 0.764324
0.857374 1 0.783246
0 0 0.852613
0 0 0.852613
0 0 0.852628
0 0 0.852415
0.784421 0 0.82855
0.91841 0 0.829892
0.91841 0 0.830014
0.891493 0.636286 0.839155
0.862928 0.92549 0.823163
0 0 0.852567
0 0 0.852583
0 0 0.852583
0 0 0.852293
0.788449 0 0.828519
0.91841 0 0.829847
0.91841 0 0.829969
0.889052 0.657938 0.837278
0.862852 0.926574 0.823056
0 0 0.852461
0 0 0.852461
0 0 0.852476
0 0 0.851987
0.797589 0 0.828489
0.91841 0 0.829725
0.91841 0 0.829862
0.88426 0.70016 0.833417
0.862669 0.929061 0.822812
0 0 0.85211
0 0 0.85211
0 0 0.852125
0.0753796 0 0.848417
0.815869 0 0.82829
0.91841 0 0.829343
0.922423 0.113313 0.842954
0.874693 0.789395 0.82504
0.862135 0.936309 0.82211
0 0.701839 0.826947
0 0.702617 0.826947
0 0.704387 0.826902
0 0.703746 0.825971
0.718761 0.697871 0.825284
0.874861 0.727596 0.825132
0.87335 0.803204 0.819226
0.86569 0.890455 0.815839
0.860945 0.952529 0.820401
0 0.976883 0.823178
0 0.976196 0.823087
0 0.974365 0.822828
0 0.968536 0.822278
0.652049 0.943282 0.805234
0.801541 0.937423 0.804685
0.858625 0.940978 0.805997
0.860945 0.953704 0.809354
0.859388 0.97406 0.817685
0.445914 1 0.801816
0.470665 1 0.800885
0.516289 1 0.799252
0.601862 1 0.796643
0.712306 0.996063 0.795041
0.792645 0.99205 0.795651
0.843992 0.989425 0.798047
0.858305 0.990188 0.803357
0.857923 0.994873 0.813718
0.749477 1 0.77847
0.750835 1 0.778485
0.753918 1 0.778531
0.763088 1 0.778668
0.784283 1 0.779187
0.813504 1 0.780514
0.842863 1 0.783841
0.857313 1 0.791623
0.857221 1 0.806363
0.826825 1 0.754299
0.827024 1 0.754314
0.827482 1 0.754376
0.828916 1 0.754559
0.832822 1 0.755108
0.840223 1 0.756497
0.851209 1 0.759884
0.857481 1 0.768215
0.857328 1 0.788663
0 0 0.874434
0 0 0.874434
0 0 0.874434
0 0 0.874434
0.396277 0 0.863905
0.918456 0 0.863142
0.918456 0 0.863142
0.920119 0.0197299 0.870588
0.867414 0.8654 0.863172
0 0 0.874434
0 0 0.874434
0 0 0.874434
0 0 0.874434
0.411414 0 0.863432
0.918456 0 0.863142
0.918456 0 0.863142
0.920119 0.0196536 0.870573
0.867124 0.868849 0.862898
0 0 0.874434
0 0 0.874434
0 0 0.874434
0 0 0.874434
0.444465 0 0.862455
0.918456 0 0.863142
0.918456 0 0.863142
0.920241 0.0242313 0.871015
0.866514 0.876249 0.862303
0 0 0.874434
0 0 0.874434
0 0 0.874434
0 0 0.874434
0.532021 0 0.859998
0.918456 0 0.863142
0.918456 0 0.863142
0.920623 0.0386816 0.87216
0.864988 0.895186 0.860792
0 0 0.874434
0 0 0.874434
0 0 0.874434
0 0 0.874434
0.681376 0 0.857755
0.918456 0 0.863142
0.919326 0 0.867124
0.886351 0.681132 0.875914
0.862364 0.929534 0.858
0 0.92047 0.876066
0 0.920607 0.876081
0 0.920928 0.876066
0 0.920989 0.875929
0.532784 0.897276 0.863218
0.8065 0.888655 0.858885
0.864149 0.900587 0.857801
0.862394 0.929397 0.856016
0.8598 0.964492 0.854994
0 1 0.871473
0 1 0.871397
0 1 0.871214
0.37583 1 0.860304
0.661662 0.993408 0.850919
0.779889 0.986954 0.849989
0.840467 0.984619 0.850217
0.858259 0.986252 0.850767
0.857847 0.992111 0.852232
0.721935 1 0.846006
0.723857 1 0.845991
0.728176 1 0.84596
0.740688 1 0.845899
0.768444 1 0.845853
0.804044 1 0.84596
0.837385 1 0.846357
0.856825 1 0.84744
0.856916 1 0.849729
0.81886 1 0.838636
0.819074 1 0.838636
0.819577 1 0.838651
0.82118 1 0.838666
0.825528 1 0.838773
0.833631 1 0.839002
0.845533 1 0.839582
0.856321 1 0.841077
0.856947 1 0.84448
0 0.0233158 0.874022
0 0.0233158 0.874022
0 0.0233158 0.874022
0 0.0233463 0.874022
0 0.0234379 0.874022
0.672496 0 0.859281
0.918456 0 0.863142
0.922057 0.090135 0.877287
0.893034 0.622766 0.881788
0 0.0232853 0.874022
0 0.0232853 0.874022
0 0.0232853 0.874022
0 0.023331 0.874022
0 0.0234073 0.874022
0.675517 0 0.859281
0.918456 0 0.863142
0.922057 0.0904707 0.877317
0.893034 0.622751 0.881788
0 0.023209 0.874022
0 0.0232242 0.874022
0 0.0232242 0.874022
0 0.0232547 0.874022
0 0.023331 0.874022
0.681743 0 0.859281
0.918456 0 0.863142
0.922087 0.0912337 0.877379
0.893034 0.622705 0.881788
0 0.0229953 0.874022
0 0.0229953 0.874022
0 0.0229953 0.874022
0 0.0230259 0.874022
0 0.0231327 0.874022
0.699474 0 0.859068
0.918456 0 0.863142
0.922148 0.0936599 0.877607
0.893065 0.622538 0.881804
0 0.0223087 0.874022
0 0.0223239 0.874022
0 0.0223239 0.874022
0 0.0223545 0.874022
0 0.022446 0.874022
0.823667 0 0.859876
0.918456 0 0.863142
0.922499 0.108751 0.878965
0.893111 0.622003 0.881834
0 0.0204623 0.874022
0 0.0204623 0.874022
0 0.0204776 0.874022
0 0.0205081 0.874022
0 0.0205997 0.874022
0.895415 0 0.862287
0.919738 0.00427253 0.869154
0.915297 0.36762 0.888075
0.867247 0.866651 0.871122
0 1 0.888609
0 1 0.888609
0 1 0.888609
0 1 0.888624
0.0489204 0.999023 0.887266
0.739925 0.964935 0.869535
0.842756 0.962402 0.869841
0.859434 0.967895 0.869871
0.858503 0.980804 0.86978
0.470481 1 0.874846
0.476219 1 0.874617
0.550942 1 0.872023
0.627207 1 0.869947
0.715587 1 0.868666
0.784375 1 0.868482
0.831785 1 0.868574
0.855833 1 0.868711
0.856825 1 0.868864
0.807416 1 0.867216
0.807721 1 0.867216
0.808423 1 0.867231
0.810636 1 0.867231
0.816571 1 0.867247
0.827146 1 0.867292
0.841642 1 0.867369
0.854673 1 0.867506
0.856779 1 0.867811
0 0.234913 0.874006
0 0.234913 0.874006
0 0.234913 0.874022
0 0.234928 0.874006
0 0.234958 0.874006
0 0.235019 0.874006
0.851804 0 0.862928
0.919783 0.292836 0.887984
0.888167 0.665293 0.879515
0 0.234913 0.874006
0 0.234913 0.874006
0 0.234913 0.874006
0 0.234913 0.874006
0 0.234943 0.874006
0 0.235004 0.874006
0.85182 0 0.862928
0.919768 0.293141 0.887984
0.888167 0.665339 0.879515
0 0.234897 0.874006
0 0.234897 0.874006
0 0.234897 0.874006
0 0.234897 0.874006
0 0.234928 0.874006
0 0.234989 0.874006
0.851881 0 0.862943
0.919722 0.293873 0.887999
0.888151 0.665461 0.879515
0 0.234836 0.874006
0 0.234836 0.874006
0 0.234836 0.874006
0 0.234836 0.874022
0 0.234867 0.874006
0 0.234928 0.874006
0.851911 0 0.862928
0.9196 0.296269 0.888014
0.888106 0.665888 0.879484
0 0.234638 0.874022
0 0.234638 0.874022
0 0.234638 0.874022
0 0.234653 0.874006
0 0.234684 0.874022
0 0.23473 0.874006
0.889799 0 0.863951
0.919234 0.303456 0.88809
0.887968 0.667033 0.879423
0 0.234165 0.874022
0 0.234165 0.874022
0 0.234165 0.874022
0 0.23418 0.874022
0 0.234195 0.874022
0 0.233997 0.874022
0.912703 0 0.862928
0.918303 0.319966 0.888167
0.887816 0.668376 0.879362
0 0.232883 0.874037
0 0.232883 0.874037
0 0.232883 0.874037
0 0.232898 0.874037
0 0.232914 0.874037
0.00354009 0.211368 0.874388
0.918456 0 0.863142
0.912032 0.412451 0.887633
0.882124 0.718151 0.876707
0 1 0.889158
0 1 0.889158
0 1 0.889158
0 1 0.889158
0 1 0.88925
0.44651 1 0.876036
0.814817 0.996765 0.869444
0.856428 0.995773 0.869657
0.857298 0.997864 0.869642
0.745296 1 0.8692
0.746777 1 0.8692
0.750088 1 0.8692
0.759533 1 0.8692
0.779614 1 0.869245
0.806607 1 0.869337
0.833844 1 0.869474
0.852689 1 0.869566
0.856764 1 0.869596
