BBLuts/BB_104_0030_LUT.cube
TITLE "Generated by Resolve"
LUT_3D_SIZE 33
0.0016022 0.0107118 0.026566
0.0016022 0.0107118 0.026566
0.0016022 0.0107118 0.026566
0.0016022 0.0107118 0.026566
0.0016022 0.0107118 0.026566
0.0463111 0.0112764 0.027451
0.0985122 0.0119631 0.0284733
0.136782 0.012314 0.0290684
0.176944 0.0124514 0.0294347
0.22858 0.0123445 0.0296635
0.292027 0.0119326 0.0298161
0.365743 0.0115053 0.0304112
0.452781 0.0124056 0.0334936
0.541711 0.0189975 0.045304
0.599786 0.0424811 0.0822309
0.652567 0.114244 0.18912
0.707652 0.268254 0.353353
0.757061 0.425071 0.51487
0.797742 0.547356 0.596368
0.829267 0.597986 0.642267
0.834958 0.605692 0.650523
0.834958 0.605692 0.650523
0.834852 0.608011 0.650843
0.834592 0.613535 0.650828
0.833951 0.625772 0.650065
0.832578 0.64863 0.64744
0.830335 0.681956 0.64097
0.828153 0.717098 0.628946
0.826673 0.746273 0.61178
0.825666 0.769009 0.59707
0.824399 0.786084 0.614572
0.822644 0.798535 0.670893
0.82118 0.808591 0.725429
0.0016022 0.0107118 0.026566
0.0016022 0.0107118 0.026566
0.0016022 0.0107118 0.026566
0.0016022 0.0107118 0.026566
0.0016022 0.0107118 0.026566
0.0568093 0.011429 0.0276646
0.10219 0.0119936 0.0285191
0.139849 0.0123293 0.0290837
0.182208 0.0124666 0.0294652
0.235096 0.0123293 0.0296788
0.298939 0.0118715 0.0298466
0.372061 0.01149 0.030518
0.456901 0.0125124 0.033753
0.543618 0.0193179 0.0458076
0.600732 0.0432441 0.0833753
0.653269 0.115755 0.191073
0.708064 0.269505 0.354665
0.757229 0.42562 0.515343
0.797681 0.54725 0.596292
0.829053 0.597711 0.641962
0.834958 0.605692 0.650523
0.834958 0.605692 0.650523
0.834836 0.60853 0.650629
0.834546 0.614389 0.65069
0.833875 0.627115 0.649866
0.832471 0.650278 0.64715
0.830243 0.683528 0.640467
0.828092 0.718181 0.628229
0.826642 0.746899 0.610834
0.825666 0.769406 0.595911
0.824399 0.786297 0.613779
0.822644 0.798672 0.670558
0.82118 0.808667 0.725322
0.0016022 0.0107118 0.026566
0.0016022 0.0107118 0.026566
0.0016022 0.0107118 0.026566
0.0016022 0.0107118 0.026566
0.0016022 0.0107118 0.026566
0.0630503 0.0115206 0.0277867
0.103441 0.0120241 0.0285496
0.142748 0.0123598 0.0291295
0.187716 0.0124666 0.0294804
0.241138 0.0122835 0.0296788
0.304219 0.011841 0.0298772
0.375433 0.01149 0.0305943
0.460319 0.0126192 0.0339666
0.545632 0.0196536 0.0463569
0.601709 0.0440223 0.0845655
0.653956 0.11725 0.192981
0.708476 0.270726 0.355962
0.757382 0.426154 0.515801
0.79762 0.547112 0.596201
0.828855 0.597421 0.641642
0.834958 0.605692 0.650523
0.834958 0.605692 0.650523
0.834806 0.609049 0.650248
0.834501 0.615305 0.650538
0.833799 0.628473 0.649683
0.832364 0.651926 0.64683
0.830121 0.685084 0.639933
0.828046 0.719203 0.627497
0.826627 0.747524 0.609873
0.825666 0.769787 0.59472
0.824399 0.786511 0.61297
0.822629 0.798795 0.670253
0.821164 0.808743 0.7252
0.0016022 0.0107118 0.026566
0.0016022 0.0107118 0.026566
0.0016022 0.0107118 0.026566
0.000854505 0.0152285 0.0262303
0.0212863 0.0195926 0.0263066
0.0678416 0.0115816 0.0278935
0.104036 0.0120241 0.0285649
0.143008 0.0123598 0.0291295
0.188663 0.0124666 0.0294957
0.243595 0.0122835 0.0296941
0.307668 0.0118105 0.0298772
0.378515 0.01149 0.0306554
0.46363 0.012726 0.0341802
0.547646 0.0199893 0.046952
0.602701 0.044831 0.0858167
0.654673 0.118807 0.194965
0.708873 0.271931 0.357244
0.757534 0.426642 0.516197
0.797543 0.546929 0.596094
0.828626 0.597116 0.641306
0.834958 0.605692 0.650523
0.834958 0.605692 0.650523
0.834775 0.609659 0.650202
0.834455 0.616266 0.65037
0.833722 0.629877 0.64947
0.832258 0.65359 0.64651
0.83003 0.686595 0.639429
0.827985 0.720241 0.626749
0.826612 0.748135 0.608881
0.825666 0.770169 0.593515
0.824414 0.786725 0.612161
0.822629 0.798932 0.669917
0.821164 0.80882 0.725078
0 0.0524605 0.0234073
0 0.0547951 0.0232395
0 0.0570382 0.0230564
0 0.0592203 0.0229038
0 0.0600748 0.0228275
0.052491 0.0602731 0.0239261
0.0920729 0.0590066 0.0248112
0.133257 0.0552224 0.0257725
0.182712 0.0457465 0.0269474
0.244709 0.0122683 0.0297093
0.309651 0.0117952 0.0298924
0.381323 0.01149 0.0307164
0.466804 0.0128328 0.0344091
0.549661 0.0203555 0.0475319
0.603723 0.045655 0.0871138
0.655375 0.120394 0.196963
0.709285 0.273136 0.358511
0.757656 0.427085 0.516564
0.797467 0.546746 0.595972
0.828382 0.596796 0.64097
0.834958 0.605692 0.650523
0.834928 0.606409 0.650462
0.834745 0.6103 0.650156
0.834409 0.617258 0.650172
0.833646 0.631296 0.649256
0.832135 0.655253 0.646189
0.829938 0.688106 0.638911
0.827939 0.721263 0.626001
0.826596 0.748745 0.607904
0.82565 0.770535 0.592294
0.824399 0.786938 0.611353
0.822629 0.799054 0.669596
0.821149 0.808896 0.724956
0 0.0782025 0.0214389
0 0.0800641 0.0213016
0 0.0818952 0.021149
0 0.0833295 0.0210422
0 0.0840314 0.0209812
0.0309758 0.0845197 0.0216983
0.0811627 0.0845502 0.0227207
0.124697 0.0833143 0.0236057
0.175219 0.0799268 0.0244297
0.238071 0.0727245 0.0253147
0.307149 0.0581826 0.0265812
0.38378 0.0115053 0.0307774
0.469993 0.0129244 0.034638
0.551766 0.0207675 0.048188
0.604791 0.0465858 0.0885176
0.656153 0.122133 0.19913
0.709697 0.274388 0.359823
0.757794 0.427543 0.51696
0.797375 0.546532 0.59585
0.828122 0.596445 0.640604
0.834958 0.605692 0.650523
0.834882 0.607553 0.65037
0.834714 0.611017 0.650095
0.834348 0.618357 0.649943
0.833539 0.632822 0.649027
0.832029 0.657008 0.645838
0.829831 0.689647 0.638361
0.827878 0.722316 0.625193
0.826566 0.749371 0.606851
0.825666 0.770932 0.590997
0.824414 0.787167 0.610468
0.822629 0.799191 0.669245
0.821149 0.808972 0.724834
0 0.105226 0.0191348
0 0.106783 0.0189975
0 0.108339 0.0188602
0 0.109209 0.0187839
0 0.109758 0.0187533
0 0.109957 0.0187228
0.062501 0.110872 0.020325
0.112825 0.11075 0.0213779
0.165652 0.10927 0.0222782
0.232502 0.105623 0.0231022
0.304097 0.0983597 0.0241093
0.382666 0.0868391 0.0261234
0.472374 0.0663767 0.0318761
0.554452 0.0213016 0.049073
0.606195 0.0478218 0.0903792
0.65713 0.124407 0.201907
0.710231 0.27602 0.361563
0.757961 0.428122 0.517449
0.797238 0.546212 0.595651
0.827771 0.595972 0.640101
0.834958 0.605692 0.650523
0.834852 0.608286 0.650324
0.834669 0.612009 0.650004
0.834272 0.619806 0.649531
0.833432 0.634821 0.648722
0.831876 0.659251 0.64535
0.829709 0.691615 0.637644
0.827817 0.723644 0.624155
0.826551 0.750164 0.605463
0.825666 0.77142 0.589303
0.824399 0.787442 0.609354
0.822614 0.799359 0.668788
0.821134 0.809064 0.724666
0 0.136172 0.0164492
0 0.13753 0.0163272
0 0.138552 0.0162203
0 0.139223 0.0161746
0 0.139696 0.0161288
0 0.139971 0.0160983
0.00933852 0.140505 0.0167544
0.0928206 0.141451 0.0185855
0.150439 0.141192 0.0197604
0.222232 0.139025 0.0208133
0.29836 0.13431 0.0219577
0.382132 0.127687 0.0240635
0.475624 0.119829 0.0300145
0.557885 0.111727 0.0471046
0.608606 0.101045 0.0923781
0.658473 0.127504 0.205661
0.710964 0.278233 0.363897
0.75819 0.428885 0.518105
0.797055 0.545785 0.595376
0.827283 0.595315 0.639384
0.834913 0.606989 0.650416
0.834791 0.609277 0.650233
0.834607 0.613458 0.649882
0.834165 0.621866 0.649042
0.83328 0.637537 0.648264
0.831678 0.662242 0.644709
0.829541 0.694163 0.636667
0.827726 0.725338 0.622751
0.82652 0.751202 0.603601
0.825666 0.772076 0.586984
0.824414 0.787823 0.607828
0.822599 0.799588 0.668208
0.821134 0.809201 0.724453
0 0.178073 0.0123598
0 0.179431 0.0122072
0 0.180194 0.0121157
0 0.180941 0.0120394
0 0.181491 0.0119631
0 0.181857 0.0119478
0 0.182086 0.0119173
0.0492866 0.18323 0.0137789
0.124788 0.183017 0.0158389
0.202625 0.181201 0.0175479
0.286702 0.177508 0.0191958
0.37763 0.172229 0.0218204
0.477806 0.167147 0.0287022
0.562005 0.167117 0.0476387
0.612146 0.182986 0.0958724
0.662364 0.229267 0.213062
0.712352 0.315694 0.367269
0.758495 0.429892 0.518944
0.796765 0.545113 0.594949
0.826535 0.596033 0.638254
0.834836 0.608423 0.650309
0.83473 0.610773 0.650111
0.834485 0.615579 0.649683
0.834012 0.624826 0.648722
0.833036 0.64123 0.647623
0.831418 0.666178 0.643778
0.829343 0.697444 0.63534
0.827634 0.727535 0.620844
0.826474 0.75256 0.601053
0.825666 0.772915 0.583825
0.824414 0.788296 0.605768
0.822599 0.799878 0.667414
0.821118 0.809369 0.724163
0 0.232776 0.00459297
0 0.233219 0.00451667
0 0.233646 0.00444038
0 0.234012 0.00437934
0 0.234211 0.00433356
0 0.234272 0.00433356
0 0.234165 0.00434882
0 0.233783 0.00440986
0.0772259 0.234989 0.00798047
0.166186 0.234913 0.0108949
0.264393 0.232929 0.0136568
0.365469 0.22887 0.0171969
0.475059 0.224247 0.0252079
0.56495 0.22359 0.0464485
0.615366 0.236774 0.0980545
0.665171 0.276387 0.217975
0.713802 0.352773 0.370428
0.758572 0.460502 0.518624
0.796201 0.553613 0.594034
0.825452 0.596811 0.636652
0.83476 0.610208 0.650156
0.834623 0.613138 0.649897
0.834318 0.618784 0.649363
0.833768 0.629038 0.648234
0.832731 0.64625 0.646662
0.831067 0.671351 0.642481
0.829084 0.70161 0.633509
0.827497 0.730495 0.618235
0.826444 0.754269 0.597559
0.825681 0.773999 0.579873
0.82443 0.788937 0.60296
0.822583 0.800275 0.666362
0.821103 0.809598 0.723796
0 0.294499 0
0 0.294942 0
0 0.295415 0
0 0.295735 0
0 0.295995 0
0 0.296147 0
0 0.296208 0
0 0.296101 0
0 0.295613 0
0.100313 0.2981 0
0.22153 0.298787 0.00196841
0.339879 0.296498 0.0068513
0.462516 0.292561 0.0159915
0.564523 0.291585 0.0395514
0.617624 0.300832 0.0950179
0.667765 0.330861 0.219944
0.715206 0.391043 0.372915
0.75874 0.481834 0.518563
0.795422 0.559579 0.592767
0.82388 0.598032 0.634287
0.834607 0.61323 0.649897
0.834424 0.616938 0.649546
0.834073 0.623652 0.648859
0.833417 0.635081 0.647456
0.832303 0.653056 0.645106
0.83061 0.678126 0.640589
0.828779 0.706859 0.630961
0.827344 0.733974 0.614633
0.826398 0.756481 0.59263
0.825696 0.775402 0.574136
0.824445 0.789761 0.599115
0.822568 0.800763 0.664958
0.821088 0.809903 0.723308
0 0.371359 0
0 0.371832 0
0 0.372259 0
0 0.37261 0
0 0.372869 0
0 0.373083 0
0 0.373251 0
0 0.373312 0
0 0.373144 0
0 0.372747 0
0.121981 0.377249 0
0.287587 0.378958 0
0.433234 0.37702 0
0.556527 0.376089 0.0192721
0.616327 0.381308 0.0770581
0.668696 0.40145 0.209552
0.716014 0.444617 0.370932
0.758556 0.511193 0.516762
0.794095 0.570062 0.590539
0.821591 0.601267 0.630793
0.834348 0.618418 0.649393
0.834089 0.623133 0.648905
0.833661 0.631067 0.64799
0.832898 0.643656 0.646204
0.831708 0.662196 0.642756
0.830045 0.686717 0.637827
0.828412 0.713314 0.627344
0.827161 0.738216 0.609888
0.826368 0.759274 0.585565
0.825757 0.777203 0.561425
0.82446 0.790829 0.593713
0.822553 0.801419 0.66305
0.821057 0.810269 0.722667
0 0.467689 0
0 0.468147 0
0 0.468574 0
0 0.468894 0
0 0.469169 0
0 0.469398 0
0 0.469627 0
0 0.469795 0
0 0.469978 0
0 0.470085 0
0 0.470085 0
0.149096 0.478096 0
0.372412 0.481086 0
0.534005 0.479744 0
0.608865 0.481209 0.0273442
0.665232 0.491218 0.160479
0.714885 0.514122 0.354818
0.757671 0.550195 0.510552
0.792065 0.582788 0.586831
0.818463 0.608713 0.625849
0.833875 0.627222 0.648447
0.833539 0.633036 0.64773
0.833005 0.642145 0.646433
0.832135 0.655604 0.644114
0.830884 0.67425 0.639841
0.829374 0.697215 0.633753
0.828 0.72108 0.622141
0.826963 0.743328 0.603159
0.826352 0.762737 0.575936
0.825879 0.779492 0.537804
0.824521 0.792218 0.585946
0.822538 0.802258 0.660502
0.821012 0.810773 0.721782
0 0.558419 0
0 0.558648 0
0 0.558862 0
0 0.55903 0
0 0.559182 0
0 0.559319 0
0 0.559457 0
0 0.559594 0
0 0.559686 0
0 0.559716 0
0 0.559594 0
0 0.559228 0
0.205798 0.565972 0
0.481743 0.566491 0
0.594232 0.56553 0
0.65626 0.567147 0.0460365
0.710826 0.575265 0.302464
0.755306 0.586374 0.492515
0.788891 0.603769 0.580468
0.814237 0.623148 0.618494
0.833036 0.641474 0.64654
0.832624 0.648142 0.645457
0.831983 0.657984 0.643641
0.831067 0.671656 0.640528
0.829877 0.689418 0.635126
0.828656 0.709545 0.627588
0.827558 0.730297 0.614466
0.82678 0.749386 0.593194
0.826398 0.766995 0.552117
0.826139 0.782391 0.489265
0.824598 0.793973 0.575296
0.822507 0.803326 0.657038
0.820966 0.811399 0.720638
0 0.610574 0
0 0.610666 0
0 0.610742 0
0 0.610803 0
0 0.610864 0
0 0.61091 0
0 0.610956 0
0 0.610986 0
0 0.611002 0
0 0.610956 0
0 0.610834 0
0 0.610529 0
0 0.609934 0
0.310842 0.614862 0
0.567681 0.614099 0
0.641047 0.613596 0
0.701289 0.616068 0.0901503
0.749508 0.623331 0.429709
0.783703 0.633677 0.564385
0.808484 0.64651 0.606531
0.827832 0.660563 0.636698
0.83122 0.669383 0.641093
0.830564 0.679072 0.638483
0.829725 0.691752 0.634256
0.828824 0.706783 0.627543
0.827909 0.723369 0.61796
0.827146 0.740368 0.602777
0.826627 0.756512 0.578027
0.826581 0.772137 0.500053
0.826734 0.78613 0.357977
0.824796 0.796231 0.547402
0.822492 0.804669 0.652247
0.82092 0.812207 0.719112
0 0.659525 0
0 0.659571 0
0 0.659602 0
0 0.659617 0
0 0.659632 0
0 0.659648 0
0 0.659648 0
0 0.659632 0
0 0.659602 0
0 0.659495 0
0 0.659312 0
0 0.658946 0
0 0.658305 0
0 0.657389 0
0.43592 0.662425 0
0.616083 0.661357 0
0.68632 0.66125 0
0.738842 0.664469 0.112856
0.775402 0.670497 0.495415
0.800687 0.677943 0.583215
0.819806 0.687083 0.617365
0.82948 0.695918 0.632624
0.828992 0.703868 0.629038
0.828428 0.713726 0.623529
0.827832 0.725292 0.614939
0.827268 0.738155 0.602213
0.82681 0.751217 0.583871
0.826673 0.764736 0.53463
0.827253 0.778424 0.33283
0.827237 0.790066 0.0128481
0.825254 0.799207 0.472938
0.822461 0.806348 0.645548
0.820844 0.813214 0.717098
0 0.706935 0
0 0.70692 0
0 0.70692 0
0 0.706889 0
0 0.706874 0
0 0.706859 0
0 0.706813 0
0 0.706752 0
0 0.70663 0
0 0.706477 0
0 0.706188 0
0 0.70573 0
0 0.705013 0
0 0.704021 0
0 0.70277 0
0.559365 0.707332 0
0.664897 0.705608 0
0.724163 0.705791 0.000366217
0.763943 0.708003 0.0037232
0.791638 0.712291 0.472587
0.811368 0.716899 0.580774
0.825666 0.722896 0.611627
0.82768 0.728634 0.611856
0.82739 0.735637 0.604425
0.8271 0.743664 0.592889
0.826886 0.752773 0.574731
0.826795 0.762966 0.530999
0.82739 0.774243 0.347677
0.827466 0.78468 0.0125429
0.827024 0.794186 0.013077
0.826444 0.803204 0.128191
0.822461 0.808423 0.635966
0.820752 0.81445 0.714382
0 0.74667 0
0 0.746639 0
0 0.746578 0
0 0.746532 0
0 0.746471 0
0 0.74641 0
0 0.746334 0
0 0.746212 0
0 0.746029 0
0 0.745769 0
0 0.745388 0
0 0.744808 0
0 0.743999 0
0 0.742931 0
0 0.741543 0
0 0.739864 0
0.633844 0.742275 0.0039826
0.70837 0.740673 0.00331121
0.752163 0.740887 0.00518807
0.782254 0.742336 0.00735485
0.804425 0.745235 0.236118
0.818753 0.747555 0.538537
0.826902 0.75108 0.578698
0.826856 0.755383 0.564858
0.826902 0.760952 0.529519
0.827253 0.767834 0.428931
0.827848 0.775662 0.100237
0.827527 0.783307 0.0124666
0.827161 0.791058 0.0129091
0.826764 0.798871 0.0133364
0.826307 0.806546 0.0137484
0.822507 0.81091 0.621637
0.820645 0.816007 0.710735
0 0.77641 0.00537118
0 0.776333 0.00535592
0 0.776257 0.0053254
0 0.776181 0.00529488
0 0.776104 0.0052491
0 0.776013 0.00521859
0 0.775891 0.00517281
0 0.775723 0.00511177
0 0.775494 0.00502022
0 0.775174 0.00489815
0 0.774701 0.00471504
0 0.77409 0.00447089
0 0.773236 0.0041352
0 0.772122 0.00370794
0 0.770718 0.00315862
0 0.768978 0.00250248
0.57673 0.770626 0.0123445
0.691783 0.767163 0.00717174
0.740826 0.766262 0.0075227
0.773159 0.76643 0.00889601
0.796506 0.767361 0.0101778
0.81326 0.769055 0.0110933
0.826169 0.771634 0.132662
0.827909 0.774212 0.0587015
0.827771 0.777539 0.0121462
0.827588 0.781704 0.0123751
0.827375 0.786572 0.0126497
0.8271 0.791913 0.0129397
0.826795 0.797772 0.0132753
0.826429 0.803998 0.013611
0.826047 0.8103 0.0139315
0.822629 0.813809 0.601785
0.820523 0.817838 0.705776
0 0.799191 0.014435
0 0.7991 0.0144045
0 0.799008 0.0143587
0 0.798901 0.0143282
0 0.798795 0.0142824
0 0.798688 0.0142367
0 0.79855 0.0141756
0 0.798352 0.0140993
0 0.798077 0.0139925
0 0.797726 0.0138552
0 0.797253 0.0136721
0 0.796613 0.0134127
0 0.795758 0.0130617
0 0.794659 0.0126345
0 0.793286 0.0120851
0 0.791577 0.0113985
0 0.78967 0.0106355
0.672877 0.788113 0.0112764
0.729961 0.786404 0.00993362
0.764477 0.785824 0.0105287
0.788876 0.785855 0.0113527
0.806683 0.78645 0.0120241
0.820447 0.787564 0.0125277
0.827253 0.789075 0.0127871
0.827146 0.790906 0.0128939
0.827024 0.793393 0.0130312
0.826856 0.796536 0.0131991
0.826627 0.80032 0.0134127
0.826368 0.804669 0.0136416
0.826062 0.8094 0.0138857
0.825727 0.814359 0.0141299
0.822492 0.816831 0.593896
0.820386 0.820005 0.69894
0 0.815747 0.0209354
0 0.815625 0.0208896
0 0.815518 0.0208438
0 0.815412 0.020798
0 0.81529 0.0207675
0 0.815167 0.0207218
0 0.815015 0.0206607
0 0.814817 0.0205844
0 0.814542 0.0204623
0 0.814191 0.0203403
0 0.813703 0.0201572
0 0.813077 0.0198978
0 0.812268 0.0195926
0 0.811215 0.0191806
0 0.809888 0.0186618
0 0.80827 0.0180362
0 0.806516 0.0173342
0.654597 0.804013 0.0150301
0.720943 0.801633 0.0119173
0.757473 0.800626 0.0118563
0.782269 0.800198 0.0123445
0.800732 0.800168 0.0128328
0.815229 0.800534 0.0131991
0.826123 0.801312 0.0134585
0.82649 0.802274 0.0135195
0.826398 0.803784 0.0135958
0.826261 0.805829 0.0137026
0.826093 0.808392 0.0138399
0.825879 0.811429 0.0139925
0.825635 0.814862 0.0141451
0.825376 0.81857 0.0143282
0.822324 0.820142 0.586648
0.820157 0.822339 0.698634
0 0.828138 0.0255436
0 0.828016 0.0254978
0 0.827909 0.0254673
0 0.827787 0.0254215
0 0.82768 0.0253758
0 0.827573 0.0253452
0 0.82742 0.0252842
0 0.827207 0.0252079
0 0.826947 0.0251164
0 0.826612 0.0249943
0 0.826139 0.0248264
0 0.825559 0.0246128
0 0.824796 0.0243381
0 0.823819 0.0239719
0 0.822599 0.0235142
0 0.821164 0.0229801
0 0.819654 0.0224155
0.640177 0.816632 0.0181735
0.714641 0.813748 0.0134737
0.752041 0.812528 0.0129091
0.77673 0.811887 0.013138
0.795361 0.811566 0.0134737
0.810193 0.811505 0.0137636
0.821561 0.811749 0.0139467
0.825788 0.812207 0.014023
0.825742 0.81297 0.0140688
0.825635 0.81416 0.0141146
0.825513 0.815763 0.0141909
0.82536 0.817761 0.0142824
0.825177 0.820142 0.0143893
0.824979 0.822873 0.0144961
0.822019 0.82356 0.583734
0.819852 0.824872 0.700328
0 0.837247 0.0287327
0 0.837156 0.0287022
0 0.837049 0.0286564
0 0.836942 0.0286259
0 0.836835 0.0285801
0 0.836713 0.0285496
0 0.836576 0.0285039
0 0.836393 0.0284428
0 0.836133 0.0283513
0 0.835828 0.0282444
0 0.835416 0.0281071
0 0.834867 0.027924
0 0.834165 0.0276646
0 0.83328 0.0273594
0 0.832242 0.0270085
0 0.831067 0.0265965
0 0.829816 0.0261387
0.639643 0.826185 0.0196384
0.712779 0.82324 0.0145113
0.748913 0.821988 0.0136873
0.772732 0.821241 0.0137484
0.791119 0.820752 0.013962
0.805798 0.820447 0.0141756
0.817334 0.820371 0.014313
0.825071 0.820493 0.0144045
0.825055 0.820737 0.0144198
0.82501 0.821332 0.014435
0.824918 0.822278 0.0144808
0.824811 0.823575 0.0145266
0.824689 0.825193 0.0145876
0.824552 0.827115 0.0146639
0.821546 0.826886 0.590158
0.819516 0.827482 0.703807
0 0.843641 0.0308232
0 0.843549 0.0307927
0 0.843458 0.0307774
0 0.843351 0.0307317
0 0.843259 0.0307012
0 0.843168 0.0306706
0 0.84303 0.0306401
0 0.842863 0.0305791
0 0.842649 0.030518
0 0.842359 0.0304112
0 0.841993 0.0303044
0 0.841535 0.0301518
0 0.84097 0.0299687
0 0.840269 0.0297398
0 0.83946 0.0294652
0 0.838544 0.02916
0 0.837568 0.0288396
0.658427 0.832837 0.0188449
0.716518 0.830533 0.0149844
0.748531 0.829389 0.0142061
0.770611 0.828656 0.0141604
0.78819 0.828107 0.0142977
0.802365 0.827695 0.0144656
0.813672 0.827451 0.0145876
0.822858 0.827359 0.0146639
0.824384 0.827359 0.0146639
0.824353 0.827558 0.0146792
0.824323 0.828046 0.0146944
0.824262 0.828809 0.0147097
0.824186 0.829847 0.0147555
0.824125 0.831128 0.014786
0.820829 0.829877 0.609186
0.819135 0.83003 0.709651
0 0.84802 0.0321965
0 0.847929 0.032166
0 0.847852 0.0321508
0 0.847791 0.0321355
0 0.847715 0.032105
0 0.847623 0.0320745
0 0.847532 0.0320439
0 0.847425 0.0320134
0 0.847257 0.0319677
0 0.847044 0.0318914
0 0.846769 0.0318151
0 0.846433 0.0317082
0 0.846021 0.0315862
0 0.845518 0.0314336
0 0.844938 0.0312352
0 0.844266 0.0310216
0.586816 0.841886 0.0267643
0.685298 0.837674 0.0172122
0.724941 0.836133 0.0150759
0.750774 0.835218 0.0145113
0.770459 0.834531 0.014435
0.786618 0.833967 0.0145418
0.799878 0.833524 0.0146639
0.810742 0.833204 0.0147555
0.819699 0.83299 0.0148165
0.823743 0.832837 0.0148318
0.823758 0.832807 0.0148318
0.823758 0.832959 0.014847
0.823743 0.833341 0.014847
0.823728 0.833936 0.0148623
0.823728 0.83473 0.0148928
0.819974 0.832486 0.637598
0.818723 0.832502 0.718227
0 0.848951 0.0324865
0 0.848951 0.0324865
0 0.848951 0.0324865
0 0.848951 0.0324865
0 0.848951 0.0324865
0 0.848951 0.0324865
0 0.848951 0.0324865
0 0.848966 0.0324865
0 0.848966 0.0324865
0 0.848966 0.0324865
0 0.848966 0.0324865
0 0.848966 0.0324865
0 0.848981 0.0324865
0 0.848997 0.0325017
0 0.84889 0.0324712
0.604776 0.845716 0.0254063
0.67538 0.842618 0.0183108
0.711284 0.841184 0.0159152
0.736339 0.840269 0.0149844
0.755825 0.839582 0.0146639
0.772412 0.838987 0.0146181
0.786572 0.838468 0.0146944
0.798505 0.838026 0.014786
0.808667 0.837674 0.0148623
0.817227 0.837385 0.0149233
0.823178 0.837186 0.0149538
0.823224 0.837018 0.0149386
0.823255 0.836988 0.0149386
0.823285 0.83711 0.0149538
0.823316 0.837415 0.0149538
0.823377 0.837903 0.0149691
0.819104 0.834791 0.669078
0.818326 0.834775 0.729534
0 0.849012 0.0325017
0 0.849012 0.0325017
0 0.849012 0.0325017
0 0.849012 0.0325017
0 0.849012 0.0325017
0 0.849012 0.0325017
0 0.849027 0.0325017
0 0.849027 0.0325017
0 0.849027 0.0325017
0 0.849027 0.0325017
0.431617 0.849989 0.035523
0.583963 0.847135 0.0277104
0.624826 0.845533 0.0233005
0.654536 0.844419 0.020264
0.678706 0.843656 0.0181125
0.699397 0.843122 0.0166629
0.717632 0.842786 0.0157015
0.734066 0.842603 0.0151369
0.749081 0.842512 0.0148318
0.763088 0.842512 0.014725
0.776104 0.842329 0.014725
0.7879 0.841901 0.014786
0.798245 0.841505 0.0148623
0.807431 0.841138 0.0149386
0.815335 0.840833 0.0149844
0.821851 0.84062 0.0150149
0.822766 0.840406 0.0150149
0.822843 0.840253 0.0150149
0.822904 0.840253 0.0149996
0.822995 0.840375 0.0150149
0.819776 0.837812 0.610559
0.818372 0.836789 0.699504
0.81796 0.836805 0.742626
0.687907 0.843427 0.0174258
0.689082 0.843397 0.0173495
0.690242 0.843366 0.017258
0.691371 0.843336 0.0171817
0.69247 0.843305 0.0171206
0.693599 0.84329 0.0170291
0.695018 0.843259 0.0169375
0.696818 0.843214 0.0168307
0.699123 0.843168 0.0166781
