BBLuts/BB_103_0050_LUT.cube
TITLE "Generated by Resolve"
LUT_3D_SIZE 5
0.00015259 0.00114443 0.000137331
0.222293 0 0
0.900847 0 0
1 0.65922 0.0719158
1 1 0.848356
0 0.255344 0
0.158175 0.258778 0
0.904372 0.123613 0
1 0.734981 0.029099
1 1 0.847959
0 0.987259 0
0 0.986862 0
0.757382 0.980301 0
1 1 0
1 1 0.842069
0.568338 1 0.177691
0.568338 1 0.177691
0.811231 1 0.194812
1 1 0.350668
1 1 0.890532
1 1 1
1 1 1
1 1 1
1 1 1
1 1 1
0.00181582 0.00355535 0.184665
0.187076 0.000885023 0.181247
0.902968 0 0.172122
1 0.644144 0.248798
1 1 0.848386
0 0.210208 0.168399
0.165393 0.207599 0.162951
0.902083 0.0134737 0.157198
1 0.724819 0.230564
1 1 0.847959
0 0.980209 0
0 0.979797 0
0.764294 0.973388 0
1 1 0.0268559
1 1 0.842069
0.579507 1 0.177234
0.579507 1 0.177234
0.81445 1 0.194232
1 1 0.350423
1 1 0.890532
1 1 1
1 1 1
1 1 1
1 1 1
1 1 1
0 0 0.855467
0 0 0.855604
0.882628 0 0.837537
1 0.325368 0.864713
1 1 0.996948
0 0 0.853773
0 0 0.85388
0.896147 0 0.834974
1 0.509544 0.861662
1 1 0.996719
0 0.89604 0.792203
0 0.896117 0.792248
0.725307 0.893278 0.798474
1 1 0.82652
1 1 0.993957
0.571023 1 0.625711
0.571023 1 0.625711
0.797909 1 0.633463
1 1 0.705989
1 1 0.964157
1 1 1
1 1 1
1 1 1
1 1 1
1 1 1
0 0 1
0 0 1
0 0 1
1 0 1
1 1 1
0 0 1
0 0 1
0 0 1
1 0 1
1 1 1
0 0 1
0 0 1
0 0 1
1 0 1
1 1 1
0 1 1
0 1 1
0 1 1
1 1 1
1 1 1
1 1 1
1 1 1
1 1 1
1 1 1
1 1 1
0 0.346273 1
0 0.346273 1
0 0.346273 1
0 0.346365 1
1 0.835462 1
0 0.346273 1
0 0.346273 1
0 0.346273 1
0 0.346365 1
1 0.835462 1
0 0.346273 1
0 0.346273 1
0 0.346273 1
0 0.346365 1
1 0.835462 1
0 0.344884 1
0 0.344884 1
0 0.344884 1
0 0.344961 1
1 0.841825 1
0.999237 1 1
0.999237 1 1
0.999237 1 1
0.999237 1 1
1 1 1
