BBLuts/BB_101_0240_LUT.cube
TITLE "Generated by Resolve"
LUT_3D_SIZE 9
0.0136568 0.0245823 0.028275
0.0136568 0.0245823 0.028275
0.0962081 0.0301213 0.0341802
0.324956 0.00775158 0.0346532
0.825742 0 0.00358587
0.998688 0 0
0.922774 0.393057 0.000869764
0.920638 0.818402 0.528206
0.952575 0.932631 0.854795
0.0129549 0.0503548 0.0417334
0.0121462 0.0568704 0.0436408
0.118303 0.0547951 0.0332799
0.337514 0.00616464 0.0341039
0.83003 0 0.00341802
0.998688 0 0
0.912718 0.43238 0.000106813
0.921721 0.824964 0.537057
0.95259 0.932631 0.854734
0 0.172976 0.0605173
0 0.175296 0.0605478
0.0996262 0.173983 0.0688487
0.2972 0.16849 0.0296483
0.793515 0.00175479 4.57771e-05
0.965682 0.0482948 0
0.89456 0.484718 0.000244144
0.923552 0.835004 0.549355
0.95259 0.932631 0.854597
0 0.358267 0.0591592
0 0.359319 0.059144
0 0.359792 0.059144
0.265461 0.34728 0.103059
0.664912 0.368795 0.00202945
0.894163 0.413672 0
0.88748 0.601144 0.0726635
0.928573 0.861326 0.579248
0.952621 0.932647 0.8542
0.216373 0.719982 0.190387
0.216373 0.719982 0.190387
0.21561 0.719371 0.18999
0.210559 0.715419 0.187396
0.664149 0.708736 0.251179
0.908064 0.734096 0.233295
0.920027 0.802594 0.298421
0.943847 0.916594 0.663569
0.952697 0.932662 0.85304
0.527382 0.912337 0.333242
0.527382 0.912337 0.333242
0.527382 0.912337 0.333242
0.527382 0.912337 0.333242
0.798169 0.911177 0.526574
0.950652 0.924575 0.334539
0.950652 0.924575 0.334539
0.948043 0.930953 0.712276
0.952773 0.932708 0.851652
0.705776 0.910689 0.417151
0.718563 0.911467 0.441962
0.737667 0.912902 0.493309
0.789548 0.913863 0.566842
0.871427 0.916915 0.640711
0.949096 0.927977 0.560723
0.948775 0.929549 0.662745
0.950515 0.930419 0.764523
0.953002 0.934752 0.862791
0.935592 0.928512 0.815763
0.936767 0.928893 0.815091
0.938659 0.929503 0.813947
0.944045 0.931243 0.810788
0.949996 0.93315 0.808026
0.94992 0.933089 0.811414
0.950088 0.933089 0.822736
0.953002 0.932784 0.848188
0.956024 0.935653 0.889021
0.959014 0.936904 0.903883
0.959014 0.936904 0.903883
0.959014 0.936919 0.903929
0.959014 0.936934 0.903975
0.959014 0.936965 0.904112
0.958984 0.937072 0.904509
0.958923 0.937392 0.905821
0.95874 0.938277 0.909361
0.958648 0.938766 0.911299
0.0125277 0.0254978 0.0421302
0.0125124 0.0254978 0.0422065
0.0793622 0.0359045 0.0598917
0.282734 0.0281834 0.0817731
0.836439 0 0.0452125
0.999634 0 0.0686809
0.941802 0.376364 0.0571298
0.920867 0.817563 0.544915
0.952621 0.933074 0.857359
0.0133822 0.0397498 0.0517128
0.0242466 0.0486152 0.0581216
0.092256 0.0360571 0.0576028
0.301778 0.019913 0.0710918
0.840436 0 0.0149844
0.999924 0 0.0375219
0.928267 0.419333 0.0374456
0.921721 0.824308 0.554559
0.952621 0.933043 0.857267
3.0518e-05 0.166079 0.060029
1.5259e-05 0.168399 0.0601968
0.113344 0.167132 0.0716411
0.297337 0.162203 0.027039
0.80531 0.000244144 0.000610361
0.969741 0.0292058 0
0.909712 0.47628 0.0259098
0.923308 0.83447 0.567834
0.952605 0.932998 0.857099
0 0.354589 0.0591745
0 0.355535 0.0591592
0 0.355901 0.0591592
0.270497 0.344778 0.0965133
0.664225 0.365362 0.00148013
0.894743 0.410315 0
0.887068 0.600015 0.0856641
0.92813 0.861097 0.599649
0.95256 0.93283 0.85655
0.214054 0.718151 0.189197
0.213855 0.717998 0.18909
0.213077 0.717403 0.188693
0.207843 0.713298 0.186007
0.666178 0.707393 0.24712
0.907835 0.732799 0.231922
0.919905 0.801892 0.297887
0.943709 0.916548 0.668238
0.95256 0.932616 0.855222
0.527382 0.912337 0.333242
0.527382 0.912337 0.333242
0.527382 0.912337 0.333242
0.527382 0.912337 0.333242
0.799558 0.911208 0.526894
0.950652 0.924575 0.334539
0.950652 0.924575 0.334539
0.948043 0.930953 0.712215
0.952758 0.932692 0.851865
0.707744 0.910765 0.420279
0.720378 0.91165 0.4477
0.739467 0.912886 0.495689
0.790906 0.913878 0.56817
0.871931 0.916976 0.64062
0.949096 0.927977 0.56054
0.948775 0.929549 0.662745
0.950515 0.930419 0.764462
0.953002 0.934737 0.862745
0.935821 0.928588 0.81561
0.93698 0.928954 0.814893
0.938796 0.929549 0.81384
0.944198 0.931289 0.810697
0.949996 0.93315 0.808026
0.94992 0.933089 0.811414
0.950088 0.933089 0.822675
0.953002 0.932784 0.848188
0.956024 0.935653 0.889021
0.959014 0.936904 0.903883
0.959014 0.936904 0.903883
0.959014 0.936919 0.903929
0.959014 0.936934 0.903975
0.959014 0.936965 0.904112
0.958984 0.937072 0.904509
0.958923 0.937392 0.905821
0.95874 0.938277 0.909361
0.958648 0.938766 0.911299
0.0108949 0.030869 0.082063
0.0108949 0.030869 0.0821088
0.0673686 0.0395209 0.115114
0.242756 0.0580301 0.151644
0.671473 0.00228885 0.174945
0.888975 0 0.191791
0.967391 0.34197 0.179339
0.920806 0.816022 0.567864
0.952941 0.934478 0.861891
0.0109102 0.0306859 0.080766
0.0109102 0.0307012 0.0808576
0.0813306 0.0415503 0.117052
0.242176 0.0573739 0.149722
0.679896 0.0015259 0.171633
0.894636 0 0.186328
0.955505 0.38999 0.159854
0.921599 0.822782 0.578546
0.952926 0.934447 0.861814
0 0.150805 0.16144
0 0.152468 0.161395
0.0975967 0.151537 0.156954
0.304692 0.137591 0.155825
0.688212 0.000747692 0.162737
0.956344 0 0.155596
0.933135 0.455558 0.137316
0.922988 0.833143 0.593469
0.952926 0.934401 0.861631
0 0.345449 0.114809
0 0.34641 0.11545
0 0.346883 0.116365
0.272984 0.335622 0.14995
0.678584 0.354681 0.0181735
0.923949 0.38854 0.00132753
0.902373 0.596613 0.161044
0.927611 0.86125 0.628138
0.95288 0.934249 0.861173
0.20882 0.714061 0.186511
0.208621 0.713909 0.186404
0.207843 0.713298 0.186007
0.202808 0.709346 0.183413
0.667185 0.704082 0.241062
0.907286 0.729671 0.228565
0.918975 0.802411 0.334905
0.942855 0.915557 0.694972
0.952789 0.933791 0.859663
0.527382 0.912337 0.333242
0.527382 0.912337 0.333242
0.527382 0.912337 0.333242
0.527382 0.912337 0.333242
0.80177 0.911192 0.52726
0.950652 0.924575 0.334539
0.950652 0.924575 0.334539
0.948058 0.930953 0.712016
0.952544 0.932616 0.855421
0.710994 0.910903 0.425437
0.723262 0.911925 0.456916
0.742382 0.912871 0.499565
0.793103 0.913878 0.570367
0.872801 0.917067 0.640497
0.949096 0.927977 0.560357
0.948775 0.929534 0.662638
0.950515 0.930419 0.764401
0.953002 0.934737 0.862745
0.93611 0.928679 0.815381
0.93727 0.929061 0.81471
0.939101 0.929641 0.813657
0.944488 0.93138 0.810468
0.949996 0.93315 0.80798
0.94992 0.933089 0.811368
0.950088 0.933089 0.822675
0.953002 0.932784 0.848188
0.956024 0.935653 0.889021
0.959014 0.936904 0.903883
0.959014 0.936904 0.903883
0.959014 0.936919 0.903929
0.959014 0.936934 0.903975
0.959014 0.936965 0.904112
0.958984 0.937072 0.904509
0.958923 0.937377 0.905776
0.95874 0.938277 0.909361
0.958648 0.938766 0.911299
0.00720226 0.0396124 0.168902
0.00720226 0.0396277 0.168963
0.00720226 0.0396277 0.169024
0.220645 0.0663005 0.255634
0.628519 0.0652018 0.319615
0.816526 0.000396735 0.345937
0.875822 0.336385 0.405783
0.923186 0.810712 0.622339
0.955062 0.936049 0.873503
0.00724804 0.0395361 0.168032
0.00724804 0.0395361 0.168093
0.0256504 0.0424048 0.189456
0.230259 0.0677501 0.256016
0.625467 0.0654459 0.317922
0.817227 0.000289921 0.343832
0.89807 0.369207 0.403876
0.922957 0.817761 0.634165
0.955047 0.936049 0.873411
0.000183108 0.0826429 0.231388
0.000137331 0.0865187 0.235508
0.0384375 0.0875563 0.249592
0.234379 0.0683909 0.254597
0.615488 0.0672618 0.314595
0.818509 0.000122072 0.340032
0.928588 0.415656 0.39089
0.922637 0.828656 0.652628
0.955001 0.936049 0.873274
0 0.315648 0.303014
0 0.317021 0.303288
0 0.317937 0.303838
0.252262 0.314336 0.301595
0.681147 0.299519 0.302541
0.934203 0.328832 0.31519
0.939696 0.557366 0.332815
0.926146 0.85626 0.693782
0.954894 0.936049 0.872847
0.203967 0.700084 0.341253
0.2038 0.699931 0.341634
0.203281 0.699489 0.342016
0.199008 0.695979 0.341863
0.660868 0.691752 0.403479
0.907881 0.725994 0.351476
0.917693 0.800305 0.501015
0.94284 0.912474 0.754055
0.954574 0.936034 0.871641
0.527382 0.912337 0.333242
0.527382 0.912337 0.333242
0.527382 0.912337 0.333242
0.527382 0.912337 0.333242
0.801648 0.911192 0.52723
0.94966 0.925872 0.376165
0.948821 0.928252 0.640131
0.950484 0.930388 0.758297
0.953658 0.936004 0.868193
0.720317 0.911513 0.447028
0.73164 0.912779 0.484749
0.750957 0.91281 0.510964
0.79942 0.913741 0.577066
0.87541 0.917342 0.639887
0.949096 0.927977 0.559625
0.948775 0.929534 0.662638
0.950515 0.930419 0.764172
0.952987 0.934722 0.862669
0.93698 0.928954 0.814771
0.938079 0.929305 0.814145
0.939971 0.929931 0.813001
0.94522 0.931624 0.809949
0.949996 0.93315 0.807935
0.94992 0.933089 0.811322
0.950088 0.933089 0.822614
0.953002 0.932784 0.848157
0.956008 0.935653 0.888975
0.959014 0.936904 0.903883
0.959014 0.936904 0.903883
0.959014 0.936904 0.903883
0.959014 0.936934 0.903975
0.959014 0.936965 0.904112
0.958984 0.937072 0.904509
0.958923 0.937377 0.905776
0.958755 0.938277 0.909316
0.958648 0.938766 0.911299
0 0.0525978 0.540352
0 0.0526131 0.540597
0 0.0526131 0.540841
0.0105592 0.0629892 0.621088
0.559442 0.114916 0.649912
0.741405 0.110918 0.65803
0.759594 0.210895 0.681926
0.925628 0.784802 0.797101
0.95819 0.935805 0.89633
0 0.0525673 0.538613
0 0.0525826 0.538857
0 0.0525826 0.539361
0.0298619 0.0646525 0.626093
0.567269 0.115557 0.648463
0.741482 0.110842 0.65687
0.773648 0.284428 0.682292
0.929747 0.792599 0.797101
0.95819 0.935805 0.896284
0 0.0525216 0.535882
0 0.0525368 0.536126
0 0.0525368 0.53637
0.078706 0.0670481 0.633097
0.572045 0.115923 0.645838
0.741588 0.110704 0.654688
0.791638 0.366552 0.68545
0.9337 0.805371 0.795697
0.95816 0.935805 0.896208
0 0.208179 0.63917
0 0.210025 0.639582
0 0.212497 0.640116
0.0961013 0.208911 0.651408
0.577081 0.173175 0.636683
0.768505 0.237461 0.645014
0.840238 0.516243 0.698222
0.93814 0.840131 0.793454
0.958083 0.935805 0.895933
0.141619 0.646052 0.673671
0.14229 0.646448 0.673854
0.142504 0.646571 0.674128
0.138766 0.64448 0.67425
0.613672 0.647837 0.673854
0.919936 0.673091 0.693874
0.937407 0.769055 0.712169
0.941741 0.90605 0.837385
0.957824 0.935775 0.895109
0.562402 0.920943 0.736843
0.562417 0.920943 0.736996
0.562463 0.920928 0.737224
0.56257 0.920928 0.737896
0.771939 0.91931 0.757839
0.94992 0.933074 0.812833
0.950164 0.933059 0.828153
0.952667 0.932662 0.85333
0.957183 0.935729 0.892912
0.7149 0.917388 0.684871
0.726131 0.917891 0.687587
0.742641 0.918135 0.69221
0.784176 0.919676 0.702037
0.868086 0.922652 0.743084
0.950545 0.930449 0.770153
0.950225 0.933196 0.796139
0.951064 0.932891 0.840558
0.955932 0.935699 0.887144
0.939529 0.929778 0.812924
0.940627 0.930129 0.812299
0.942458 0.930724 0.8112
0.947478 0.932342 0.808286
0.950011 0.93315 0.807752
0.949935 0.933089 0.811139
0.950088 0.933089 0.822461
0.953002 0.932784 0.848157
0.955978 0.935637 0.888884
0.95903 0.936889 0.903838
0.959014 0.936904 0.903883
0.959014 0.936904 0.903883
0.959014 0.936919 0.903929
0.959014 0.93695 0.904067
0.958984 0.937072 0.904509
0.958923 0.937377 0.905776
0.958755 0.938277 0.909316
0.958648 0.938766 0.911299
0 0.0495766 0.87892
0 0.0495766 0.87892
0 0.0495766 0.87892
0 0.0495766 0.87892
0.350774 0.111101 0.921569
0.742107 0.106981 0.913725
0.742107 0.106981 0.913725
0.866133 0.691142 0.888792
0.958648 0.938766 0.911299
0 0.0495766 0.87892
0 0.0495766 0.87892
0 0.0495766 0.87892
0 0.0495766 0.87892
0.362936 0.111955 0.921569
0.742107 0.106981 0.913725
0.742107 0.106981 0.913725
0.871214 0.70692 0.888975
0.958648 0.938766 0.911299
0 0.0495766 0.87892
0 0.0495766 0.87892
0 0.0495766 0.87892
0 0.0495766 0.87892
0.382086 0.113436 0.921569
0.742107 0.106981 0.913725
0.742107 0.106981 0.913725
0.878737 0.730083 0.889479
0.958648 0.938766 0.911299
0 0.0495766 0.87892
0 0.0495766 0.87892
0 0.0495766 0.87892
0 0.0495766 0.87892
0.423301 0.117006 0.921843
0.742107 0.106981 0.913725
0.742107 0.106981 0.913725
0.897917 0.784756 0.891096
0.958648 0.938766 0.911299
0 0.447944 0.907942
0 0.449256 0.907805
0 0.45127 0.907591
0 0.45449 0.907256
0.431464 0.466072 0.905577
0.809506 0.498466 0.896529
0.858091 0.665263 0.889509
0.92929 0.881056 0.899626
0.958648 0.938766 0.911299
0.620569 0.924544 0.910704
0.620569 0.924544 0.910704
0.620569 0.924544 0.910704
0.620569 0.924544 0.910704
0.749523 0.923476 0.905791
0.958648 0.938766 0.911299
0.958648 0.938766 0.911299
0.958648 0.938766 0.911299
0.958648 0.938766 0.911299
0.683665 0.920684 0.892287
0.695476 0.920668 0.891829
0.715053 0.921004 0.891829
0.761501 0.922744 0.893217
0.850645 0.927962 0.89575
0.953262 0.936828 0.904204
0.958892 0.93756 0.906493
0.958648 0.938766 0.911299
0.958648 0.938766 0.911299
0.934325 0.932692 0.883787
0.935637 0.932876 0.884062
0.937804 0.933165 0.884459
0.943954 0.93402 0.885573
0.955901 0.935668 0.887861
0.955993 0.935637 0.88893
0.95697 0.935714 0.89221
0.959182 0.93611 0.900694
0.958648 0.938766 0.911299
0.95903 0.936889 0.903792
0.95903 0.936889 0.903792
0.95903 0.936889 0.903792
0.95903 0.936889 0.903838
0.959014 0.936934 0.904021
0.958999 0.937041 0.904418
0.958938 0.937362 0.905684
0.958755 0.938262 0.90927
0.958648 0.938766 0.911299
0 0.0495766 0.87892
0 0.0495766 0.87892
0 0.0495766 0.87892
0 0.0495766 0.87892
0 0.0495766 0.87892
0.742107 0.106981 0.913725
0.742107 0.106981 0.913725
0.742107 0.106981 0.913725
0.958648 0.938766 0.911299
0 0.0495766 0.87892
0 0.0495766 0.87892
0 0.0495766 0.87892
0 0.0495766 0.87892
0 0.0495766 0.87892
0.742107 0.106981 0.913725
0.742107 0.106981 0.913725
0.742107 0.106981 0.913725
0.958648 0.938766 0.911299
0 0.0495766 0.87892
0 0.0495766 0.87892
0 0.0495766 0.87892
0 0.0495766 0.87892
0 0.0495766 0.87892
0.742107 0.106981 0.913725
0.742107 0.106981 0.913725
0.742107 0.106981 0.913725
0.958648 0.938766 0.911299
0 0.0495766 0.87892
0 0.0495766 0.87892
0 0.0495766 0.87892
0 0.0495766 0.87892
0 0.0495766 0.87892
0.742107 0.106981 0.913725
0.742107 0.106981 0.913725
0.742107 0.106981 0.913725
0.958648 0.938766 0.911299
0 0.0495766 0.87892
0 0.0495766 0.87892
0 0.0495766 0.87892
0 0.0495766 0.87892
0 0.0733196 0.906355
0.742107 0.106981 0.913725
0.742107 0.106981 0.913725
0.82153 0.543252 0.893278
0.958648 0.938766 0.911299
0.344427 0.814328 0.898466
0.345357 0.814725 0.898497
0.346914 0.815381 0.898528
0.351873 0.817487 0.89865
0.334493 0.810117 0.898238
0.909361 0.818235 0.894392
0.919692 0.852308 0.89691
0.95465 0.931731 0.909758
0.958648 0.938766 0.911299
0.620569 0.924544 0.910704
0.620569 0.924544 0.910704
0.620569 0.924544 0.910704
0.620569 0.924544 0.910704
0.781674 0.925368 0.90544
0.933013 0.935622 0.911406
0.958648 0.938766 0.911299
0.958648 0.938766 0.911299
0.958648 0.938766 0.911299
0.914092 0.933135 0.909209
0.915602 0.933135 0.909209
0.917998 0.93312 0.909194
0.924804 0.934218 0.910155
0.942718 0.936965 0.911849
0.958648 0.938766 0.911299
0.958648 0.938766 0.911299
0.958648 0.938766 0.911299
0.958648 0.938766 0.911299
0.958648 0.938766 0.911299
0.958648 0.938766 0.911299
0.958648 0.938766 0.911299
0.958648 0.938766 0.911299
0.958648 0.938766 0.911299
0.958648 0.938766 0.911299
0.958648 0.938766 0.911299
0.958648 0.938766 0.911299
0.958648 0.938766 0.911299
0 0.0923323 0.893996
0 0.0923323 0.893996
0 0.0923323 0.893996
0 0.0924392 0.894011
0 0.0924392 0.894011
0 0.092546 0.894026
0.742107 0.106981 0.913725
0.742107 0.106981 0.913725
0.838849 0.600626 0.890562
0 0.0923323 0.893996
0 0.0923323 0.893996
0 0.0923323 0.893996
0 0.0923323 0.893996
0 0.0924392 0.894011
0 0.092546 0.894026
0.742107 0.106981 0.913725
0.742107 0.106981 0.913725
0.838849 0.600626 0.890562
0 0.0923323 0.893996
0 0.0923323 0.893996
0 0.0923323 0.893996
0 0.0923323 0.893996
0 0.0923323 0.893996
0 0.092546 0.894026
0.742107 0.106981 0.913725
0.742107 0.106981 0.913725
0.838819 0.600504 0.890562
0 0.0922255 0.89398
0 0.0922255 0.89398
0 0.0922255 0.89398
0 0.0922255 0.89398
0 0.0923323 0.893996
0 0.0712596 0.888579
0.742107 0.106981 0.913725
0.742107 0.106981 0.913725
0.838788 0.600381 0.890562
0 0.0919051 0.89395
0 0.0919051 0.89395
0 0.0919051 0.89395
0 0.0919051 0.89395
0 0.0919051 0.89395
0 0.0763256 0.908095
0.742107 0.106981 0.913725
0.742107 0.106981 0.913725
0.838605 0.599802 0.890562
0 0.0908217 0.893767
0 0.0908217 0.893767
0 0.0908217 0.893767
0 0.0908217 0.893767
0 0.0908217 0.893767
0.553826 0.123842 0.921569
0.742107 0.106981 0.913725
0.746624 0.133318 0.913725
0.931624 0.886259 0.900587
0.620569 0.924544 0.910704
0.620569 0.924544 0.910704
0.620569 0.924544 0.910704
0.620569 0.924544 0.910704
0.620569 0.924544 0.910704
0.844938 0.92813 0.906691
0.958648 0.938766 0.911299
0.958648 0.938766 0.911299
0.958648 0.938766 0.911299
0.794598 0.925338 0.904997
0.800229 0.925414 0.904967
0.809049 0.925612 0.905074
0.830427 0.928084 0.907057
0.880629 0.930343 0.909285
0.949172 0.937697 0.91162
0.958648 0.938766 0.911299
0.958648 0.938766 0.911299
0.958648 0.938766 0.911299
0.958648 0.938766 0.911299
0.958648 0.938766 0.911299
0.958648 0.938766 0.911299
0.958648 0.938766 0.911299
0.958648 0.938766 0.911299
0.958648 0.938766 0.911299
0.958648 0.938766 0.911299
0.958648 0.938766 0.911299
0.958648 0.938766 0.911299
0 0.258122 0.909804
0 0.258122 0.909804
0 0.258122 0.909804
0 0.258122 0.909804
0 0.258122 0.909804
0 0.258122 0.909804
0 0.258244 0.909804
0.76434 0.27779 0.910842
0.856336 0.659586 0.889708
0 0.258122 0.909804
0 0.258122 0.909804
0 0.258122 0.909804
0 0.258122 0.909804
0 0.258122 0.909804
0 0.258122 0.909804
0 0.258244 0.909804
0.764355 0.277897 0.910826
0.856367 0.659709 0.889708
0 0.258015 0.909804
0 0.258015 0.909804
0 0.258015 0.909804
0 0.258122 0.909804
0 0.258122 0.909804
0 0.258122 0.909804
0 0.258244 0.909804
0.764401 0.278218 0.910796
0.856367 0.659709 0.889708
0 0.258015 0.909804
0 0.258015 0.909804
0 0.258015 0.909804
0 0.258015 0.909804
0 0.258015 0.909804
0 0.258122 0.909804
0 0.258122 0.909804
0.764569 0.279179 0.910674
0.856489 0.660075 0.889693
0 0.258015 0.909804
0 0.258015 0.909804
0 0.258015 0.909804
0 0.258015 0.909804
0 0.258015 0.909804
0 0.258015 0.909804
0 0.24828 0.91426
0.765026 0.282078 0.910323
0.856748 0.660945 0.889662
0 0.257786 0.909804
0 0.257786 0.909804
0 0.257786 0.909804
0 0.257786 0.909804
0 0.257786 0.909804
0 0.257786 0.909804
0.59675 0.161105 0.921569
0.766873 0.291417 0.909804
0.857176 0.662303 0.889616
0 0.257099 0.909804
0 0.257099 0.909804
0 0.257099 0.909804
0 0.257099 0.909804
0 0.257099 0.909804
0 0.257099 0.909804
0.742107 0.106981 0.913725
0.771328 0.310491 0.909804
0.857939 0.664775 0.889525
0.620569 0.924544 0.910704
0.620569 0.924544 0.910704
0.620569 0.924544 0.910704
0.620569 0.924544 0.910704
0.620569 0.924544 0.910704
0.620569 0.924544 0.910704
0.958648 0.938766 0.911299
0.958648 0.938766 0.911299
0.958648 0.938766 0.911299
0.955962 0.93846 0.911391
0.956725 0.938552 0.91136
0.9579 0.938674 0.91133
0.958648 0.938766 0.911299
0.958648 0.938766 0.911299
0.958648 0.938766 0.911299
0.958648 0.938766 0.911299
0.958648 0.938766 0.911299
0.958648 0.938766 0.911299
