BBLuts/BB_104_0150_LUT.cube
TITLE "Generated by Resolve"
LUT_3D_SIZE 33
0 0 0
0 0 0
0 0 0
0 0 0
0.00366217 0 0
0.0456703 0 0
0.0885328 0 0
0.121874 0 0
0.159533 0 0
0.21062 0 0
0.268269 0 0
0.331548 0 0
0.401297 0 0.000976577
0.478309 0 0.0256046
0.547372 0 0.0862593
0.591852 0 0.213886
0.627024 0 0.353918
0.659388 0 0.474754
0.686885 0 0.555474
0.707073 0 0.590631
0.710811 0 0.59617
0.710811 0 0.596185
0.710765 0 0.596384
0.709377 0.0311589 0.595926
0.700542 0.466682 0.600519
0.694713 0.576104 0.59649
0.689677 0.618769 0.586984
0.686442 0.651682 0.565255
0.685283 0.6757 0.460639
0.686656 0.695048 0.0213779
0.685786 0.708186 0.0227817
0.680827 0.714885 0.575296
0.678935 0.721965 0.643977
0 0 0
0 0 0
0 0 0
0 0 0
0.00621042 0 0
0.054078 0 0
0.0921645 0 0
0.125292 0 0
0.164828 0 0
0.216419 0 0
0.27361 0 0
0.335805 0 0
0.403937 0 0.00149538
0.480125 0 0.0264591
0.548455 0 0.0877546
0.592264 0 0.215717
0.627253 0 0.354849
0.65948 0 0.47509
0.686839 0 0.555367
0.706935 0 0.590433
0.710811 0 0.59617
0.710811 0 0.59617
0.710613 0.00263981 0.596094
0.708385 0.0774701 0.596368
0.700038 0.480201 0.600259
0.694408 0.578622 0.596063
0.689494 0.620386 0.586282
0.686366 0.652583 0.563317
0.685328 0.676234 0.450294
0.686641 0.695323 0.0214084
0.685771 0.708324 0.022797
0.680842 0.714992 0.574411
0.678935 0.722026 0.643809
0 0 0
0 0 0
0 0 0
0 0 0
0.0115663 0 0
0.0580301 0 0
0.0930343 0 0
0.127687 0 0
0.169299 0 0
0.221195 0 0
0.277562 0 0
0.338445 0 0
0.406241 0 0.00198367
0.482033 0 0.0273899
0.549523 0 0.0893111
0.592691 0 0.217533
0.627497 0 0.355779
0.659571 0 0.475425
0.686793 0 0.55523
0.706798 0 0.590234
0.710811 0 0.59617
0.710811 0 0.596155
0.710369 0.00723278 0.595712
0.707851 0.156664 0.598489
0.69958 0.491844 0.600015
0.694102 0.580911 0.595636
0.689326 0.621973 0.585565
0.686305 0.653468 0.561273
0.685374 0.676768 0.439124
0.686625 0.695598 0.0214389
0.685756 0.708476 0.022797
0.680842 0.715099 0.573449
0.678935 0.722072 0.643641
0 0.0030518 0
0 0.00376898 0
0 0.00444038 0
0 0.00500496 0
0.0171054 0.00527962 0
0.0577249 0.00555428 0
0.0909438 0.00541695 0
0.12636 0.00440986 0
0.169512 0.00173953 0
0.223316 0 0
0.280201 0 0
0.340871 0 0
0.408515 0 0.00247196
0.48394 0 0.0283513
0.550607 0 0.0909133
0.593133 0 0.219379
0.627726 0 0.35668
0.659663 0 0.475715
0.686732 0 0.555077
0.706645 0 0.590005
0.710811 0 0.59617
0.710811 0 0.596139
0.710155 0.0116732 0.59559
0.707424 0.23389 0.600534
0.699153 0.502083 0.599771
0.693812 0.5832 0.595193
0.689158 0.623514 0.584848
0.686244 0.654337 0.559121
0.685435 0.677317 0.427039
0.686595 0.695872 0.0214694
0.685756 0.708629 0.0228122
0.680858 0.715206 0.572396
0.678935 0.722133 0.643488
0 0.0376593 0
0 0.0406195 0
0 0.0434424 0
0 0.045716 0
0.000534066 0.0462806 0
0.0454566 0.0453346 0
0.0822156 0.0428931 0
0.119585 0.0370489 0
0.165179 0.0248417 0
0.222553 0.00946059 0
0.280842 0.00448615 0
0.343145 0 0
0.410758 0 0.00297551
0.485893 0 0.0293584
0.551736 0 0.092607
0.593576 0 0.221256
0.62797 0 0.35761
0.659724 0 0.475975
0.686656 0 0.55491
0.706493 0 0.589776
0.710811 0 0.59617
0.710811 0 0.596094
0.710002 0.0149386 0.595483
0.706554 0.289555 0.601297
0.698741 0.511467 0.599512
0.693523 0.585672 0.59472
0.689006 0.62504 0.584115
0.686198 0.655192 0.556817
0.685512 0.677852 0.413489
0.68658 0.696147 0.0215
0.68574 0.708766 0.0228428
0.680873 0.715297 0.571237
0.678935 0.722179 0.64332
0 0.071458 0
0 0.0737774 0
0 0.0759136 0
0 0.0773938 0
0 0.0779431 0
0.0257725 0.0774853 0
0.0720378 0.0764935 0
0.11162 0.0742657 0
0.157473 0.0695048 0
0.215702 0.0597238 0
0.276768 0.0402533 0
0.343099 0.0103151 0
0.411978 0.00216678 0.0015259
0.488029 0 0.030518
0.552987 0 0.0945296
0.594064 0 0.223346
0.628214 0 0.358587
0.6598 0 0.47628
0.68658 0 0.554711
0.70631 0 0.589517
0.710811 0 0.59617
0.710811 0 0.596002
0.709895 0.0174716 0.595376
0.70544 0.331853 0.601251
0.698299 0.52076 0.599207
0.693217 0.588357 0.594202
0.688823 0.626642 0.583322
0.686122 0.656107 0.554162
0.685603 0.678462 0.396399
0.686564 0.696437 0.0215305
0.685725 0.708934 0.0228428
0.680873 0.715419 0.569848
0.678935 0.722255 0.643122
0 0.106752 0
0 0.108629 0
0 0.110277 0
0 0.111208 0
0 0.111788 0
0 0.111803 0
0.0527352 0.110933 0
0.100679 0.109819 0
0.148547 0.107347 0
0.208865 0.102083 0
0.270756 0.092195 0
0.337011 0.0753796 0
0.409277 0.0455329 0
0.488609 0.00726329 0.0276341
0.554009 0 0.0950027
0.594705 0 0.226078
0.628565 0 0.359899
0.659907 0 0.476646
0.686458 0 0.554452
0.706081 0 0.589151
0.710811 0 0.596139
0.710811 0 0.595941
0.709789 0.0199588 0.595254
0.704082 0.373007 0.600763
0.697749 0.531563 0.598764
0.692821 0.591714 0.593515
0.688609 0.628687 0.5823
0.686061 0.657282 0.550423
0.685756 0.679255 0.368811
0.686534 0.696803 0.0215763
0.68571 0.709133 0.0228733
0.680888 0.715572 0.56791
0.67892 0.722332 0.642893
0 0.147387 0
0 0.148928 0
0 0.150027 0
0 0.150805 0
0 0.151339 0
0 0.151583 0
0.0149996 0.151019 0
0.0814984 0.150149 0
0.134905 0.148608 0
0.198154 0.144945 0
0.263508 0.137987 0
0.332815 0.12726 0
0.406119 0.110765 0
0.484413 0.0826276 0.0124514
0.55259 0.0336156 0.0869612
0.594598 0.00257877 0.226062
0.62887 0 0.360937
0.660044 0 0.477134
0.686305 0 0.554055
0.705745 0 0.588632
0.710811 0 0.596048
0.710719 0.000946059 0.595804
0.708995 0.0446937 0.595117
0.702571 0.413367 0.600076
0.697047 0.543938 0.598123
0.692332 0.595926 0.592554
0.68835 0.631251 0.580957
0.685969 0.658778 0.5449
0.686061 0.680354 0.31458
0.686503 0.697292 0.021622
0.685695 0.709407 0.0228885
0.680919 0.715755 0.56527
0.67892 0.722423 0.642573
0 0.19939 0
0 0.20061 0
0 0.201404 0
0 0.202136 0
0 0.20264 0
0 0.20296 0
0 0.202899 0
0.0425269 0.201648 0
0.11165 0.199908 0
0.179599 0.196918 0
0.251209 0.191516 0
0.325765 0.182666 0
0.403586 0.169482 0
0.483619 0.151125 0.00588998
0.550317 0.125307 0.0792248
0.592462 0.0834821 0.218158
0.627909 0.016907 0.358419
0.659876 0 0.476921
0.686061 0 0.553338
0.705272 0 0.587777
0.710811 0 0.595926
0.710231 0.00994888 0.595468
0.707774 0.181201 0.598459
0.700938 0.455894 0.599405
0.696178 0.557748 0.597192
0.691722 0.60119 0.591226
0.688029 0.63447 0.579141
0.685893 0.660685 0.536126
0.686625 0.681849 0.195636
0.686458 0.697917 0.0216983
0.685664 0.709758 0.0229343
0.680949 0.716014 0.561486
0.678904 0.72256 0.642145
0 0.258991 0
0 0.259449 0
0 0.259861 0
0 0.260197 0
0 0.26038 0
0 0.260426 0
0 0.260288 0
0 0.25948 0
0.0658885 0.257939 0
0.149172 0.256825 0
0.230579 0.254032 0
0.312383 0.248417 0
0.397147 0.239292 0
0.482033 0.226093 0.000717174
0.550317 0.207828 0.075288
0.592096 0.178546 0.220188
0.625834 0.126619 0.360464
0.657923 0.04271 0.47396
0.685206 0.00216678 0.551354
0.704585 0 0.586572
0.710643 0.00221256 0.595682
0.708705 0.0574502 0.595285
0.704845 0.350622 0.600671
0.699321 0.49807 0.598642
0.695094 0.572427 0.595789
0.690959 0.607691 0.589319
0.687648 0.638483 0.576379
0.685802 0.663081 0.522286
0.687373 0.683772 0.0249332
0.686397 0.698726 0.0217899
0.685618 0.710216 0.0229801
0.680995 0.716365 0.556054
0.678904 0.722728 0.641581
0 0.321752 0
0 0.322179 0
0 0.322591 0
0 0.322896 0
0 0.323125 0
0 0.323247 0
0 0.323293 0
0 0.32314 0
0 0.321904 0
0.0951247 0.321187 0
0.196033 0.32076 0
0.289647 0.317861 0
0.384314 0.312078 0
0.476265 0.303975 0.000106813
0.548898 0.293782 0.0582895
0.591684 0.280537 0.214954
0.625193 0.255604 0.366842
0.656168 0.1944 0.480812
0.682185 0.0816815 0.549554
0.701839 0.0384222 0.58436
0.708629 0.0614023 0.595331
0.706691 0.282734 0.60061
0.701396 0.44361 0.599557
0.697597 0.534417 0.597498
0.693782 0.58349 0.593652
0.690059 0.615534 0.586557
0.687205 0.643336 0.57145
0.685725 0.666041 0.5028
0.687282 0.685481 0.020264
0.68632 0.699733 0.0218967
0.685573 0.710796 0.0230259
0.681071 0.716808 0.547936
0.678889 0.722957 0.640848
0 0.393591 0
0 0.393973 0
0 0.394308 0
0 0.394568 0
0 0.394781 0
0 0.394949 0
0 0.395071 0
0 0.395102 0
0 0.394842 0
0 0.39324 0
0.132494 0.394324 0
0.25095 0.394369 0
0.359625 0.391806 0
0.461646 0.387549 0
0.54287 0.381964 0.0183413
0.589471 0.375906 0.177234
0.623056 0.367636 0.360098
0.653223 0.352331 0.48188
0.678401 0.327291 0.554711
0.697551 0.300847 0.587701
0.705089 0.342809 0.600702
0.70161 0.437995 0.599634
0.698634 0.513878 0.598215
0.695567 0.566384 0.595529
0.692241 0.596826 0.590463
0.689052 0.62472 0.582528
0.686732 0.649149 0.561547
0.685756 0.669718 0.4636
0.687129 0.687633 0.0205234
0.686229 0.701015 0.022034
0.685512 0.711559 0.0230869
0.681178 0.717388 0.534813
0.678874 0.723232 0.639841
0 0.473747 0
0 0.474083 0
0 0.474372 0
0 0.474617 0
0 0.474815 0
0 0.474983 0
0 0.475135 0
0 0.475273 0
0 0.475395 0
0 0.475364 0
0.0219272 0.474327 0
0.178653 0.476967 0
0.318639 0.476783 0
0.435599 0.474037 0
0.529778 0.470466 0.00387579
0.584268 0.466529 0.085008
0.619058 0.46389 0.322652
0.648676 0.46067 0.468208
0.672312 0.459419 0.54699
0.690074 0.46453 0.583108
0.699794 0.486427 0.59881
0.698039 0.526055 0.597787
0.695827 0.562676 0.595804
0.693278 0.587961 0.592294
0.690501 0.611841 0.586023
0.687999 0.635065 0.576822
0.686259 0.655909 0.542748
0.686275 0.674434 0.347814
0.686961 0.690242 0.0208133
0.686122 0.702602 0.0222171
0.685435 0.712505 0.0231785
0.681392 0.718212 0.511284
0.678859 0.723613 0.638453
0 0.54641 0
0 0.546593 0
0 0.546746 0
0 0.546868 0
0 0.54699 0
0 0.547097 0
0 0.547204 0
0 0.547311 0
0 0.547372 0
0 0.547356 0
0 0.547219 0
0.0451667 0.546441 0
0.24622 0.547951 0
0.396811 0.546334 0
0.507836 0.544259 0
0.577142 0.542 0.0187076
0.613581 0.54107 0.205753
0.644007 0.541238 0.431189
0.666926 0.543786 0.53257
0.683925 0.550088 0.576791
0.695644 0.561074 0.595346
0.694575 0.577371 0.594217
0.692836 0.591791 0.591455
0.690806 0.609171 0.586801
0.688746 0.627955 0.579248
0.686992 0.646357 0.562493
0.685985 0.6636 0.49752
0.687602 0.680293 0.0196689
0.686732 0.69337 0.0211795
0.685969 0.70454 0.0224002
0.685344 0.713695 0.0232853
0.681895 0.719432 0.452659
0.678843 0.724102 0.636454
0 0.591821 0
0 0.591882 0
0 0.591943 0
0 0.591974 0
0 0.59202 0
0 0.592035 0
0 0.592065 0
0 0.592096 0
0 0.592096 0
0 0.59205 0
0 0.591928 0
0 0.591653 0
0.102251 0.591104 0
0.332723 0.591073 0
0.473518 0.589929 0
0.562585 0.588739 0
0.605386 0.587854 0.0306554
0.637613 0.588266 0.304601
0.660594 0.589624 0.485893
0.677058 0.592935 0.557473
0.689158 0.598367 0.584329
0.691081 0.606821 0.587427
0.689845 0.617731 0.58349
0.688487 0.630457 0.577661
0.687205 0.644221 0.562753
0.686229 0.658274 0.52311
0.686336 0.672358 0.36347
0.687251 0.685756 0.0202945
0.686488 0.697002 0.0215915
0.685802 0.706828 0.0226444
0.685222 0.715175 0.0234073
0.683177 0.721492 0.283284
0.678843 0.724712 0.63328
0 0.627985 0
0 0.628 0
0 0.628016 0
0 0.628031 0
0 0.628031 0
0 0.628046 0
0 0.628031 0
0 0.628016 0
0 0.627985 0
0 0.627894 0
0 0.627726 0
0 0.62742 0
0 0.626886 0
0.202426 0.626642 0.00645457
0.420539 0.625498 0.00607309
0.539117 0.624155 0.00485237
0.594751 0.622965 0.00454719
0.629328 0.62266 0.0315099
0.653513 0.623667 0.289479
0.669963 0.62562 0.466484
0.681971 0.629191 0.551888
0.687938 0.634653 0.573556
0.687419 0.641871 0.565576
0.686748 0.650431 0.546807
0.686366 0.660227 0.488228
0.686412 0.670771 0.369726
0.687495 0.68191 0.019852
0.686839 0.691783 0.0209964
0.686198 0.701122 0.0220493
0.685588 0.709484 0.0229038
0.685069 0.71696 0.0235447
0.684642 0.723796 0.0240024
0.678843 0.72549 0.628779
0 0.66186 0.0143893
0 0.66186 0.0143893
0 0.661845 0.014374
0 0.66183 0.014374
0 0.661814 0.0143587
0 0.661784 0.0143587
0 0.661753 0.0143282
0 0.661692 0.0142977
0 0.661601 0.0142519
0 0.661463 0.0141756
0 0.661234 0.0140536
0 0.660868 0.0138705
0 0.660319 0.0135805
0 0.659449 0.013901
0.312047 0.65861 0.0186007
0.506981 0.656474 0.0143435
0.582834 0.654658 0.011429
0.619638 0.653605 0.0108949
0.645853 0.653651 0.012253
0.664164 0.654704 0.0426642
0.67628 0.656092 0.373053
0.684733 0.658778 0.479835
0.68629 0.663157 0.465705
0.686351 0.668833 0.398413
0.687388 0.67602 0.1131
0.687404 0.683162 0.0199893
0.686915 0.690578 0.0208591
0.686397 0.698192 0.0217288
0.685863 0.705608 0.0225223
0.685359 0.71252 0.0231785
0.684886 0.719081 0.0236973
0.684504 0.7252 0.0240787
0.678828 0.726436 0.624582
0 0.689433 0.0305638
0 0.689403 0.0305333
0 0.689372 0.030518
0 0.689326 0.0304875
0 0.689281 0.0304723
0 0.689235 0.0304417
0 0.689174 0.030396
0 0.689067 0.0303349
0 0.68893 0.0302434
0 0.688731 0.0301213
0 0.688441 0.0299382
0 0.687999 0.0296635
0 0.687404 0.0292821
0 0.68661 0.0288243
0 0.684855 0.0275883
0.465782 0.682322 0.0252842
0.572503 0.679744 0.0196078
0.610651 0.677974 0.0167239
0.637964 0.677195 0.0163424
0.657526 0.677241 0.0171206
0.671824 0.678035 0.0181888
0.68188 0.679652 0.0191501
0.687388 0.682017 0.0198672
0.687266 0.685191 0.0202335
0.687007 0.689189 0.0206912
0.686687 0.693874 0.0212406
0.68632 0.699123 0.0218204
0.685924 0.704692 0.0224155
0.685512 0.710292 0.0229801
0.685084 0.715953 0.0234684
0.684672 0.721538 0.0238651
0.684352 0.726848 0.024155
0.678828 0.727596 0.61857
0 0.710094 0.0436103
0 0.710033 0.0435645
0 0.709987 0.043534
0 0.709926 0.0435035
0 0.709865 0.043473
0 0.709804 0.0434272
0 0.709712 0.0433661
0 0.70959 0.0432898
0 0.709407 0.043183
0 0.709163 0.0430304
0 0.708827 0.0428168
0 0.708354 0.0425116
0 0.707729 0.0421302
0 0.70692 0.0416114
0 0.705226 0.0400549
0.419715 0.701915 0.03505
0.560815 0.698619 0.0265812
0.603723 0.696391 0.0219883
0.631296 0.695109 0.020264
0.651469 0.69453 0.0200198
0.666362 0.694545 0.0204166
0.677134 0.695171 0.0209354
0.6851 0.696391 0.0214542
0.686381 0.698222 0.0217288
0.686198 0.700679 0.0219883
0.685985 0.70367 0.0223087
0.685725 0.707164 0.0226749
0.685435 0.710994 0.0230411
0.685115 0.715221 0.0234073
0.684764 0.719707 0.023743
0.684428 0.724285 0.0240177
0.684153 0.728756 0.0242313
0.678859 0.72903 0.609506
0 0.725765 0.0531014
0 0.725704 0.0530556
0 0.725628 0.0530251
0 0.725551 0.0529793
0 0.72549 0.0529335
0 0.725399 0.052903
0 0.725292 0.0528267
0 0.725155 0.0527504
0 0.724941 0.0526284
0 0.724681 0.0524758
0 0.72433 0.0522621
0 0.723857 0.0519875
0 0.723247 0.0516365
0 0.722454 0.0511635
0 0.720699 0.0491646
0.382071 0.717113 0.0429541
0.553491 0.713115 0.0315404
0.599008 0.710643 0.0258488
0.626139 0.709102 0.0232395
0.646281 0.708171 0.0222934
0.661387 0.707729 0.0221866
0.672633 0.707744 0.0223697
0.681254 0.708156 0.0226444
0.685557 0.709026 0.022858
0.685481 0.710353 0.0229801
0.685344 0.712139 0.0231479
0.685161 0.714397 0.023331
0.684947 0.717098 0.0235447
0.684703 0.720211 0.0237736
0.684428 0.723629 0.0239872
0.684169 0.72723 0.024155
0.683955 0.730877 0.0242924
0.67895 0.730739 0.596414
0 0.737362 0.0593729
0 0.737285 0.0593271
0 0.737194 0.0592813
0 0.737118 0.0592508
0 0.737041 0.059205
0 0.73695 0.0591592
0 0.736843 0.0590982
0 0.73669 0.0590066
0 0.736492 0.0589151
0 0.736217 0.0587778
0 0.735882 0.0585946
0 0.735424 0.0583505
0 0.734829 0.0580301
0 0.734066 0.0576333
0 0.732052 0.0552834
0.392966 0.72781 0.0461738
0.554925 0.72372 0.0340429
0.597421 0.721263 0.0281071
0.623148 0.719646 0.0251469
0.642649 0.718563 0.0238193
0.657389 0.717906 0.0233921
0.668788 0.717586 0.0233616
0.677836 0.717556 0.0234684
0.684443 0.717876 0.0236057
0.68481 0.718547 0.0236667
0.684718 0.719631 0.0237278
0.684596 0.721096 0.0238346
0.684443 0.722911 0.0239414
0.68426 0.725093 0.0240635
0.684062 0.727565 0.0241703
0.683879 0.730282 0.0242771
0.683742 0.73341 0.0243534
0.678874 0.732708 0.591608
0 0.745907 0.0635691
0 0.74583 0.0635386
0 0.745739 0.0634928
0 0.745663 0.0634623
0 0.745586 0.0634165
0 0.745495 0.063386
0 0.745388 0.0633249
0 0.745235 0.0632486
0 0.745052 0.0631723
0 0.744793 0.0630503
0 0.744457 0.0628977
0 0.74403 0.0626993
0 0.743481 0.0624247
0 0.742763 0.0620584
0.0065919 0.740703 0.0590829
0.452186 0.735348 0.0445258
0.564584 0.731746 0.0345159
0.598688 0.729549 0.0291447
0.622171 0.728008 0.0262455
0.640375 0.726909 0.0247807
0.654353 0.726177 0.0242008
0.665507 0.725689 0.0240024
0.674586 0.725429 0.0239872
0.681514 0.725414 0.0240482
0.684184 0.725658 0.024094
0.684138 0.726207 0.0241245
0.684062 0.727062 0.024155
0.683955 0.728206 0.0242008
0.683833 0.729641 0.0242618
0.683711 0.73138 0.0243076
0.683574 0.733593 0.0243534
0.683513 0.735866 0.0243839
0.678706 0.734569 0.591302
0 0.752255 0.065919
0 0.752194 0.0658885
0 0.752117 0.0658579
0 0.752041 0.0658274
0 0.751965 0.0657969
0 0.751888 0.0657511
0 0.75172 0.0661326
0 0.751583 0.0660868
0 0.7514 0.0659953
0 0.751171 0.0659037
0 0.750866 0.0657816
0 0.750469 0.0656138
0 0.749935 0.0653391
0 0.748394 0.0628977
0.221286 0.746059 0.0593881
0.517922 0.740414 0.040528
0.577707 0.737911 0.0334478
0.602838 0.73611 0.0292058
0.623285 0.734737 0.0266575
0.639597 0.733715 0.0252842
0.652445 0.732967 0.0246281
0.663096 0.732403 0.0243687
0.671901 0.731823 0.0242771
0.678904 0.731609 0.0242924
0.683558 0.731579 0.0243229
0.683604 0.731777 0.0243229
0.683558 0.732403 0.0243229
0.683497 0.733074 0.0243381
0.683421 0.734005 0.0243534
0.683345 0.73521 0.0243687
0.683284 0.73666 0.0243839
0.683268 0.738369 0.0243839
0.67834 0.736492 0.594461
0 0.756664 0.0677958
0 0.756603 0.0677653
0 0.756542 0.0677348
0 0.756466 0.0677043
0 0.756405 0.0676738
0 0.756329 0.0676585
0 0.756237 0.0676127
0 0.756115 0.0675517
0 0.755947 0.0674907
0 0.755718 0.0673533
0 0.755261 0.0668193
0 0.754849 0.0664988
0.00909438 0.753399 0.0638437
0.336263 0.74992 0.0547951
0.505425 0.746151 0.0419318
0.563745 0.743999 0.035523
0.589715 0.742336 0.0311437
0.609476 0.740963 0.0280919
0.626352 0.739788 0.026566
0.640238 0.738888 0.0254063
0.651713 0.738186 0.0248112
0.661585 0.737621 0.024506
0.669886 0.737194 0.0243992
0.676677 0.736889 0.0243687
0.682139 0.736721 0.0243839
0.683101 0.736706 0.0243839
0.683101 0.736858 0.0243839
0.683085 0.737209 0.0243839
0.68304 0.737774 0.0243992
0.683009 0.738567 0.0243839
0.682902 0.739605 0.0239261
0.682948 0.740826 0.0239261
0.678019 0.738293 0.602594
0 0.759274 0.0681926
0 0.759213 0.0681621
0 0.759167 0.0681315
0 0.759106 0.068101
0 0.75906 0.0680705
0 0.758999 0.06804
0 0.758923 0.0679942
0 0.758831 0.0679332
0 0.758709 0.0678721
0.022797 0.757412 0.0650492
0.34107 0.754101 0.0553292
0.443671 0.751888 0.0475013
0.504585 0.750393 0.0425116
0.543999 0.749065 0.0383307
0.572168 0.747814 0.0347448
0.588174 0.746654 0.0316777
0.603632 0.745571 0.0291447
0.617899 0.744595 0.0272068
0.630793 0.743725 0.0258183
0.642008 0.742992 0.0249332
0.651972 0.742382 0.0244144
0.660822 0.741848 0.0241245
0.668437 0.741405 0.0239872
0.674846 0.74107 0.0239414
0.680156 0.740826 0.0239261
0.682582 0.740688 0.0239261
0.682597 0.740658 0.0239261
0.682597 0.740795 0.0239261
0.682612 0.741085 0.0239414
0.682628 0.741573 0.0239414
0.682673 0.742229 0.0239414
0.68278 0.743084 0.0239567
0.677623 0.739971 0.615167
0.515129 0.75201 0.0416724
0.519371 0.751904 0.0412299
0.523369 0.751812 0.0408179
0.527123 0.751705 0.0404212
0.530694 0.751614 0.0400397
0.534371 0.751522 0.0396277
0.538796 0.7514 0.0391241
0.544152 0.751247 0.0384985
0.550484 0.751064 0.0377508
0.557794 0.750835 0.0368353
0.565957 0.750591 0.0357824
0.574365 0.750286 0.0345464
0.581064 0.749966 0.0331884
0.588876 0.749615 0.0317235
0.597803 0.749157 0.0302129
0.60734 0.748501 0.0287327
0.617151 0.747829 0.0274205
0.626886 0.747189 0.0263066
0.636225 0.746578 0.025452
0.645029 0.746014 0.0248264
0.653376 0.745495 0.0244144
0.661036 0.745007 0.0241703
0.667781 0.74461 0.024033
0.673701 0.744259 0.0239719
0.678752 0.743984 0.0239567
0.682231 0.743786 0.0239567
0.682292 0.743694 0.0239567
0.682307 0.743679 0.0239567
0.682353 0.743816 0.0239567
0.682414 0.744106 0.0239567
0.682506 0.744533 0.0239567
0.682521 0.745052 0.0440375
0.677241 0.741527 0.630442
0.592004 0.749523 0.0311894
0.592676 0.749493 0.0310674
0.593332 0.749462 0.0309606
0.593973 0.749447 0.0308537
0.594598 0.749416 0.0307469
0.595285 0.749386 0.0306249
0.59617 0.749355 0.0304875
0.597299 0.74931 0.0303044
0.598733 0.749249 0.0300603
0.600565 0.749187 0.0297704
0.602853 0.749111 0.0294194
0.605707 0.749004 0.0289921
0.609155 0.748882 0.0285039
0.613275 0.74876 0.0279393
0.618067 0.748623 0.0273289
0.623484 0.748486 0.0267033
0.629404 0.748333 0.0260929
0.63563 0.748211 0.0255283
0.642222 0.748119 0.0250401
0.648951 0.748012 0.0246433
0.655619 0.747799 0.0243687
0.661967 0.747402 0.0241855
0.667781 0.747051 0.0240635
0.67306 0.746731 0.0240024
0.677714 0.746471 0.0239719
0.681483 0.746258 0.0239719
0.682063 0.74612 0.0239719
0.682109 0.746059 0.0239719
0.68217 0.74609 0.0239719
0.682277 0.746258 0.0239719
0.682414 0.746563 0.0239719
0.678447 0.743755 0.553521
0.67686 0.742885 0.649363
0.619883 0.748623 0.0271153
0.620188 0.748623 0.0270848
0.620478 0.748608 0.027039
0.620783 0.748608 0.0270085
0.621073 0.748592 0.026978
0.621393 0.748592 0.0269322
0.621805 0.748577 0.0268864
0.622339 0.748562 0.0268254
0.623026 0.748547 0.0267491
