BBLuts/BB_103_0640_LUT.cube
TITLE "Generated by Resolve"
LUT_3D_SIZE 9
0 0 0
0.0295872 0 0
0.205753 0 0
0.481498 0 0
0.818982 0 0
0.892287 0.039353 0
0.864118 0.520577 0.0789197
0.845869 0.78761 0.311452
0.836805 0.901335 0.584009
0 0.0442817 0
0 0.047715 0
0.210239 0.0217746 0
0.488472 0 0
0.818387 0 0
0.884688 0.162966 0
0.86215 0.545815 0.0690013
0.845518 0.792493 0.309697
0.836744 0.902144 0.583673
0 0.23035 0
0 0.231312 0
0.153979 0.22536 0
0.486809 0.201862 0
0.802747 0.179843 0
0.873091 0.345876 0
0.858106 0.597208 0.0510109
0.844739 0.803143 0.305638
0.836606 0.903975 0.582879
0 0.536355 0
0 0.536843 0
0 0.536858 0
0.412161 0.529503 0
0.763592 0.528862 0
0.85597 0.58677 0
0.848859 0.707683 0.00698863
0.84268 0.830915 0.293248
0.836225 0.909438 0.580331
0 0.82855 0
0 0.827939 0
0 0.826108 0
0.230457 0.816663 0
0.681834 0.805875 0
0.823774 0.809049 0
0.839338 0.834058 0
0.839231 0.878233 0.303059
0.835294 0.922484 0.572671
0 0.933806 0
0 0.932921 0
0 0.930175 0
0.399344 0.922042 0
0.662654 0.913115 0
0.788144 0.908095 0
0.836027 0.913191 0.135561
0.835843 0.924056 0.352804
0.833844 0.94136 0.581079
0.523613 0.9673 0.197375
0.534859 0.967285 0.197864
0.558236 0.967269 0.199054
0.615274 0.967056 0.203021
0.705089 0.963149 0.215457
0.781949 0.959396 0.244709
0.83238 0.957137 0.314534
0.833173 0.957244 0.456886
0.832242 0.960616 0.61799
0.722393 0.969314 0.509422
0.723873 0.969329 0.509575
0.727245 0.96936 0.509941
0.737301 0.969451 0.511162
0.760616 0.96965 0.5149
0.792767 0.96994 0.524071
0.82475 0.970245 0.545617
0.831632 0.970214 0.595926
0.831205 0.970001 0.67866
0.793698 0.969528 0.703563
0.793942 0.969543 0.703593
0.794507 0.969543 0.703655
0.796292 0.969558 0.703868
0.801144 0.969604 0.704509
0.810193 0.969696 0.706065
0.823362 0.969818 0.709941
0.830976 0.969863 0.719081
0.830854 0.969802 0.73994
0 0 0.0204318
0.00830091 0 0.0190433
0.210071 0 0.0165103
0.483452 0 0.0163119
0.821042 0 0.0252384
0.895476 0.0301976 0.0590066
0.865141 0.515984 0.139361
0.845945 0.786603 0.34107
0.836774 0.901122 0.592538
0 0.0277867 0.0140688
0.0177462 0.0276188 0.0114748
0.210986 0 0.0108186
0.486198 0 0.00888075
0.819623 0 0.012665
0.889082 0.134356 0.0464027
0.863218 0.541848 0.132448
0.845594 0.791531 0.339467
0.836713 0.90193 0.592233
0 0.222141 0
0 0.22327 0
0.164965 0.2168 0
0.483421 0.193301 0
0.802411 0.166049 0
0.874662 0.338933 0
0.859205 0.594491 0.115389
0.8448 0.802304 0.335805
0.836591 0.903761 0.59147
0 0.533318 0
0 0.533761 0
0 0.5337 0
0.418784 0.526268 0
0.763607 0.526238 0
0.856123 0.584649 0
0.849958 0.707393 0.0497292
0.842741 0.830335 0.324559
0.836194 0.90927 0.589044
0 0.827893 0
0 0.827268 0
0 0.825422 0
0.243442 0.815991 0
0.683055 0.80531 0
0.823941 0.808637 0
0.839277 0.833692 0
0.839231 0.878096 0.30396
0.835264 0.922332 0.581857
0 0.933593 0
0 0.932692 0
0 0.929839 0
0.403281 0.921859 0
0.663432 0.912978 0
0.788327 0.908003 0
0.836027 0.91313 0.135393
0.835843 0.924025 0.352636
0.83386 0.941344 0.581033
0.525338 0.967285 0.197284
0.536446 0.967285 0.197772
0.559594 0.967254 0.198947
0.616159 0.967025 0.20293
0.705455 0.963119 0.215366
0.782071 0.959365 0.244648
0.83238 0.957122 0.314519
0.833173 0.957244 0.45684
0.832242 0.960616 0.617945
0.722622 0.969329 0.509392
0.724086 0.969329 0.509544
0.727459 0.96936 0.509911
0.737484 0.969451 0.511131
0.760723 0.96965 0.514885
0.792844 0.96994 0.524041
0.824765 0.97023 0.545586
0.831632 0.970214 0.595911
0.831205 0.970001 0.67866
0.793729 0.969528 0.703548
0.793988 0.969543 0.703593
0.794537 0.969543 0.703655
0.796323 0.969558 0.703853
0.801175 0.969604 0.704494
0.810208 0.969696 0.706065
0.823377 0.969818 0.709941
0.830976 0.969863 0.719066
0.830854 0.969802 0.73994
0 0 0.150881
0 0 0.150866
0.190524 0 0.144488
0.498314 0 0.141741
0.823362 0 0.151904
0.899748 0 0.180713
0.866682 0.503395 0.245548
0.846067 0.784085 0.398947
0.836728 0.900603 0.610666
0 0 0.148074
0 0 0.148028
0.207126 0 0.141802
0.494972 0 0.138979
0.822583 0 0.148226
0.894743 0.062974 0.175784
0.864698 0.530602 0.241077
0.845701 0.789151 0.39765
0.836667 0.901411 0.610376
0 0.192859 0.132097
0 0.194583 0.132189
0.160311 0.187457 0.127214
0.474113 0.163973 0.127474
0.809064 0.0915236 0.135912
0.879347 0.315068 0.160891
0.860655 0.585611 0.230594
0.844892 0.800168 0.394659
0.83653 0.903273 0.609705
0 0.523278 0.0316777
0 0.523812 0.0320592
0 0.523888 0.0328374
0.420554 0.516655 0.0375372
0.76408 0.518029 0.0614176
0.860212 0.578805 0.102663
0.851743 0.704112 0.198611
0.842802 0.82884 0.385626
0.836133 0.908827 0.607553
0 0.826078 0
0 0.825437 0
0 0.823575 0
0.255421 0.81416 0
0.684352 0.803601 0
0.82388 0.807248 0
0.841581 0.835218 0.119188
0.839261 0.877485 0.362402
0.835187 0.921996 0.60119
0 0.933059 0
0 0.932158 0
0 0.929061 0
0.412314 0.921431 0
0.665248 0.912703 0
0.788769 0.90779 0
0.836042 0.912963 0.134997
0.835843 0.923919 0.352255
0.833829 0.941222 0.587777
0.529351 0.967285 0.19704
0.540154 0.967269 0.197528
0.562707 0.967239 0.198718
0.618204 0.966934 0.202716
0.706279 0.963043 0.215183
0.782345 0.959319 0.24448
0.832395 0.957076 0.314473
0.833173 0.957214 0.456718
0.832242 0.960601 0.617853
0.72314 0.969329 0.509346
0.724605 0.969329 0.509483
0.727947 0.969375 0.50985
0.737896 0.969451 0.51107
0.761013 0.96965 0.514809
0.792966 0.96994 0.523995
0.824811 0.97023 0.545556
0.831632 0.970214 0.595911
0.831205 0.970001 0.67863
0.79382 0.969528 0.703548
0.794064 0.969543 0.703578
0.794629 0.969543 0.703639
0.796399 0.969558 0.703853
0.801236 0.969604 0.704494
0.810254 0.969696 0.706065
0.823392 0.969818 0.709941
0.830976 0.969863 0.719066
0.830854 0.969802 0.73994
0 0 0.409857
0 0 0.41004
0.030457 0 0.407507
0.487129 0 0.402014
0.836728 0 0.405997
0.90074 0 0.422293
0.870298 0.453101 0.455604
0.846357 0.775067 0.532891
0.836606 0.89897 0.654963
0 0 0.408469
0 0 0.408652
0.0607462 0 0.405356
0.496147 0 0.400504
0.835584 0 0.404501
0.900679 0 0.420294
0.867979 0.486 0.453071
0.84596 0.780575 0.531975
0.836545 0.899809 0.654749
0 0.0432136 0.403738
0 0.0455482 0.403845
0.0776074 0.0407721 0.400748
0.500099 0 0.396643
0.827466 0 0.400229
0.889158 0.166186 0.415122
0.86334 0.550256 0.447257
0.845075 0.792508 0.52987
0.836408 0.901732 0.654261
0 0.47895 0.373785
0 0.479957 0.374044
0 0.480568 0.374594
0.411414 0.47306 0.371679
0.756542 0.477043 0.376867
0.863844 0.544564 0.392081
0.853254 0.686397 0.430488
0.842817 0.823377 0.523674
0.835996 0.907454 0.652674
0 0.823453 0.30779
0 0.822889 0.308248
0 0.82118 0.30927
0.190875 0.811749 0.308553
0.682811 0.80087 0.318822
0.824247 0.8056 0.345754
0.842573 0.831647 0.399329
0.839094 0.874846 0.508614
0.835019 0.920928 0.648142
0 0.936522 0.193774
0 0.935637 0.194415
0.00207523 0.932509 0.194217
0.40856 0.924834 0.199771
0.666026 0.916152 0.222309
0.790188 0.911421 0.26743
0.836667 0.912825 0.350439
0.835645 0.922957 0.479164
0.833631 0.94052 0.637903
0.541817 0.967239 0.196277
0.551705 0.967224 0.19678
0.572549 0.967208 0.197986
0.624735 0.966598 0.202029
0.708965 0.962798 0.214557
0.783246 0.959167 0.243946
0.832441 0.956954 0.315358
0.833173 0.957122 0.458137
0.832242 0.960525 0.619333
0.724849 0.969345 0.509133
0.726268 0.969345 0.509285
0.729534 0.969375 0.509667
0.739269 0.969467 0.510887
0.761929 0.969665 0.514641
0.793423 0.969955 0.523812
0.824964 0.970245 0.545388
0.831632 0.970214 0.595865
0.831205 0.970001 0.678553
0.79411 0.969543 0.703517
0.794354 0.969543 0.703548
0.794903 0.969543 0.703609
0.796658 0.969558 0.703807
0.801465 0.969604 0.704463
0.810407 0.969696 0.706035
0.823468 0.969818 0.709895
0.830976 0.969863 0.719036
0.830854 0.969802 0.73994
0 0 0.70071
0 0 0.700755
0 0 0.700847
0.342718 0 0.693095
0.825727 0 0.687846
0.899718 0 0.690257
0.887236 0.183078 0.695186
0.848112 0.741039 0.69514
0.836561 0.894102 0.725155
0 0 0.70042
0 0 0.70045
0 0 0.700542
0.361761 0 0.692515
0.828412 0 0.687541
0.899718 0 0.689952
0.882643 0.258579 0.693629
0.847532 0.74873 0.694484
0.8365 0.895033 0.725017
0 0 0.699702
0 0 0.699748
0 0 0.699779
0.397757 0 0.691234
0.830961 0 0.686778
0.899718 0 0.688975
0.873838 0.39086 0.689494
0.846342 0.76495 0.693019
0.836347 0.897154 0.724697
0 0.268208 0.690028
0 0.270665 0.689967
0 0.274983 0.689723
0.380179 0.253147 0.68304
0.803082 0.219486 0.680415
0.875425 0.36878 0.67921
0.857984 0.611109 0.677974
0.843427 0.80441 0.689128
0.835889 0.903441 0.723751
0 0.793408 0.652369
0 0.793164 0.652369
0 0.792081 0.652384
0.0163119 0.78436 0.650187
0.666972 0.771786 0.647822
0.813703 0.78117 0.651133
0.842847 0.814313 0.659785
0.83888 0.866407 0.681453
0.834821 0.918029 0.721172
0 0.933776 0.626673
0 0.932876 0.626703
0 0.930755 0.626795
0.302663 0.92134 0.622248
0.640879 0.911467 0.623484
0.776989 0.906325 0.629786
0.835157 0.908293 0.64358
0.835004 0.919509 0.670649
0.83331 0.93875 0.71603
0.508431 0.967483 0.577157
0.520012 0.967468 0.577279
0.543999 0.967422 0.577569
0.602411 0.965591 0.578637
0.693462 0.961547 0.582284
0.771191 0.957656 0.591424
0.824186 0.9552 0.612299
0.832441 0.955505 0.651102
0.83183 0.959518 0.705592
0.729747 0.96939 0.508507
0.731075 0.96939 0.508659
0.734112 0.969421 0.509026
0.743236 0.969497 0.510262
0.764584 0.96968 0.514015
0.794751 0.969955 0.523217
0.825406 0.970245 0.544869
0.831601 0.970199 0.60412
0.831159 0.96997 0.685817
0.794965 0.969543 0.703426
0.795193 0.969543 0.703441
0.795727 0.969558 0.703502
0.797452 0.969573 0.703716
0.802106 0.969619 0.704356
0.810864 0.969696 0.705928
0.823682 0.969818 0.709804
0.830976 0.969863 0.718975
0.830854 0.969802 0.73991
0 0 0.822248
0 0 0.822248
0 0 0.822263
0 0 0.822019
0.752605 0 0.80798
0.899077 0 0.805753
0.899077 0 0.80589
0.860349 0.570733 0.79382
0.837217 0.880369 0.78439
0 0 0.822202
0 0 0.822217
0 0 0.822217
0 0 0.821897
0.756954 0 0.807874
0.899077 0 0.805692
0.899077 0 0.805829
0.858732 0.592584 0.792737
0.837125 0.88159 0.784268
0 0 0.82208
0 0 0.82208
0 0 0.822095
0 0 0.821561
0.766857 0 0.807645
0.899077 0 0.80557
0.899077 0 0.805722
0.855482 0.635859 0.790402
0.836912 0.884382 0.784024
0 0 0.821683
0 0 0.821698
0 0 0.821714
0.0789349 0 0.817441
0.786755 0 0.807019
0.899077 0 0.805142
0.890974 0.108263 0.803128
0.848417 0.7299 0.784543
0.836316 0.892546 0.78323
0 0.647334 0.793164
0 0.648096 0.793118
0 0.649805 0.793011
0 0.649195 0.792004
0.673991 0.636423 0.784695
0.846326 0.664424 0.782483
0.847333 0.744839 0.778485
0.840177 0.841062 0.776104
0.834974 0.910826 0.781308
0 0.924819 0.770687
0 0.924086 0.770626
0 0.922133 0.770474
0 0.914961 0.769375
0.603769 0.899413 0.763485
0.768109 0.893782 0.763821
0.83238 0.89778 0.76527
0.834958 0.912123 0.769009
0.833188 0.935073 0.778256
0.393027 0.966674 0.753231
0.416892 0.966644 0.753124
0.461707 0.966522 0.752956
0.549844 0.963882 0.752712
0.668391 0.959045 0.752773
0.758007 0.954772 0.753704
0.815854 0.952361 0.756359
0.831952 0.953231 0.762264
0.831525 0.957977 0.773785
0.70956 0.968673 0.734569
0.711055 0.968688 0.7346
0.714519 0.968719 0.734646
0.724773 0.968795 0.734829
0.748562 0.969009 0.735409
0.781491 0.969299 0.736889
0.814557 0.969619 0.740566
0.830793 0.969772 0.749203
0.830686 0.969711 0.765591
0.79646 0.969543 0.707912
0.796674 0.969543 0.707942
0.797192 0.969558 0.708003
0.79881 0.969573 0.708202
0.803204 0.969604 0.708812
0.811551 0.969696 0.710353
0.823896 0.969802 0.714076
0.830945 0.969863 0.723262
0.830808 0.969787 0.745922
0 0 0.846525
0 0 0.846525
0 0 0.846525
0 0 0.846525
0.365484 0 0.84155
0.898863 0 0.842435
0.898863 0 0.842435
0.895171 0.0308843 0.843046
0.841901 0.813153 0.82858
0 0 0.846525
0 0 0.846525
0 0 0.846525
0 0 0.846525
0.380331 0 0.841505
0.898863 0 0.842435
0.898863 0 0.842435
0.895171 0.030808 0.843046
0.841627 0.816968 0.828305
0 0 0.846525
0 0 0.846525
0 0 0.846525
0 0 0.846525
0.411719 0 0.841382
0.898863 0 0.842435
0.898863 0 0.842435
0.894957 0.0346075 0.843046
0.841016 0.825223 0.827726
0 0 0.846525
0 0 0.846525
0 0 0.846525
0 0 0.846525
0.494881 0 0.841184
0.898863 0 0.842435
0.898863 0 0.842435
0.89427 0.0465553 0.842802
0.83946 0.846387 0.8262
0 0 0.846525
0 0 0.846525
0 0 0.846525
0 0 0.846525
0.643885 0 0.841154
0.898863 0 0.842435
0.896895 0.00154116 0.842741
0.856687 0.616175 0.83653
0.836606 0.884947 0.823209
0 0.865095 0.833066
0 0.865232 0.833051
0 0.865568 0.833036
0 0.865629 0.832868
0.48043 0.845335 0.825559
0.773663 0.839139 0.824109
0.838529 0.85243 0.822904
0.836637 0.884794 0.820996
0.833707 0.924331 0.819852
0 0.969757 0.82153
0 0.96965 0.821408
0 0.96939 0.821149
0.32369 0.963775 0.815732
0.613672 0.955489 0.81442
0.743709 0.94963 0.814221
0.811948 0.947005 0.814481
0.831922 0.948837 0.815091
0.831464 0.954894 0.816724
0.679026 0.96817 0.809613
0.681163 0.968185 0.809613
0.685939 0.968231 0.809613
0.699825 0.968338 0.809598
0.730846 0.968582 0.809613
0.770886 0.968948 0.809735
0.808454 0.969314 0.810162
0.830289 0.969543 0.811353
0.830396 0.969528 0.813901
0.787579 0.969131 0.801556
0.787823 0.969131 0.801556
0.788403 0.969146 0.801587
0.790188 0.969162 0.801602
0.795087 0.969207 0.801709
0.804227 0.969299 0.801953
0.817609 0.969436 0.802609
0.829725 0.969558 0.804273
0.830427 0.969558 0.808057
0 0.0343175 0.846738
0 0.0343175 0.846738
0 0.0343328 0.846738
0 0.0343481 0.846738
0 0.0344244 0.846738
0.633661 0 0.84123
0.898863 0 0.842435
0.891844 0.0888685 0.843091
0.861097 0.556985 0.840238
0 0.034287 0.846738
0 0.0343023 0.846738
0 0.0343023 0.846738
0 0.0343328 0.846738
0 0.0344091 0.846738
0.636744 0 0.84123
0.898863 0 0.842435
0.891829 0.0891432 0.843091
0.861097 0.55697 0.840238
0 0.034226 0.846738
0 0.0342412 0.846738
0 0.0342412 0.846738
0 0.0342718 0.846738
0 0.0343481 0.846738
0.643107 0 0.84123
0.898863 0 0.842435
0.891798 0.0897688 0.843091
0.861097 0.556924 0.840238
0 0.0340276 0.846738
0 0.0340276 0.846738
0 0.0340276 0.846738
0 0.0340581 0.846738
0 0.0341497 0.846738
0.661509 0 0.84126
0.898863 0 0.842435
0.891691 0.0917525 0.843091
0.861112 0.556756 0.840238
0 0.033402 0.846738
0 0.033402 0.846738
0 0.033402 0.846738
0 0.0334478 0.846738
0 0.0335241 0.846738
0.795041 0 0.841718
0.898863 0 0.842435
0.89099 0.104097 0.843107
0.861143 0.556237 0.840238
0 0.031693 0.846754
0 0.031693 0.846754
0 0.0317082 0.846754
0 0.0317235 0.846754
0 0.0317998 0.846754
0.873671 0 0.842237
0.895918 0.0180514 0.843046
0.877974 0.317815 0.842481
0.841749 0.814527 0.837415
0 0.954879 0.841382
0 0.954894 0.841382
0 0.954955 0.841382
0 0.955154 0.841382
0.0310674 0.945861 0.838819
0.699077 0.924727 0.835889
0.814572 0.921981 0.836332
0.83331 0.928176 0.836362
0.832227 0.942718 0.836225
0.416693 0.966857 0.83537
0.422278 0.966873 0.835355
0.497078 0.967102 0.835126
0.576684 0.967437 0.834943
0.672053 0.968017 0.834791
0.74876 0.968643 0.834791
0.802167 0.968841 0.834867
0.82919 0.968231 0.835004
0.830304 0.968688 0.835172
0.774716 0.968887 0.833387
0.775051 0.968887 0.833371
0.775845 0.968902 0.833387
0.778347 0.968917 0.833387
0.785031 0.968978 0.833402
0.796948 0.9691 0.833432
0.81326 0.969268 0.833509
0.827893 0.969421 0.833677
0.830259 0.969451 0.833997
0 0.22118 0.845502
0 0.22118 0.845502
0 0.221195 0.845502
0 0.22121 0.845502
0 0.221225 0.845502
0 0.221271 0.845502
0.82417 0 0.842023
0.882078 0.25478 0.842908
0.857908 0.599893 0.83975
0 0.22118 0.845502
0 0.22118 0.845502
0 0.22118 0.845502
0 0.22118 0.845502
0 0.22121 0.845502
0 0.221256 0.845502
0.824201 0 0.842023
0.882063 0.255039 0.842908
0.857893 0.599954 0.83975
0 0.221164 0.845502
0 0.221164 0.845502
0 0.221164 0.845502
0 0.22118 0.845502
0 0.221195 0.845502
0 0.221241 0.845502
0.824247 0 0.842023
0.882017 0.25565 0.842908
0.857893 0.600092 0.83975
0 0.221118 0.845502
0 0.221118 0.845502
0 0.221118 0.845502
0 0.221118 0.845502
0 0.221134 0.845502
0 0.221195 0.845502
0.824292 0 0.842023
0.881895 0.257649 0.842908
0.857847 0.600519 0.839734
0 0.220951 0.845502
0 0.220951 0.845502
0 0.220951 0.845502
0 0.220966 0.845502
0 0.220981 0.845502
0 0.221027 0.845502
0.866026 0 0.842298
0.881514 0.263661 0.842863
0.857771 0.601709 0.839719
0 0.220539 0.845518
0 0.220539 0.845518
0 0.220539 0.845518
0 0.220554 0.845502
0 0.220569 0.845502
0 0.220401 0.845518
0.892576 0 0.84239
0.880613 0.277485 0.842771
0.857664 0.603098 0.839704
0 0.21944 0.845518
0 0.21944 0.845518
0 0.21944 0.845518
0 0.219455 0.845518
0 0.219471 0.845518
0.00840772 0.199268 0.844129
0.898863 0 0.842435
0.875288 0.357748 0.842161
0.853788 0.654276 0.839109
0 0.969909 0.841337
0 0.969909 0.841337
0 0.969909 0.841337
0 0.969909 0.841337
0 0.969818 0.841077
0.393591 0.966339 0.835813
0.783062 0.960159 0.835843
0.829877 0.95903 0.836072
0.830854 0.961379 0.836057
0.704982 0.968277 0.835523
0.706645 0.968277 0.835523
0.710338 0.968322 0.835538
0.720882 0.968399 0.835554
0.743404 0.968597 0.83563
0.773816 0.968872 0.835737
0.804486 0.969177 0.835859
0.825681 0.96939 0.835966
0.830243 0.969436 0.835981
