BBLuts/BB_102_0650_LUT.cube
TITLE "Generated by Resolve"
LUT_3D_SIZE 5
0 0 0
0.150286 0 0
0.736767 0 0
0.905028 0.536034 0.0658427
0.865492 0.961318 0.681788
0 0.172335 0
0.106371 0.174563 0
0.739391 0.0175784 0
0.897597 0.621271 0.0343786
0.8654 0.9626 0.681178
0 0.800397 0
0 0.799939 0
0.651789 0.796658 0
0.874647 0.850767 0
0.864851 0.970886 0.676616
0.522866 1 0.134508
0.564797 1 0.134234
0.712932 1 0.146105
0.862623 0.999832 0.299214
0.862409 1 0.698116
0.833661 1 0.775372
0.834058 1 0.775418
0.83682 1 0.775769
0.851926 1 0.778836
0.860548 1 0.801526
0 0 0.110689
0.130755 0 0.107149
0.74049 0 0.0824903
0.909056 0.517555 0.227161
0.865339 0.960845 0.696742
0 0.139147 0.0940871
0.120836 0.134127 0.0882734
0.741146 0 0.0684977
0.901823 0.613458 0.207446
0.865248 0.962142 0.696208
0 0.796521 0
0 0.796002 0
0.656733 0.792996 0
0.877394 0.852079 0.0324254
0.864683 0.970474 0.692241
0.529778 1 0.133593
0.570199 1 0.13344
0.714458 1 0.145678
0.862715 0.999786 0.299153
0.862409 1 0.698024
0.833722 1 0.775372
0.834119 1 0.775418
0.836866 1 0.775753
0.851942 1 0.77882
0.860548 1 0.801526
0 0 0.661875
0 0 0.662074
0.742657 0 0.637919
0.926574 0.162203 0.680217
0.864912 0.957946 0.762631
0 0 0.660288
0 0 0.660502
0.750423 0 0.636225
0.914992 0.433433 0.683375
0.864805 0.959335 0.762341
0 0.753124 0.619516
0 0.753521 0.619806
0.645212 0.750912 0.623758
0.877058 0.827909 0.647669
0.864179 0.968185 0.760311
0.529549 1 0.504662
0.568521 1 0.503822
0.709026 1 0.505898
0.855543 0.995575 0.561502
0.862013 0.999329 0.745037
0.83418 1 0.775326
0.834546 1 0.775372
0.837263 1 0.775708
0.852094 1 0.778775
0.860548 1 0.801526
0 0 0.876616
0 0 0.876616
0 0 0.876616
0.924422 0 0.864851
0.866529 0.926406 0.857862
0 0 0.876616
0 0 0.876616
0 0 0.876616
0.924422 0 0.864851
0.8663 0.929427 0.857618
0 0 0.876616
0 0 0.876616
0.311025 0 0.869322
0.924422 0 0.864851
0.864973 0.947463 0.856123
0 1 0.870848
0 1 0.870649
0.576944 0.999344 0.853025
0.839673 0.98529 0.848493
0.861555 0.995361 0.851484
0.831357 1 0.831388
0.831724 1 0.831403
0.834363 1 0.831525
0.848981 1 0.832578
0.860319 1 0.840635
0 0.265415 0.877119
0 0.265415 0.877119
0 0.265431 0.877119
0 0.265629 0.877119
0.887633 0.731258 0.882704
0 0.265385 0.877119
0 0.265385 0.877119
0 0.265415 0.877119
0 0.265599 0.877119
0.887617 0.73138 0.882689
0 0.265232 0.877119
0 0.265232 0.877119
0 0.265263 0.877119
0.349111 0.248585 0.87924
0.887495 0.732265 0.882628
0 0.263767 0.877134
0 0.263767 0.877134
0 0.263783 0.877134
0.924422 0 0.864851
0.887114 0.735103 0.882414
0.779538 1 0.87219
0.781262 1 0.872206
0.792493 1 0.872251
0.835004 1 0.872541
0.86038 1 0.872969
