BBLuts/BB_102_0660_LUT.cube
TITLE "Generated by Resolve"
LUT_3D_SIZE 9
0 0 0
0 0 0
0.167758 0 0
0.402502 0 0
0.710307 0 0
0.932677 0 0
0.902831 0.544305 0.0394598
0.884123 0.856168 0.315022
0.875639 0.970779 0.641215
0 0.0298314 0
0 0.0398871 0
0.170535 0.0178988 0
0.409796 0 0
0.712551 0 0
0.93254 0 0
0.90074 0.569589 0.0279698
0.883955 0.858381 0.314031
0.875624 0.970962 0.641123
0 0.192767 0
0 0.19649 0
0.112337 0.195636 0
0.404837 0.173327 0
0.710872 0.0771954 0
0.920089 0.211521 0
0.897642 0.601007 0.00581369
0.883696 0.861982 0.31249
0.875608 0.971252 0.64097
0 0.457038 0
0 0.45803 0
0 0.459098 0
0.322011 0.459312 0
0.690333 0.449256 0
0.900145 0.503899 0
0.890166 0.682292 0
0.882734 0.874998 0.310872
0.875517 0.972595 0.640192
0 0.769528 0
0 0.769528 0
0 0.769284 0
0 0.767147 0
0.604135 0.76405 0
0.848234 0.769543 0
0.880125 0.820035 0
0.880293 0.908522 0.318914
0.875151 0.977569 0.637186
0 0.946044 0
0 0.946044 0
0 0.946044 0
0 0.941909 0
0.555032 0.938155 0
0.789761 0.929778 0
0.871733 0.932662 0
0.876661 0.959579 0.358953
0.874189 0.990723 0.639185
0.477821 1 0.128725
0.477821 1 0.128725
0.477821 1 0.128725
0.477791 1 0.128725
0.641077 1 0.143038
0.780774 1 0.182132
0.863996 1 0.278981
0.873549 1 0.472114
0.872618 1 0.668208
0.756664 1 0.546822
0.756664 1 0.546838
0.756664 1 0.546838
0.756664 1 0.546838
0.756649 1 0.546838
0.804608 1 0.553903
0.854475 1 0.574533
0.871824 1 0.628046
0.871382 1 0.728115
0.837827 1 0.76257
0.837827 1 0.76257
0.837827 1 0.76257
0.837827 1 0.76257
0.837827 1 0.76257
0.837812 1 0.76257
0.855619 1 0.765515
0.871122 1 0.773693
0.871 1 0.794064
0 0 0.0192874
0 0 0.0196231
0.166262 0 0.0159304
0.40322 0 0.0130159
0.711101 0 0.0081178
0.934356 0 0.00668345
0.903517 0.542443 0.0612497
0.884123 0.856138 0.315038
0.875639 0.970764 0.64123
0 0.00311284 0.0140383
0.00833143 0.0156558 0.0123445
0.179782 0 0.0108492
0.405341 0 0.00587472
0.710811 0 0
0.933104 0 0
0.901366 0.56817 0.0454414
0.88397 0.858351 0.314046
0.875624 0.970962 0.641123
0 0.181827 0
0 0.185168 0
0.130282 0.184649 0
0.403174 0.16202 0
0.709026 0.0448768 0
0.920943 0.19675 0
0.898329 0.600061 0.0195621
0.883696 0.861982 0.31249
0.875608 0.971237 0.64097
0 0.451987 0
0 0.452888 0
0 0.453834 0
0.33254 0.453666 0
0.689891 0.444541 0
0.900221 0.500435 0
0.890242 0.681407 0
0.882734 0.874998 0.310872
0.875517 0.972595 0.640192
0 0.767941 0
0 0.767926 0
0 0.767651 0
0 0.765499 0
0.606516 0.762737 0
0.84831 0.768673 0
0.88014 0.81973 0
0.880293 0.908522 0.318914
0.875151 0.977569 0.637186
0 0.945647 0
0 0.945724 0
0 0.945724 0
0 0.941634 0
0.55697 0.937926 0
0.789975 0.929625 0
0.871748 0.932586 0
0.876661 0.959579 0.358953
0.874189 0.990723 0.639185
0.481361 1 0.128557
0.481361 1 0.128557
0.481346 1 0.128557
0.481331 1 0.128557
0.641993 1 0.142824
0.780941 1 0.181964
0.864027 1 0.278965
0.873549 1 0.472114
0.872618 1 0.668208
0.756878 1 0.546807
0.756878 1 0.546807
0.756878 1 0.546807
0.756878 1 0.546807
0.756863 1 0.546807
0.8047 1 0.553887
0.854505 1 0.574502
0.871824 1 0.628046
0.871382 1 0.728115
0.837827 1 0.76257
0.837827 1 0.76257
0.837827 1 0.76257
0.837827 1 0.76257
0.837827 1 0.76257
0.837827 1 0.76257
0.855634 1 0.765515
0.871122 1 0.773693
0.871 1 0.794064
0 0 0.135271
0 0 0.135531
0.137911 0 0.131624
0.413336 0 0.124407
0.712932 0 0.122148
0.936721 0 0.135103
0.905974 0.533074 0.187625
0.884276 0.855619 0.343435
0.875639 0.970764 0.64123
0 0 0.132967
0 0 0.133349
0.159731 0 0.128664
0.41236 0 0.121462
0.714046 0 0.118547
0.936431 0 0.128252
0.904067 0.56051 0.181369
0.884108 0.857862 0.342428
0.875624 0.970962 0.641123
0 0.154208 0.121248
0 0.157015 0.121202
0.11931 0.151705 0.116335
0.393393 0.132723 0.115572
0.712093 0 0.109911
0.9281 0.145769 0.122606
0.901656 0.594583 0.172061
0.883833 0.861509 0.340703
0.875608 0.971237 0.64097
0 0.440208 0.0547646
0 0.44155 0.055024
0 0.442451 0.0560769
0.334005 0.442222 0.0566873
0.688243 0.434073 0.0570077
0.904265 0.491524 0.0666209
0.895216 0.681544 0.13579
0.882856 0.874632 0.334127
0.875517 0.972595 0.640192
0 0.764889 0
0 0.764889 0
0 0.764614 0
0 0.762478 0
0.608713 0.759472 0
0.84831 0.766049 0
0.881865 0.820035 0.00445563
0.880323 0.908385 0.320195
0.875151 0.977569 0.637186
0 0.945159 0
0 0.945159 0
0 0.945159 0
0 0.941146 0
0.560327 0.93756 0
0.790494 0.929335 0
0.871763 0.932387 0
0.876677 0.959503 0.358755
0.874189 0.990723 0.639185
0.486076 1 0.128313
0.486076 1 0.128313
0.486076 1 0.128313
0.486061 1 0.128313
0.643229 1 0.142535
0.781323 1 0.181765
0.864057 1 0.278752
0.873549 1 0.472038
0.872618 1 0.668208
0.757183 1 0.546777
0.757183 1 0.546777
0.757183 1 0.546777
0.757183 1 0.546777
0.757183 1 0.546777
0.804822 1 0.553841
0.854536 1 0.574472
0.871824 1 0.628031
0.871382 1 0.728115
0.837858 1 0.76257
0.837858 1 0.76257
0.837858 1 0.76257
0.837858 1 0.76257
0.837858 1 0.76257
0.837858 1 0.76257
0.85565 1 0.765499
0.871122 1 0.773693
0.871 1 0.794064
0 0 0.356527
0 0 0.356619
0 0 0.356847
0.375769 0 0.348913
0.731991 0 0.344549
0.93724 0 0.355322
0.90956 0.490639 0.401801
0.884749 0.850828 0.493904
0.875608 0.970535 0.653376
0 0 0.355093
0 0 0.355215
0 0 0.354971
0.389609 0 0.346807
0.730465 0 0.342779
0.937102 0 0.352758
0.907332 0.524575 0.399008
0.884581 0.853223 0.493294
0.875593 0.970718 0.653284
0 0.0235599 0.35198
0 0.0259709 0.352071
0 0.0265354 0.351751
0.395911 0 0.343557
0.725216 0 0.339467
0.936538 0 0.349233
0.904646 0.564981 0.394842
0.884291 0.857084 0.492287
0.875578 0.971008 0.653147
0 0.391943 0.327352
0 0.392844 0.327413
0 0.394873 0.327962
0.317601 0.394614 0.328252
0.67718 0.385595 0.329671
0.909407 0.44654 0.340307
0.897902 0.664698 0.380316
0.883299 0.871 0.488563
0.875471 0.972366 0.652476
0 0.758511 0.247715
0 0.758511 0.247715
0 0.758724 0.248432
0 0.75668 0.251316
0.608026 0.754131 0.261921
0.851926 0.762753 0.284611
0.886885 0.819425 0.341772
0.88072 0.906508 0.476005
0.87512 0.977356 0.649821
0 0.947051 0.0311894
0 0.947051 0.0311894
0 0.947051 0.0311894
0 0.943236 0.0324865
0.558999 0.93962 0.038529
0.794156 0.933623 0.139254
0.877562 0.938369 0.266239
0.876844 0.95906 0.442802
0.874174 0.990662 0.642252
0.500191 1 0.127001
0.500191 1 0.127001
0.500191 1 0.127001
0.500191 1 0.127001
0.646998 1 0.141619
0.78233 1 0.181048
0.864271 1 0.278431
0.873564 1 0.471626
0.872618 1 0.668132
0.758251 1 0.546654
0.758251 1 0.546654
0.758251 1 0.546654
0.758251 1 0.546654
0.758251 1 0.546654
0.805234 1 0.553704
0.854688 1 0.57438
0.871824 1 0.627924
0.871382 1 0.728069
0.83798 1 0.76257
0.83798 1 0.76257
0.83798 1 0.76257
0.83798 1 0.76257
0.83798 1 0.76257
0.83798 1 0.76257
0.85568 1 0.765484
0.871122 1 0.773678
0.871 1 0.794064
0 0 0.649454
0 0 0.649454
0 0 0.649546
0.0704967 0 0.64744
0.70045 0 0.63566
0.936431 0 0.635081
0.92314 0.253422 0.652354
0.88542 0.833265 0.673961
0.875364 0.968078 0.735943
0 0 0.649378
0 0 0.649378
0 0 0.649454
0.0772717 0 0.646906
0.704051 0 0.635172
0.936446 0 0.634699
0.918364 0.334768 0.651576
0.885206 0.836255 0.673609
0.875364 0.968261 0.735882
0 0 0.648386
0 0 0.648386
0 0 0.648447
0.167422 0 0.64445
0.709422 0 0.633982
0.936446 0 0.633631
0.913146 0.419791 0.65005
0.884886 0.840803 0.67306
0.875334 0.968582 0.735805
0 0.162142 0.643336
0 0.162142 0.643336
0 0.166155 0.643305
0.162814 0.158236 0.640574
0.705653 0.0649424 0.632746
0.928115 0.143206 0.633173
0.902235 0.589929 0.644099
0.883726 0.857359 0.67097
0.875242 0.970001 0.735424
0 0.711986 0.607492
0 0.711986 0.607492
0 0.712032 0.607507
0 0.711833 0.607904
0.585107 0.7093 0.609827
0.846326 0.724193 0.613581
0.888289 0.795941 0.627253
0.880796 0.898558 0.664622
0.874861 0.975265 0.734035
0 0.947387 0.564996
0 0.947387 0.564996
0 0.947494 0.56495
0 0.944427 0.565545
0.51783 0.939483 0.57084
0.784665 0.930999 0.580407
0.87718 0.934615 0.603449
0.876677 0.956115 0.650874
0.873869 0.989136 0.729046
0.480598 1 0.499229
0.480598 1 0.499229
0.480598 1 0.499229
0.480598 1 0.499229
0.632929 1 0.504036
0.775692 1 0.516426
0.858671 1 0.54992
0.873381 1 0.61915
0.872435 1 0.714977
0.761669 1 0.545983
0.761669 1 0.545983
0.761669 1 0.545983
0.761669 1 0.545983
0.761669 1 0.545983
0.806516 1 0.553246
0.855085 1 0.573968
0.871824 1 0.627726
0.871382 1 0.727871
0.838392 1 0.762509
0.838392 1 0.762509
0.838392 1 0.762509
0.838392 1 0.762509
0.838392 1 0.762509
0.838376 1 0.762509
0.855848 1 0.765423
0.871122 1 0.773648
0.871 1 0.794034
0 0 0.837125
0 0 0.837232
0 0 0.837232
0 0 0.837263
0.502098 0 0.826398
0.930251 0 0.814054
0.934585 0 0.814633
0.890425 0.748699 0.81091
0.87538 0.961242 0.812848
0 0 0.837232
0 0 0.837232
0 0 0.837232
0 0 0.837263
0.50135 0 0.826413
0.930251 0 0.814054
0.934585 0 0.814557
0.889982 0.755184 0.810498
0.875349 0.961471 0.812818
0 0 0.837186
0 0 0.837186
0 0 0.837186
0 0 0.837186
0.512428 0 0.826093
0.930602 0 0.813947
0.934585 0 0.81442
0.889311 0.765087 0.809888
0.875334 0.961852 0.812757
0 0 0.836728
0 0 0.836728
0 0 0.836728
0 0 0.836744
0.570611 0 0.824186
0.931502 0 0.813443
0.934585 0 0.81297
0.887053 0.797696 0.807767
0.875212 0.963516 0.812558
0 0.4383 0.824125
0 0.4383 0.824125
0 0.4383 0.824125
0 0.442267 0.823957
0.532494 0.439719 0.819318
0.898421 0.460609 0.812909
0.896162 0.664179 0.807752
0.882231 0.866835 0.80264
0.874769 0.969726 0.811749
0 0.929076 0.784436
0 0.929076 0.784436
0 0.929076 0.784436
0 0.929076 0.784436
0.283864 0.920455 0.785199
0.767697 0.912016 0.787564
0.872938 0.919097 0.789227
0.876585 0.946349 0.794568
0.873625 0.98555 0.809354
0.297887 1 0.768978
0.297887 1 0.768978
0.298939 1 0.768948
0.298939 1 0.768948
0.552102 1 0.770779
0.752926 1 0.772808
0.846738 0.998459 0.776699
0.87274 0.999969 0.785779
0.872023 1 0.804211
0.74844 1 0.741863
0.74844 1 0.741863
0.74844 1 0.741863
0.74844 1 0.741863
0.74844 1 0.741863
0.793851 1 0.743938
0.845716 1 0.749981
0.871153 1 0.765103
0.871015 1 0.792264
0.83975 1 0.762356
0.83975 1 0.762356
0.83975 1 0.762356
0.83975 1 0.762356
0.83975 1 0.762356
0.83975 1 0.762356
0.856336 1 0.76524
0.871138 1 0.773495
0.871 1 0.793973
0 0 0.889433
0 0 0.889433
0 0 0.889433
0 0 0.889433
0 0 0.889433
0.841276 0 0.878477
0.933837 0 0.877211
0.933837 0 0.877211
0.877211 0.930007 0.867399
0 0 0.889433
0 0 0.889433
0 0 0.889433
0 0 0.889433
0 0 0.889433
0.841276 0 0.878477
0.933837 0 0.877211
0.933837 0 0.877211
0.87718 0.930526 0.867369
0 0 0.889433
0 0 0.889433
0 0 0.889433
0 0 0.889433
0 0 0.889433
0.841276 0 0.878477
0.933837 0 0.877211
0.933837 0 0.877211
0.877119 0.931441 0.867292
0 0 0.889433
0 0 0.889433
0 0 0.889433
0 0 0.889433
0 0 0.889433
0.846418 0 0.878401
0.933837 0 0.877211
0.933837 0 0.877211
0.87686 0.934951 0.867018
0 0 0.889433
0 0 0.889433
0 0 0.889433
0 0 0.889433
0 0 0.889433
0.882673 0 0.877913
0.933837 0 0.877211
0.913024 0.388434 0.882002
0.875975 0.947326 0.866026
0 0.741924 0.875944
0 0.741924 0.875944
0 0.741924 0.875944
0 0.741924 0.875944
0 0.745403 0.875792
0.764035 0.74258 0.875364
0.886625 0.796368 0.872099
0.879576 0.897169 0.866621
0.874113 0.973281 0.863813
0 1 0.85388
0 1 0.85388
0 1 0.85388
0 1 0.85388
0 1 0.85388
0.703243 0.995743 0.857267
0.839582 0.990478 0.85774
0.872694 0.993545 0.858412
0.8719 1 0.860639
0.715953 1 0.851255
0.715953 1 0.851255
0.715953 1 0.851255
0.715953 1 0.851255
0.715953 1 0.851255
0.766217 1 0.851438
0.835523 1 0.852049
0.869688 1 0.85359
0.870573 1 0.857282
0.833814 1 0.839948
0.833814 1 0.839948
0.833814 1 0.839948
0.833814 1 0.839948
0.833814 1 0.839948
0.833814 1 0.839948
0.850553 1 0.840742
0.86891 1 0.843153
0.870634 1 0.848981
0 0.0459297 0.890257
0 0.0459297 0.890257
0 0.0459297 0.890257
0 0.0459297 0.890257
0 0.0459297 0.890257
0 0.0460212 0.890257
0.933837 0 0.877211
0.933394 0 0.878569
0.897353 0.635416 0.886442
0 0.0459297 0.890257
0 0.0459297 0.890257
0 0.0459297 0.890257
0 0.0459297 0.890257
0 0.0459297 0.890257
0 0.0460212 0.890257
0.933837 0 0.877211
0.933394 0 0.878569
0.897353 0.635416 0.886442
0 0.0459297 0.890257
0 0.0459297 0.890257
0 0.0459297 0.890257
0 0.0459297 0.890257
0 0.0459297 0.890257
0 0.0460212 0.890257
0.933837 0 0.877211
0.933394 0 0.878569
0.897353 0.63537 0.886442
0 0.0459297 0.890257
0 0.0459297 0.890257
0 0.0459297 0.890257
0 0.0459297 0.890257
0 0.0459297 0.890257
0 0.0460212 0.890257
0.933837 0 0.877211
0.933394 0 0.878569
0.897368 0.635264 0.886442
0 0.0458228 0.890257
0 0.0458228 0.890257
0 0.0458228 0.890257
0 0.0458228 0.890257
0 0.0458228 0.890257
0 0.0458839 0.890257
0.933837 0 0.877211
0.933349 0 0.87866
0.897383 0.634943 0.886442
0 0.0442512 0.890242
0 0.0442512 0.890242
0 0.0442512 0.890242
0 0.0442512 0.890242
0 0.0442512 0.890242
0 0.0443122 0.890242
0.933837 0 0.877211
0.932113 0.02121 0.88011
0.886702 0.793622 0.886183
0 0.92398 0.880293
0 0.92398 0.880293
0 0.92398 0.880293
0 0.92398 0.880293
0 0.92398 0.880293
0 0.92607 0.880262
0.84152 0.909377 0.885481
0.875929 0.945907 0.88539
0.873106 0.985016 0.885115
0.398657 1 0.881559
0.398657 1 0.881559
0.398657 1 0.881559
0.398657 1 0.881559
0.398657 1 0.881559
0.398657 1 0.881559
0.816297 1 0.883696
0.867445 1 0.883879
0.870451 1 0.884062
0.821729 1 0.882002
0.821729 1 0.882002
0.821729 1 0.882002
0.821729 1 0.882002
0.821729 1 0.882002
0.821729 1 0.882002
0.840482 1 0.882063
0.865141 1 0.882246
0.87039 1 0.882643
0 0.276005 0.889357
0 0.276005 0.889357
0 0.276005 0.889357
0 0.276005 0.889357
0 0.276005 0.889357
0 0.276005 0.889357
0 0.276081 0.889357
0.929671 0.0821546 0.881849
0.895003 0.67126 0.886458
0 0.276005 0.889357
0 0.276005 0.889357
0 0.276005 0.889357
0 0.276005 0.889357
0 0.276005 0.889357
0 0.276005 0.889357
0 0.276081 0.889357
0.929671 0.0821546 0.881849
0.895003 0.67126 0.886458
0 0.276005 0.889357
0 0.276005 0.889357
0 0.276005 0.889357
0 0.276005 0.889357
0 0.276005 0.889357
0 0.276005 0.889357
0 0.276081 0.889357
0.929671 0.0821546 0.881849
0.895003 0.67126 0.886458
0 0.276005 0.889357
0 0.276005 0.889357
0 0.276005 0.889357
0 0.276005 0.889357
0 0.276005 0.889357
0 0.276005 0.889357
0 0.276081 0.889357
0.929671 0.0821546 0.881849
0.895003 0.67126 0.886458
0 0.276005 0.889357
0 0.276005 0.889357
0 0.276005 0.889357
0 0.276005 0.889357
0 0.276005 0.889357
0 0.276005 0.889357
0 0.276081 0.889357
0.929671 0.0821546 0.881849
0.895003 0.67126 0.886458
0 0.275929 0.889357
0 0.275929 0.889357
0 0.275929 0.889357
0 0.275929 0.889357
0 0.275929 0.889357
0 0.275929 0.889357
0 0.27599 0.889357
0.929625 0.0831159 0.88188
0.894896 0.672755 0.886458
0 0.274769 0.889372
0 0.274769 0.889372
0 0.274769 0.889372
0 0.274769 0.889372
0 0.274769 0.889372
0 0.274769 0.889372
0 0.27483 0.889372
0.923384 0.208515 0.884123
0.894728 0.675456 0.886442
0 1 0.878782
0 1 0.878782
0 1 0.878782
0 1 0.878782
0 1 0.878782
0 1 0.878782
0 1 0.878767
0.865782 1 0.884947
0.871351 1 0.884932
0.767346 1 0.884291
0.767346 1 0.884291
0.767346 1 0.884291
0.767346 1 0.884291
0.767346 1 0.884291
0.767346 1 0.884291
0.767346 1 0.884291
0.859648 1 0.884779
0.870375 1 0.884825
