BBLuts/BB_103_0050_LUT.cube
TITLE "Generated by Resolve"
LUT_3D_SIZE 9
0.00015259 0.00114443 0.000137331
0.00529488 0.000976577 0
0.222293 0 0
0.483345 0 0
0.900847 0 0
1 0 0
1 0.65922 0.0719158
1 1 0.392386
1 1 0.848356
0 0.0655833 0
0 0.0773632 0
0.225223 0.0524453 0
0.491798 0 0
0.904204 0 0
1 0 0
1 0.692302 0.0576181
1 1 0.391196
1 1 0.848219
0 0.255344 0
0 0.259556 0
0.158175 0.258778 0
0.485664 0.234043 0
0.904372 0.123613 0
1 0.280171 0
1 0.734981 0.029099
1 1 0.389349
1 1 0.847959
0 0.551904 0
0 0.553048 0
0 0.554284 0
0.391913 0.555001 0
0.884047 0.54464 0
1 0.609491 0
1 0.857237 0
1 1 0.387396
1 1 0.846754
0 0.987259 0
0 0.987243 0
0 0.986862 0
0 0.983642 0
0.757382 0.980301 0
1 0.989334 0
1 1 0
1 1 0.396902
1 1 0.842069
0 1 0
0 1 0
0 1 0
0 1 0
0.683528 1 0
1 1 0
1 1 0
1 1 0.444327
1 1 0.845182
0.568338 1 0.177691
0.568338 1 0.177691
0.568338 1 0.177691
0.568307 1 0.177691
0.811231 1 0.194812
1 1 0.240909
1 1 0.350668
1 1 0.588373
1 1 0.890532
0.984482 1 0.700908
0.984482 1 0.700938
0.984482 1 0.700938
0.984482 1 0.700938
0.984451 1 0.700938
1 1 0.712062
1 1 0.74432
1 1 0.827817
1 1 0.98471
1 1 1
1 1 1
1 1 1
1 1 1
1 1 1
1 1 1
1 1 1
1 1 1
1 1 1
0.00129702 0.00250248 0.0429389
0.00131228 0.00250248 0.0433661
0.22034 0 0.0400244
0.483955 0 0.0371557
0.901457 0 0.0317998
1 0 0.0309148
1 0.656657 0.0986801
1 1 0.392401
1 1 0.848386
0 0.0339055 0.0362707
0.0381323 0.0487526 0.0343328
0.235767 0 0.0335241
0.486519 0 0.0277714
0.901686 0 0.00314336
1 0 0.00332647
1 0.690257 0.0792859
1 1 0.391211
1 1 0.848219
0 0.243015 0.00141909
0 0.246815 0.00148013
0.179034 0.246494 0
0.483803 0.221088 0
0.900786 0.0859846 0
1 0.263539 0
1 0.733425 0.0469825
1 1 0.389349
1 1 0.847959
0 0.546044 0
0 0.547082 0
0 0.548196 0
0.403342 0.548501 0
0.883253 0.539147 0
1 0.605341 0
1 0.855909 0
1 1 0.387396
1 1 0.846754
0 0.984833 0
0 0.984817 0
0 0.984405 0
0 0.98114 0
0.760967 0.978317 0
1 0.987991 0
1 1 0
1 1 0.396902
1 1 0.842069
0 1 0
0 1 0
0 1 0
0 1 0
0.686427 1 0
1 1 0
1 1 0
1 1 0.444327
1 1 0.845182
0.573114 1 0.177508
0.573114 1 0.177508
0.573098 1 0.177508
0.573083 1 0.177508
0.812604 1 0.194568
1 1 0.240711
1 1 0.350652
1 1 0.588373
1 1 0.890532
0.984802 1 0.700893
0.984802 1 0.700893
0.984802 1 0.700893
0.984802 1 0.700893
0.984787 1 0.700893
1 1 0.712032
1 1 0.744274
1 1 0.827817
1 1 0.98471
1 1 1
1 1 1
1 1 1
1 1 1
1 1 1
1 1 1
1 1 1
1 1 1
1 1 1
0.00181582 0.00355535 0.184665
0.00181582 0.00355535 0.184955
0.187076 0.000885023 0.181247
0.495186 0 0.173663
0.902968 0 0.172122
1 0 0.188617
1 0.644144 0.248798
1 1 0.426169
1 1 0.848386
0.00183108 0.00355535 0.181949
0.00183108 0.00355535 0.182391
0.21239 0.000564584 0.177859
0.494072 0 0.170169
0.904677 0 0.167819
1 0 0.18056
1 0.679362 0.241474
1 1 0.424964
1 1 0.848219
0 0.210208 0.168399
0 0.213489 0.168353
0.165393 0.207599 0.162951
0.471687 0.186023 0.162692
0.902083 0.0134737 0.157198
1 0.204181 0.173098
1 0.724819 0.230564
1 1 0.422904
1 1 0.847959
0 0.531884 0.0881361
0 0.53344 0.0884565
0 0.534463 0.0897383
0.404654 0.534661 0.0912947
0.879103 0.526436 0.0925307
1 0.594308 0.105241
1 0.853941 0.188098
1 1 0.415045
1 1 0.846754
0 0.980209 0
0 0.980209 0
0 0.979797 0
0 0.976547 0
0.764294 0.973388 0
1 0.984039 0
1 1 0.0268559
1 1 0.398413
1 1 0.842069
0 1 0
0 1 0
0 1 0
0 1 0
0.691508 1 0
1 1 0
1 1 0
1 1 0.444114
1 1 0.845182
0.579507 1 0.177234
0.579507 1 0.177234
0.579507 1 0.177234
0.579477 1 0.177218
0.81445 1 0.194232
1 1 0.240482
1 1 0.350423
1 1 0.588281
1 1 0.890532
0.98526 1 0.700847
0.98526 1 0.700847
0.98526 1 0.700847
0.98526 1 0.700847
0.98526 1 0.700847
1 1 0.711955
1 1 0.744244
1 1 0.827802
1 1 0.98471
1 1 1
1 1 1
1 1 1
1 1 1
1 1 1
1 1 1
1 1 1
1 1 1
1 1 1
0 0.00218204 0.439414
0 0.00218204 0.439521
0 0.00216678 0.439796
0.451469 0 0.431891
0.930831 0 0.427955
1 0 0.441825
1 0.59234 0.496345
1 1 0.618936
1 1 0.867338
0 0.0021973 0.43772
0 0.0021973 0.437858
0.0254215 0.00167849 0.437369
0.467201 0 0.429435
0.928542 0 0.425818
1 0 0.438788
1 0.632944 0.492897
1 1 0.618067
1 1 0.867185
0 0.057084 0.433967
0 0.0599222 0.434089
0.0273442 0.0603189 0.433478
0.474525 0 0.425574
0.920653 0 0.421866
1 0.00134279 0.43444
1 0.68455 0.487785
1 1 0.616648
1 1 0.866987
0 0.475334 0.405203
0 0.47631 0.405264
0 0.478523 0.405921
0.386572 0.478553 0.406928
0.859678 0.470069 0.409461
1 0.541527 0.423178
1 0.827268 0.470222
1 1 0.611414
1 1 0.865934
0 0.967712 0.315175
0 0.967712 0.315175
0 0.968017 0.315953
0 0.964889 0.319097
0.760754 0.962356 0.331304
1 0.976013 0.357427
1 1 0.424262
1 1 0.593851
1 1 0.861799
0 1 0.058854
0 1 0.058854
0 1 0.058854
0 1 0.0604868
0.68838 1 0.0689097
1 1 0.19115
1 1 0.336797
1 1 0.548547
1 1 0.849973
0.598779 1 0.175708
0.598779 1 0.175708
0.598779 1 0.175708
0.598779 1 0.175708
0.820142 1 0.193179
1 1 0.239643
1 1 0.350072
1 1 0.587701
1 1 0.89041
0.986877 1 0.700679
0.986877 1 0.700679
0.986877 1 0.700679
0.986877 1 0.700679
0.986877 1 0.700679
1 1 0.711757
1 1 0.744076
1 1 0.827619
1 1 0.984649
1 1 1
1 1 1
1 1 1
1 1 1
1 1 1
1 1 1
1 1 1
1 1 1
1 1 1
0 0 0.855467
0 0 0.855467
0 0 0.855604
0.108034 0 0.853529
0.882628 0 0.837537
1 0 0.83743
1 0.325368 0.864713
1 1 0.899458
1 1 0.996948
0 0 0.855344
0 0 0.855344
0 0 0.855436
0.115846 0 0.85275
0.888045 0 0.836805
1 0 0.836835
1 0.416297 0.863752
1 1 0.898924
1 1 0.996857
0 0 0.853773
0 0 0.853773
0 0 0.85388
0.22002 0 0.849561
0.896147 0 0.834974
1 0 0.835172
1 0.509544 0.861662
1 1 0.898054
1 1 0.996719
0 0.218204 0.846494
0 0.218204 0.846494
0 0.222873 0.846464
0.214023 0.213993 0.84387
0.892744 0.107179 0.832929
1 0.199756 0.834455
1 0.716991 0.85275
1 1 0.894789
1 1 0.996139
0 0.89604 0.792203
0 0.89604 0.792203
0 0.896117 0.792248
0 0.895811 0.792859
0.725307 0.893278 0.798474
1 0.916564 0.805035
1 1 0.82652
1 1 0.884886
1 1 0.993957
0 1 0.726192
0 1 0.726192
0 1 0.726101
0 1 0.727031
0.623652 1 0.737713
1 1 0.753246
1 1 0.789395
1 1 0.863432
1 1 0.98616
0.571023 1 0.625711
0.571023 1 0.625711
0.571023 1 0.625711
0.571023 1 0.625711
0.797909 1 0.633463
1 1 0.65362
1 1 0.705989
1 1 0.813916
1 1 0.964157
0.992004 1 0.699626
0.992004 1 0.699626
0.992004 1 0.699626
0.992004 1 0.699626
0.992004 1 0.699626
1 1 0.71104
1 1 0.743465
1 1 0.827314
1 1 0.984329
1 1 1
1 1 1
1 1 1
1 1 1
1 1 1
1 1 1
1 1 1
1 1 1
1 1 1
0 0 1
0 0 1
0 0 1
0 0 1
0.597025 0 1
1 0 1
1 0 1
1 0.953109 1
1 1 1
0 0 1
0 0 1
0 0 1
0 0 1
0.596094 0 1
1 0 1
1 0 1
1 0.962921 1
1 1 1
0 0 1
0 0 1
0 0 1
0 0 1
0.610086 0 1
1 0 1
1 0 1
1 0.97792 1
1 1 1
0 0 1
0 0 1
0 0 1
0 0 1
0.687053 0 1
1 0 1
1 0 1
1 1 1
1 1 1
0 0.527047 1
0 0.527047 1
0 0.527047 1
0 0.53167 1
0.642802 0.529564 1
1 0.556069 1
1 0.825071 1
1 1 1
1 1 1
0 1 1
0 1 1
0 1 1
0 1 1
0.335866 1 1
1 1 1
1 1 1
1 1 1
1 1 1
0.348348 1 1
0.348348 1 1
0.349508 1 1
0.349508 1 1
0.675151 1 1
0.977996 1 1
1 1 1
1 1 1
1 1 1
0.971389 1 1
0.971389 1 1
0.971389 1 1
0.971389 1 1
0.971389 1 1
1 1 1
1 1 1
1 1 1
1 1 1
1 1 1
1 1 1
1 1 1
1 1 1
1 1 1
1 1 1
1 1 1
1 1 1
1 1 1
0 0 1
0 0 1
0 0 1
0 0 1
0 0 1
1 0 1
1 0 1
1 0 1
1 1 1
0 0 1
0 0 1
0 0 1
0 0 1
0 0 1
1 0 1
1 0 1
1 0 1
1 1 1
0 0 1
0 0 1
0 0 1
0 0 1
0 0 1
1 0 1
1 0 1
1 0 1
1 1 1
0 0 1
0 0 1
0 0 1
0 0 1
0 0 1
1 0 1
1 0 1
1 0 1
1 1 1
0 0 1
0 0 1
0 0 1
0 0 1
0 0 1
1 0 1
1 0 1
1 0.472724 1
1 1 1
0 0.940414 1
0 0.940414 1
0 0.940414 1
0 0.940414 1
0 0.945678 1
0.994125 0.943191 1
1 1 1
1 1 1
1 1 1
0 1 1
0 1 1
0 1 1
0 1 1
0 1 1
0.902876 1 1
1 1 1
1 1 1
1 1 1
0.922072 1 1
0.922072 1 1
0.922072 1 1
0.922072 1 1
0.922072 1 1
0.997696 1 1
1 1 1
1 1 1
1 1 1
1 1 1
1 1 1
1 1 1
1 1 1
1 1 1
1 1 1
1 1 1
1 1 1
1 1 1
0 0.0816052 1
0 0.0816052 1
0 0.0816052 1
0 0.0816052 1
0 0.0816052 1
0 0.0817121 1
1 0 1
1 0.00959792 1
1 0.780911 1
0 0.0816052 1
0 0.0816052 1
0 0.0816052 1
0 0.0816052 1
0 0.0816052 1
0 0.0817121 1
1 0 1
1 0.00959792 1
1 0.780911 1
0 0.0816052 1
0 0.0816052 1
0 0.0816052 1
0 0.0816052 1
0 0.0816052 1
0 0.0817121 1
1 0 1
1 0.00959792 1
1 0.78085 1
0 0.0816052 1
0 0.0816052 1
0 0.0816052 1
0 0.0816052 1
0 0.0816052 1
0 0.0817121 1
1 0 1
1 0.00959792 1
1 0.780682 1
0 0.0814679 1
0 0.0814679 1
0 0.0814679 1
0 0.0814679 1
0 0.0814679 1
0 0.0815595 1
1 0 1
1 0.0119783 1
1 0.780179 1
0 0.0796368 1
0 0.0796368 1
0 0.0796368 1
0 0.0796368 1
0 0.0796368 1
0 0.0797284 1
1 0 1
1 0.0567788 1
1 1 1
0 1 1
0 1 1
0 1 1
0 1 1
0 1 1
0 1 1
1 1 1
1 1 1
1 1 1
0.464027 1 1
0.464027 1 1
0.464027 1 1
0.464027 1 1
0.464027 1 1
0.464027 1 1
1 1 1
1 1 1
1 1 1
1 1 1
1 1 1
1 1 1
1 1 1
1 1 1
1 1 1
1 1 1
1 1 1
1 1 1
0 0.346273 1
0 0.346273 1
0 0.346273 1
0 0.346273 1
0 0.346273 1
0 0.346273 1
0 0.346365 1
1 0.127596 1
1 0.835462 1
0 0.346273 1
0 0.346273 1
0 0.346273 1
0 0.346273 1
0 0.346273 1
0 0.346273 1
0 0.346365 1
1 0.127596 1
1 0.835462 1
0 0.346273 1
0 0.346273 1
0 0.346273 1
0 0.346273 1
0 0.346273 1
0 0.346273 1
0 0.346365 1
1 0.127596 1
1 0.835462 1
0 0.346273 1
0 0.346273 1
0 0.346273 1
0 0.346273 1
0 0.346273 1
0 0.346273 1
0 0.346365 1
1 0.127596 1
1 0.835462 1
0 0.346273 1
0 0.346273 1
0 0.346273 1
0 0.346273 1
0 0.346273 1
0 0.346273 1
0 0.346365 1
1 0.127596 1
1 0.835462 1
0 0.346197 1
0 0.346197 1
0 0.346197 1
0 0.346197 1
0 0.346197 1
0 0.346197 1
0 0.346258 1
1 0.12871 1
1 0.837736 1
0 0.344884 1
0 0.344884 1
0 0.344884 1
0 0.344884 1
0 0.344884 1
0 0.344884 1
0 0.344961 1
1 0.273533 1
1 0.841825 1
0 1 1
0 1 1
0 1 1
0 1 1
0 1 1
0 1 1
0 1 1
1 1 1
1 1 1
0.999237 1 1
0.999237 1 1
0.999237 1 1
0.999237 1 1
0.999237 1 1
0.999237 1 1
0.999237 1 1
1 1 1
1 1 1
