BBLuts/BB_106_0150_LUT.cube
TITLE "Generated by Resolve"
LUT_3D_SIZE 33
0 0 0
0 0 0
0 0 0
0 0 0
0 0 0
0.0433356 0 3.0518e-05
0.0934157 0 6.10361e-05
0.130739 0 9.15541e-05
0.167575 0 0.000122072
0.211551 0 0.00015259
0.263264 0 0.000183108
0.320974 0 0.000228885
0.387213 0 0.000274662
0.465934 0 0.000320439
0.556893 0 0.000381476
0.655451 0 0.000457771
0.756985 0 0.000518807
0.858717 0 0.000595102
0.948486 0 0.000656138
1 0 0.000701915
1 0 0.000701915
1 0 0.000701915
1 0.2056 0.0598154
1 0.34847 0.0993057
1 0.464118 0.143267
1 0.569802 0.195422
1 0.666331 0.265858
1 0.743313 0.358144
1 0.800793 0.457038
1 0.845212 0.55668
1 0.87808 0.655604
1 0.904112 0.747158
1 0.924269 0.81976
0 0 0
0 0 0
0 0 0
0 0 0
0 0 0
0.0544594 0 3.0518e-05
0.0974441 0 6.10361e-05
0.1337 0 9.15541e-05
0.172305 0 0.000122072
0.217136 0 0.00015259
0.268925 0 0.000183108
0.325994 0 0.000228885
0.390539 0 0.000274662
0.46804 0 0.000320439
0.558709 0 0.000381476
0.656733 0 0.000457771
0.757748 0 0.000518807
0.859022 0 0.000595102
0.948318 0 0.000656138
1 0 0.000701915
1 0 0.000701915
1 0 0.000701915
1 0.227512 0.0500496
1 0.359823 0.0950027
1 0.471565 0.140963
1 0.574929 0.194186
1 0.669627 0.2645
1 0.74519 0.357427
1 0.801862 0.456626
1 0.845823 0.556435
1 0.878431 0.655436
1 0.904311 0.747066
1 0.924392 0.819699
0 0 0
0 0 0
0 0 0
0 0 0
0 0 0
0.0610819 0 4.57771e-05
0.0991836 0 7.62951e-05
0.136553 0 9.15541e-05
0.177218 0 0.000122072
0.222507 0 0.00015259
0.273457 0 0.000183108
0.328786 0 0.000228885
0.393103 0 0.000274662
0.470329 0 0.000320439
0.560555 0 0.000381476
0.657969 0 0.000457771
0.75848 0 0.000518807
0.859297 0 0.000595102
0.948104 0 0.000656138
1 0 0.000701915
1 0 0.000701915
1 0 0.000701915
1 0.246983 0.0359045
1 0.370687 0.0903792
1 0.478798 0.138613
1 0.57998 0.19295
1 0.672862 0.263157
1 0.747036 0.35671
1 0.80293 0.456214
1 0.846418 0.556176
1 0.878782 0.655283
1 0.904524 0.746975
1 0.924514 0.819654
0 0 0
0 0 0
0 0 0
0.000259403 0.00646983 3.0518e-05
0.0225986 0.0109102 6.10361e-05
0.0660258 0 4.57771e-05
0.100053 0 7.62951e-05
0.136965 0 9.15541e-05
0.178134 0 0.000122072
0.224537 0 0.00015259
0.276234 0 0.000198367
0.331212 0 0.000228885
0.39559 0 0.000274662
0.472633 0 0.000320439
0.562432 0 0.000396735
0.659236 0 0.000457771
0.759213 0 0.000518807
0.859541 0 0.000595102
0.94786 0 0.000656138
1 0 0.000701915
1 0 0.000701915
1 0.0859693 0.00111391
1 0.264637 0.0019379
1 0.381109 0.0854047
1 0.485863 0.136217
1 0.584924 0.191714
1 0.676036 0.26183
1 0.748837 0.356008
1 0.803983 0.455817
1 0.847013 0.555932
1 0.879133 0.655131
1 0.904723 0.746883
1 0.924636 0.819593
0.00196841 0.0482338 0.000228885
0.00207523 0.0509194 0.000228885
0.00218204 0.0535286 0.000244144
0.00228885 0.0560311 0.000259403
0.00233463 0.0569924 0.000259403
0.0606546 0.0563821 0.00030518
0.0979782 0.054551 0.000320439
0.1364 0.0502937 0.000320439
0.17882 0.0408331 0.00030518
0.225315 0 0.00015259
0.277913 0 0.000198367
0.333349 0 0.000228885
0.397986 0 0.000274662
0.474983 0 0.000335698
0.56434 0 0.000396735
0.660533 0 0.000457771
0.759945 0 0.000518807
0.85977 0 0.000595102
0.947601 0 0.000656138
1 0 0.000701915
1 0 0.000701915
1 0.135943 0.00134279
1 0.280812 0.00199893
1 0.391135 0.0799725
1 0.49276 0.133776
1 0.589792 0.190478
1 0.679149 0.260487
1 0.750622 0.355306
1 0.80502 0.455406
1 0.847608 0.555688
1 0.879469 0.654963
1 0.904936 0.746777
1 0.924758 0.819547
0.00314336 0.0770275 0.000350958
0.00323491 0.0791943 0.000366217
0.00332647 0.0813153 0.000381476
0.0033875 0.0829938 0.000381476
0.00341802 0.0837873 0.000381476
0.0440833 0.0837415 0.000411994
0.092195 0.0830396 0.000442512
0.133654 0.0812085 0.000457771
0.178149 0.0773632 0.00047303
0.227832 0.06981 0.00047303
0.280781 0.055024 0.000442512
0.335149 0 0.000228885
0.400305 0 0.000274662
0.477363 0 0.000335698
0.566293 0 0.000396735
0.661845 0 0.000457771
0.760662 0 0.000534066
0.859983 0 0.000595102
0.947311 0 0.000656138
1 0 0.000701915
1 0 0.000701915
1 0.169253 0.00149538
1 0.295918 0.00207523
1 0.40087 0.0739147
1 0.499535 0.131273
1 0.594614 0.189242
1 0.682216 0.259144
1 0.752377 0.354589
1 0.806058 0.455009
1 0.848188 0.555444
1 0.87982 0.65481
1 0.905135 0.746685
1 0.92488 0.819486
0.00433356 0.106081 0.000488289
0.00440986 0.107912 0.000503548
0.00448615 0.109712 0.000503548
0.00453193 0.110765 0.000503548
0.00456245 0.111437 0.000518807
0.00456245 0.11165 0.000518807
0.0794385 0.111315 0.000564584
0.127764 0.110399 0.000595102
0.175372 0.108293 0.00062562
0.227436 0.104128 0.000640879
0.282017 0.0962844 0.000640879
0.340124 0.0833143 0.00062562
0.405295 0.0580148 0.000549325
0.480262 0 0.000335698
0.568704 0 0.000396735
0.663447 0 0.000457771
0.761563 0 0.000534066
0.860243 0 0.000595102
0.946944 0 0.000656138
1 0 0.000701915
1 0 0.000701915
1 0.201282 0.00163272
1 0.313115 0.00215152
1 0.412329 0.0653544
1 0.507622 0.12813
1 0.600412 0.187716
1 0.685908 0.257496
1 0.754498 0.353735
1 0.807309 0.454505
1 0.848905 0.555138
1 0.880232 0.654612
1 0.905379 0.746563
1 0.925017 0.819425
0.00570687 0.139574 0.000640879
0.00576791 0.141161 0.000656138
0.00582895 0.142443 0.000656138
0.00585946 0.143221 0.000656138
0.00587472 0.143771 0.000656138
0.00588998 0.14406 0.000656138
0.0341192 0.14406 0.000686656
0.114748 0.143587 0.000732433
0.16878 0.142412 0.000762951
0.223926 0.139635 0.000793469
0.28101 0.134203 0.000808728
0.342412 0.126314 0.000823987
0.410346 0.114275 0.000808728
0.487739 0.0931106 0.000762951
0.573663 0.0425116 0.000595102
0.665644 0 0.000457771
0.762798 0 0.000534066
0.860594 0 0.000595102
0.94641 0 0.000656138
1 0 0.000701915
1 0.119112 0.0012665
1 0.236362 0.00180056
1 0.33431 0.00225834
1 0.426963 0.0504158
1 0.518105 0.123781
1 0.60798 0.185672
1 0.690684 0.256275
1 0.757259 0.35259
1 0.808957 0.453849
1 0.849851 0.554742
1 0.880796 0.654353
1 0.905715 0.74641
1 0.925216 0.819348
0.00732433 0.179141 0.000823987
0.00737011 0.180438 0.000823987
0.00740063 0.181125 0.000839246
0.00743114 0.181811 0.000839246
0.0074464 0.182284 0.000839246
0.00746166 0.182589 0.000839246
0.00747692 0.182773 0.000839246
0.0809339 0.182605 0.000885023
0.153826 0.181231 0.0009308
0.214801 0.178836 0.000961318
0.276432 0.175143 0.000991836
0.342046 0.169696 0.00102235
0.414023 0.161669 0.00102235
0.494102 0.149569 0.00103761
0.581415 0.132372 0.0010071
0.673014 0.106813 0.000961318
0.767086 0.0621653 0.000823987
0.861036 0 0.000595102
0.945617 0 0.000656138
1 0.100191 0.00117494
1 0.189014 0.00158694
1 0.275013 0.00198367
1 0.360037 0.00236515
1 0.445441 0.00276188
1 0.531548 0.117693
1 0.617777 0.182956
1 0.696834 0.25536
1 0.76083 0.351064
1 0.811109 0.452979
1 0.851087 0.554208
1 0.881529 0.654002
1 0.906157 0.746197
1 0.925475 0.819226
0.00918593 0.224552 0.00103761
0.00920119 0.224903 0.00103761
0.00920119 0.225269 0.00103761
0.00921645 0.225574 0.00103761
0.00923171 0.225742 0.00103761
0.00923171 0.225772 0.00103761
0.00923171 0.225696 0.00103761
0.00921645 0.225376 0.00103761
0.120867 0.22443 0.00111391
0.197879 0.222873 0.00115969
0.266529 0.220371 0.0011902
0.33756 0.216464 0.00122072
0.414786 0.210559 0.00125124
0.499413 0.201968 0.0012665
0.588495 0.191882 0.00129702
0.679759 0.179675 0.00129702
0.773587 0.165972 0.00129702
0.867964 0.154437 0.00131228
0.951049 0.160494 0.00140383
1 0.194797 0.0016022
1 0.249928 0.0018616
1 0.31754 0.00218204
1 0.390845 0.00251774
1 0.468299 0.0028687
1 0.548577 0.108934
1 0.630198 0.1794
1 0.704662 0.254246
1 0.765408 0.349065
1 0.813916 0.451804
1 0.852689 0.553491
1 0.88249 0.653544
1 0.906737 0.745922
1 0.925826 0.819074
0.0111696 0.27335 0.00125124
0.0111849 0.273716 0.0012665
0.0112001 0.274067 0.0012665
0.0112154 0.274357 0.0012665
0.0112154 0.274556 0.0012665
0.0112306 0.274662 0.0012665
0.0112306 0.274693 0.0012665
0.0112306 0.274601 0.0012665
0.0112154 0.27425 0.0012665
0.164767 0.273136 0.00135805
0.248035 0.271489 0.00141909
0.326787 0.268788 0.00146487
0.410544 0.264454 0.00149538
0.501823 0.258335 0.0015259
0.594537 0.251453 0.00157168
0.686488 0.244388 0.0016022
0.779248 0.238071 0.00163272
0.871733 0.234897 0.00167849
0.952544 0.242969 0.00178531
1 0.268742 0.0019379
1 0.310613 0.00213626
1 0.364553 0.00239567
1 0.427176 0.00268559
1 0.496269 0.00299077
1 0.569894 0.0957046
1 0.64564 0.174792
1 0.714504 0.252888
1 0.771252 0.34641
1 0.817548 0.450263
1 0.85478 0.552544
1 0.883772 0.652934
1 0.9075 0.745556
1 0.926268 0.81886
0.01355 0.33138 0.0015259
0.0135653 0.331731 0.0015259
0.0135805 0.332067 0.0015259
0.0135805 0.332326 0.0015259
0.0135958 0.332525 0.0015259
0.0135958 0.332677 0.0015259
0.013611 0.332799 0.0015259
0.013611 0.332845 0.0015259
0.0135958 0.332723 0.0015259
0.0135805 0.332341 0.0015259
0.21181 0.331136 0.00166323
0.30576 0.329381 0.00172427
0.398779 0.326619 0.00177005
0.497856 0.322576 0.00183108
0.596139 0.317678 0.00187686
0.69163 0.313069 0.00192264
0.784573 0.31017 0.00196841
0.8748 0.310857 0.00202945
0.952682 0.319966 0.00213626
1 0.340642 0.00227359
1 0.37293 0.00242618
1 0.416495 0.00262455
1 0.469368 0.0028687
1 0.529824 0.00315862
1 0.596109 0.073228
1 0.664439 0.168978
1 0.726619 0.251331
1 0.778637 0.342916
1 0.822156 0.448234
1 0.857466 0.551293
1 0.88542 0.65211
1 0.908507 0.745052
1 0.926879 0.818586
0.0163882 0.400916 0.00184634
0.0164034 0.401251 0.00184634
0.0164187 0.401541 0.00184634
0.0164187 0.40177 0.00184634
0.016434 0.401968 0.00184634
0.016434 0.402121 0.00184634
0.0164492 0.402274 0.00184634
0.0164492 0.402396 0.00184634
0.0164492 0.402487 0.00184634
0.0164492 0.402579 0.00184634
0.108598 0.402274 0.00192264
0.265324 0.401419 0.00201419
0.37554 0.399863 0.00209049
0.484184 0.397055 0.00215152
0.589685 0.393454 0.00221256
0.691157 0.389944 0.00227359
0.787655 0.387823 0.00231937
0.876738 0.389029 0.00239567
0.951553 0.396674 0.00248722
1 0.412955 0.00259403
1 0.438361 0.00273136
1 0.473503 0.00289921
1 0.517464 0.00309758
1 0.569284 0.00332647
1 0.627695 0.00360113
1 0.686702 0.161807
1 0.741161 0.249714
1 0.787762 0.341268
1 0.827955 0.445548
1 0.860853 0.549645
1 0.887572 0.651011
1 0.909819 0.744396
1 0.927657 0.818219
0.0196536 0.480705 0.00221256
0.0196536 0.480964 0.00221256
0.0196689 0.481193 0.00221256
0.0196841 0.481392 0.00221256
0.0196841 0.481559 0.00221256
0.0196841 0.481697 0.00221256
0.0196994 0.481849 0.00221256
0.0196994 0.481987 0.00221256
0.0197147 0.482094 0.00221256
0.0197147 0.482124 0.00221256
0.0196994 0.482002 0.00221256
0.175723 0.481224 0.00231937
0.335302 0.479789 0.00242618
0.459419 0.477501 0.00250248
0.573785 0.474464 0.00257877
0.682734 0.471153 0.00263981
0.785367 0.468589 0.00268559
0.876219 0.468849 0.00276188
0.94876 0.474693 0.00283818
1 0.487388 0.00292973
1 0.507317 0.0030518
1 0.535348 0.00317388
1 0.571237 0.00334173
1 0.61471 0.00354009
1 0.66334 0.00376898
1 0.712184 0.15349
1 0.758022 0.24831
1 0.79881 0.341939
1 0.835065 0.442039
1 0.86511 0.547463
1 0.890303 0.649561
1 0.911498 0.743511
1 0.928679 0.817731
0.0230716 0.564477 0.00259403
0.0230869 0.56463 0.00259403
0.0230869 0.564767 0.00259403
0.0230869 0.564874 0.00259403
0.0231022 0.564965 0.00259403
0.0231022 0.565042 0.00259403
0.0231022 0.565103 0.00259403
0.0231022 0.565164 0.00259403
0.0231022 0.565179 0.00259403
0.0231022 0.565118 0.00259403
0.0230869 0.56492 0.00259403
0.0230716 0.564401 0.00259403
0.266194 0.562844 0.00276188
0.422171 0.560754 0.00285344
0.548455 0.558083 0.00292973
0.6654 0.554971 0.00300603
0.77528 0.551995 0.00306706
0.870008 0.551095 0.0031281
0.942916 0.554757 0.00320439
0.997971 0.564157 0.00328069
1 0.579446 0.00337224
1 0.601434 0.00347906
1 0.630091 0.00361639
1 0.664149 0.00376898
1 0.701671 0.00393683
1 0.740108 0.144884
1 0.776944 0.247639
1 0.811841 0.343221
1 0.843595 0.438376
1 0.870405 0.544579
1 0.893767 0.647639
1 0.913649 0.742351
1 0.930007 0.817075
0.026566 0.649729 0.00299077
0.026566 0.64979 0.00299077
0.026566 0.649836 0.00299077
0.026566 0.649882 0.00299077
0.026566 0.649897 0.00299077
0.026566 0.649912 0.00299077
0.026566 0.649912 0.00299077
0.026566 0.649882 0.00299077
0.026566 0.649805 0.00299077
0.0265507 0.649653 0.00299077
0.0265507 0.649332 0.00299077
0.0265202 0.648707 0.00299077
0.0264744 0.647593 0.00297551
0.367575 0.645243 0.00320439
0.513893 0.642741 0.00329595
0.639963 0.63978 0.00337224
0.756741 0.636652 0.00344854
0.856092 0.634867 0.00350958
0.93138 0.636545 0.00357061
0.987274 0.642725 0.00363165
1 0.65362 0.00370794
1 0.669352 0.0037995
1 0.689494 0.00389105
1 0.713619 0.00399786
1 0.740764 0.00411994
1 0.76907 0.138201
1 0.797986 0.248234
1 0.826734 0.345571
1 0.853407 0.440909
1 0.87689 0.540795
1 0.898039 0.645106
1 0.916335 0.740795
1 0.931701 0.81619
0.0299535 0.732754 0.00337224
0.0299535 0.732723 0.00337224
0.0299535 0.732692 0.00337224
0.0299535 0.732662 0.00337224
0.0299535 0.732616 0.00337224
0.0299382 0.73257 0.00337224
0.0299382 0.732494 0.00337224
0.0299382 0.732372 0.00337224
0.0299229 0.732189 0.00337224
0.0299229 0.731884 0.00337224
0.0298924 0.73138 0.00335698
0.0298619 0.730571 0.00335698
0.0298161 0.72929 0.00335698
0.288808 0.727001 0.00352483
0.471931 0.7243 0.00364691
0.610162 0.721126 0.0037232
0.732982 0.717601 0.0037995
0.835981 0.714778 0.00386053
0.914397 0.714153 0.00390631
0.97322 0.716472 0.00395209
1 0.722194 0.00401312
1 0.731609 0.00407416
1 0.744305 0.0041352
1 0.759991 0.00421149
1 0.778088 0.00428778
1 0.798413 0.1364
1 0.820493 0.251194
1 0.843 0.349599
1 0.864363 0.444694
1 0.88455 0.538918
1 0.903227 0.641749
1 0.919646 0.738735
1 0.933852 0.81503
0.0327764 0.801938 0.00369268
0.0327764 0.801846 0.00369268
0.0327764 0.801755 0.00369268
0.0327764 0.801648 0.00369268
0.0327611 0.801541 0.00369268
0.0327611 0.801419 0.00369268
0.0327611 0.801266 0.00369268
0.0327459 0.801053 0.00367742
0.0327306 0.800732 0.00367742
0.0327153 0.800275 0.00367742
0.0326848 0.799573 0.00367742
0.032639 0.798535 0.00367742
0.032578 0.79707 0.00366217
0.199161 0.794766 0.00376898
0.438071 0.79173 0.00392157
0.586862 0.788235 0.00401312
0.713329 0.784268 0.00408942
0.816785 0.780697 0.0041352
0.896559 0.778485 0.00418097
0.958114 0.778042 0.00422675
1 0.779873 0.00427253
1 0.784344 0.0043183
1 0.791455 0.00434882
1 0.80119 0.0043946
1 0.813367 0.00445563
1 0.827527 0.143114
1 0.843351 0.258106
1 0.859876 0.356191
1 0.876539 0.450187
1 0.893355 0.543297
1 0.909346 0.637354
1 0.923659 0.736004
1 0.936492 0.813489
0.0349279 0.854536 0.00393683
0.0349279 0.854383 0.00393683
0.0349126 0.854231 0.00393683
0.0349126 0.854078 0.00392157
0.0349126 0.853925 0.00392157
0.0348974 0.853758 0.00392157
0.0348974 0.853544 0.00392157
0.0348821 0.853254 0.00392157
0.0348669 0.852842 0.00392157
0.0348363 0.852247 0.00392157
0.0348058 0.851408 0.00392157
0.0347601 0.850263 0.00390631
0.034699 0.848722 0.00390631
0.167117 0.846403 0.0039826
0.429038 0.843229 0.00415045
0.579126 0.839643 0.00424201
0.703502 0.835584 0.0043183
0.80383 0.831815 0.00436408
0.881773 0.828962 0.00440986
0.943999 0.827237 0.00444038
0.991287 0.82707 0.00447089
1 0.828763 0.00450141
1 0.83238 0.00454719
1 0.838087 0.00456245
1 0.84564 0.00460822
1 0.854658 0.161791
1 0.865095 0.270848
1 0.876844 0.366308
1 0.889723 0.45803
1 0.903136 0.549416
1 0.916243 0.640787
1 0.92842 0.732372
1 0.939712 0.811429
0.0365911 0.895232 0.00411994
0.0365911 0.895033 0.00411994
0.0365759 0.89485 0.00411994
0.0365759 0.894652 0.00411994
0.0365606 0.894438 0.00411994
0.0365606 0.89424 0.00411994
0.0365454 0.89398 0.00410468
0.0365301 0.893614 0.00410468
0.0365148 0.893141 0.00410468
0.0364843 0.892485 0.00410468
0.0364538 0.891615 0.00410468
0.0363928 0.89044 0.00408942
0.0363317 0.888869 0.00408942
0.246662 0.886412 0.00422675
0.450217 0.883391 0.00434882
0.589593 0.879835 0.00444038
0.70454 0.875959 0.00450141
0.798001 0.872251 0.00454719
0.8719 0.869169 0.00457771
0.932403 0.866804 0.00462348
0.979538 0.865476 0.00463874
1 0.865309 0.00466926
1 0.866423 0.00469978
1 0.869047 0.00471504
1 0.873198 0.0047303
1 0.878599 0.192477
1 0.885588 0.290776
1 0.89395 0.380911
1 0.90341 0.469123
1 0.913558 0.557916
1 0.923781 0.647242
1 0.933883 0.732784
1 0.943511 0.808713
0.0377966 0.924743 0.00425727
0.0377966 0.924514 0.00425727
0.0377813 0.9243 0.00425727
0.0377813 0.924086 0.00425727
0.0377661 0.923858 0.00425727
0.0377508 0.923629 0.00424201
0.0377508 0.923354 0.00424201
0.0377356 0.922988 0.00424201
0.037705 0.922499 0.00424201
0.0376898 0.921843 0.00424201
0.037644 0.920974 0.00424201
0.0375982 0.919814 0.00422675
0.0375372 0.918288 0.00422675
0.359609 0.915679 0.00444038
0.501793 0.912871 0.00453193
0.618921 0.909575 0.00459297
0.718013 0.90605 0.00463874
0.800748 0.902632 0.00468452
0.868574 0.899626 0.00471504
0.925521 0.897078 0.00474556
0.970626 0.895293 0.00477607
1 0.894255 0.00479133
1 0.894102 0.00482185
1 0.895079 0.00483711
1 0.897093 0.12224
1 0.900343 0.232227
1 0.904814 0.318532
1 0.910369 0.40119
1 0.916899 0.484459
1 0.924147 0.569558
1 0.931914 0.655985
1 0.939925 0.738491
1 0.947829 0.807507
0.0387121 0.947112 0.00436408
0.0387121 0.946899 0.00434882
0.0386969 0.946685 0.00434882
0.0386969 0.946456 0.00434882
0.0386816 0.946242 0.00434882
0.0386664 0.946029 0.00434882
0.0386664 0.945754 0.00434882
0.0386511 0.945403 0.00434882
0.0386206 0.94493 0.00434882
0.0386053 0.944289 0.00434882
0.0385595 0.94345 0.00433356
0.202594 0.942031 0.00445563
0.361089 0.940291 0.00454719
0.472236 0.938216 0.00462348
0.571267 0.935699 0.00468452
0.660731 0.93286 0.0047303
0.740993 0.929824 0.00477607
0.810346 0.926879 0.00480659
0.870817 0.924086 0.00483711
0.922652 0.921614 0.00486763
0.96466 0.919692 0.00488289
1 0.918242 0.00489815
1 0.917403 0.00491341
1 0.91725 0.0493629
1 0.917815 0.197436
1 0.919387 0.279393
1 0.92192 0.353964
1 0.925322 0.428183
1 0.929595 0.505119
1 0.934676 0.585229
1 0.940337 0.667735
1 0.946365 0.746059
1 0.952514 0.811917
0.0393683 0.963226 0.00442512
0.0393683 0.963012 0.00442512
0.039353 0.962814 0.00442512
0.039353 0.9626 0.00442512
0.0393378 0.962402 0.00442512
0.0393378 0.962203 0.00442512
0.135332 0.961761 0.00448615
0.218036 0.961257 0.00454719
0.279255 0.960693 0.00459297
0.336461 0.960006 0.00462348
0.393942 0.959121 0.004654
0.453696 0.957992 0.00469978
0.516472 0.956573 0.0047303
0.580911 0.954833 0.00477607
0.646082 0.952789 0.00480659
0.710323 0.950469 0.00483711
0.771145 0.948013 0.00486763
0.827024 0.945525 0.00489815
0.878737 0.943053 0.00492866
0.924071 0.94078 0.00494392
0.962173 0.938872 0.00495918
0.995407 0.937285 0.0049897
1 0.936004 0.0862745
1 0.93518 0.1906
1 0.934981 0.263493
1 0.935485 0.330892
1 0.936736 0.396063
1 0.938735 0.462196
1 0.941451 0.531929
1 0.944808 0.60589
1 0.948669 0.683146
1 0.952926 0.755932
1 0.957427 0.817716
0.443091 0.973571 0.00476081
0.453239 0.973373 0.00476081
0.462974 0.973175 0.00477607
0.472328 0.972976 0.00477607
0.481315 0.972778 0.00479133
0.490028 0.97258 0.00479133
0.500282 0.972335 0.00479133
0.513329 0.97203 0.00480659
0.529747 0.971618 0.00480659
0.550057 0.971099 0.00482185
0.574716 0.970413 0.00483711
0.604044 0.969558 0.00485237
0.638056 0.968475 0.00486763
0.676356 0.967163 0.00489815
0.718029 0.965621 0.00491341
0.761425 0.96379 0.0576333
0.805219 0.961868 0.081117
0.84921 0.959777 0.10248
0.891295 0.957671 0.124147
0.929107 0.955688 0.147204
0.962905 0.953887 0.17232
0.99321 0.95227 0.200153
1 0.950942 0.231388
1 0.949935 0.276875
1 0.94931 0.329641
1 0.949172 0.385077
1 0.949554 0.442786
1 0.9505 0.502632
1 0.952026 0.565347
1 0.954055 0.63238
1 0.956481 0.702663
1 0.959274 0.768566
1 0.962417 0.825162
0.636118 0.979538 0.257465
0.640406 0.979522 0.257633
0.644617 0.979522 0.257816
0.648737 0.979507 0.257984
0.652766 0.979492 0.258152
0.656748 0.979492 0.25832
0.661524 0.979431 0.258534
0.667735 0.979217 0.258808
0.675731 0.978943 0.25919
0.685939 0.978576 0.259693
0.698756 0.978103 0.260365
0.71458 0.977508 0.261265
0.733654 0.976761 0.262486
0.755978 0.97586 0.264134
0.781537 0.974777 0.266331
0.810468 0.97348 0.269276
0.841962 0.972015 0.273213
0.874754 0.970397 0.278416
0.907073 0.968734 0.285298
0.937499 0.967102 0.29427
0.966613 0.965499 0.305852
0.993378 0.963989 0.320577
1 0.962692 0.339086
1 0.961624 0.361975
1 0.960784 0.398062
1 0.960266 0.443244
1 0.960098 0.493584
1 0.960327 0.547738
1 0.960998 0.604837
1 0.962066 0.665125
1 0.96347 0.726528
1 0.965225 0.784268
1 0.967315 0.834714
0.755077 0.979126 0.383032
0.757168 0.979126 0.383139
0.759228 0.97911 0.383246
0.761273 0.97911 0.383352
0.763302 0.97911 0.383459
0.765301 0.979095 0.383566
0.767727 0.979095 0.383703
0.770932 0.979095 0.383871
0.775113 0.97908 0.384115
0.780545 0.979065 0.384436
0.787549 0.979049 0.384848
0.796445 0.979034 0.385412
0.807584 0.979019 0.386175
0.821271 0.978988 0.387198
0.83769 0.978958 0.388556
0.856779 0.978912 0.390387
0.878202 0.978866 0.392828
0.901122 0.978058 0.396109
0.924636 0.976791 0.400458
0.948913 0.975464 0.40621
0.973007 0.97409 0.413794
0.995758 0.972778 0.423697
1 0.971572 0.4365
1 0.970504 0.452857
1 0.969619 0.473487
1 0.968948 0.506645
1 0.968505 0.548989
1 0.968338 0.596811
1 0.96849 0.648676
1 0.968917 0.702373
1 0.969619 0.754238
1 0.970611 0.802976
1 0.971847 0.846677
0.836973 0.978805 0.493004
0.838132 0.978805 0.49308
0.839277 0.978805 0.493156
0.840421 0.978805 0.493233
0.84155 0.978805 0.493309
0.842664 0.978805 0.493385
0.844038 0.97879 0.493477
0.845823 0.97879 0.493599
0.848188 0.97879 0.493767
0.851286 0.978775 0.493996
0.855299 0.978775 0.494285
0.860456 0.978759 0.494697
0.866987 0.978744 0.495232
0.87512 0.978729 0.495949
0.885054 0.978714 0.49691
0.896849 0.978683 0.498192
0.91043 0.978653 0.499916
0.926055 0.978622 0.50222
0.943465 0.978576 0.505287
0.962127 0.978546 0.509361
0.981231 0.9785 0.514763
0.999786 0.978439 0.521874
1 0.978225 0.531182
1 0.977234 0.543221
1 0.976364 0.558679
1 0.975662 0.578241
1 0.975113 0.609827
1 0.974716 0.650324
1 0.974533 0.695384
1 0.974548 0.740841
1 0.974746 0.784222
1 0.975174 0.824018
1 0.975799 0.861173
0.895491 0.978546 0.596963
0.896101 0.978546 0.597025
0.896712 0.978546 0.59707
0.897307 0.978546 0.597131
0.897917 0.978546 0.597192
0.898512 0.978546 0.597238
0.899245 0.978546 0.597314
0.900206 0.978546 0.597406
0.901488 0.978546 0.597513
