BBLuts/BB_102_0410_LUT.cube
TITLE "Generated by Resolve"
LUT_3D_SIZE 5
0 0 0
0.200992 0 0
0.820035 0 0
0.995666 0.645762 0.0577401
0.954971 1 0.730388
0 0.222477 0
0.132387 0.222965 0
0.823529 0.119631 0
0.988602 0.707927 0.019791
0.95494 1 0.730068
0 0.897459 0
0 0.896727 0
0.710857 0.890257 0
0.966674 0.947738 0
0.954482 1 0.725185
0.571603 1 0.17322
0.571588 1 0.17322
0.753902 1 0.181674
0.950515 1 0.330129
0.951644 1 0.763073
0.916808 1 0.857984
0.916808 1 0.857984
0.916808 1 0.857984
0.935225 1 0.86125
0.949401 1 0.889174
0 0 0.159594
0.166705 0 0.155001
0.823758 0 0.131746
1 0.632853 0.239445
0.954971 1 0.730388
0 0.178775 0.141878
0.131762 0.177203 0.138613
0.82092 0.0447089 0.124086
0.994034 0.699718 0.220874
0.95494 1 0.730068
0 0.891844 0
0 0.891157 0
0.71429 0.885252 0
0.96965 0.948562 0.0611124
0.954482 1 0.7252
0.580056 1 0.17203
0.580056 1 0.17203
0.756069 1 0.181125
0.950591 1 0.3299
0.951644 1 0.763073
0.916854 1 0.857984
0.916854 1 0.857984
0.916854 1 0.857984
0.935241 1 0.861234
0.949401 1 0.889174
0 0 0.765255
0 0 0.765591
0.804715 0 0.73695
1 0.282887 0.787533
0.954009 1 0.840589
0 0 0.764004
0 0 0.764111
0.815061 0 0.735439
1 0.486152 0.785687
0.953979 1 0.840452
0 0.830533 0.72076
0 0.830686 0.720836
0.678157 0.826535 0.724559
0.967208 0.914107 0.743954
0.953445 1 0.838407
0.558312 1 0.615381
0.558312 1 0.615381
0.735348 1 0.613794
0.939696 1 0.663508
0.951125 1 0.819837
0.917464 1 0.857908
0.917464 1 0.857908
0.917464 1 0.857908
0.93547 1 0.861158
0.949401 1 0.889143
0 0 0.980163
0 0 0.980163
0 0 0.980163
1 0 0.967086
0.956085 1 0.9635
0 0 0.980163
0 0 0.980163
0 0 0.980163
1 0 0.967086
0.955947 1 0.963348
0 0 0.980163
0 0 0.980163
0 0 0.980163
1 0 0.967086
0.954543 1 0.961776
0 1 0.980529
0 1 0.980529
0 1 0.980362
0.920806 1 0.953872
0.950454 1 0.956344
0.912337 1 0.937621
0.912337 1 0.937621
0.912337 1 0.937621
0.92987 1 0.938415
0.949004 1 0.945541
0 0.27248 0.981857
0 0.27248 0.981857
0 0.27248 0.981857
0 0.272572 0.981857
0.98468 0.758602 0.992386
0 0.27248 0.981857
0 0.27248 0.981857
0 0.27248 0.981857
0 0.272572 0.981857
0.98468 0.758602 0.992386
0 0.27248 0.981857
0 0.27248 0.981857
0 0.27248 0.981857
0 0.272572 0.981857
0.98468 0.758602 0.992386
0 0.270985 0.981872
0 0.270985 0.981872
0 0.270985 0.981872
0.0454719 0.253361 0.983261
0.984009 0.763607 0.992004
0.848615 1 0.977981
0.848615 1 0.977981
0.848615 1 0.977981
0.857114 1 0.978027
0.949096 1 0.979004
