BBLuts/BB_102_0500_LUT.cube
TITLE "Generated by Resolve"
LUT_3D_SIZE 33
0 0 0
0 0 0
0 0 0
0 0 0
0 0 0
0.0340276 0 0
0.0891432 0 0
0.129763 0 0
0.170977 0 0
0.220356 0 0
0.277195 0 0
0.339178 0 0
0.407492 0 0
0.485649 0 0
0.565972 0 0
0.639277 0 0
0.714931 0 0
0.791775 0 0
0.862364 0 0
0.917998 0 0
0.928283 0 0
0.928283 0 0
0.923949 0.142336 0.00451667
0.913787 0.350591 0.0352483
0.905776 0.494179 0.069276
0.899184 0.608179 0.111238
0.894072 0.696544 0.166796
0.88957 0.772915 0.247868
0.885908 0.832044 0.340749
0.882856 0.877852 0.433997
0.880369 0.912917 0.515145
0.878294 0.940093 0.588876
0.876539 0.961471 0.654765
0 0 0
0 0 0
0 0 0
0 0 0
0 0 0
0.0450446 0 0
0.0930343 0 0
0.132982 0 0
0.176104 0 0
0.226352 0 0
0.283162 0 0
0.344335 0 0
0.410498 0 0
0.487617 0 0
0.567468 0 0
0.640223 0 0
0.715526 0 0
0.79205 0 0
0.862272 0 0
0.917617 0 0
0.928283 0 0
0.928283 0 0
0.921477 0.180789 0
0.912673 0.366888 0.031281
0.905089 0.50396 0.0668956
0.898787 0.613825 0.109804
0.893812 0.700084 0.165118
0.889403 0.775082 0.246921
0.885817 0.83328 0.34023
0.882811 0.878584 0.433707
0.880339 0.913329 0.515007
0.878279 0.940368 0.588785
0.876524 0.961624 0.654688
0 0 0
0 0 0
0 0 0
0 0 0
0 0 0
0.0516213 0 0
0.094377 0 0
0.136065 0 0
0.18146 0 0
0.231891 0 0
0.287709 0 0
0.347082 0 0
0.413016 0 0
0.489723 0 0
0.569009 0 0
0.641154 0 0
0.716106 0 0
0.792309 0 0
0.862165 0 0
0.91725 0 0
0.928283 0 0
0.928283 0 0
0.918883 0.212039 0
0.911589 0.382223 0.0269169
0.904433 0.513191 0.0644541
0.898421 0.618997 0.108354
0.893538 0.703578 0.163485
0.88925 0.777203 0.245945
0.885725 0.834501 0.339727
0.88275 0.879332 0.433402
0.880308 0.913756 0.514839
0.878264 0.940612 0.588678
0.876509 0.961776 0.654627
0 0 0
0 0 0
0 0 0
0 0 0
0.00840772 0 0
0.0566567 0 0
0.0950027 0 0
0.136339 0 0
0.182376 0 0
0.234134 0 0
0.290654 0 0
0.349584 0 0
0.415442 0 0
0.491844 0 0
0.57055 0 0
0.642115 0 0
0.716686 0 0
0.792554 0 0
0.862028 0 0
0.916823 0 0
0.928283 0 0
0.928283 0 0
0.917372 0.240177 0
0.910506 0.396704 0.022034
0.903807 0.521996 0.0619516
0.89807 0.623819 0.10692
0.893294 0.706981 0.162722
0.889082 0.779278 0.244999
0.885634 0.835721 0.339193
0.882689 0.880049 0.433112
0.880247 0.914534 0.514687
0.878233 0.940871 0.588571
0.876509 0.961929 0.654566
0 0.038529 0
0 0.041474 0
0 0.0443122 0
0 0.0470741 0
0 0.0481422 0
0.0440223 0.0466468 0
0.0863966 0.0438392 0
0.130297 0.0378119 0
0.179278 0.0245975 0
0.235142 0 0
0.292363 0 0
0.351858 0 0
0.417792 0 0
0.493996 0 0
0.572122 0 0
0.643076 0 0
0.717266 0 0
0.792767 0 0
0.861875 0 0
0.916411 0 0
0.928283 0 0
0.927352 0.0134279 0
0.915984 0.265034 0
0.909483 0.409735 0.0164645
0.903197 0.530419 0.0593576
0.897749 0.628397 0.105455
0.89305 0.710323 0.161959
0.88893 0.781353 0.244053
0.885542 0.836896 0.338674
0.882643 0.880781 0.432807
0.880217 0.914931 0.514534
0.878218 0.941115 0.588464
0.876493 0.962081 0.654505
0 0.0713359 0
0 0.0737469 0
0 0.076112 0
0 0.0779889 0
0 0.0788891 0
0.0224155 0.0784619 0
0.0763867 0.0771954 0
0.123323 0.0744793 0
0.174105 0.0690776 0
0.231006 0.0588693 0
0.290715 0.0393072 0
0.353872 0 0
0.420188 0 0
0.496254 0 0
0.573785 0 0
0.644114 0 0
0.717861 0 0
0.792996 0 0
0.861708 0 0
0.915938 0 0
0.928283 0 0
0.924025 0.106279 0
0.914656 0.288365 0
0.908354 0.422614 0.00947585
0.902571 0.538842 0.0565805
0.897398 0.633097 0.103914
0.892805 0.713726 0.161166
0.888777 0.783444 0.243046
0.885451 0.838132 0.338125
0.882582 0.881514 0.432517
0.880186 0.915358 0.514366
0.878202 0.94139 0.588357
0.876478 0.962249 0.654444
0 0.106752 0
0 0.108812 0
0 0.110842 0
0 0.111986 0
0 0.112718 0
0 0.112993 0
0.0578622 0.112322 0
0.112428 0.110948 0
0.166659 0.107958 0
0.226169 0.102342 0
0.287266 0.0921492 0
0.351568 0.0758373 0
0.420661 0.0449836 0
0.499153 0 0
0.57586 0 0
0.645457 0 0
0.718639 0 0
0.793286 0 0
0.861479 0 0
0.915312 0 0
0.928283 0 0
0.921248 0.166018 0
0.913085 0.31545 0
0.906462 0.437888 0
0.901793 0.549187 0.0528725
0.896956 0.639139 0.101946
0.8925 0.718029 0.160189
0.888579 0.786114 0.241794
0.885344 0.839704 0.337438
0.882521 0.88246 0.432105
0.88014 0.915892 0.514168
0.878172 0.941726 0.588205
0.876463 0.962432 0.654353
0 0.147768 0
0 0.149599 0
0 0.150958 0
0 0.151858 0
0 0.152499 0
0 0.152865 0
0.00178531 0.152941 0
0.0927138 0.1523 0
0.154162 0.150713 0
0.217136 0.146883 0
0.281254 0.139879 0
0.348974 0.129793 0
0.419867 0.114702 0
0.498207 0.0891737 0
0.576181 0.0352178 0
0.647242 0 0
0.719692 0 0
0.793683 0 0
0.861143 0 0
0.914443 0 0
0.925872 0.059678 0
0.918303 0.222843 0
0.911177 0.347372 0
0.904387 0.457298 0
0.900801 0.562097 0.0476692
0.896376 0.647089 0.0993057
0.892088 0.723568 0.158923
0.888319 0.789548 0.240131
0.885191 0.841733 0.336538
0.882429 0.883711 0.431586
0.880095 0.916609 0.513909
0.878141 0.942168 0.588037
0.876448 0.962722 0.654246
0 0.196628 0
0 0.198047 0
0 0.198825 0
0 0.199634 0
0 0.200198 0
0 0.20058 0
0 0.200809 0
0.0489357 0.2009 0
0.131167 0.199298 0
0.200992 0.196292 0
0.27042 0.191516 0
0.342916 0.184451 0
0.417975 0.174182 0
0.498024 0.158907 0
0.573739 0.137545 0
0.644022 0.107164 0
0.71812 0.0599527 0
0.794186 0 0
0.860639 0 0
0.91046 0.0673533 0
0.92079 0.175189 0
0.915084 0.280751 0
0.908919 0.384588 0
0.902739 0.482856 0
0.899519 0.577981 0.0401617
0.895613 0.657206 0.0957809
0.891569 0.730602 0.15729
0.887984 0.793927 0.237949
0.884993 0.844373 0.335332
0.882307 0.885313 0.4309
0.880034 0.917525 0.513542
0.878096 0.942748 0.587777
0.876417 0.963058 0.654078
0 0.252323 0
0 0.252766 0
0 0.253178 0
0 0.253529 0
0 0.253742 0
0 0.253803 0
0 0.253697 0
0 0.253315 0
0.0877089 0.253056 0
0.174945 0.251484 0
0.252735 0.248478 0
0.331456 0.24361 0
0.412299 0.236133 0
0.496605 0.225162 0
0.572457 0.212055 0
0.641886 0.196262 0
0.713939 0.178546 0
0.787121 0.162478 0
0.852522 0.164034 0
0.902586 0.19852 0
0.916182 0.261326 0
0.911574 0.340917 0
0.906355 0.425849 0
0.900771 0.513024 0
0.897841 0.597223 0.0286564
0.894652 0.670024 0.0910506
0.890929 0.739452 0.155245
0.887556 0.799451 0.235111
0.884733 0.84773 0.333761
0.882155 0.887373 0.429999
0.879942 0.918746 0.513069
0.87805 0.943511 0.587457
0.876387 0.963516 0.65388
0 0.311772 0
0 0.3122 0
0 0.312627 0
0 0.312932 0
0 0.313176 0
0 0.313313 0
0 0.313375 0
0 0.313268 0
0 0.31281 0
0.129961 0.313115 0
0.224414 0.311604 0
0.312078 0.308537 0
0.400519 0.303288 0
0.491569 0.29572 0
0.56997 0.286854 0
0.639887 0.277531 0
0.710735 0.268833 0
0.78204 0.263127 0
0.845441 0.269322 0
0.89453 0.295872 0
0.911467 0.342702 0
0.907729 0.4038 0
0.903365 0.473014 0
0.898543 0.546838 0
0.895384 0.619058 0.00701915
0.8934 0.68603 0.0846571
0.89012 0.750408 0.152712
0.887037 0.806348 0.231403
0.884413 0.852018 0.331716
0.881956 0.890028 0.428824
0.87982 0.920302 0.512474
0.877974 0.944488 0.58703
0.876341 0.964111 0.653635
0 0.38143 0
0 0.381842 0
0 0.382223 0
0 0.382528 0
0 0.382757 0
0 0.38294 0
0 0.383093 0
0 0.383139 0
0 0.383001 0
0 0.383474 0
0.174868 0.383688 0
0.280079 0.382254 0
0.379705 0.379385 0
0.479377 0.374701 0
0.563104 0.368627 0
0.635798 0.362554 0
0.706844 0.358221 0
0.77644 0.357549 0
0.837522 0.365988 0
0.885252 0.387594 0
0.90663 0.421607 0
0.903655 0.468437 0
0.899962 0.525246 0
0.896025 0.584482 0
0.892134 0.64213 0
0.891859 0.705409 0.0761883
0.889128 0.763714 0.149706
0.886412 0.814786 0.230747
0.884016 0.857404 0.32903
0.881712 0.89337 0.427268
0.879683 0.922286 0.51165
0.877882 0.945785 0.586465
0.876295 0.964889 0.653284
0 0.460349 0
0 0.460716 0
0 0.461051 0
0 0.461311 0
0 0.461524 0
0 0.461707 0
0 0.461891 0
0 0.462028 0
0 0.462165 0
0 0.462257 0
0.0555276 0.463691 0
0.225315 0.464607 0
0.345815 0.463722 0
0.456703 0.461051 0
0.549355 0.457099 0
0.626291 0.452888 0
0.700374 0.449943 0
0.769619 0.450248 0
0.828687 0.457313 0
0.874907 0.47396 0
0.901564 0.500725 0
0.899245 0.536171 0
0.896437 0.578424 0
0.893324 0.62443 0
0.890059 0.672267 0
0.889998 0.728023 0.0652018
0.887953 0.779477 0.146304
0.885679 0.824887 0.23032
0.883513 0.864057 0.325567
0.881407 0.897551 0.425238
0.879484 0.924849 0.510613
0.87776 0.947417 0.585718
0.876219 0.965896 0.652827
0 0.54696 0
0 0.547234 0
0 0.547463 0
0 0.547646 0
0 0.547814 0
0 0.547967 0
0 0.548119 0
0 0.548287 0
0 0.548394 0
0 0.548424 0
0 0.548287 0
0.117586 0.550027 0
0.292012 0.550423 0
0.421805 0.549218 0
0.527428 0.546792 0
0.61033 0.543648 0
0.68925 0.540948 0
0.760555 0.540627 0
0.818463 0.545602 0
0.863157 0.557244 0
0.89662 0.575586 0
0.894911 0.601114 0
0.892897 0.630747 0
0.890471 0.665934 0
0.887602 0.70692 0
0.88777 0.753506 0.0510719
0.886595 0.797559 0.142794
0.88481 0.836805 0.230182
0.882902 0.872114 0.32166
0.881025 0.902647 0.422614
0.879255 0.928069 0.509239
0.877623 0.949477 0.584741
0.876127 0.967193 0.652232
0 0.625483 0
0 0.625605 0
0 0.625711 0
0 0.625803 0
0 0.625879 0
0 0.62594 0
0 0.626001 0
0 0.626047 0
0 0.626062 0
0 0.626017 0
0 0.625834 0
0 0.625406 0
0.206287 0.627085 0
0.37293 0.627024 0
0.49601 0.625925 0
0.588083 0.624048 0
0.672496 0.622019 0
0.74725 0.621271 0
0.806149 0.62385 0
0.850111 0.630884 0
0.884978 0.642954 0
0.890852 0.660517 0
0.889235 0.683726 0
0.887221 0.712154 0
0.884932 0.744152 0
0.885176 0.78114 0.0330205
0.885084 0.817609 0.139788
0.883803 0.850767 0.23061
0.8822 0.881682 0.323003
0.880568 0.908797 0.419181
0.878965 0.932082 0.507439
0.877424 0.952102 0.583444
0.876005 0.968826 0.651438
0 0.696941 0
0 0.697017 0
0 0.697047 0
0 0.697093 0
0 0.697108 0
0 0.697108 0
0 0.697124 0
0 0.697093 0
0 0.697047 0
0 0.69691 0
0 0.69662 0
0 0.696086 0
0.000640879 0.696574 0
0.306905 0.6981 0
0.455695 0.697643 0
0.560235 0.696162 0
0.649927 0.694179 0
0.728435 0.692912 0
0.789258 0.694209 0
0.834562 0.699184 0
0.869123 0.708125 0
0.886564 0.721172 0
0.885359 0.738018 0
0.883879 0.75845 0
0.88217 0.781888 0
0.882109 0.809155 0.0102998
0.883497 0.83888 0.138293
0.882658 0.866468 0.232105
0.881422 0.892622 0.325154
0.880003 0.916274 0.415778
0.878599 0.936965 0.505119
0.877195 0.955337 0.58175
0.875868 0.970855 0.650416
0 0.768078 0
0 0.768078 0
0 0.768063 0
0 0.768032 0
0 0.768002 0
0 0.767956 0
0 0.767895 0
0 0.767803 0
0 0.767636 0
0 0.767376 0
0 0.766949 0
0 0.766247 0
0 0.765164 0
0.210681 0.767605 0
0.404868 0.767895 0
0.528984 0.766751 0
0.62327 0.764736 0
0.704738 0.762936 0
0.768261 0.762646 0
0.816129 0.764752 0
0.852201 0.769635 0
0.878248 0.777676 0
0.881666 0.788556 0
0.880674 0.80209 0
0.879499 0.817929 0
0.878187 0.835721 0
0.881865 0.861418 0.139269
0.881437 0.883497 0.235447
0.880552 0.904677 0.328634
0.879408 0.924514 0.418769
0.878172 0.942763 0.502068
0.876905 0.959243 0.579553
0.875685 0.973373 0.649058
0 0.829114 0
0 0.829053 0
0 0.828977 0
0 0.828901 0
0 0.828809 0
0 0.828702 0
0 0.82858 0
0 0.828382 0
0 0.828107 0
0 0.82771 0
0 0.827085 0
0 0.826185 0
0 0.824918 0
0.0968338 0.826169 0
0.358434 0.82739 0
0.502037 0.826398 0
0.600427 0.824262 0
0.682597 0.822003 0
0.747311 0.820554 0
0.79762 0.820508 0
0.835721 0.822278 0
0.86331 0.826261 0
0.878401 0.83238 0
0.877791 0.840711 0
0.876997 0.851255 0
0.876646 0.8645 0
0.880247 0.884321 0.144625
0.880186 0.901091 0.241657
0.879606 0.9178 0.334005
0.878721 0.933898 0.42298
0.877668 0.949508 0.501976
0.87657 0.963867 0.576684
0.875471 0.976471 0.647288
0 0.876417 0
0 0.876295 0
0 0.876173 0
0 0.876051 0
0 0.875914 0
0 0.875761 0
0 0.875578 0
0 0.875319 0
0 0.874952 0
0 0.874418 0
0 0.873671 0
0 0.872663 0
0 0.87129 0
0.03122 0.871916 0
0.337865 0.873762 0
0.487098 0.872862 0
0.586404 0.870741 0
0.666667 0.868345 0
0.730083 0.866407 0
0.781125 0.865293 0
0.820584 0.865354 0
0.849729 0.866987 0
0.872267 0.870253 0
0.875181 0.875242 0
0.874678 0.881941 0
0.876783 0.893309 0.031281
0.878782 0.90631 0.156481
0.878965 0.9187 0.251987
0.878645 0.931243 0.341939
0.877974 0.944198 0.42887
0.877119 0.957061 0.505669
0.876188 0.969162 0.574182
0.875196 0.980148 0.644953
0 0.91397 0
0 0.913802 0
0 0.913649 0
0 0.913481 0
0 0.913314 0
0 0.913146 0
0 0.912902 0
0 0.912581 0
0 0.912123 0
0 0.911528 0
0 0.91075 0
0 0.909697 0
0 0.908309 0
0.102144 0.910002 0
0.348714 0.911269 0
0.488579 0.910353 0
0.581598 0.908309 0
0.65716 0.905592 0
0.717525 0.903502 0
0.767086 0.901869 0
0.806928 0.900999 0
0.837217 0.901122 0
0.861112 0.902296 0
0.872923 0.904738 0
0.872663 0.908431 0
0.876188 0.918288 0.0714275
0.877531 0.926879 0.176471
0.877836 0.935668 0.267338
0.877668 0.945129 0.353246
0.87718 0.955093 0.436988
0.876509 0.96524 0.510704
0.875746 0.975052 0.578256
0.874891 0.984436 0.641917
0 0.941543 0
0 0.941344 0
0 0.941161 0
0 0.940963 0
0 0.94078 0
0 0.940581 0
0 0.940322 0
0 0.939971 0
0 0.939513 0
0 0.938918 0
0 0.938109 0
0 0.937057 0
0 0.935744 0
0.225574 0.939422 0
0.3935 0.939666 0
0.507515 0.938552 0
0.587518 0.936614 0
0.655421 0.934401 0
0.711055 0.932326 0
0.758083 0.93051 0
0.796353 0.929183 0
0.826749 0.928512 0
0.851453 0.928557 0
0.870253 0.929503 0
0.870924 0.931441 0
0.875532 0.940169 0.115938
0.876448 0.945907 0.204913
0.876768 0.952056 0.288701
0.876707 0.958816 0.369207
0.876387 0.966125 0.44799
0.875883 0.973724 0.517754
0.875257 0.981521 0.583688
0.87454 0.989212 0.644724
0 0.962509 0
0 0.962325 0
0 0.962127 0
0 0.961944 0
0 0.961746 0
0 0.961547 0
0 0.961288 0
0 0.960937 0
0 0.960494 0
0 0.959945 0
0 0.959182 0
0 0.95819 0
0.199603 0.962097 0
0.344472 0.962646 0
0.454887 0.962173 0
0.535256 0.960891 0
0.601984 0.959121 0
0.659953 0.957168 0
0.709758 0.955245 0
0.752987 0.953445 0
0.788739 0.952026 0
0.818158 0.951003 0
0.842771 0.950439 0
0.862119 0.950561 0
0.873411 0.955962 0.0749218
0.874907 0.959548 0.165347
0.875547 0.963104 0.242023
0.875822 0.967132 0.316106
0.875822 0.971679 0.390692
0.875608 0.976806 0.462562
0.875242 0.982437 0.527398
0.874739 0.988357 0.590875
0.874144 0.994385 0.649363
0 0.97821 0
0 0.978042 0
0 0.977844 0
0 0.977676 0
0 0.977478 0
0 0.977295 0
0 0.97705 0
0 0.976745 0
0 0.976318 0
0.0937514 0.979477 0
0.206012 0.980468 0
0.296681 0.980941 0
0.377737 0.980987 0
0.452552 0.980591 0
0.515724 0.979736 0
0.570932 0.978454 0
0.623026 0.976898 0
0.670176 0.975219 0
0.713481 0.973465 0
0.751842 0.971786 0
0.784344 0.970367 0
0.812161 0.969207 0
0.835813 0.968338 0
0.858793 0.972259 0.0639658
0.873503 0.974334 0.147875
0.874327 0.976013 0.218448
0.874784 0.978027 0.285618
0.874998 0.980514 0.350118
0.875013 0.98352 0.417075
0.874861 0.98706 0.481315
0.874601 0.991028 0.540169
0.874205 0.995315 0.600244
0.873716 0.999756 0.655421
0.228214 0.995163 0
0.245624 0.995285 0
0.261784 0.995377 0
0.27689 0.995438 0
0.291112 0.995483 0
0.304692 0.995544 0
0.320821 0.995575 0
0.34081 0.995605 0
0.365347 0.99559 0
0.39472 0.995529 0
0.426795 0.995407 0
0.461387 0.995132 0
0.498177 0.99469 0
0.533165 0.994018 0
0.571038 0.993118 0
0.609842 0.992004 0
0.648081 0.990723 0
0.685664 0.989288 0
0.72166 0.987778 0
0.754299 0.986313 0
0.785763 0.988067 0.0288243
0.812665 0.988418 0.0721599
0.835615 0.988449 0.110353
0.854826 0.98883 0.161044
0.870756 0.989349 0.216922
0.873793 0.990021 0.274495
0.874098 0.991012 0.331823
0.874266 0.992401 0.390829
0.874281 0.994247 0.448096
0.874174 0.996506 0.503639
0.873991 0.99913 0.556786
0.873686 1 0.612238
0.873289 1 0.663188
0.480308 1 0.129412
0.485283 1 0.129686
0.490105 1 0.129946
0.49482 1 0.130205
0.499321 1 0.130465
0.503639 1 0.130739
0.508797 1 0.13109
0.515175 1 0.131548
0.523445 1 0.132143
0.534005 1 0.132937
0.547051 1 0.133944
0.562829 1 0.135256
0.581521 1 0.13698
0.603067 1 0.139208
0.627131 1 0.142123
0.653162 1 0.145892
0.681163 1 0.15079
0.710155 1 0.157092
0.738705 1 0.165179
0.765301 1 0.175494
0.790524 1 0.188571
0.813565 1 0.204974
0.833921 1 0.225147
0.851438 1 0.249622
0.866377 1 0.287617
0.873304 1 0.332387
0.873518 1 0.382284
0.873625 1 0.433188
0.87364 1 0.482841
0.873564 1 0.528862
0.873426 1 0.577752
0.873182 1 0.627146
0.872877 1 0.672969
0.591608 1 0.264714
0.593759 1 0.264851
0.595865 1 0.265003
0.59794 1 0.265141
0.6 1 0.265293
0.602121 1 0.265431
0.604776 1 0.265644
0.608225 1 0.265888
0.612634 1 0.266224
0.61825 1 0.266667
0.625269 1 0.267247
0.634043 1 0.268009
0.644862 1 0.269001
0.657938 1 0.270314
0.673457 1 0.272023
0.691279 1 0.274296
0.711009 1 0.277226
0.732006 1 0.281071
0.753262 1 0.286076
0.774655 1 0.292592
0.795544 1 0.300923
0.815366 1 0.31107
0.833249 1 0.324163
0.84918 1 0.340734
0.86305 1 0.361578
0.872877 1 0.395209
0.872999 1 0.434653
0.873075 1 0.476478
0.873091 1 0.517113
0.87303 1 0.558923
0.872908 1 0.60235
0.872709 1 0.644999
0.87248 1 0.684825
0.664912 1 0.375769
0.666087 1 0.37586
0.667247 1 0.375967
0.668391 1 0.376059
0.669535 1 0.37615
0.67071 1 0.376257
0.672206 1 0.376379
0.674159 1 0.376547
0.676707 1 0.376761
0.679973 1 0.377066
0.684169 1 0.377447
0.689479 1 0.377951
0.696101 1 0.378637
0.70425 1 0.379522
0.714107 1 0.380682
0.725612 1 0.382193
0.738659 1 0.384192
0.75288 1 0.386801
0.768368 1 0.390188
0.785183 1 0.394583
0.802029 1 0.400229
0.818463 1 0.407462
0.833768 1 0.416648
0.847944 1 0.428199
0.860517 1 0.442557
0.871077 1 0.460136
0.872572 1 0.487755
0.872618 1 0.518715
0.872602 1 0.553765
0.872541 1 0.591653
0.872435 1 0.629267
0.872282 1 0.665293
0.872099 1 0.69868
0.718593 1 0.472114
0.719249 1 0.472175
0.719905 1 0.472236
0.720546 1 0.472297
0.721172 1 0.472343
0.721843 1 0.472404
0.722683 1 0.472496
0.723781 1 0.472587
0.725231 1 0.47274
