BBLuts/BB_101_0190_LUT.cube
TITLE "Generated by Resolve"
LUT_3D_SIZE 9
0 0 0
0 0 0
0.197345 0 0
0.460304 0 0
0.781369 0 0
1 0 0
0.994568 0.513466 0.132479
0.993133 0.820386 0.459144
0.992737 0.937118 0.77673
0 0.0376287 0
0 0.049546 0
0.207568 0.0250706 0
0.471885 0 0
0.783856 0 0
1 0 0
0.994476 0.546319 0.117357
0.993133 0.824887 0.45684
0.992737 0.937667 0.776486
0.0256504 0.196216 0.0256504
0.0265049 0.19971 0.0265049
0.173297 0.209918 0.0381781
0.478248 0.196597 0
0.784237 0.0875715 0
0.997497 0.214786 0
0.9944 0.590463 0.0871595
0.993133 0.831785 0.453117
0.992737 0.938567 0.776074
0.0897078 0.445533 0.0897078
0.0899977 0.446616 0.0899977
0.0901503 0.447211 0.0901503
0.425177 0.469749 0.117647
0.787411 0.475364 0
0.995254 0.524483 0
0.994797 0.680385 0
0.993149 0.849973 0.442237
0.992737 0.941115 0.774884
0 0.78352 0
0 0.783444 0
0 0.783093 0
0 0.780713 0
0.732448 0.7682 0
0.964065 0.772 0
0.99472 0.816892 0
0.993149 0.887404 0.446052
0.992737 0.947845 0.771282
0 0.947845 0
0 0.947143 0
0 0.945968 0
0 0.942397 0
0.710796 0.928252 0
0.920851 0.919478 0
0.994827 0.921065 0
0.993088 0.935866 0.490944
0.992737 0.962066 0.767147
0.60238 0.992859 0.22034
0.619501 0.992309 0.221256
0.644755 0.99147 0.222827
0.704326 0.989303 0.227771
0.804852 0.98497 0.243488
0.913207 0.979339 0.288518
0.986755 0.975311 0.401465
0.992935 0.975372 0.604761
0.992721 0.980911 0.794705
0.878691 0.992874 0.67422
0.880156 0.992874 0.674372
0.88249 0.992874 0.674601
0.88957 0.992874 0.675319
0.906752 0.992859 0.677501
0.939605 0.992844 0.684215
0.979095 0.992813 0.703731
0.992767 0.992767 0.756497
0.992706 0.992706 0.850813
0.959869 0.992691 0.881483
0.960052 0.992691 0.881514
0.960342 0.992691 0.881544
0.961227 0.992691 0.881636
0.96376 0.992691 0.88191
0.970123 0.992691 0.882765
0.982315 0.992691 0.885695
0.992676 0.992676 0.892882
0.992676 0.992676 0.911864
0 0 0.0361486
0 0 0.0364843
0.197513 0 0.0397498
0.460716 0 0.0446784
0.780972 0 0.0543832
1 0 0.0978103
0.994415 0.506981 0.209842
0.993072 0.819364 0.495933
0.992721 0.93698 0.783139
0 0.0090486 0.024979
0.0229038 0.0229038 0.0229038
0.217426 0 0.029572
0.466651 0 0.0302281
0.782177 0 0.0162661
1 0 0.065095
0.994293 0.541009 0.196399
0.993072 0.823896 0.494011
0.992721 0.93753 0.78291
0.0234531 0.18732 0.0234531
0.0241855 0.19028 0.0241855
0.186725 0.202213 0.0373236
0.47628 0.186267 0
0.782116 0.0521096 0
0.997726 0.197269 0
0.994171 0.586465 0.172259
0.993088 0.830854 0.490883
0.992721 0.938415 0.782544
0.0886091 0.441428 0.0886091
0.0888838 0.442435 0.0888838
0.0889906 0.442863 0.0889906
0.4327 0.465751 0.117205
0.786954 0.471138 0
0.99527 0.521416 0
0.994369 0.678111 0.0385595
0.993088 0.84921 0.48159
0.992737 0.940978 0.781384
0 0.782345 0
0 0.782254 0
0 0.781888 0
0 0.779446 0
0.735164 0.76701 0
0.964172 0.77116 0
0.99472 0.816434 0
0.993133 0.88719 0.455024
0.992737 0.947738 0.777966
0 0.947616 0
0 0.946899 0
0 0.945724 0
0 0.942153 0
0.712657 0.928038 0
0.921172 0.919341 0
0.994827 0.920958 0
0.993088 0.935805 0.49073
0.992737 0.962036 0.767742
0.604959 0.992752 0.220096
0.621927 0.992203 0.221027
0.646876 0.991379 0.222599
0.705806 0.989227 0.227558
0.805539 0.984924 0.243305
0.913405 0.979309 0.288396
0.986801 0.975296 0.40145
0.992935 0.975357 0.6047
0.992721 0.980911 0.794659
0.878904 0.992874 0.674189
0.880369 0.992874 0.674342
0.882704 0.992874 0.674571
0.889754 0.992874 0.675288
0.906889 0.992859 0.67747
0.939681 0.992844 0.684184
0.979126 0.992813 0.703716
0.992767 0.992767 0.756481
0.992706 0.992706 0.850797
0.959899 0.992691 0.881483
0.960067 0.992691 0.881514
0.960372 0.992691 0.881544
0.961257 0.992691 0.881621
0.963775 0.992691 0.88191
0.970138 0.992691 0.882765
0.982315 0.992691 0.885695
0.992676 0.992676 0.892882
0.992676 0.992676 0.911864
0 0 0.19971
0 0 0.199969
0.172976 0 0.200793
0.473075 0 0.200504
0.780728 0 0.211933
1 0 0.248402
0.994293 0.494102 0.321553
0.993011 0.817685 0.544167
0.992721 0.936736 0.792844
0 0 0.195087
0 0 0.195529
0.203265 0 0.196323
0.471443 0 0.195972
0.783062 0 0.207034
1 0 0.240452
0.994125 0.530236 0.313985
0.993011 0.822278 0.542611
0.992721 0.937301 0.79263
0.0225681 0.166369 0.166903
0.0231174 0.168627 0.167163
0.174243 0.174243 0.174243
0.459434 0.156191 0.178515
0.781689 0 0.193362
0.997955 0.136446 0.216739
0.993927 0.577829 0.301411
0.993011 0.829358 0.540124
0.992721 0.938201 0.792279
0.088014 0.431525 0.162219
0.0883497 0.432731 0.163409
0.0885481 0.433326 0.164782
0.432242 0.455787 0.19498
0.781369 0.457633 0.0960555
0.994583 0.509499 0.133532
0.993683 0.672435 0.260594
0.993011 0.847959 0.532815
0.992721 0.94078 0.791211
0 0.779919 0
0 0.779812 0
0 0.779431 0
0 0.776974 0
0.73753 0.764599 0
0.964034 0.769223 0
0.994034 0.814435 0.0919814
0.993042 0.886412 0.512535
0.992721 0.947555 0.788037
0 0.947204 0
0 0.946487 0
0 0.945312 0
0 0.941756 0
0.715633 0.927703 0
0.921675 0.919097 0
0.994827 0.920806 0
0.993088 0.935729 0.490394
0.992737 0.961898 0.778653
0.60914 0.992599 0.219715
0.625879 0.99205 0.220661
0.650294 0.991226 0.222232
0.708171 0.989105 0.227222
0.806622 0.984833 0.243015
0.91371 0.979263 0.288167
0.986862 0.975265 0.401419
0.992935 0.975357 0.604593
0.992721 0.980896 0.794614
0.879255 0.992874 0.674159
0.88072 0.992874 0.674296
0.883406 0.992874 0.674525
0.890074 0.992874 0.675258
0.907134 0.992859 0.67744
0.939803 0.992844 0.684153
0.979156 0.992813 0.703685
0.992767 0.992767 0.756481
0.992706 0.992706 0.850782
0.95993 0.992691 0.881483
0.960113 0.992691 0.881498
0.960418 0.992691 0.881544
0.961288 0.992691 0.881621
0.963821 0.992691 0.881895
0.970153 0.992691 0.88275
0.98233 0.992691 0.885679
0.992676 0.992676 0.892882
0.992676 0.992676 0.911864
0 0 0.454459
0 0 0.454627
0 0 0.454719
0.448646 0 0.45597
0.799634 0 0.463981
1 0 0.487358
0.994385 0.448188 0.530282
0.992905 0.812467 0.641733
0.992706 0.936049 0.817426
0 0 0.45214
0 0 0.452354
0.0723735 0 0.452049
0.465187 0 0.453666
0.797635 0 0.461372
1 0 0.484565
0.994125 0.493233 0.526726
0.992905 0.817319 0.640772
0.992706 0.936614 0.817243
0 0.0588693 0.446128
0 0.0652934 0.446281
0.107027 0.058732 0.445304
0.471885 0 0.449592
0.791501 0 0.457099
1 0 0.47924
0.99382 0.549355 0.521019
0.992889 0.82472 0.6392
0.992706 0.93753 0.816953
0.0860761 0.397269 0.395209
0.0865187 0.398901 0.395819
0.0868391 0.400046 0.396597
0.42153 0.42153 0.42153
0.764645 0.41265 0.426322
0.994308 0.468788 0.44506
0.993378 0.655955 0.504189
0.992889 0.844175 0.634699
0.992706 0.940154 0.816098
0 0.768109 0.333944
0 0.768078 0.334676
0 0.767788 0.335821
0 0.76553 0.339071
0.732174 0.753155 0.342885
0.960174 0.759243 0.374655
0.993133 0.808179 0.459754
0.992889 0.884169 0.622843
0.992706 0.947021 0.813565
0 0.94609 0
0 0.945373 0
0 0.944183 0
0 0.940627 0
0.715511 0.926589 0
0.919966 0.917006 0.179309
0.993301 0.918349 0.370871
0.992935 0.934813 0.594629
0.992721 0.961532 0.806195
0.621668 0.992096 0.218555
0.637385 0.991592 0.219532
0.660349 0.990799 0.221134
0.71516 0.988754 0.2262
0.809918 0.984588 0.242145
0.914656 0.979126 0.28751
0.987076 0.975174 0.401312
0.992935 0.975296 0.604257
0.992721 0.980865 0.79443
0.880354 0.992874 0.674037
0.881788 0.992874 0.674174
0.884443 0.992874 0.674418
0.891005 0.992874 0.67512
0.907866 0.992859 0.677317
0.940185 0.992844 0.684031
0.979263 0.992813 0.703578
0.992767 0.992767 0.756451
0.992706 0.992706 0.850721
0.960067 0.992691 0.881483
0.96025 0.992691 0.881483
0.96054 0.992691 0.881514
0.961425 0.992691 0.881621
0.963928 0.992691 0.881895
0.97026 0.992691 0.882734
0.982376 0.992691 0.885679
0.992676 0.992676 0.892866
0.992676 0.992676 0.911864
0 0 0.756085
0 0 0.756161
0 0 0.756283
0.283268 0 0.755535
0.787503 0 0.756207
1 0 0.762264
0.997147 0.198871 0.770092
0.992844 0.794812 0.796841
0.992691 0.933974 0.866041
0 0 0.755444
0 0 0.75552
0 0 0.755657
0.313542 0 0.754879
0.792981 0 0.755596
1 0 0.761593
0.995651 0.313771 0.767178
0.992828 0.800702 0.796201
0.992691 0.934585 0.865919
0 0 0.754391
0 0 0.754482
0 0 0.75462
0.353475 0 0.753811
0.796338 0 0.754498
1 0 0.760449
0.994644 0.422782 0.763912
0.992828 0.809506 0.795239
0.992691 0.935546 0.865721
0 0.244999 0.74612
0 0.248066 0.746151
0 0.251987 0.746151
0.353491 0.240192 0.743542
0.790021 0.131441 0.744503
0.996399 0.249012 0.746746
0.99353 0.597177 0.756024
0.992782 0.832013 0.792508
0.992691 0.938308 0.865141
0 0.729381 0.718822
0 0.729671 0.718959
0 0.729747 0.719112
0 0.728237 0.719432
0.716121 0.716121 0.716121
0.951553 0.728054 0.720851
0.992874 0.788815 0.738369
0.992752 0.876936 0.785855
0.992691 0.94551 0.863478
0 0.940673 0.678843
0 0.939971 0.678996
0 0.938811 0.679255
0 0.935225 0.680034
0.685985 0.920668 0.677317
0.90985 0.911574 0.686793
0.992782 0.914046 0.713848
0.992737 0.932052 0.772198
0.992691 0.960525 0.858915
0.610697 0.99057 0.593484
0.626886 0.990036 0.593698
0.650477 0.989258 0.594095
0.706584 0.987198 0.595407
0.80293 0.983032 0.599802
0.908812 0.97763 0.613672
0.981781 0.973846 0.654124
0.992767 0.97435 0.740139
0.992691 0.980377 0.846815
0.883955 0.992874 0.673655
0.885344 0.992874 0.673808
0.887526 0.992874 0.674037
0.893828 0.992874 0.674754
0.910018 0.992859 0.676951
0.941314 0.992844 0.68368
0.979644 0.992813 0.703273
0.992767 0.992767 0.75639
0.992706 0.992706 0.850553
0.960494 0.992691 0.881422
0.960662 0.992691 0.881437
0.960952 0.992691 0.881483
0.961822 0.992691 0.881559
0.964294 0.992691 0.881834
0.97052 0.992691 0.882704
0.982513 0.992691 0.885634
0.992676 0.992676 0.892821
0.992676 0.992676 0.911864
0 0 0.944945
0 0 0.944961
0 0 0.944991
0 0 0.945037
0.680827 0 0.942046
1 0 0.940688
1 0 0.941619
0.993088 0.712993 0.921996
0.992691 0.927428 0.926986
0 0 0.944869
0 0 0.944884
0 0 0.9449
0 0 0.944945
0.688518 0 0.941924
1 0 0.940612
1 0 0.941543
0.993042 0.724529 0.921324
0.992691 0.928145 0.926909
0 0 0.944747
0 0 0.944762
0 0 0.944778
0 0 0.944808
0.700679 0 0.941726
1 0 0.940459
1 0 0.941405
0.992996 0.741527 0.920317
0.992676 0.92929 0.926787
0 0 0.944335
0 0 0.94435
0 0 0.944366
0 0 0.944045
0.727275 0 0.941176
1 0 0.940032
1 0 0.939422
0.992874 0.782483 0.917678
0.992676 0.93254 0.926421
0 0.546792 0.929381
0 0.548104 0.929351
0 0.550195 0.929274
0 0.55346 0.928695
0.697444 0.538674 0.922454
0.990723 0.558633 0.919387
0.993149 0.693797 0.914626
0.992752 0.851881 0.912581
0.992676 0.940963 0.925429
0 0.927428 0.904067
0 0.926986 0.904036
0 0.926131 0.90396
0 0.922759 0.90367
0.610636 0.907576 0.89778
0.897139 0.897139 0.897139
0.989059 0.902342 0.89897
0.992691 0.924605 0.905547
0.992676 0.957794 0.923064
0.456413 0.990402 0.883619
0.4963 0.98967 0.883421
0.545586 0.988617 0.882811
0.636957 0.985992 0.882383
0.76582 0.981003 0.882094
0.89073 0.974975 0.883253
0.970764 0.971191 0.887098
0.992676 0.97232 0.897154
0.992676 0.979248 0.918196
0.873869 0.992752 0.847333
0.875273 0.992752 0.847379
0.877531 0.992752 0.847456
0.884367 0.992737 0.847684
0.900954 0.992721 0.848417
0.932998 0.992706 0.85066
0.972335 0.992691 0.85742
0.992691 0.992691 0.875013
0.992676 0.992676 0.907042
0.96173 0.992691 0.88127
0.961898 0.992691 0.8813
0.962173 0.992691 0.881331
0.962997 0.992691 0.881422
0.965347 0.992691 0.881697
0.971328 0.992691 0.882551
0.982956 0.992691 0.885496
0.992676 0.992676 0.892714
0.992676 0.992676 0.911833
0 0 0.999222
0 0 0.999222
0 0 0.999222
0 0 0.999222
0 0 0.999222
0.986755 0 1
1 0 1
1 0 1
0.992706 0.898894 0.975464
0 0 0.999222
0 0 0.999222
0 0 0.999222
0 0 0.999222
0 0 0.999222
0.988128 0 1
1 0 1
1 0 1
0.992706 0.900206 0.975357
0 0 0.999222
0 0 0.999222
0 0 0.999222
0 0 0.999222
0 0 0.999222
0.990326 0 1
1 0 1
1 0 1
0.992706 0.902281 0.975204
0 0 0.999222
0 0 0.999222
0 0 0.999222
0 0 0.999222
0 0 0.999222
0.99675 0 1
1 0 1
1 0 1
0.992706 0.908141 0.974777
0 0 0.999222
0 0 0.999222
0 0 0.999222
0 0 0.999222
0.371878 0 0.999359
1 0 1
1 0 1
0.993698 0.600336 0.988647
0.992691 0.922621 0.973678
0 0.825727 0.987457
0 0.826001 0.987442
0 0.826474 0.987427
0 0.827893 0.987335
0 0.822751 0.986023
0.9019 0.806577 0.978073
0.992798 0.831052 0.975631
0.992721 0.891157 0.972457
0.992676 0.948272 0.971572
0 0.996979 0.973281
0 0.996277 0.973205
0 0.995163 0.973098
0 0.991897 0.972793
0.662562 0.978515 0.966461
0.86804 0.969604 0.965408
0.965286 0.965286 0.965286
0.992676 0.96762 0.966018
0.99266 0.97641 0.968765
0.844511 0.992752 0.959731
0.846387 0.992752 0.959731
0.849363 0.992752 0.959701
0.857847 0.992737 0.959686
0.87921 0.992721 0.95964
0.919158 0.992691 0.959625
0.964218 0.992676 0.95996
0.99266 0.99266 0.961517
0.99266 0.99266 0.965591
0.957458 0.992676 0.946319
0.957626 0.992676 0.946334
0.9579 0.992676 0.946334
0.95874 0.992676 0.94638
0.961151 0.992676 0.946456
0.967239 0.992676 0.946731
0.979095 0.992676 0.947555
0.992615 0.992676 0.950103
0.992676 0.992676 0.956786
0 0.0484016 0.997147
0 0.0484016 0.997147
0 0.0484016 0.997147
0 0.0484169 0.997147
0 0.0484932 0.997147
0 0.0486915 0.997147
1 0 1
1 0 1
0.993439 0.644877 0.993439
0 0.0483558 0.997147
0 0.0483558 0.997147
0 0.0483711 0.997147
0 0.0484016 0.997147
0 0.0484779 0.997147
0 0.0486763 0.997147
1 0 1
1 0 1
0.993439 0.644846 0.993439
0 0.0482948 0.997147
0 0.0482948 0.997147
0 0.0483101 0.997147
0 0.0483406 0.997147
0 0.0484016 0.997147
0 0.0486152 0.997147
1 0 1
1 0 1
0.993439 0.6448 0.993439
0 0.048127 0.997147
0 0.0481117 0.997147
0 0.048127 0.997147
0 0.0481575 0.997147
0 0.0482338 0.997147
0 0.0140536 0.997772
1 0 1
1 0 1
0.993439 0.644663 0.993439
0 0.0475624 0.997162
0 0.0475624 0.997162
0 0.0475929 0.997162
0 0.0476081 0.997162
0 0.0476692 0.997162
0.408835 0 0.999542
1 0 1
1 0 1
0.993439 0.644251 0.993439
0 0.0458381 0.997192
0 0.0458381 0.997192
0 0.0458381 0.997192
0 0.0458534 0.997192
0 0.0459297 0.997177
0.806302 0 1
1 0 1
1 0.0528725 1
0.992767 0.85568 0.992767
0 0.963424 0.998642
0 0.96347 0.998642
0 0.963516 0.998642
0 0.963684 0.998642
0 0.964202 0.998642
0.755154 0.937881 0.992828
0.967651 0.930785 0.992676
0.992676 0.940414 0.992676
0.992676 0.963272 0.992676
0.682979 0.993118 0.992996
0.691234 0.993088 0.99295
0.70367 0.993057 0.992874
0.736049 0.992966 0.992691
0.802045 0.992828 0.992309
0.886625 0.992706 0.991882
0.955444 0.992676 0.991547
0.991501 0.991501 0.991501
0.99266 0.99205 0.991714
0.946624 0.992676 0.989364
0.946868 0.992676 0.989364
0.947234 0.992676 0.989364
0.948363 0.992676 0.989364
0.951553 0.992676 0.989349
0.959457 0.992676 0.989334
0.973922 0.99266 0.989319
0.989456 0.99266 0.989441
0.99266 0.99266 0.989929
0 0.308232 0.996002
0 0.308232 0.996002
0 0.308232 0.996002
0 0.308248 0.996002
0 0.308248 0.996002
0 0.308309 0.996002
0 0.308415 0.996002
0.996307 0.29337 0.996307
0.993225 0.689662 0.993225
0 0.308232 0.996002
0 0.308232 0.996002
0 0.308232 0.996002
0 0.308232 0.996002
0 0.308248 0.996002
0 0.308293 0.996002
0 0.308415 0.996002
0.996292 0.29366 0.996292
0.993225 0.689708 0.993225
0 0.308217 0.996002
0 0.308217 0.996002
0 0.308217 0.996002
0 0.308232 0.996002
0 0.308232 0.996002
0 0.308293 0.996002
0 0.3084 0.996002
0.996292 0.294118 0.996292
0.993225 0.689784 0.993225
0 0.308202 0.996002
0 0.308202 0.996002
0 0.308202 0.996002
0 0.308202 0.996002
0 0.308217 0.996002
0 0.308248 0.996002
0 0.30837 0.996002
0.996277 0.295552 0.996277
0.993225 0.689998 0.993225
0 0.30808 0.996002
0 0.30808 0.996002
0 0.30808 0.996002
0 0.30808 0.996002
0 0.308095 0.996002
0 0.308141 0.996002
0.401846 0.282841 0.994034
0.996216 0.299901 0.996216
0.993225 0.690654 0.993225
0 0.307759 0.996002
0 0.307759 0.996002
0 0.307759 0.996002
0 0.30779 0.996002
0 0.30779 0.996002
0 0.30782 0.996002
0.826764 0.0827344 0.998657
0.996063 0.312749 0.996063
0.993225 0.691646 0.993225
0 0.306783 0.996002
0 0.306783 0.996002
0 0.306783 0.996002
0 0.306798 0.996002
0 0.306798 0.996002
0 0.306844 0.996002
1 0 1
0.995789 0.337575 0.995789
0.99321 0.693492 0.99321
0 0.998871 0.998871
0 0.998871 0.998871
0 0.998871 0.998871
0 0.998871 0.998871
0 0.998871 0.998871
0 0.998871 0.998871
0.914153 0.981659 0.992691
0.99263 0.978714 0.99266
0.99266 0.982345 0.99266
0.893904 0.992706 0.992706
0.894713 0.992706 0.992706
0.896025 0.992706 0.992706
0.899794 0.992706 0.992706
0.90985 0.992691 0.992691
0.931472 0.992676 0.992676
0.96231 0.992676 0.992676
0.986725 0.99266 0.99266
0.99266 0.99266 0.99266
