BBLuts/BB_106_0210_LUT.cube
TITLE "Generated by Resolve"
LUT_3D_SIZE 5
0 0 0.0175174
0.162661 9.15541e-05 0.0266423
0.766293 0.285008 0.344945
0.948013 0.650752 0.647822
0.936736 0.890562 0.739773
0 0.176516 0.00138857
0.113848 0.187274 0.0112001
0.77319 0.335317 0.356573
0.947219 0.671916 0.644572
0.936675 0.89163 0.738155
0 0.760418 0
0 0.759945 0
0.711925 0.762417 0
0.942153 0.807401 0.568475
0.936263 0.898543 0.725368
0.0129397 0.94316 0.0191043
0.0127718 0.942168 0.0188907
0.622324 0.938048 0.0192264
0.933486 0.92253 0
0.934005 0.922469 0.730526
0.904356 0.931395 0.828641
0.904799 0.931395 0.828702
0.908003 0.931365 0.829206
0.924773 0.931258 0.83331
0.934615 0.931685 0.857801
0.012726 0.00793469 0.180484
0.162066 0.0148013 0.187289
0.766644 0.293294 0.395392
0.948104 0.647501 0.652079
0.936706 0.890288 0.758373
0 0.156191 0.151751
0.142275 0.162219 0.158587
0.767391 0.302464 0.39202
0.947372 0.667948 0.648966
0.936629 0.891356 0.757092
0 0.757122 0
0 0.756603 0
0.717937 0.759274 0
0.942138 0.806088 0.575708
0.936172 0.898253 0.747295
0.0129091 0.942962 0.0190585
0.0127413 0.941985 0.0188449
0.638392 0.937209 0.0177615
0.933593 0.922499 0
0.93402 0.922454 0.730388
0.904418 0.931395 0.828641
0.904875 0.931395 0.828702
0.908064 0.931365 0.82919
0.924788 0.931258 0.833295
0.934615 0.931685 0.857786
0.565423 0.546761 0.749859
0.565682 0.547021 0.750042
0.780804 0.565454 0.748562
0.948318 0.660471 0.780224
0.93753 0.889296 0.829023
0.563302 0.544533 0.748455
0.563561 0.544808 0.748623
0.787564 0.565759 0.747387
0.947967 0.666819 0.777356
0.937438 0.89041 0.828519
0.0177005 0.725673 0.700847
0.0176699 0.725933 0.701106
0.713863 0.727047 0.712673
0.941192 0.790082 0.748379
0.936858 0.897505 0.824979
0.0127413 0.942016 0.0188449
0.0125734 0.94107 0.0186313
0.624765 0.937057 0.0189212
0.929763 0.92195 0.0530404
0.934157 0.922011 0.800259
0.904936 0.931395 0.828595
0.905379 0.93138 0.828672
0.908492 0.931365 0.829145
0.924956 0.931258 0.833249
0.934615 0.931685 0.857786
0.788937 0.769345 0.931441
0.788937 0.769345 0.931441
0.789014 0.769345 0.931441
0.950423 0.77847 0.931456
0.943664 0.872969 0.915068
0.788937 0.769345 0.931441
0.788937 0.769345 0.931441
0.789075 0.76936 0.931456
0.950423 0.77847 0.931456
0.943542 0.875059 0.914778
0.788937 0.769345 0.931441
0.788937 0.769345 0.931441
0.791379 0.769375 0.931441
0.950423 0.77847 0.931456
0.942641 0.887816 0.913008
0.0121157 0.946685 0.918029
0.0119783 0.945373 0.917952
0.613916 0.93402 0.914199
0.918181 0.915297 0.904768
0.939223 0.922652 0.906828
0.906264 0.933028 0.887739
0.906661 0.933013 0.887755
0.909728 0.932998 0.8878
0.925032 0.932891 0.888853
0.936996 0.933135 0.896254
0.78883 0.77023 0.931441
0.78883 0.77023 0.931441
0.78883 0.77023 0.931441
0.798779 0.770672 0.931395
0.949279 0.797345 0.930495
0.78883 0.77023 0.931441
0.78883 0.77023 0.931441
0.78883 0.77023 0.931441
0.79881 0.770672 0.931395
0.949279 0.797375 0.930495
0.78883 0.77023 0.931441
0.78883 0.77023 0.931441
0.78883 0.77023 0.931441
0.800397 0.770565 0.931395
0.949264 0.797528 0.93048
0.78883 0.77023 0.931441
0.78883 0.77023 0.931441
0.78883 0.77023 0.931441
0.950423 0.77847 0.931456
0.949233 0.798123 0.930449
0.860014 0.93579 0.924926
0.861845 0.935744 0.924895
0.87361 0.935576 0.924758
0.91577 0.935103 0.924453
0.939834 0.93489 0.924376
