BBLuts/BB_102_0270_LUT.cube
TITLE "Generated by Resolve"
LUT_3D_SIZE 5
0 0 0
0.323781 0 0
1 0 0
1 0.892363 0
1 1 1
0 0.341802 0
0.189899 0.346502 0
1 0.0983749 0
1 0.906722 0
1 1 1
0 1 0
0 1 0
1 1 0
1 1 0
1 1 1
0.802121 1 0.125597
0.802121 1 0.125597
1 1 0.131258
1 1 0.351797
1 1 1
1 1 1
1 1 1
1 1 1
1 1 1
1 1 1
0 0 0.374792
0.256687 0 0.375937
1 0 0.326802
1 0.805188 0.0907301
1 1 1
0 0.270024 0.290227
0.193713 0.266499 0.285191
1 0 0.292699
1 0.955413 0
1 1 1
0 1 0
0 1 0
1 1 0
1 1 0
1 1 1
0.820264 1 0.123354
0.820264 1 0.123354
1 1 0.129915
1 1 0.351354
1 1 1
1 1 1
1 1 1
1 1 1
1 1 1
1 1 1
0 0 1
0 0 1
1 0 1
1 0.304295 1
1 1 1
0 0 1
0 0 1
1 0 1
1 0.542473 1
1 1 1
0 1 1
0 1 1
1 1 1
1 1 1
1 1 1
0.787823 1 0.858747
0.787823 1 0.858747
1 1 0.848386
1 1 0.923796
1 1 1
1 1 1
1 1 1
1 1 1
1 1 1
1 1 1
0 0 1
0 0 1
0 0 1
1 0 1
1 1 1
0 0 1
0 0 1
0 0 1
1 0 1
1 1 1
0 0 1
0 0 1
0 0 1
1 0 1
1 1 1
0 1 1
0 1 1
0 1 1
1 1 1
1 1 1
1 1 1
1 1 1
1 1 1
1 1 1
1 1 1
0 0.431556 1
0 0.431556 1
0 0.431556 1
0 0.431678 1
1 0.959792 1
0 0.431556 1
0 0.431556 1
0 0.431556 1
0 0.431678 1
1 0.959792 1
0 0.431556 1
0 0.431556 1
0 0.431556 1
0 0.431678 1
1 0.959792 1
0 0.429755 1
0 0.429755 1
0 0.429755 1
0 0.429831 1
1 0.967758 1
1 1 1
1 1 1
1 1 1
1 1 1
1 1 1
