BBLuts/BB_106_0230_LUT.cube
TITLE "Generated by Resolve"
LUT_3D_SIZE 5
0.0148013 0.0243076 0.0409094
0.209567 0.0265049 0.0418708
0.778149 0.298131 0.373541
0.984436 0.643549 0.66949
0.97641 0.931579 0.780987
0.000167849 0.20708 0.0267796
0.153811 0.211368 0.029572
0.783993 0.339956 0.383001
0.984146 0.665293 0.666972
0.976303 0.932906 0.779156
0 0.774807 0.00650034
0 0.774395 0.00650034
0.717968 0.76524 0.00753796
0.981353 0.81883 0.598657
0.975555 0.941512 0.765072
0 0.980911 0.00814832
0 0.979736 0.00814832
0.598474 0.974166 0.00895705
0.966461 0.966598 0.00968948
0.972488 0.972885 0.77055
0.937499 0.984894 0.891112
0.938003 0.984909 0.891188
0.941741 0.984939 0.89192
0.961807 0.985229 0.897627
0.973754 0.986068 0.930571
0.0375219 0.0390784 0.214343
0.206714 0.0410925 0.217136
0.777874 0.304784 0.421546
0.984482 0.640314 0.673594
0.976577 0.931456 0.802502
0.012665 0.186328 0.186526
0.190448 0.184665 0.175402
0.778775 0.30573 0.418799
0.984192 0.661234 0.671199
0.976455 0.932799 0.801022
0 0.771389 0.00648508
0 0.770932 0.00646983
0.724498 0.761883 0.0075227
0.981384 0.817304 0.603693
0.975708 0.941451 0.789792
0 0.980682 0.00814832
0 0.979507 0.00813306
0.616541 0.974044 0.00898756
0.966598 0.966552 0.00968948
0.972503 0.972869 0.770413
0.937545 0.984894 0.891112
0.938094 0.984909 0.891203
0.941817 0.984939 0.89189
0.961822 0.985229 0.897612
0.973754 0.986068 0.930571
0.57261 0.533104 0.779843
0.572839 0.533364 0.780041
0.787472 0.550317 0.778485
0.984771 0.653117 0.814969
0.97792 0.930739 0.890181
0.570657 0.530877 0.778149
0.570932 0.531182 0.778378
0.795056 0.55053 0.776974
0.984665 0.659663 0.811902
0.977798 0.932143 0.88954
0 0.730632 0.735058
0 0.730968 0.735317
0.724727 0.72398 0.727108
0.98201 0.799893 0.784573
0.977005 0.941146 0.884978
0 0.979507 0.00813306
0 0.978393 0.00813306
0.607431 0.973068 0.00895705
0.961959 0.965728 0.00967422
0.973281 0.973037 0.852842
0.938155 0.984909 0.891051
0.938674 0.984909 0.891157
0.942321 0.984939 0.891844
0.96202 0.985229 0.897551
0.973754 0.986068 0.930571
0.801831 0.776959 1
0.801831 0.776959 1
0.801831 0.776959 1
0.991394 0.789014 1
0.985275 0.91043 1
0.801831 0.776959 1
0.801831 0.776959 1
0.801831 0.776959 1
0.991394 0.789014 1
0.985107 0.913008 1
0.801831 0.776959 1
0.801831 0.776959 1
0.803006 0.776974 1
0.991394 0.789014 1
0.983917 0.928954 1
0 0.985351 0.990524
0 0.983719 0.990539
0.59913 0.973999 0.99118
0.953765 0.963745 0.993759
0.979248 0.974166 0.997284
0.939712 0.987045 0.969467
0.940169 0.987045 0.969497
0.943542 0.987076 0.969711
0.962005 0.98732 0.971511
0.97641 0.987945 0.982361
0.801724 0.777981 1
0.801724 0.777981 1
0.801724 0.777981 1
0.801724 0.777981 1
0.990845 0.812177 1
0.801724 0.777981 1
0.801724 0.777981 1
0.801724 0.777981 1
0.801724 0.777981 1
0.990845 0.812207 1
0.801724 0.777981 1
0.801724 0.777981 1
0.801724 0.777981 1
0.803281 0.777874 1
0.990829 0.812406 1
0.801724 0.777981 1
0.801724 0.777981 1
0.801724 0.777981 1
0.991394 0.789014 1
0.990814 0.813062 1
0.884978 0.989532 1
0.886992 0.989532 1
0.900236 0.989593 1
0.950561 0.98996 1
0.97969 0.990295 1
