BBLuts/BB_103_0630_LUT.cube
TITLE "Generated by Resolve"
LUT_3D_SIZE 33
0 0 0
0 0 0
0 0 0
0 0 0
0.03505 0 0
0.0793469 0 0
0.116014 0 0
0.157931 0 0
0.208133 0 0
0.264576 0 0
0.327077 0 0
0.399161 0 0
0.481636 0 0
0.571664 0 0
0.660563 0 0
0.745144 0 0
0.819135 0 0
0.876875 0 0
0.893675 0 0
0.89688 0 0
0.892409 0.0442512 0
0.883818 0.198962 0
0.876463 0.328618 0.021149
0.870008 0.43006 0.0469368
0.864164 0.520623 0.0822003
0.858564 0.604822 0.126223
0.853574 0.677897 0.179889
0.849348 0.738842 0.242939
0.845869 0.78761 0.311711
0.842939 0.827039 0.382467
0.840528 0.857847 0.452964
0.838514 0.88191 0.522805
0.836805 0.901335 0.584009
0 0 0
0 0 0
0 0 0
0 0 0
0.0384985 0 0
0.0804761 0 0
0.119783 0 0
0.163058 0 0
0.212863 0 0
0.267735 0 0
0.32932 0 0
0.401068 0 0
0.483207 0 0
0.572747 0 0
0.661189 0 0
0.745434 0 0
0.819013 0 0
0.876463 0 0
0.893538 0 0
0.89688 0 0
0.891371 0.0571145 0
0.881712 0.223346 0
0.875456 0.341726 0.0170901
0.869352 0.438758 0.0445411
0.863676 0.526986 0.0798962
0.858213 0.609384 0.124529
0.85333 0.68098 0.178775
0.849195 0.740795 0.242252
0.845792 0.788815 0.311284
0.842893 0.827802 0.382208
0.840497 0.858305 0.452781
0.838499 0.882216 0.522683
0.836789 0.901534 0.583932
0 0 0
0 0 0
0 0 0
0 0 0
0.0381933 0 0
0.0780346 0 0
0.119554 0 0
0.164508 0 0
0.21529 0 0
0.27013 0 0
0.331518 0 0
0.403037 0 0
0.484855 0 0
0.573846 0 0
0.66183 0 0
0.745693 0 0
0.818875 0 0
0.876036 0 0
0.893416 0 0
0.896788 0 0
0.890578 0.0699168 0
0.880323 0.244892 0
0.874464 0.354131 0.0125734
0.868696 0.447196 0.0420844
0.863188 0.533181 0.0775311
0.857862 0.61384 0.122866
0.853101 0.684016 0.177691
0.849058 0.742718 0.241581
0.845701 0.790005 0.310872
0.842832 0.82855 0.381933
0.840452 0.858763 0.452598
0.838468 0.882506 0.52256
0.836774 0.901717 0.583856
0 0.0153506 0
0 0.017792 0
0 0.0202029 0
0 0.0206455 0
0.025864 0.018143 0
0.0690623 0.0139925 0
0.113725 0.004654 0
0.162707 0 0
0.216052 0 0
0.271901 0 0
0.33373 0 0
0.405112 0 0
0.48661 0 0
0.575021 0 0
0.662486 0 0
0.745937 0 0
0.818723 0 0
0.875578 0 0
0.893278 0 0
0.895415 0 0
0.888579 0.102983 0
0.879011 0.264256 0
0.873472 0.365972 0.00741588
0.86807 0.455467 0.0395514
0.862715 0.539284 0.0751354
0.857527 0.618219 0.121187
0.852872 0.687022 0.176593
0.84892 0.744625 0.240894
0.845609 0.791196 0.310445
0.842771 0.829297 0.381659
0.840421 0.859205 0.452415
0.838437 0.882811 0.522423
0.836759 0.901915 0.583764
0 0.0490272 0
0 0.0513466 0
0 0.052842 0
0 0.0533761 0
0.00173953 0.0523079 0
0.0589303 0.0500496 0
0.106523 0.0466011 0
0.157443 0.0399939 0
0.212497 0.0269169 0
0.271229 0 0
0.334951 0 0
0.407263 0 0
0.488609 0 0
0.576364 0 0
0.663218 0 0
0.746212 0 0
0.81854 0 0
0.875044 0 0
0.893111 0 0
0.892363 0.0410468 0
0.88481 0.16585 0
0.877668 0.283513 0
0.872282 0.378256 0.000228885
0.867384 0.464317 0.0366522
0.862196 0.545876 0.0724193
0.857145 0.622934 0.119295
0.852628 0.690257 0.175387
0.848768 0.7467 0.240162
0.845518 0.792493 0.309972
0.842725 0.830106 0.381353
0.840391 0.859693 0.452216
0.838422 0.883131 0.522286
0.836744 0.902144 0.583673
0 0.0859236 0
0 0.0876783 0
0 0.0886244 0
0 0.0891585 0
0 0.0890669 0
0.0386053 0.0870985 0
0.0956741 0.0850996 0
0.150332 0.0816052 0
0.207553 0.0751049 0
0.267399 0.0640879 0
0.332937 0.0436713 0
0.408057 0.00137331 0
0.490089 0 0
0.578058 0 0
0.66421 0 0
0.746563 0 0
0.818265 0 0
0.874296 0 0
0.891783 0 0
0.889723 0.0840925 0
0.882231 0.208072 0
0.876005 0.306432 0
0.870573 0.393027 0
0.866499 0.475593 0.032639
0.86154 0.55433 0.0691234
0.856672 0.629023 0.116915
0.852308 0.694438 0.173816
0.848554 0.749386 0.23917
0.845396 0.794186 0.309361
0.842634 0.831174 0.380972
0.840345 0.860349 0.451957
0.838392 0.883558 0.522103
0.836728 0.902434 0.583566
0 0.12842 0
0 0.129473 0
0 0.130282 0
0 0.130755 0
0 0.130953 0
0 0.130083 0
0.0745098 0.128084 0
0.137499 0.125566 0
0.198856 0.121141 0
0.262531 0.114305 0
0.330709 0.104189 0
0.405722 0.087541 0
0.488807 0.053315 0
0.577737 0.00936904 0
0.663691 0 0
0.746975 0 0
0.817868 0 0
0.871489 0 0
0.8869 0.0590372 0
0.885451 0.155184 0
0.879561 0.250843 0
0.874037 0.334051 0
0.868894 0.412085 0
0.865324 0.490043 0.0268864
0.860685 0.565301 0.0656901
0.856062 0.636942 0.114
0.851896 0.699886 0.171679
0.848295 0.752895 0.237858
0.845228 0.796414 0.308537
0.842542 0.832593 0.380438
0.840284 0.861204 0.451591
0.838346 0.884138 0.521843
0.836698 0.9028 0.583398
0 0.177447 0
0 0.178042 0
0 0.178576 0
0 0.178912 0
0 0.17908 0
0 0.178897 0
0.0238651 0.176898 0
0.113527 0.174319 0
0.183413 0.17113 0
0.253086 0.166506 0
0.32639 0.159716 0
0.404807 0.149737 0
0.487541 0.13608 0
0.573938 0.116915 0
0.659617 0.0886549 0
0.742962 0.0410315 0
0.81265 0.0399786 0
0.863783 0.0949264 0
0.880385 0.159121 0
0.881056 0.227131 0
0.87657 0.29659 0
0.871778 0.366918 0
0.86714 0.43621 0
0.863783 0.508293 0.0181735
0.859586 0.5794 0.0612345
0.855268 0.647135 0.11017
0.851362 0.706889 0.168826
0.847959 0.757473 0.236103
0.845014 0.799344 0.307424
0.842405 0.834455 0.379721
0.840192 0.862364 0.451118
0.8383 0.884901 0.521508
0.836667 0.903304 0.583185
0 0.232029 0
0 0.232441 0
0 0.232746 0
0 0.232914 0
0 0.23299 0
0 0.232883 0
0 0.232258 0
0.0511482 0.229557 0
0.157198 0.227131 0
0.23621 0.224002 0
0.316625 0.219211 0
0.401266 0.212299 0
0.486915 0.204044 0
0.572839 0.194659 0
0.656077 0.185061 0
0.735241 0.177905 0
0.802869 0.182422 0
0.854658 0.206455 0
0.874434 0.244022 0
0.87689 0.291676 0
0.873213 0.346258 0
0.869123 0.404685 0
0.864988 0.465782 0
0.861616 0.530785 0.00283818
0.858167 0.597269 0.0546273
0.854246 0.66006 0.104997
0.850675 0.71577 0.165026
0.847517 0.763317 0.233783
0.844739 0.803143 0.305959
0.842222 0.836896 0.378775
0.840085 0.863874 0.450462
0.838224 0.885924 0.521065
0.836606 0.903975 0.582879
0 0.293828 0
0 0.294179 0
0 0.294469 0
0 0.294667 0
0 0.294804 0
0 0.294865 0
0 0.294759 0
0 0.293797 0
0.101198 0.291005 0
0.206775 0.28893 0
0.298024 0.285878 0
0.391333 0.281468 0
0.482353 0.276188 0
0.570748 0.270939 0
0.653376 0.267109 0
0.730266 0.266484 0
0.795361 0.273884 0
0.845655 0.292943 0
0.868345 0.320836 0
0.872465 0.357061 0
0.869459 0.399863 0
0.866056 0.448142 0
0.862348 0.501076 0
0.858579 0.557916 0
0.856367 0.619135 0.0451667
0.85301 0.676036 0.0996872
0.849836 0.726787 0.160891
0.846967 0.770687 0.230747
0.844373 0.808026 0.30399
0.841993 0.84004 0.377508
0.839948 0.865858 0.449607
0.838132 0.887251 0.52047
0.836545 0.90486 0.582498
0 0.366873 0
0 0.367178 0
0 0.367437 0
0 0.367651 0
0 0.367819 0
0 0.367956 0
0 0.368017 0
0 0.36791 0
0.0127413 0.366384 0
0.148287 0.364553 0
0.265339 0.362966 0
0.370321 0.360357 0
0.469337 0.356954 0
0.563348 0.353597 0
0.648508 0.351797 0
0.724239 0.353155 0
0.78677 0.360494 0
0.835248 0.375677 0
0.861677 0.396414 0
0.867765 0.423774 0
0.86537 0.457755 0
0.862531 0.497734 0
0.859312 0.542336 0
0.855817 0.59147 0
0.854246 0.645151 0.0355077
0.85153 0.695232 0.0947127
0.848829 0.740154 0.156603
0.846296 0.779767 0.226795
0.843915 0.814176 0.301411
0.841703 0.844068 0.375845
0.83975 0.868437 0.448447
0.837995 0.888991 0.519646
0.836469 0.90602 0.581964
0 0.448875 0
0 0.449119 0
0 0.449332 0
0 0.4495 0
0 0.449668 0
0 0.449821 0
0 0.449958 0
0 0.450034 0
0 0.449897 0
0.0490272 0.447745 0
0.208316 0.446204 0
0.336049 0.44445 0
0.446036 0.441993 0
0.547799 0.439338 0
0.638621 0.437613 0
0.715831 0.438514 0
0.776699 0.444236 0
0.823331 0.455848 0
0.85449 0.472038 0
0.862837 0.493477 0
0.860914 0.520317 0
0.858579 0.552468 0
0.855894 0.589349 0
0.852934 0.630274 0
0.851789 0.675013 0.0246433
0.849836 0.717433 0.0890364
0.847654 0.755871 0.153033
0.845487 0.790707 0.22298
0.843366 0.821759 0.298024
0.841337 0.849058 0.373632
0.839521 0.871733 0.446891
0.837842 0.891234 0.518563
0.836362 0.907515 0.581262
0 0.536416 0
0 0.536583 0
0 0.536706 0
0 0.536812 0
0 0.536904 0
0 0.536995 0
0 0.537057 0
0 0.537057 0
0 0.536919 0
0 0.536431 0
0.104173 0.533364 0
0.284993 0.531609 0
0.412284 0.52961 0
0.523064 0.527291 0
0.621424 0.525277 0
0.702342 0.52517 0
0.763699 0.528969 0
0.809201 0.537484 0
0.842176 0.549676 0
0.85507 0.566049 0
0.856077 0.586877 0
0.854231 0.612039 0
0.85211 0.640742 0
0.849805 0.672648 0
0.848981 0.707805 0.0107118
0.847929 0.742184 0.0825055
0.846311 0.773968 0.151568
0.844526 0.803723 0.220371
0.84268 0.830915 0.29369
0.840879 0.855207 0.370733
0.839216 0.875914 0.444862
0.837629 0.894118 0.517128
0.836225 0.909438 0.580331
0 0.624949 0
0 0.62501 0
0 0.625055 0
0 0.625086 0
0 0.625116 0
0 0.625101 0
0 0.625071 0
0 0.624964 0
0 0.624735 0
0 0.624231 0
0 0.622675 0
0.197665 0.619287 0
0.366903 0.617487 0
0.489509 0.615427 0
0.595743 0.613336 0
0.681483 0.612421 0
0.745235 0.614359 0
0.791592 0.619913 0
0.824582 0.628489 0
0.844633 0.640269 0
0.851057 0.6551 0
0.849744 0.672938 0
0.848234 0.693446 0
0.846586 0.716381 0
0.84564 0.741741 0
0.845899 0.768704 0.0751049
0.844846 0.794186 0.151583
0.843412 0.818769 0.220691
0.841901 0.841657 0.291875
0.840345 0.862562 0.366934
0.838849 0.881117 0.442115
0.837369 0.897734 0.515175
0.836042 0.911925 0.579065
0 0.708812 0
0 0.708797 0
0 0.708766 0
0 0.708721 0
0 0.708675 0
0 0.708598 0
0 0.708461 0
0 0.708232 0
0 0.70782 0
0 0.707134 0
0 0.706004 0
0.103853 0.702129 0
0.310536 0.699916 0
0.451225 0.697673 0
0.565118 0.695247 0
0.655192 0.693462 0
0.722011 0.693507 0
0.770993 0.695979 0
0.805417 0.700664 0
0.831617 0.707774 0
0.844221 0.717128 0
0.84567 0.728557 0
0.844694 0.741939 0
0.843595 0.757168 0
0.842405 0.774105 0
0.843824 0.795453 0.0665599
0.843305 0.815457 0.153475
0.842252 0.834943 0.223514
0.841031 0.853468 0.292927
0.839734 0.871 0.364202
0.838407 0.887282 0.43859
0.837064 0.902098 0.512673
0.835828 0.914931 0.577401
0 0.777432 0
0 0.77734 0
0 0.777249 0
0 0.777142 0
0 0.77702 0
0 0.776852 0
0 0.776593 0
0 0.776211 0
0 0.775631 0
0 0.774716 0
0 0.773404 0
0.0290837 0.769924 0
0.258442 0.766751 0
0.420035 0.764126 0
0.539513 0.761242 0
0.631373 0.75874 0
0.699657 0.757397 0
0.751064 0.757565 0
0.787442 0.759304 0
0.815442 0.762753 0
0.83418 0.767865 0
0.842329 0.774594 0
0.841718 0.78294 0
0.841001 0.793042 0
0.840314 0.805097 0
0.842023 0.821286 0.0713664
0.841825 0.836301 0.158221
0.841077 0.851087 0.228397
0.840131 0.865675 0.297215
0.839048 0.880232 0.366003
0.837903 0.894163 0.434333
0.836713 0.907042 0.509514
0.835584 0.918456 0.575311
0 0.828626 0
0 0.828489 0
0 0.828336 0
0 0.828183 0
0 0.828016 0
0 0.827771 0
0 0.82742 0
0 0.826917 0
0 0.826185 0
0 0.825147 0
0 0.823713 0
0 0.821073 0
0.23238 0.81677 0
0.40441 0.813931 0
0.524239 0.810803 0
0.614847 0.807965 0
0.681941 0.805982 0
0.734096 0.80499 0
0.771664 0.805142 0
0.800992 0.806516 0
0.82388 0.809155 0
0.8374 0.813062 0
0.83917 0.818235 0
0.838727 0.824781 0
0.839506 0.834211 0.00329595
0.840528 0.845182 0.0890516
0.840452 0.855817 0.166949
0.839963 0.866819 0.235904
0.839231 0.878233 0.303395
0.838331 0.890043 0.370855
0.837339 0.901595 0.437415
0.836316 0.91252 0.506081
0.835294 0.922484 0.572671
0 0.867948 0
0 0.867765 0
0 0.867582 0
0 0.867384 0
0 0.86717 0
0 0.866865 0
0 0.866453 0
0 0.865873 0
0 0.86508 0
0 0.863996 0
0 0.862531 0
0.0191043 0.859052 0
0.245975 0.855512 0
0.405264 0.852613 0
0.519036 0.8495 0
0.605066 0.846616 0
0.669337 0.844358 0
0.720424 0.842786 0
0.758022 0.842069 0
0.788128 0.842161 0
0.81236 0.843122 0
0.829496 0.845014 0
0.837018 0.847852 0
0.836805 0.851713 0
0.83856 0.859007 0.0319066
0.839216 0.866331 0.109606
0.8392 0.873945 0.180285
0.838865 0.882155 0.246494
0.838285 0.890929 0.311864
0.837568 0.900191 0.377493
0.836744 0.909453 0.442618
0.835874 0.91841 0.508202
0.834974 0.92697 0.570642
0 0.895293 0
0 0.895064 0
0 0.894865 0
0 0.894636 0
0 0.894408 0
0 0.894072 0
0 0.893629 0
0 0.893034 0
0 0.892226 0
0 0.891142 0
0 0.889677 0
0.0812543 0.885512 0
0.285817 0.882719 0
0.421576 0.879911 0
0.524025 0.876951 0
0.602869 0.874174 0
0.66302 0.87187 0
0.711955 0.870039 0
0.748409 0.86891 0
0.778363 0.868345 0
0.803082 0.868406 0
0.82269 0.869139 0
0.834913 0.870634 0
0.835279 0.872938 0
0.837644 0.879088 0.0602884
0.838117 0.88423 0.132738
0.838132 0.889738 0.197192
0.837873 0.895842 0.259724
0.837446 0.902464 0.322362
0.836866 0.909621 0.385657
0.836179 0.916915 0.449134
0.835416 0.924269 0.512978
0.834638 0.931502 0.571817
0 0.916899 0
0 0.916671 0
0 0.916457 0
0 0.916228 0
0 0.915984 0
0 0.915648 0
0 0.915206 0
0 0.914611 0
0 0.913817 0
0 0.912749 0
0 0.910552 0
0.190036 0.906844 0
0.339559 0.904555 0
0.448463 0.901976 0
0.53637 0.899275 0
0.605966 0.896727 0
0.660899 0.894514 0
0.706722 0.892622 0
0.741299 0.89131 0
0.770367 0.89041 0
0.794949 0.889937 0
0.815396 0.889967 0
0.830167 0.890791 0
0.835569 0.893629 0.0135653
0.83682 0.897231 0.0972457
0.837125 0.900618 0.160372
0.83714 0.904433 0.218631
0.836957 0.908751 0.276738
0.836622 0.913558 0.335943
0.836149 0.918914 0.396231
0.835584 0.924544 0.457527
0.834943 0.930419 0.519387
0.834257 0.936339 0.575601
0 0.933883 0
0 0.933669 0
0 0.933455 0
0 0.933242 0
0 0.932998 0
0 0.932677 0
0 0.93225 0
0 0.931579 0
0 0.930159 0
0.0264439 0.928176 0
0.167666 0.925887 0
0.303471 0.924132 0
0.399451 0.922148 0
0.482734 0.919905 0
0.554604 0.917525 0
0.613718 0.915282 0
0.66276 0.913222 0
0.704631 0.911391 0
0.736721 0.910033 0
0.76437 0.908965 0
0.788235 0.908202 0
0.808743 0.908095 0
0.825666 0.909514 0.00794995
0.835538 0.911513 0.0783551
0.836042 0.913222 0.138079
0.836225 0.915267 0.192157
0.83624 0.917723 0.244495
0.836103 0.920668 0.297841
0.835843 0.924056 0.352804
0.835462 0.927962 0.409674
0.834989 0.932204 0.468193
0.83444 0.936706 0.527413
0.833844 0.94136 0.581079
0 0.946319 0
0 0.946044 0
0 0.945769 0
0 0.945464 0
0 0.945144 0
0 0.944686 0
0.0039826 0.944106 0
0.0754559 0.94255 0
0.190295 0.94139 0
0.263676 0.940414 0
0.33077 0.939269 0
0.39617 0.937865 0
0.459205 0.936202 0
0.520958 0.93431 0
0.577081 0.932311 0
0.625635 0.930358 0
0.668345 0.928512 0
0.705547 0.926818 0
0.734966 0.925795 0
0.761059 0.924987 0
0.784054 0.924376 0
0.804562 0.924758 0.0151064
0.821729 0.925658 0.0747845
0.834226 0.926314 0.130587
0.835218 0.927062 0.179309
0.835416 0.928145 0.226902
0.835416 0.929625 0.274235
0.835294 0.931533 0.323049
0.835096 0.933852 0.37319
0.834791 0.936599 0.426444
0.834394 0.93962 0.481498
0.833936 0.942931 0.537346
0.833448 0.946441 0.587854
0.234348 0.954345 0
0.247578 0.954147 0
0.259937 0.953964 0
0.271641 0.953796 0
0.283833 0.953582 0
0.298939 0.953323 0
0.317769 0.952987 0
0.340764 0.952544 0
0.36817 0.95198 0
0.399786 0.951247 0
0.435142 0.950347 0
0.474403 0.949248 0
0.516701 0.947936 0
0.560494 0.94641 0
0.602686 0.944808 0
0.641733 0.943191 0
0.677775 0.941604 0
0.709804 0.940139 0
0.736889 0.940169 0.0170901
0.761196 0.939818 0.0497597
0.782788 0.939345 0.0781262
0.801617 0.938979 0.107149
0.8177 0.938796 0.141894
0.831205 0.938796 0.180926
0.834257 0.938949 0.221775
0.834669 0.939406 0.263859
0.834653 0.940169 0.307027
0.834562 0.941268 0.351659
0.834394 0.942733 0.39736
0.83415 0.944549 0.446708
0.833814 0.946593 0.497795
0.833448 0.948882 0.549386
0.833036 0.9514 0.596078
0.418769 0.964385 0.101472
0.423911 0.964263 0.10164
0.428946 0.964141 0.101808
0.433875 0.964004 0.101991
0.4392 0.963882 0.102174
0.446006 0.963699 0.102434
0.454841 0.963455 0.102785
0.466163 0.963149 0.103258
0.4804 0.962753 0.103899
0.497917 0.962234 0.104768
0.518898 0.961578 0.105959
0.543206 0.960784 0.107591
0.570581 0.959838 0.109789
0.600626 0.958694 0.11281
0.631846 0.957458 0.116793
0.662547 0.956146 0.121828
0.691722 0.954864 0.128145
0.718303 0.953658 0.136065
0.741039 0.952636 0.145129
0.762325 0.951675 0.156207
0.78175 0.950835 0.169528
0.799023 0.950134 0.185351
0.814115 0.949615 0.204944
0.8271 0.949248 0.23267
0.833219 0.949081 0.266453
0.833997 0.949081 0.30341
0.833982 0.949325 0.342641
0.83389 0.949844 0.382971
0.833753 0.950622 0.425437
0.833539 0.95169 0.470741
0.83328 0.952956 0.517418
0.832959 0.954437 0.563836
0.832624 0.956176 0.606027
0.523613 0.9673 0.198932
0.526421 0.9673 0.199054
0.529183 0.9673 0.199161
0.531914 0.967285 0.199283
0.534859 0.9673 0.19942
0.538659 0.967285 0.199588
0.543648 0.967285 0.199832
0.550072 0.967269 0.200137
0.558251 0.967269 0.20058
0.568551 0.967254 0.20116
0.581353 0.967239 0.201953
0.596857 0.967239 0.203037
0.615274 0.967071 0.204501
0.636347 0.966278 0.2065
0.659251 0.965286 0.20914
0.682506 0.964218 0.212497
0.705089 0.963149 0.216754
0.726726 0.962112 0.222156
0.746136 0.961151 0.228412
0.764706 0.960235 0.236164
0.781949 0.959396 0.24567
0.797604 0.958648 0.257206
0.811597 0.958007 0.271138
0.823941 0.957488 0.288548
0.83238 0.957137 0.314778
0.833417 0.956878 0.346319
0.833371 0.956786 0.380316
0.833295 0.956909 0.417395
0.833173 0.957244 0.456886
0.83299 0.957809 0.498436
0.832761 0.958541 0.540169
0.832502 0.959487 0.580774
0.832242 0.960616 0.61799
0.596399 0.968277 0.283879
0.598032 0.968277 0.28397
0.599649 0.968292 0.284047
0.601251 0.968292 0.284138
0.602991 0.968307 0.284245
0.605264 0.968322 0.284367
0.608255 0.968338 0.284535
0.612177 0.968353 0.284764
0.617227 0.968399 0.2851
0.623652 0.968429 0.285527
0.631769 0.96849 0.286107
0.641825 0.968551 0.286885
0.654108 0.968597 0.287953
0.668711 0.96849 0.289387
0.684901 0.968338 0.29131
0.701717 0.968185 0.293751
0.718944 0.968032 0.296864
0.736416 0.967895 0.300801
0.752544 0.967514 0.305425
0.768322 0.966827 0.311208
0.783276 0.966049 0.318364
0.797177 0.965316 0.327169
0.809918 0.96466 0.337865
0.821378 0.96408 0.350713
0.83064 0.963653 0.367681
0.832609 0.963241 0.391989
0.832837 0.962982 0.421408
0.832761 0.962844 0.454734
0.832639 0.962875 0.490501
0.832486 0.963073 0.528038
0.832288 0.963409 0.564706
0.83209 0.963912 0.599435
0.831861 0.964584 0.631586
0.650355 0.96878 0.362524
0.651316 0.96878 0.3626
0.652277 0.968795 0.362661
0.653239 0.968795 0.362737
0.654276 0.968811 0.362814
0.65565 0.968811 0.362905
0.65745 0.968826 0.363027
0.659846 0.968841 0.36321
0.662974 0.968872 0.363439
0.667033 0.968902 0.363775
0.672221 0.968933 0.364202
0.678721 0.968978 0.364782
0.686748 0.969039 0.365576
0.696559 0.969116 0.366644
0.707835 0.969207 0.368048
0.720073 0.969314 0.369848
0.733211 0.969421 0.372152
0.74699 0.969543 0.375067
0.760021 0.969543 0.3785
0.773007 0.969375 0.382818
0.785657 0.969146 0.388205
0.797757 0.968933 0.394888
0.80911 0.96875 0.403082
0.819471 0.968597 0.413153
0.828321 0.968475 0.425772
0.831662 0.968261 0.442969
0.832349 0.967941 0.466239
0.832273 0.967651 0.494408
0.832166 0.967483 0.525414
0.832029 0.967422 0.557946
0.831876 0.967468 0.589364
0.831708 0.967651 0.619028
0.83154 0.967971 0.646494
0.691218 0.969116 0.43769
0.691798 0.969131 0.437736
0.692393 0.969131 0.437781
0.692973 0.969131 0.437842
0.693599 0.969131 0.437903
0.694438 0.969146 0.43798
0.695552 0.969146 0.438071
0.697017 0.969162 0.438224
0.69897 0.969177 0.438407
