BBLuts/BB_103_0325_LUT.cube
TITLE "Generated by Resolve"
LUT_3D_SIZE 9
0 0 0
0 0 0
0.141375 0 0
0.376593 0 0
0.710887 0 0
0.930541 0 0
0.933227 0.54873 0.0382696
0.907256 0.89041 0.3028
0.894652 0.995712 0.666499
0 0.0222782 0
0 0.0307469 0
0.144183 0.0112612 0
0.384054 0 0
0.713222 0 0
0.930419 0 0
0.930556 0.57705 0.0281224
0.907103 0.892607 0.301732
0.894652 0.995895 0.666392
0 0.161715 0
0 0.165011 0
0.0919203 0.165576 0
0.385412 0.138552 0
0.719722 0.037232 0
0.944076 0.183932 0
0.92639 0.612467 0.00833143
0.906844 0.896178 0.300038
0.894636 0.99617 0.666224
0 0.424186 0
0 0.425208 0
0 0.426337 0
0.296117 0.438804 0
0.713985 0.430228 0
0.92932 0.502724 0
0.91577 0.706233 0
0.905913 0.908949 0.298192
0.894545 0.997467 0.6654
0 0.786252 0
0 0.786236 0
0 0.785946 0
0 0.783444 0
0.6206 0.790295 0
0.872389 0.801602 0
0.903899 0.855039 0
0.903502 0.941314 0.306874
0.89424 1 0.662165
0 0.986801 0
0 0.986801 0
0 0.986801 0
0 0.9823 0
0.575082 0.974441 0
0.817761 0.963165 0
0.896452 0.965835 0
0.899596 0.989624 0.349447
0.893278 1 0.664317
0.489479 1 0.121126
0.489479 1 0.121126
0.489479 1 0.121126
0.489464 1 0.121126
0.670665 1 0.127596
0.809323 1 0.163912
0.888014 1 0.26363
0.894987 1 0.473518
0.891524 1 0.694957
0.781247 1 0.560708
0.781247 1 0.560723
0.781247 1 0.560723
0.781247 1 0.560723
0.781231 1 0.560723
0.826627 1 0.568856
0.874311 1 0.592554
0.89073 1 0.651957
0.889784 1 0.755199
0.857191 1 0.788922
0.857191 1 0.788922
0.857191 1 0.788922
0.857191 1 0.788922
0.857191 1 0.788922
0.857176 1 0.788922
0.87425 1 0.791775
0.889509 1 0.799603
0.889387 1 0.819165
0 0 0.0138857
0 0 0.0141604
0.140017 0 0.0106203
0.377005 0 0.00169375
0.711284 0 0
0.932128 0 0
0.934279 0.54696 0.0573129
0.907256 0.890379 0.302815
0.894667 0.995697 0.666499
0 0 0.00984207
0.00410468 0.0104067 0.0084535
0.152544 0 0.00656138
0.379248 0 0
0.711345 0 0
0.931029 0 0
0.931472 0.575692 0.0433204
0.907103 0.892576 0.301747
0.894652 0.995895 0.666392
0 0.152102 0
0 0.155047 0
0.108141 0.155749 0
0.383276 0.128099 0
0.715236 0.00717174 0
0.943755 0.168261 0
0.927306 0.611536 0.0204318
0.906844 0.896178 0.300038
0.894636 0.996155 0.666224
0 0.418936 0
0 0.419867 0
0 0.420844 0
0.307683 0.432776 0
0.713512 0.425132 0
0.929397 0.498909 0
0.915862 0.705242 0
0.905913 0.908949 0.298192
0.894545 0.997467 0.6654
0 0.78436 0
0 0.784344 0
0 0.784024 0
0 0.781491 0
0.62324 0.78883 0
0.872465 0.800656 0
0.903914 0.854734 0
0.903502 0.941314 0.306874
0.89424 1 0.662165
0 0.986374 0
0 0.98645 0
0 0.98645 0
0 0.981994 0
0.577279 0.974151 0
0.81796 0.963012 0
0.896468 0.965774 0
0.899596 0.989624 0.349447
0.893278 1 0.664317
0.4934 1 0.120806
0.4934 1 0.120806
0.493385 1 0.120806
0.49337 1 0.120806
0.671626 1 0.127367
0.809476 1 0.163745
0.888029 1 0.263615
0.894987 1 0.473518
0.891524 1 0.694957
0.78146 1 0.560693
0.78146 1 0.560693
0.78146 1 0.560693
0.78146 1 0.560693
0.781445 1 0.560693
0.826719 1 0.568841
0.874327 1 0.592523
0.89073 1 0.651957
0.889784 1 0.755199
0.857206 1 0.788922
0.857206 1 0.788922
0.857206 1 0.788922
0.857206 1 0.788922
0.857206 1 0.788922
0.857206 1 0.788922
0.87425 1 0.791775
0.889509 1 0.799603
0.889387 1 0.819165
0 0 0.112169
0 0 0.112398
0.114809 0 0.108797
0.38735 0 0.0928511
0.713939 0 0.0749676
0.935973 0 0.0888838
0.938293 0.537987 0.175586
0.907088 0.889494 0.332876
0.894667 0.995697 0.666499
0 0 0.110094
0 0 0.11043
0.134081 0 0.105959
0.386374 0 0.0903029
0.715114 0 0.071809
0.935653 0 0.0827497
0.935943 0.568582 0.169116
0.90692 0.891722 0.331792
0.894652 0.995895 0.666392
0 0.128161 0.099382
0 0.130617 0.0993057
0.0992752 0.126757 0.0956436
0.372305 0.102922 0.0893416
0.714458 0 0.0656901
0.947936 0.118135 0.0984207
0.932662 0.606958 0.159304
0.906661 0.895338 0.329946
0.894636 0.996155 0.666224
0 0.408011 0.0317693
0 0.409415 0.0319371
0 0.410361 0.0327611
0.310719 0.421988 0.0419165
0.712871 0.415183 0.0433204
0.934981 0.490806 0.0618448
0.922667 0.706538 0.12163
0.90576 0.908263 0.322942
0.894545 0.997467 0.6654
0 0.780774 0
0 0.780774 0
0 0.780453 0
0 0.777935 0
0.625589 0.785183 0
0.87248 0.797848 0
0.90573 0.855131 0.00468452
0.903502 0.941161 0.308217
0.89424 1 0.662165
0 0.98584 0
0 0.98584 0
0 0.98584 0
0 0.981567 0
0.581094 0.973663 0
0.818448 0.962737 0
0.896483 0.965576 0
0.899596 0.989563 0.349248
0.893278 1 0.664317
0.498619 1 0.120348
0.498619 1 0.120348
0.498619 1 0.120348
0.498619 1 0.120348
0.672923 1 0.127077
0.809842 1 0.163546
0.888075 1 0.263401
0.894987 1 0.473426
0.891524 1 0.694957
0.78175 1 0.560647
0.78175 1 0.560647
0.78175 1 0.560647
0.78175 1 0.560647
0.78175 1 0.560647
0.826825 1 0.56878
0.874372 1 0.592493
0.89073 1 0.651942
0.889784 1 0.755199
0.857221 1 0.788922
0.857221 1 0.788922
0.857221 1 0.788922
0.857221 1 0.788922
0.857221 1 0.788922
0.857221 1 0.788922
0.874266 1 0.791775
0.889509 1 0.799603
0.889387 1 0.819165
0 0 0.338003
0 0 0.338094
0 0 0.338338
0.343542 0 0.323507
0.732616 0 0.302098
0.936034 0 0.318441
0.942489 0.492012 0.404318
0.905715 0.882612 0.498512
0.89453 0.995377 0.679408
0 0 0.336492
0 0 0.336629
0 0 0.336553
0.35877 0 0.320577
0.731075 0 0.300099
0.935927 0 0.315755
0.940154 0.528954 0.401343
0.905531 0.884978 0.49778
0.894514 0.995544 0.679316
0 0.01355 0.333379
0 0.0155947 0.333486
0 0.0161593 0.333333
0.365881 0 0.316838
0.725628 0 0.296407
0.936934 0 0.313481
0.936797 0.573831 0.396384
0.905241 0.888777 0.496605
0.894499 0.995834 0.679164
0 0.356817 0.30074
0 0.357763 0.300786
0 0.359915 0.30135
0.295216 0.371405 0.311604
0.702586 0.362966 0.31426
0.941955 0.44419 0.337728
0.926101 0.686961 0.377386
0.904219 0.902434 0.492271
0.894408 0.997116 0.678462
0 0.776547 0.216556
0 0.776547 0.216556
0 0.776791 0.217334
0 0.774395 0.220203
0.625849 0.780972 0.240681
0.877119 0.794705 0.269688
0.909972 0.853452 0.331365
0.901823 0.93698 0.477867
0.894102 1 0.675669
0 0.988464 0.0343633
0 0.988464 0.0343633
0 0.988464 0.0343633
0 0.984436 0.0352026
0.579202 0.976043 0.0365148
0.82208 0.966964 0.122423
0.901228 0.970352 0.250034
0.89865 0.987839 0.440345
0.893248 1 0.667597
0.513771 1 0.118456
0.513771 1 0.118456
0.513771 1 0.118456
0.513771 1 0.118456
0.676875 1 0.126116
0.810803 1 0.162844
0.888289 1 0.26305
0.895003 1 0.472953
0.891524 1 0.694865
0.782773 1 0.560525
0.782773 1 0.560525
0.782773 1 0.560525
0.782773 1 0.560525
0.782773 1 0.560525
0.827207 1 0.568627
0.874525 1 0.592371
0.89073 1 0.65182
0.889784 1 0.755154
0.857343 1 0.788922
0.857343 1 0.788922
0.857343 1 0.788922
0.857343 1 0.788922
0.857343 1 0.788922
0.857343 1 0.788922
0.874311 1 0.79176
0.889509 1 0.799588
0.889387 1 0.819165
0 0 0.665156
0 0 0.665156
0 0 0.665248
0.0459144 0 0.663462
0.69633 0 0.629725
0.934096 0 0.634577
0.953338 0.234211 0.687037
0.904646 0.863066 0.701717
0.893919 0.992599 0.763256
0 0 0.66508
0 0 0.66508
0 0 0.665141
0.0516976 0 0.662882
0.700175 0 0.629175
0.934096 0 0.634165
0.951232 0.322423 0.689464
0.904387 0.866011 0.701305
0.893919 0.992767 0.763195
0 0 0.664012
0 0 0.664012
0 0 0.664073
0.130388 0 0.659892
0.705913 0 0.627848
0.934112 0 0.633021
0.946532 0.415991 0.68893
0.90399 0.870481 0.700648
0.893889 0.993072 0.763119
0 0.126024 0.660258
0 0.126024 0.660258
0 0.129656 0.660258
0.131868 0.125475 0.659968
0.712154 0.0252995 0.636271
0.948699 0.117144 0.656306
0.933364 0.601541 0.681178
0.902602 0.886702 0.698222
0.893797 0.99443 0.762753
0 0.722194 0.619135
0 0.722194 0.619135
0 0.722255 0.619165
0 0.722026 0.619593
0.597787 0.729183 0.631647
0.870512 0.750179 0.639902
0.90869 0.826017 0.65301
0.899489 0.926558 0.691279
0.893446 0.999451 0.761379
0 0.987427 0.594797
0 0.987427 0.594797
0 0.987533 0.594736
0 0.984314 0.595148
0.526879 0.972671 0.594736
0.808026 0.958602 0.599573
0.896193 0.961746 0.625391
0.895567 0.981674 0.676753
0.892515 1 0.756466
0.488258 1 0.512947
0.488258 1 0.512947
0.488258 1 0.512947
0.488258 1 0.512947
0.658015 1 0.51223
0.800412 1 0.525322
0.879088 1 0.564553
0.892668 1 0.642618
0.891142 1 0.742519
0.786068 1 0.559731
0.786068 1 0.559731
0.786068 1 0.559731
0.786068 1 0.559731
0.786068 1 0.559731
0.828855 1 0.568093
0.874907 1 0.591928
0.89073 1 0.651606
0.889784 1 0.754971
0.85774 1 0.788861
0.85774 1 0.788861
0.85774 1 0.788861
0.85774 1 0.788861
0.85774 1 0.788861
0.857725 1 0.788861
0.874449 1 0.791699
0.889509 1 0.799542
0.889387 1 0.819135
0 0 0.849851
0 0 0.849958
0 0 0.849958
0 0 0.849989
0.472602 0 0.826627
0.929335 0 0.813504
0.934005 0 0.814145
0.912871 0.777508 0.839857
0.893858 0.986007 0.837064
0 0 0.849958
0 0 0.849958
0 0 0.849958
0 0 0.849989
0.471778 0 0.826688
0.929335 0 0.813504
0.934005 0 0.814069
0.912077 0.784237 0.839109
0.893843 0.986236 0.837034
0 0 0.849912
0 0 0.849912
0 0 0.849912
0 0 0.849912
0.484123 0 0.825818
0.929686 0 0.813413
0.934005 0 0.813947
0.910887 0.794461 0.83801
0.893812 0.986587 0.836988
0 0 0.84947
0 0 0.84947
0 0 0.84947
0 0 0.849485
0.549584 0 0.821073
0.930602 0 0.81297
0.934462 0 0.813062
0.907225 0.827619 0.834455
0.893706 0.98819 0.836789
0 0.411139 0.839368
0 0.411139 0.839368
0 0.411139 0.839368
0 0.415396 0.839185
0.53698 0.425116 0.847013
0.933333 0.462577 0.85391
0.924086 0.686259 0.842771
0.900816 0.895659 0.827756
0.893278 0.994095 0.836027
0 0.968811 0.823667
0 0.968811 0.823667
0 0.968811 0.823667
0 0.968811 0.823667
0.274434 0.962158 0.825971
0.7906 0.939132 0.813397
0.891188 0.945907 0.814969
0.895033 0.971389 0.819959
0.89221 1 0.833753
0.292409 1 0.811933
0.292409 1 0.811933
0.293523 1 0.811872
0.293523 1 0.811872
0.567071 1 0.802106
0.77641 1 0.799207
0.866072 1 0.802945
0.891371 1 0.811551
0.890684 1 0.82884
0.77171 1 0.76875
0.77171 1 0.76875
0.77171 1 0.76875
0.77171 1 0.76875
0.77171 1 0.76875
0.814878 1 0.770748
0.864759 1 0.776715
0.889204 1 0.791394
0.889403 1 0.817441
0.859037 1 0.788724
0.859037 1 0.788724
0.859037 1 0.788724
0.859037 1 0.788724
0.859037 1 0.788724
0.859037 1 0.788724
0.874937 1 0.791531
0.889509 1 0.799405
0.889387 1 0.819089
0 0 0.900694
0 0 0.900694
0 0 0.900694
0 0 0.900694
0 0 0.900694
0.84181 0 0.872801
0.934051 0 0.875731
0.934051 0 0.875731
0.895598 0.956176 0.889723
0 0 0.900694
0 0 0.900694
0 0 0.900694
0 0 0.900694
0 0 0.900694
0.84181 0 0.872801
0.934051 0 0.875731
0.934051 0 0.875731
0.895567 0.956664 0.889693
0 0 0.900694
0 0 0.900694
0 0 0.900694
0 0 0.900694
0 0 0.900694
0.84181 0 0.872801
0.934051 0 0.875731
0.934051 0 0.875731
0.895506 0.957534 0.889632
0 0 0.900694
0 0 0.900694
0 0 0.900694
0 0 0.900694
0 0 0.900694
0.846906 0 0.872953
0.934051 0 0.875731
0.934051 0 0.875731
0.895262 0.960891 0.889342
0 0 0.900694
0 0 0.900694
0 0 0.900694
0 0 0.900694
0 0 0.900694
0.882383 0 0.874098
0.934051 0 0.875731
0.94963 0.386236 0.921965
0.894438 0.97229 0.888395
0 0.762036 0.893797
0 0.762036 0.893797
0 0.762036 0.893797
0 0.762036 0.893797
0 0.766094 0.893904
0.790112 0.76936 0.900542
0.906966 0.826429 0.896727
0.897978 0.924834 0.889113
0.892668 0.997482 0.88629
0 1 0.896208
0 1 0.896208
0 1 0.896208
0 1 0.896208
0 1 0.896208
0.727871 1 0.880461
0.85922 1 0.880598
0.891325 1 0.881132
0.890578 1 0.883284
0.740047 1 0.874083
0.740047 1 0.874083
0.740047 1 0.874083
0.740047 1 0.874083
0.740047 1 0.874083
0.788785 1 0.874083
0.855009 1 0.874769
0.887831 1 0.876295
0.889021 1 0.879759
0.853376 1 0.863172
0.853376 1 0.863172
0.853376 1 0.863172
0.853376 1 0.863172
0.853376 1 0.863172
0.853376 1 0.863172
0.869398 1 0.863966
0.887068 1 0.8663
0.889067 1 0.871778
0 0.02327 0.902449
0 0.02327 0.902449
0 0.02327 0.902449
0 0.02327 0.902449
0 0.02327 0.902449
0 0.0233463 0.902464
0.934051 0 0.875731
0.937133 0 0.880888
0.928008 0.654566 0.921675
0 0.02327 0.902449
0 0.02327 0.902449
0 0.02327 0.902449
0 0.02327 0.902449
0 0.02327 0.902449
0 0.0233463 0.902464
0.934051 0 0.875731
0.937133 0 0.880888
0.928008 0.654566 0.921675
0 0.02327 0.902449
0 0.02327 0.902449
0 0.02327 0.902449
0 0.02327 0.902449
0 0.02327 0.902449
0 0.0233463 0.902464
0.934051 0 0.875731
0.937133 0 0.880888
0.928008 0.654521 0.921675
0 0.02327 0.902449
0 0.02327 0.902449
0 0.02327 0.902449
0 0.02327 0.902449
0 0.02327 0.902449
0 0.0233463 0.902464
0.934051 0 0.875731
0.937133 0 0.880888
0.928023 0.654398 0.921691
0 0.0231785 0.902449
0 0.0231785 0.902449
0 0.0231785 0.902449
0 0.0231785 0.902449
0 0.0231785 0.902449
0 0.0232395 0.902449
0.934051 0 0.875731
0.937346 0 0.881285
0.928069 0.654017 0.921706
0 0.0218204 0.902419
0 0.0218204 0.902419
0 0.0218204 0.902419
0 0.0218204 0.902419
0 0.0218204 0.902419
0 0.0218967 0.902419
0.934051 0 0.875731
0.941253 0 0.888395
0.907118 0.823667 0.910887
0 0.96434 0.916823
0 0.96434 0.916823
0 0.96434 0.916823
0 0.96434 0.916823
0 0.96434 0.916823
0 0.966522 0.916976
0.861067 0.936584 0.907805
0.894331 0.970901 0.907485
0.891661 1 0.907271
0.396979 1 0.915908
0.396979 1 0.915908
0.396979 1 0.915908
0.396979 1 0.915908
0.396979 1 0.915908
0.396979 1 0.915908
0.836942 1 0.905547
0.885969 1 0.905821
0.889189 1 0.905898
0.841825 1 0.903609
0.841825 1 0.903609
0.841825 1 0.903609
0.841825 1 0.903609
0.841825 1 0.903609
0.841825 1 0.903609
0.859754 1 0.903716
0.883452 1 0.903929
0.888838 1 0.904234
0 0.237186 0.905104
0 0.237186 0.905104
0 0.237186 0.905104
0 0.237186 0.905104
0 0.237186 0.905104
0 0.237186 0.905104
0 0.237263 0.905104
0.946838 0.0589303 0.899107
0.922942 0.69482 0.919005
0 0.237186 0.905104
0 0.237186 0.905104
0 0.237186 0.905104
0 0.237186 0.905104
0 0.237186 0.905104
0 0.237186 0.905104
0 0.237263 0.905104
0.946838 0.0589303 0.899107
0.922942 0.69482 0.919005
0 0.237186 0.905104
0 0.237186 0.905104
0 0.237186 0.905104
0 0.237186 0.905104
0 0.237186 0.905104
0 0.237186 0.905104
0 0.237263 0.905104
0.946838 0.0589303 0.899107
0.922942 0.69482 0.919005
0 0.237186 0.905104
0 0.237186 0.905104
0 0.237186 0.905104
0 0.237186 0.905104
0 0.237186 0.905104
0 0.237186 0.905104
0 0.237263 0.905104
0.946838 0.0589303 0.899107
0.922942 0.69482 0.919005
0 0.237186 0.905104
0 0.237186 0.905104
0 0.237186 0.905104
0 0.237186 0.905104
0 0.237186 0.905104
0 0.237186 0.905104
0 0.237263 0.905104
0.946838 0.0589303 0.899107
0.922942 0.69482 0.919005
0 0.23711 0.905104
0 0.23711 0.905104
0 0.23711 0.905104
0 0.23711 0.905104
0 0.23711 0.905104
0 0.23711 0.905104
0 0.237171 0.905104
0.946914 0.0599222 0.89926
0.922728 0.696468 0.918898
0 0.235935 0.905119
0 0.235935 0.905119
0 0.235935 0.905119
0 0.235935 0.905119
0 0.235935 0.905119
0 0.235935 0.905119
0 0.235981 0.905119
0.953979 0.190845 0.916625
0.922347 0.699443 0.918685
0 1 0.920821
0 1 0.920821
0 1 0.920821
0 1 0.920821
0 1 0.920821
0 1 0.920821
0 1 0.920821
0.884306 1 0.907256
0.890028 1 0.907149
0.789822 1 0.906142
0.789822 1 0.906142
0.789822 1 0.906142
0.789822 1 0.906142
0.789822 1 0.906142
0.789822 1 0.906142
0.789822 1 0.906142
0.878111 1 0.906767
0.889158 1 0.907179
