BBLuts/BB_104_0370_LUT.cube
TITLE "Generated by Resolve"
LUT_3D_SIZE 5
0 0 0
0.122576 0 0
0.637583 0 0.254658
0.765637 0.422339 0.559701
0.739544 0.782269 0.614786
0 0.155184 0
0.0876936 0.158511 0
0.641535 0 0.261997
0.761151 0.534249 0.554772
0.739498 0.783093 0.612726
0 0.677867 0
0 0.677562 0
0.593225 0.675837 0
0.747082 0.710307 0.0690013
0.739239 0.788403 0.595331
0 0.823438 0.00421149
0 0.822644 0.00408942
0.625757 0.811917 0
0.737026 0.806165 0
0.738048 0.807996 0.583551
0.721172 0.814847 0.686961
0.721416 0.814847 0.687007
0.723201 0.814862 0.687434
0.733043 0.814908 0.690837
0.739605 0.814984 0.710491
0.0122988 0.00750744 0.169268
0.136858 0.00723278 0.170581
0.637293 0 0.304601
0.766537 0.397894 0.564492
0.739559 0.7823 0.632868
0 0.15639 0.13489
0.123827 0.153567 0.134112
0.637873 0 0.30161
0.761791 0.522225 0.560037
0.739498 0.783108 0.631434
0 0.675319 0
0 0.674983 0
0.596658 0.673381 0
0.747127 0.709361 0.226291
0.739147 0.788327 0.619898
0 0.823285 0.00418097
0 0.822507 0.0040589
0.627085 0.81181 0
0.737087 0.806134 0
0.738048 0.80798 0.583368
0.721202 0.814847 0.686961
0.721462 0.814847 0.687007
0.723247 0.814862 0.687419
0.733059 0.814908 0.690822
0.739605 0.814984 0.710491
0.505058 0.57435 0.638941
0.505257 0.574533 0.639048
0.641321 0.571389 0.63856
0.758434 0.587777 0.661295
0.740688 0.783536 0.690715
0.503273 0.572732 0.637964
0.503517 0.572961 0.638102
0.64596 0.569726 0.637781
0.757885 0.591897 0.659205
0.740612 0.784344 0.690272
0.436088 0.661112 0.609979
0.436408 0.661341 0.610147
0.597574 0.655329 0.611475
0.7458 0.698466 0.634318
0.740139 0.789517 0.686976
0 0.822599 0.00407416
0.146609 0.823972 0.00709544
0.626474 0.811322 0
0.734752 0.805844 0
0.738231 0.808225 0.662776
0.721492 0.814847 0.686931
0.721736 0.814847 0.686976
0.723491 0.814862 0.687388
0.733166 0.814908 0.690791
0.739605 0.814984 0.710491
0.669978 0.738079 0.755108
0.669978 0.738079 0.755108
0.669978 0.738079 0.755108
0.748867 0.737926 0.755032
0.745846 0.780667 0.754528
0.669978 0.738079 0.755108
0.669978 0.738079 0.755108
0.669978 0.738079 0.755108
0.748867 0.737926 0.755032
0.745769 0.781888 0.754513
0.669978 0.738079 0.755108
0.669978 0.738079 0.755108
0.670344 0.738079 0.755108
0.748867 0.737926 0.755032
0.745296 0.78967 0.75407
0.642756 0.815015 0.745388
0.642802 0.815015 0.745434
0.65098 0.814008 0.745861
0.731014 0.807797 0.746914
0.74377 0.813504 0.748394
0.724468 0.814984 0.732662
0.724681 0.814984 0.732662
0.726223 0.815 0.732784
0.734966 0.815045 0.7337
0.742321 0.815091 0.739635
0.669963 0.738323 0.755108
0.669963 0.738323 0.755108
0.669963 0.738323 0.755108
0.669963 0.738323 0.755108
0.748333 0.744701 0.75491
0.669963 0.738323 0.755108
0.669963 0.738323 0.755108
0.669963 0.738323 0.755108
0.669963 0.738323 0.755108
0.748333 0.744717 0.75491
0.669963 0.738323 0.755108
0.669963 0.738323 0.755108
0.669963 0.738323 0.755108
0.670436 0.738293 0.755108
0.748333 0.744778 0.75491
0.669963 0.738323 0.755108
0.669963 0.738323 0.755108
0.669963 0.738323 0.755108
0.748867 0.737926 0.755032
0.748318 0.744991 0.75491
0.705745 0.814923 0.754208
0.706462 0.814923 0.754192
0.711284 0.814954 0.754208
0.731975 0.815076 0.754223
0.743709 0.815305 0.754376
