BBLuts/BB_104_0400_LUT.cube
TITLE "Generated by Resolve"
LUT_3D_SIZE 5
0.0180667 0.0278477 0.0386816
0.189868 0.0298161 0.0407263
0.726558 0.28629 0.315541
0.874098 0.640024 0.61117
0.893263 0.850278 0.713619
0 0.195407 0.0244907
0.134813 0.200549 0.0271153
0.731716 0.331853 0.326635
0.872572 0.658991 0.608362
0.893217 0.851225 0.7122
0 0.737835 0
0 0.737469 0
0.667079 0.736751 0.00129702
0.862333 0.784436 0.538659
0.892866 0.857313 0.701183
0 0.91133 0.0289616
0 0.910384 0.0287785
0.567285 0.904173 0.0227665
0.849775 0.893553 0.0111391
0.889281 0.879622 0.704402
0.825574 0.902296 0.765225
0.825925 0.902312 0.76527
0.828489 0.902342 0.765743
0.85391 0.8981 0.77763
0.88835 0.888716 0.818418
0.0380407 0.0416876 0.180209
0.189029 0.0432898 0.181765
0.726558 0.293736 0.360784
0.874311 0.637156 0.614572
0.893248 0.850034 0.730053
0.0108186 0.176562 0.155093
0.177157 0.171786 0.163226
0.727291 0.294774 0.358297
0.872862 0.655467 0.611887
0.893187 0.85098 0.728923
0 0.734813 0
0 0.734401 0
0.672511 0.733898 0.00114443
0.862364 0.78323 0.544488
0.89279 0.857069 0.720348
0 0.911147 0.0289158
0 0.910216 0.028748
0.585626 0.903487 0.0215305
0.849882 0.893523 0.0111391
0.889311 0.879606 0.704295
0.82562 0.902296 0.765225
0.825986 0.902312 0.765286
0.828534 0.902342 0.765728
0.853971 0.898085 0.777661
0.88835 0.888716 0.818418
0.541726 0.528054 0.691554
0.541955 0.528313 0.691707
0.732204 0.547601 0.691539
0.87396 0.648646 0.722423
0.893919 0.84918 0.793118
0.539834 0.525841 0.690318
0.540078 0.526162 0.690486
0.738155 0.548074 0.690578
0.873411 0.654292 0.719921
0.893843 0.850156 0.792676
0 0.702373 0.650797
0 0.702678 0.651011
0.699229 0.692927 0.681376
0.897398 0.756039 0.71812
0.893355 0.856413 0.789487
0 0.910216 0.028748
0 0.909331 0.0285649
0.577173 0.903075 0.0221103
0.846708 0.892927 0.0111391
0.891035 0.878614 0.766751
0.826032 0.902312 0.765179
0.826398 0.902312 0.765255
0.828885 0.902342 0.765698
0.85452 0.897917 0.77792
0.88835 0.888716 0.818418
0.736019 0.749584 0.853681
0.736019 0.749584 0.853681
0.736019 0.749584 0.853681
0.870069 0.760952 0.855879
0.860471 0.849683 0.840574
0.736019 0.749584 0.853681
0.736019 0.749584 0.853681
0.736019 0.749584 0.853681
0.870069 0.760952 0.855879
0.860273 0.851514 0.840314
0.736019 0.749584 0.853681
0.736019 0.749584 0.853681
0.736904 0.749615 0.853697
0.870069 0.760952 0.855879
0.859022 0.862821 0.838743
0 0.915526 0.842741
0 0.91429 0.842695
0.565133 0.901183 0.836316
0.877287 0.872084 0.862608
0.895308 0.879286 0.864866
0.827115 0.903899 0.81561
0.82742 0.903899 0.815625
0.82974 0.903929 0.815763
0.84242 0.904128 0.816876
0.893385 0.888869 0.854994
0.735897 0.750408 0.853666
0.735897 0.750408 0.853666
0.735897 0.750408 0.853666
0.735897 0.750408 0.853666
0.868284 0.778408 0.854887
0.735897 0.750408 0.853666
0.735897 0.750408 0.853666
0.735897 0.750408 0.853666
0.735897 0.750408 0.853666
0.868284 0.778439 0.854887
0.735897 0.750408 0.853666
0.735897 0.750408 0.853666
0.735897 0.750408 0.853666
0.737072 0.750317 0.853666
0.868269 0.778592 0.854871
0.735897 0.750408 0.853666
0.735897 0.750408 0.853666
0.735897 0.750408 0.853666
0.870069 0.760952 0.855879
0.868223 0.77908 0.854841
0.789212 0.905699 0.847715
0.790616 0.905699 0.84773
0.800031 0.90576 0.847776
0.834577 0.906096 0.848127
0.895811 0.890547 0.881025
