BBLuts/BB_106_0200_LUT.cube
TITLE "Generated by Resolve"
LUT_3D_SIZE 33
0 0 0
0 0 0
0 0 0
0 0 0
0 0 0
0.0455482 0 0
0.108934 0 0
0.155413 0 0
0.204334 0 0
0.26627 0 0
0.340581 0 0
0.422812 0 0
0.514107 0 0
0.589166 0 0.00918593
0.652766 0.0220951 0.0511788
0.723217 0.111116 0.170581
0.796185 0.300877 0.346517
0.860578 0.481453 0.506966
0.913466 0.592035 0.598505
0.954345 0.650416 0.651667
0.961715 0.660975 0.661204
0.961715 0.660975 0.661204
0.961486 0.664164 0.661509
0.960922 0.671687 0.661311
0.959579 0.688411 0.659983
0.956847 0.719631 0.656092
0.952468 0.765133 0.647227
0.948013 0.813367 0.631647
0.944671 0.852903 0.610132
0.942229 0.88397 0.591714
0.939895 0.907393 0.611872
0.937301 0.924681 0.678218
0.935225 0.938689 0.742351
0 0 0
0 0 0
0 0 0
0 0 0
0 0 0
0.0582895 0 0
0.11339 0 0
0.159136 0 0
0.210742 0 0
0.27396 0 0
0.348562 0 0
0.429664 0 0
0.517723 0 0
0.590555 0 0.00975052
0.654047 0.0230411 0.0524758
0.724147 0.113008 0.172732
0.796735 0.302373 0.347875
0.860792 0.482048 0.507454
0.913405 0.591959 0.598428
0.95407 0.650034 0.651316
0.961715 0.660975 0.661204
0.961715 0.660975 0.661204
0.96144 0.664851 0.661234
0.96083 0.672862 0.661112
0.959442 0.690227 0.659709
0.956634 0.721874 0.65568
0.95227 0.767498 0.646555
0.947875 0.814817 0.630747
0.94461 0.853773 0.608972
0.942214 0.884489 0.590341
0.939879 0.907683 0.61091
0.937285 0.924849 0.677821
0.93521 0.938796 0.742214
0 0 0
0 0 0
0 0 0
0 0 0
0 0 0
0.0658579 0 0
0.114916 0 0
0.162661 0 0
0.217441 0 0
0.281102 0 0
0.354665 0 0
0.433341 0 0
0.520684 0 0
0.592096 0 0.0103914
0.655344 0.0240024 0.0538186
0.725063 0.114855 0.174853
0.797269 0.303853 0.349218
0.861006 0.482612 0.507927
0.913314 0.591836 0.598321
0.953796 0.649638 0.65095
0.961715 0.660975 0.661204
0.961715 0.660975 0.661204
0.961379 0.665568 0.660761
0.960739 0.674113 0.660899
0.959274 0.692103 0.659434
0.95642 0.724117 0.655253
0.952056 0.769635 0.645884
0.947753 0.816236 0.629831
0.944549 0.854612 0.607797
0.942184 0.885008 0.588983
0.939864 0.907973 0.609934
0.93727 0.925032 0.67744
0.935195 0.938888 0.742061
0 0 0
0 0 0
0 0 0
0 0 0
0.0153201 0 0
0.0716716 0 0
0.115618 0 0
0.162966 0 0
0.218585 0 0
0.284001 0 0
0.358633 0 0
0.436667 0 0
0.523522 0 0
0.593683 0 0.0110628
0.656672 0.0250095 0.0552224
0.726009 0.116793 0.177035
0.797803 0.305287 0.350545
0.861189 0.483131 0.508339
0.913222 0.591699 0.598199
0.953506 0.64921 0.650568
0.961715 0.660975 0.661204
0.961715 0.660975 0.661204
0.961318 0.666392 0.660685
0.960632 0.67541 0.66067
0.959121 0.694011 0.659144
0.956207 0.72639 0.654826
0.951858 0.77171 0.645228
0.947631 0.817655 0.628916
0.944488 0.855451 0.606607
0.942168 0.885527 0.587655
0.939849 0.908263 0.608972
0.93727 0.925216 0.677043
0.93518 0.938994 0.741924
0 0.0325017 0
0 0.0353857 0
0 0.0381628 0
0 0.0408331 0
0 0.041886 0
0.0532845 0.0423743 0
0.10135 0.04094 0
0.151369 0.036408 0
0.211612 0.0248875 0
0.285313 0 0
0.360906 0 0
0.439719 0 0
0.526223 0 0
0.595285 0 0.0117342
0.65803 0.0260319 0.0566873
0.726955 0.118761 0.179248
0.798321 0.306737 0.351843
0.861357 0.483604 0.508705
0.9131 0.591546 0.598047
0.953201 0.648783 0.650172
0.961715 0.660975 0.661204
0.961639 0.661967 0.661112
0.961257 0.667277 0.660609
0.960525 0.676783 0.66041
0.958953 0.695949 0.658854
0.955993 0.728664 0.654368
0.951659 0.773754 0.644556
0.947524 0.819043 0.62797
0.944442 0.856275 0.605417
0.942138 0.88603 0.586343
0.939834 0.908553 0.607996
0.937255 0.925383 0.676661
0.935164 0.939101 0.741772
0 0.0642557 0
0 0.0665446 0
0 0.0688182 0
0 0.0705882 0
0 0.071458 0
0.0270848 0.0722362 0
0.0879835 0.0724498 0
0.140856 0.0710613 0
0.20238 0.0670481 0
0.277668 0.05832 0
0.358251 0.0405737 0
0.44242 0 0
0.528954 0 0
0.596979 0 0.0124819
0.659464 0.0271763 0.0582895
0.727962 0.120912 0.181643
0.798856 0.308232 0.353185
0.86154 0.484092 0.509117
0.912993 0.591379 0.59791
0.952865 0.648295 0.649744
0.961715 0.660975 0.661204
0.961532 0.663523 0.66096
0.961181 0.668254 0.660502
0.960418 0.678264 0.660105
0.95877 0.698024 0.658518
0.955779 0.731044 0.65388
0.951461 0.77586 0.643839
0.947387 0.820462 0.626993
0.944381 0.85713 0.604135
0.942107 0.886549 0.584955
0.939818 0.908858 0.606943
0.93724 0.925566 0.676234
0.935164 0.939208 0.741634
0 0.0976577 0
0 0.0995804 0
0 0.101503 0
0 0.102571 0
0 0.103258 0
0 0.103502 0
0.0651255 0.104936 0
0.126223 0.104936 0
0.190463 0.103288 0
0.270848 0.09897 0
0.354543 0.0901961 0
0.441291 0.0761578 0
0.531106 0.0511177 0
0.599161 0 0.013489
0.661326 0.0287175 0.0603952
0.729274 0.123735 0.18471
0.799573 0.310201 0.354986
0.861753 0.484703 0.509606
0.91281 0.591119 0.597681
0.952407 0.647654 0.649165
0.961715 0.660975 0.661204
0.961456 0.66453 0.660883
0.961074 0.669612 0.66038
0.96025 0.680262 0.659556
0.958541 0.700755 0.658076
0.955474 0.734127 0.653239
0.951202 0.778561 0.642924
0.94725 0.822278 0.625696
0.944305 0.858213 0.602457
0.942077 0.887221 0.583108
0.939803 0.909239 0.6056
0.937209 0.925795 0.675685
0.935149 0.939345 0.741436
0 0.135927 0
0 0.137621 0
0 0.138872 0
0 0.139712 0
0 0.140291 0
0 0.140642 0
0.000320439 0.141405 0
0.101579 0.142885 0
0.171572 0.142748 0
0.258335 0.140291 0
0.347555 0.134646 0
0.440375 0.12668 0
0.533608 0.117174 0
0.601938 0.107393 0.0113222
0.664454 0.0944533 0.0625772
0.731044 0.127596 0.188861
0.800534 0.312856 0.357382
0.862058 0.485512 0.510292
0.912566 0.590784 0.59736
0.951782 0.646754 0.648341
0.961593 0.66276 0.661036
0.961349 0.665873 0.660746
0.960937 0.67158 0.660182
0.960021 0.68307 0.6589
0.958221 0.704463 0.65745
0.955093 0.738201 0.652369
0.950881 0.78204 0.641672
0.947051 0.824598 0.623957
0.944198 0.859632 0.600214
0.942046 0.888106 0.580453
0.939788 0.909743 0.603769
0.937194 0.926101 0.674998
0.935134 0.939529 0.741176
0 0.187869 0
0 0.189563 0
0 0.190509 0
0 0.191455 0
0 0.192111 0
0 0.192584 0
0 0.192859 0
0.048127 0.194568 0
0.139803 0.194537 0
0.234394 0.192523 0
0.333486 0.188144 0
0.434928 0.181827 0
0.535058 0.175784 0
0.605158 0.175982 0.0113985
0.668727 0.195972 0.0657206
0.735561 0.253315 0.195865
0.802029 0.357259 0.360235
0.86244 0.486564 0.511147
0.9122 0.590249 0.596872
0.950729 0.64773 0.646983
0.961456 0.664729 0.660853
0.961196 0.667918 0.660548
0.960708 0.674495 0.659876
0.959701 0.687099 0.658427
0.957763 0.709499 0.656565
0.954559 0.743572 0.651133
0.950454 0.786511 0.639963
0.946807 0.827588 0.621607
0.944076 0.861463 0.597116
0.942 0.88925 0.576318
0.939757 0.910384 0.601312
0.937163 0.926497 0.674037
0.935103 0.939757 0.740826
0 0.255238 0
0 0.255772 0
0 0.256291 0
0 0.256733 0
0 0.256977 0
0 0.257053 0
0 0.256916 0
0 0.256443 0
0.0811322 0.258274 0
0.189227 0.258457 0
0.306554 0.256321 0
0.420874 0.251652 0
0.532021 0.246296 0
0.607355 0.245747 0.00924697
0.672618 0.261997 0.0673838
0.738903 0.310079 0.200519
0.803571 0.399649 0.362814
0.862181 0.515953 0.510262
0.911269 0.597147 0.595621
0.949248 0.648783 0.645045
0.961257 0.66714 0.660624
0.960967 0.671153 0.660227
0.960357 0.678859 0.659388
0.959213 0.692866 0.657694
0.957153 0.716365 0.655253
0.953887 0.750637 0.649409
0.949935 0.792203 0.637644
0.946487 0.831373 0.618402
0.943938 0.863798 0.592874
0.941939 0.890715 0.569436
0.939727 0.911254 0.59794
0.937118 0.927031 0.67277
0.935073 0.940063 0.740368
0 0.329351 0
0 0.32987 0
0 0.330449 0
0 0.330816 0
0 0.331136 0
0 0.331319 0
0 0.331395 0
0 0.331243 0
0 0.330678 0
0.107851 0.334096 0
0.254688 0.335241 0
0.391928 0.33283 0
0.520256 0.32842 0
0.606363 0.327504 0.000137331
0.675044 0.338735 0.0628214
0.741833 0.374502 0.201648
0.805035 0.442206 0.364599
0.862135 0.534951 0.509789
0.910079 0.602258 0.594003
0.947082 0.650431 0.642206
0.960952 0.671275 0.660197
0.960555 0.676341 0.659663
0.959823 0.685496 0.658625
0.958511 0.701091 0.65658
0.956283 0.725643 0.653162
0.952987 0.759899 0.646922
0.949279 0.799359 0.634409
0.946105 0.836103 0.614008
0.943755 0.866804 0.587198
0.941878 0.892607 0.559014
0.939681 0.912367 0.593317
0.937072 0.927703 0.671092
0.935027 0.940475 0.739788
0 0.417548 0
0 0.418082 0
0 0.41854 0
0 0.418936 0
0 0.419226 0
0 0.419455 0
0 0.419638 0
0 0.419715 0
0 0.419532 0
0 0.419089 0
0.132219 0.424613 0
0.330419 0.426947 0
0.491798 0.425132 0
0.598596 0.424308 0
0.672435 0.43032 0.0408026
0.74229 0.453544 0.188495
0.805478 0.500755 0.361334
0.861448 0.562341 0.507225
0.908049 0.611811 0.591134
0.943877 0.654826 0.637949
0.960403 0.678355 0.659449
0.959884 0.684794 0.658701
0.958984 0.695628 0.657343
0.957473 0.712825 0.654795
0.955108 0.73814 0.650065
0.951858 0.771862 0.64332
0.948501 0.808179 0.629877
0.945663 0.841886 0.608194
0.943542 0.870588 0.579217
0.941817 0.895033 0.542748
0.939635 0.913802 0.587121
0.936996 0.928603 0.668818
0.934966 0.940978 0.73901
0 0.519631 0
0 0.520043 0
0 0.520424 0
0 0.520729 0
0 0.520958 0
0 0.521172 0
0 0.52137 0
0 0.521523 0
0 0.521691 0
0 0.521782 0
0 0.521782 0
0.162341 0.529473 0
0.422889 0.532616 0
0.580713 0.531701 0
0.66128 0.533181 0
0.736492 0.542702 0.131594
0.802991 0.564645 0.342657
0.859525 0.594018 0.49958
0.90486 0.629313 0.586648
0.939406 0.664973 0.631846
0.959426 0.690394 0.658015
0.958755 0.698314 0.656962
0.957656 0.71075 0.655131
0.955962 0.729137 0.651896
0.953506 0.754604 0.646159
0.9505 0.786191 0.638086
0.947585 0.818769 0.623392
0.945144 0.848844 0.599985
0.943297 0.875288 0.562737
0.941802 0.898116 0.515114
0.939605 0.915663 0.578302
0.936919 0.929717 0.665751
0.93489 0.941649 0.737957
0 0.599329 0
0 0.599542 0
0 0.59971 0
0 0.599863 0
0 0.6 0
0 0.600122 0
0 0.600229 0
0 0.600351 0
0 0.600443 0
0 0.600473 0
0 0.600351 0
0 0.600046 0
0.22768 0.60647 0
0.531106 0.607263 0
0.640253 0.606561 0
0.723003 0.608148 0
0.796201 0.617182 0.284566
0.855299 0.633936 0.47866
0.899809 0.657984 0.57847
0.93315 0.684642 0.622644
0.957732 0.709834 0.655268
0.956909 0.718944 0.653758
0.955657 0.732372 0.651255
0.953857 0.751049 0.647074
0.951507 0.775525 0.640009
0.948974 0.803021 0.630304
0.946563 0.831067 0.613931
0.944564 0.857099 0.588052
0.943084 0.881056 0.532418
0.941878 0.901991 0.459739
0.939574 0.918013 0.559869
0.936812 0.931167 0.661601
0.934783 0.942519 0.736584
0 0.665415 0
0 0.665537 0
0 0.665644 0
0 0.665736 0
0 0.665812 0
0 0.665873 0
0 0.665934 0
0 0.66598 0
0 0.66598 0
0 0.665934 0
0 0.665766 0
0 0.665339 0
0 0.66453 0
0.347433 0.671794 0
0.603876 0.671061 0
0.70106 0.670542 0
0.781659 0.673991 0.0458686
0.846021 0.684321 0.413123
0.891646 0.698741 0.554406
0.924483 0.716503 0.607614
0.949966 0.735882 0.642924
0.954162 0.747936 0.647822
0.952865 0.761181 0.644373
0.951217 0.778714 0.638895
0.949325 0.799252 0.63035
0.947356 0.821881 0.618357
0.94551 0.8448 0.599649
0.943969 0.866789 0.566857
0.942977 0.887984 0.473014
0.942275 0.906935 0.325811
0.93962 0.92105 0.525017
0.936706 0.932998 0.655863
0.934661 0.943603 0.734737
0 0.73228 0
0 0.732341 0
0 0.732387 0
0 0.732418 0
0 0.732433 0
0 0.732448 0
0 0.732448 0
0 0.732433 0
0 0.732387 0
0 0.73225 0
0 0.731975 0
0 0.731487 0
0 0.730617 0
0 0.729366 0
0.482383 0.736904 0
0.665873 0.735744 0
0.75967 0.735759 0
0.829664 0.740215 0.0672923
0.878889 0.748913 0.475944
0.912673 0.759335 0.579583
0.938048 0.772244 0.619013
0.950683 0.784405 0.63679
0.949691 0.795254 0.632242
0.948486 0.808728 0.62533
0.947143 0.824491 0.614679
0.945769 0.841764 0.599069
0.944488 0.859556 0.577386
0.943511 0.877928 0.512551
0.943267 0.896361 0.299763
0.942412 0.9122 0
0.93991 0.924987 0.440955
0.936568 0.935271 0.647852
0.934508 0.944976 0.732311
0 0.79733 0
0 0.797314 0
0 0.797299 0
0 0.797269 0
0 0.797253 0
0 0.797223 0
0 0.797162 0
0 0.79707 0
0 0.796918 0
0 0.796689 0
0 0.796307 0
0 0.795666 0
0 0.794705 0
0 0.793347 0
0 0.791623 0
0.592813 0.798672 0
0.729229 0.796582 0
0.808621 0.796963 0
0.861418 0.800076 0
0.898802 0.806287 0.447944
0.925307 0.812863 0.574121
0.944335 0.821195 0.610849
0.946777 0.829053 0.61088
0.946044 0.838331 0.601785
0.945251 0.849271 0.58793
0.944457 0.861662 0.561257
0.94374 0.875502 0.508568
0.943664 0.890654 0.315953
0.942977 0.904814 0
0.941939 0.91783 0
0.94078 0.930129 0.0713664
0.936416 0.938048 0.636393
0.934325 0.94667 0.729046
0 0.851423 0
0 0.851362 0
0 0.851301 0
0 0.851225 0
0 0.851133 0
0 0.851057 0
0 0.85095 0
0 0.850782 0
0 0.850538 0
0 0.850187 0
0 0.849653 0
0 0.848859 0
0 0.847761 0
0 0.846296 0
0 0.844404 0
0 0.842115 0
0.686198 0.846387 0
0.786023 0.844373 0
0.844266 0.844755 0
0.884428 0.846799 0
0.914061 0.850828 0.197421
0.9337 0.854414 0.518151
0.944579 0.859342 0.568414
0.944259 0.865202 0.54815
0.943984 0.87274 0.507027
0.943908 0.882002 0.4009
0.943877 0.892424 0.0425269
0.943114 0.902937 0
0.942275 0.913558 0
0.941375 0.924239 0
0.940429 0.934737 0
0.936278 0.94139 0.619257
0.934081 0.94876 0.724666
0 0.892103 0
0 0.891997 0
0 0.891905 0
0 0.891798 0
0 0.891676 0
0 0.891554 0
0 0.891402 0
0 0.891173 0
0 0.890867 0
0 0.89041 0
0 0.889784 0
0 0.88893 0
0 0.887755 0
0 0.886244 0
0 0.884306 0
0 0.881926 0
0.607538 0.885023 0
0.762478 0.880568 0
0.828016 0.879454 0
0.871199 0.879728 0
0.902373 0.881056 0
0.924681 0.883421 0
0.941833 0.886915 0.0794385
0.943999 0.89044 0
0.943694 0.895048 0
0.943267 0.900755 0
0.942763 0.907408 0
0.942153 0.914717 0
0.941482 0.922728 0
0.940719 0.931258 0
0.939895 0.939879 0
0.936187 0.945281 0.595529
0.933806 0.951263 0.71873
0 0.923293 0
0 0.923156 0
0 0.923033 0
0 0.922881 0
0 0.922759 0
0 0.922606 0
0 0.922408 0
0 0.922133 0
0 0.921767 0
0 0.921279 0
0 0.920623 0
0 0.919753 0
0 0.918593 0
0 0.917098 0
0 0.915206 0
0 0.912871 0
0 0.910262 0
0.736294 0.909194 0
0.812604 0.906981 0
0.858732 0.906249 0
0.891356 0.906355 0
0.915114 0.907195 0
0.933455 0.908751 0
0.942473 0.910826 0
0.94226 0.913344 0
0.941985 0.916747 0
0.941604 0.92105 0
0.941146 0.926223 0
0.940597 0.932174 0
0.939971 0.938659 0
0.9393 0.945434 0
0.935821 0.949386 0.586374
0.933486 0.954177 0.710552
0 0.945937 0
0 0.945769 0
0 0.945632 0
0 0.94548 0
0 0.945327 0
0 0.945159 0
0 0.944945 0
0 0.944671 0
0 0.944289 0
0 0.943801 0
0 0.943145 0
0 0.94229 0
0 0.941176 0
0 0.939742 0
0 0.937926 0
0 0.935714 0
0 0.933318 0
0.711162 0.930892 0
0.800122 0.927794 0
0.848707 0.926497 0
0.88188 0.925963 0
0.906538 0.925963 0
0.925902 0.926497 0
0.940429 0.927581 0
0.940871 0.928908 0
0.940688 0.930953 0
0.940398 0.933776 0
0.940063 0.93727 0
0.939635 0.941436 0
0.939147 0.94612 0
0.938628 0.951202 0
0.935393 0.953887 0.577981
0.933059 0.957382 0.710094
0 0.96289 0
0 0.962737 0
0 0.962585 0
0 0.962432 0
0 0.962264 0
0 0.962127 0
0 0.961913 0
0 0.961624 0
0 0.961257 0
0 0.9608 0
0 0.960174 0
0 0.959381 0
0 0.958328 0
0 0.956985 0
0 0.955306 0
0 0.953353 0
0 0.951278 0
0.691325 0.948135 0
0.79115 0.944366 0
0.840925 0.942779 0
0.87393 0.941955 0
0.898848 0.941558 0
0.918669 0.941497 0
0.933837 0.941863 0
0.939483 0.942489 0
0.939361 0.943526 0
0.939178 0.945159 0
0.938949 0.947372 0
0.938643 0.950088 0
0.938277 0.953353 0
0.937896 0.957092 0
0.934813 0.958556 0.573571
0.932555 0.960845 0.712001
0 0.975387 0
0 0.975235 0
0 0.975082 0
0 0.974945 0
0 0.974792 0
0 0.97464 0
0 0.974456 0
0 0.974197 0
0 0.973861 0
0 0.973419 0
0 0.972854 0
0 0.972107 0
0 0.971145 0
0 0.96994 0
0 0.968521 0
0 0.966903 0
0 0.965194 0
0.690166 0.961212 0
0.788235 0.957351 0
0.836286 0.955718 0
0.868162 0.954757 0
0.892744 0.954116 0
0.912383 0.953735 0
0.92781 0.953658 0
0.93814 0.953826 0
0.938094 0.954162 0
0.938003 0.954986 0
0.93785 0.956283 0
0.937636 0.958038 0
0.937392 0.960266 0
0.937133 0.962905 0
0.934066 0.963119 0.581964
0.932006 0.964431 0.715999
0 0.984115 0
0 0.983993 0
0 0.983871 0
0 0.983734 0
0 0.983597 0
0 0.983474 0
0 0.983291 0
0 0.983063 0
0 0.982757 0
0 0.982361 0
0 0.981872 0
0 0.981247 0
0 0.980453 0
0 0.979507 0
0 0.978393 0
0 0.977142 0
0 0.975814 0
0.714946 0.970367 0
0.792874 0.967346 0
0.835447 0.96585 0
0.864973 0.964889 0
0.888502 0.964172 0
0.907454 0.963653 0
0.922576 0.963333 0
0.934874 0.963226 0
0.936889 0.963226 0
0.936858 0.963516 0
0.936782 0.964172 0
0.936675 0.965225 0
0.936522 0.966644 0
0.936385 0.968399 0
0.933089 0.967315 0.603662
0.931411 0.967971 0.722805
0 0.990112 0
0 0.990005 0
0 0.989899 0
0 0.989807 0
0 0.9897 0
0 0.989593 0
0 0.989456 0
0 0.989303 0
0 0.989075 0
0 0.988785 0
0 0.988403 0
0 0.987961 0
0 0.987396 0
0 0.986709 0
0 0.985901 0
0 0.984985 0
0.618906 0.982574 0
0.750607 0.977035 0
0.803876 0.975036 0
0.838178 0.973846 0
0.8645 0.97293 0
0.886122 0.972198 0
0.903853 0.971633 0
0.918395 0.971191 0
0.930388 0.970932 0
0.935775 0.970733 0
0.935805 0.970687 0
0.93579 0.970901 0
0.93576 0.971405 0
0.935714 0.972229 0
0.935683 0.973327 0
0.931975 0.971008 0.637324
0.9308 0.971374 0.732845
0 0.991409 0
0 0.991409 0
0 0.991409 0
0 0.991409 0
0 0.991409 0
0 0.991409 0
0 0.991409 0
0 0.991409 0
0 0.991409 0
0 0.991409 0
0 0.991424 0
0 0.991424 0
0 0.99144 0
0 0.991455 0
0 0.991302 0
0.64268 0.987854 0
0.737133 0.983795 0
0.785382 0.981918 0
0.818647 0.980713 0
0.844724 0.979812 0
0.866896 0.979049 0
0.885863 0.978363 0
0.901823 0.977783 0
0.915419 0.977325 0
0.926879 0.976944 0
0.934829 0.976684 0
0.934905 0.976455 0
0.934936 0.97641 0
0.934981 0.976593 0
0.935012 0.977005 0
0.935073 0.977661 0
0.930907 0.974289 0.674586
0.93022 0.974548 0.745892
0 0.991485 0
0 0.991485 0
0 0.991485 0
0 0.991485 0
0 0.991485 0
0 0.991485 0
0 0.991485 0
0 0.991485 0
0 0.991485 0
0 0.991501 0
0.460578 0.993423 0
0.614847 0.989731 0
0.669474 0.987655 0
0.709209 0.986206 0
0.741512 0.985214 0
0.769421 0.984543 0
0.793805 0.984131 0
0.815503 0.983902 0
0.835569 0.983825 0
0.854292 0.983856 0
0.871672 0.983642 0
0.887465 0.983063 0
0.901305 0.982528 0
0.913603 0.982071 0
0.924178 0.981674 0
0.932906 0.981369 0
0.934142 0.981079 0
0.934234 0.980896 0
0.934325 0.98088 0
0.934432 0.981048 0
0.931304 0.97818 0.604959
0.930007 0.977172 0.710521
0.929732 0.977386 0.761273
0.753826 0.984939 0
0.755398 0.984894 0
0.756954 0.984863 0
0.75845 0.984817 0
0.75993 0.984787 0
0.761425 0.984756 0
0.763317 0.984726 0
0.765728 0.984665 0
0.769039 0.984604 0
