BBLuts/BB_102_0330_LUT.cube
TITLE "Generated by Resolve"
LUT_3D_SIZE 5
0.0383764 0.0494545 0.0496376
0.32723 0.0482643 0.0493477
0.970031 0.0374914 0.615122
1 0.58204 0.742428
1 0.96936 0.780896
0.00164797 0.369696 0.00466926
0.229084 0.365881 0
0.97055 0.0584878 0.616007
1 0.65977 0.726207
1 0.970565 0.777447
0 0.900435 0
0 0.900069 0
0.798566 0.855055 0
1 0.877134 0.0886854
1 0.978378 0.748775
0 1 0
0 1 0
0.835904 1 0
1 1 0
1 1 0.725902
0.985534 1 0.901778
0.985977 1 0.901854
0.989197 1 0.902419
1 1 0.907607
1 1 0.942901
0.0865339 0.0927596 0.445014
0.340475 0.0872816 0.446067
0.968872 0.0371405 0.661082
1 0.566186 0.750256
1 0.969055 0.810697
0.0390326 0.363378 0.339391
0.289555 0.348013 0.330678
0.969894 0.0371557 0.658778
1 0.649866 0.732998
1 0.97026 0.808148
0 0.897398 0
0 0.896986 0
0.804364 0.851698 0
1 0.870497 0.381949
1 0.977905 0.788281
0 1 0
0 1 0
0.838117 1 0
1 1 0
1 1 0.725612
0.98558 1 0.901778
0.986053 1 0.901839
0.989258 1 0.902403
1 1 0.907591
1 1 0.942901
0.680964 0.720699 0.871138
0.681132 0.720867 0.87129
0.856825 0.707179 0.861738
1 0.706706 0.882689
1 0.969223 0.911574
0.679469 0.719356 0.86978
0.679667 0.719554 0.869963
0.864515 0.705119 0.860121
1 0.712276 0.878721
1 0.970336 0.910735
0.620172 0.82771 0.812665
0.620417 0.827985 0.812863
0.784833 0.812497 0.809598
1 0.850996 0.825452
1 0.977783 0.90396
0 1 0
0.32752 1 0
0.83711 1 0
1 1 0
1 1 0.857908
0.986114 1 0.901686
0.986542 1 0.901762
0.9897 1 0.902327
1 1 0.90753
1 1 0.942901
0.893919 0.910475 1
0.893919 0.910475 1
0.893919 0.910475 1
1 0.90161 1
1 0.962448 1
0.893919 0.910475 1
0.893919 0.910475 1
0.893919 0.910475 1
1 0.90161 1
1 0.964202 1
0.893919 0.910475 1
0.893919 0.910475 1
0.89456 0.91043 1
1 0.90161 1
1 0.97525 1
0.84213 1 1
0.842222 1 1
0.856474 1 1
1 1 1
1 1 1
0.989425 1 0.985138
0.989807 1 0.985138
0.992615 1 0.985183
1 1 0.986007
1 1 0.996109
0.893874 0.910811 1
0.893874 0.910811 1
0.893874 0.910811 1
0.893874 0.910811 1
1 0.911223 1
0.893874 0.910811 1
0.893874 0.910811 1
0.893874 0.910811 1
0.893874 0.910811 1
1 0.911238 1
0.893874 0.910811 1
0.893874 0.910811 1
0.893874 0.910811 1
0.894713 0.910719 1
1 0.91133 1
0.893874 0.910811 1
0.893874 0.910811 1
0.893874 0.910811 1
1 0.90161 1
1 0.91162 1
0.95436 1 1
0.955657 1 1
0.964446 1 1
1 1 1
1 1 1
