BBLuts/BB_106_0150_LUT.cube
TITLE "Generated by Resolve"
LUT_3D_SIZE 9
0 0 0
0 0 0
0.167575 0 0.000122072
0.387213 0 0.000274662
0.756985 0 0.000518807
1 0 0.000701915
1 0.464118 0.143267
1 0.800793 0.457038
1 0.924269 0.81976
0.00196841 0.0482338 0.000228885
0.00233463 0.0569924 0.000259403
0.17882 0.0408331 0.00030518
0.397986 0 0.000274662
0.759945 0 0.000518807
1 0 0.000701915
1 0.49276 0.133776
1 0.80502 0.455406
1 0.924758 0.819547
0.00732433 0.179141 0.000823987
0.0074464 0.182284 0.000839246
0.153826 0.181231 0.0009308
0.414023 0.161669 0.00102235
0.767086 0.0621653 0.000823987
1 0.189014 0.00158694
1 0.531548 0.117693
1 0.811109 0.452979
1 0.925475 0.819226
0.0163882 0.400916 0.00184634
0.016434 0.401968 0.00184634
0.0164492 0.402487 0.00184634
0.37554 0.399863 0.00209049
0.787655 0.387823 0.00231937
1 0.438361 0.00273136
1 0.627695 0.00360113
1 0.827955 0.445548
1 0.927657 0.818219
0.0299535 0.732754 0.00337224
0.0299535 0.732616 0.00337224
0.0299229 0.732189 0.00337224
0.0298161 0.72929 0.00335698
0.732982 0.717601 0.0037995
1 0.722194 0.00401312
1 0.778088 0.00428778
1 0.864363 0.444694
1 0.933852 0.81503
0.0377966 0.924743 0.00425727
0.0377661 0.923858 0.00425727
0.037705 0.922499 0.00424201
0.0375372 0.918288 0.00422675
0.718013 0.90605 0.00463874
0.970626 0.895293 0.00477607
1 0.897093 0.12224
1 0.916899 0.484459
1 0.947829 0.807507
0.636118 0.979538 0.257465
0.652766 0.979492 0.258152
0.675731 0.978943 0.25919
0.733654 0.976761 0.262486
0.841962 0.972015 0.273213
0.966613 0.965499 0.305852
1 0.960784 0.398062
1 0.960998 0.604837
1 0.967315 0.834714
0.937667 0.978332 0.695872
0.939101 0.978332 0.69601
0.941253 0.978332 0.696239
0.947646 0.978317 0.696971
0.964981 0.978271 0.699275
1 0.978195 0.706569
1 0.978073 0.728344
1 0.977966 0.788342
1 0.977813 0.895689
1 0.977829 0.930022
1 0.977829 0.930037
1 0.977829 0.930068
1 0.977829 0.930144
1 0.977829 0.930388
1 0.977813 0.931212
1 0.977783 0.933776
1 0.977752 0.941466
1 0.977722 0.962844
0 0 0.0501259
0 0 0.0503853
0.167346 0 0.0511635
0.388098 0 0.0525521
0.756848 0 0.0566873
1 0 0.0913405
1 0.458686 0.204578
1 0.799817 0.48716
1 0.924147 0.825391
0.00114443 0.0279545 0.0417945
0.0409094 0.0377966 0.0404822
0.184131 0 0.043061
0.393439 0 0.0413367
0.758129 0 0.0280919
1 0 0.0666514
1 0.488029 0.194995
1 0.804074 0.485679
1 0.92462 0.825193
0.00700389 0.171328 0.000793469
0.0071107 0.174029 0.000793469
0.170031 0.173129 0.000915541
0.411658 0.153368 0.000991836
0.761013 0 0.000534066
1 0.176242 0.0015259
1 0.527642 0.179263
1 0.810224 0.483452
1 0.925353 0.824887
0.0162203 0.396918 0.00183108
0.0162661 0.39791 0.00183108
0.0162814 0.398306 0.00183108
0.385763 0.39527 0.00207523
0.786664 0.3841 0.00230411
1 0.435325 0.00271611
1 0.625391 0.112535
1 0.827207 0.476677
1 0.927535 0.823926
0.0298924 0.731365 0.00335698
0.0298924 0.731228 0.00335698
0.0298772 0.73077 0.00335698
0.0297551 0.727825 0.00334173
0.736217 0.716197 0.00378424
1 0.721248 0.00401312
1 0.777569 0.00428778
1 0.864088 0.457053
1 0.933745 0.82089
0.0377966 0.924453 0.00425727
0.0377508 0.923568 0.00424201
0.037705 0.92221 0.00424201
0.0375219 0.918013 0.00422675
0.72018 0.905806 0.00463874
0.970977 0.895125 0.00477607
1 0.896986 0.121645
1 0.916838 0.484291
1 0.947768 0.811414
0.638682 0.979522 0.257343
0.655116 0.979492 0.258015
0.677821 0.978851 0.259052
0.735149 0.976684 0.262364
0.842695 0.971954 0.273091
0.966827 0.965469 0.305745
1 0.960754 0.398047
1 0.960983 0.604746
1 0.967315 0.834684
0.937881 0.978332 0.695842
0.939315 0.978332 0.695994
0.941451 0.978317 0.696223
0.947845 0.978317 0.696941
0.965118 0.978271 0.69926
1 0.978195 0.706538
1 0.978073 0.728328
1 0.977966 0.788327
1 0.977813 0.895674
1 0.977829 0.930022
1 0.977829 0.930037
1 0.977829 0.930053
1 0.977829 0.930144
1 0.977829 0.930388
1 0.977813 0.931212
1 0.977783 0.933776
1 0.977752 0.941466
1 0.977722 0.962844
1.5259e-05 0 0.175235
1.5259e-05 0 0.175433
0.14815 0 0.175265
0.398581 0 0.172473
0.75671 0 0.17821
1 0 0.207538
1 0.448905 0.291569
1 0.798321 0.528206
1 0.923949 0.833463
1.5259e-05 0 0.171344
1.5259e-05 0 0.17171
0.172839 0 0.171252
0.397192 0 0.168673
0.759548 0 0.173953
1 0 0.200565
1 0.47921 0.285618
1 0.80264 0.526879
1 0.924437 0.83328
0.00614939 0.149935 0.160861
0.00622568 0.151919 0.160555
0.158694 0.146593 0.157
0.396826 0.131106 0.159686
0.757733 0 0.163058
1 0.138399 0.188296
1 0.519982 0.276356
1 0.808881 0.524895
1 0.925155 0.83299
0.0157778 0.385687 0.0812238
0.0158236 0.386816 0.0822766
0.0158389 0.38732 0.0836652
0.385183 0.383871 0.0868849
0.780209 0.37348 0.0922866
1 0.425162 0.126253
1 0.620005 0.245624
1 0.826078 0.518883
1 0.927352 0.832074
0.0297856 0.728786 0.00335698
0.0297856 0.728634 0.00335698
0.0297704 0.728161 0.00335698
0.0296483 0.7252 0.00334173
0.739025 0.713603 0.00378424
1 0.719203 0.00399786
1 0.776028 0.136248
1 0.863386 0.501625
1 0.933577 0.829221
0.0377661 0.924025 0.00425727
0.0377356 0.92314 0.00424201
0.0376745 0.921782 0.00424201
0.1505 0.917357 0.00430304
0.723415 0.905455 0.004654
0.971511 0.894881 0.00477607
1 0.896834 0.120699
1 0.916747 0.484031
1 0.947646 0.820417
0.642512 0.979522 0.25713
0.658671 0.979492 0.257816
0.68098 0.978714 0.258854
0.737423 0.976562 0.262165
0.843824 0.971878 0.272908
0.967147 0.965423 0.305608
1 0.960739 0.398016
1 0.960967 0.604623
1 0.9673 0.834638
0.938216 0.978332 0.695796
0.939635 0.978332 0.695949
0.941772 0.978317 0.696178
0.948135 0.978317 0.69691
0.965347 0.978271 0.699214
1 0.978195 0.706508
1 0.978073 0.728298
1 0.977966 0.788327
1 0.977813 0.895659
1 0.977829 0.930007
1 0.977829 0.930022
1 0.977829 0.930053
1 0.977829 0.930129
1 0.977829 0.930388
1 0.977813 0.931197
1 0.977783 0.933776
1 0.977752 0.941466
1 0.977722 0.962829
1.5259e-05 0 0.393729
1.5259e-05 0 0.393866
1.5259e-05 0 0.393957
0.376638 0 0.392767
0.778149 0 0.396002
1 0 0.416648
1 0.415229 0.478264
1 0.793515 0.631083
1 0.923339 0.855817
1.5259e-05 0 0.391577
1.5259e-05 0 0.391775
0.0671397 0 0.391745
0.391531 0 0.390478
0.775586 0 0.393591
1 0 0.41387
1 0.449241 0.475074
1 0.798032 0.63006
1 0.923827 0.855665
0.00234989 0.0566262 0.388083
0.00256352 0.0618143 0.388281
0.0998398 0.057084 0.38819
0.397345 0 0.386892
0.768505 0 0.38996
1 0 0.408957
1 0.494224 0.470237
1 0.804547 0.628534
1 0.924575 0.855406
0.0141604 0.345418 0.366323
0.0142214 0.34699 0.366644
0.0142672 0.348013 0.367254
0.3729 0.344457 0.368917
0.759243 0.33492 0.372702
1 0.389456 0.390875
1 0.602182 0.455222
1 0.822477 0.623957
1 0.926787 0.854627
0.0293126 0.716411 0.283284
0.0293126 0.716335 0.28397
0.0292973 0.715984 0.284947
0.0291905 0.713237 0.287831
0.7337 0.701762 0.297459
1 0.709209 0.32813
1 0.76994 0.416236
1 0.861189 0.611109
1 0.933089 0.852186
0.0377203 0.922789 0.00424201
0.0376898 0.921904 0.00424201
0.0376287 0.920546 0.00424201
0.175937 0.916075 0.0043183
0.724315 0.904265 0.00463874
0.970825 0.893568 0.149157
1 0.895567 0.336004
1 0.915846 0.577264
1 0.947295 0.84477
0.6542 0.979492 0.256489
0.669444 0.979034 0.257176
0.690608 0.978271 0.258213
0.744381 0.976196 0.261555
0.847318 0.971618 0.272358
0.968154 0.965286 0.30515
1 0.960647 0.397925
1 0.960906 0.604227
1 0.967269 0.834485
0.939239 0.978332 0.695689
0.940658 0.978332 0.695827
0.942748 0.978317 0.696056
0.949035 0.978302 0.696788
0.966064 0.978271 0.699092
1 0.978195 0.706401
1 0.978073 0.728191
1 0.977966 0.788312
1 0.977813 0.895613
1 0.977829 0.929992
1 0.977829 0.930022
1 0.977829 0.930037
1 0.977829 0.930114
1 0.977829 0.930373
1 0.977813 0.931182
1 0.977783 0.933761
1 0.977752 0.941451
1 0.977722 0.962829
3.0518e-05 0 0.745846
3.0518e-05 0 0.745953
3.0518e-05 0 0.746105
0.225284 0 0.745098
0.763775 0 0.741054
1 0 0.746197
1 0.263157 0.76643
1 0.777111 0.812253
1 0.921492 0.905074
3.0518e-05 0 0.745068
3.0518e-05 0 0.745159
3.0518e-05 0 0.745312
0.252171 0 0.744121
0.77052 0 0.74023
1 0 0.745357
1 0.322271 0.76492
1 0.782345 0.811643
1 0.921996 0.904952
3.0518e-05 0 0.743862
3.0518e-05 0 0.743954
3.0518e-05 0 0.744121
0.286931 0 0.742626
0.774395 0 0.738903
1 0 0.743984
1 0.390814 0.762539
1 0.789868 0.810742
1 0.922759 0.904784
0.00782788 0.189731 0.737697
0.00793469 0.192279 0.737728
0.00807202 0.195483 0.737743
0.302754 0.186984 0.736584
0.776562 0.0724193 0.733394
1 0.202976 0.737255
1 0.535317 0.755032
1 0.810437 0.808072
1 0.925078 0.904265
0.0274815 0.670298 0.702296
0.0274815 0.670634 0.702449
0.0274968 0.670695 0.702647
0.0274205 0.668894 0.703029
0.712215 0.657893 0.704616
1 0.672694 0.710903
1 0.748562 0.735363
1 0.854215 0.801129
1 0.931609 0.902632
0.037583 0.917815 0.650263
0.0375525 0.91693 0.650462
0.0374914 0.915587 0.650767
0.0373236 0.91133 0.651728
0.690593 0.898848 0.655543
0.95903 0.887831 0.668742
1 0.890822 0.705715
1 0.912825 0.785412
1 0.946288 0.897871
0.648798 0.978164 0.539284
0.664042 0.977646 0.539681
0.685176 0.976898 0.540276
0.738857 0.974853 0.542199
0.841825 0.970321 0.54844
0.962692 0.964019 0.568276
1 0.959426 0.625483
1 0.95993 0.745525
1 0.966766 0.884459
0.942458 0.978317 0.695293
0.943816 0.978317 0.695445
0.94583 0.978317 0.695674
0.951873 0.978302 0.696406
0.968277 0.978271 0.698726
1 0.978195 0.706035
1 0.978073 0.727886
1 0.977966 0.788251
1 0.977813 0.89543
1 0.977829 0.929961
1 0.977829 0.929976
1 0.977829 0.929992
1 0.977829 0.930083
1 0.977829 0.930327
1 0.977813 0.931151
1 0.977783 0.933715
1 0.977752 0.941421
1 0.977722 0.962829
4.57771e-05 0 0.981369
4.57771e-05 0 0.981369
4.57771e-05 0 0.981399
4.57771e-05 0 0.981445
0.62562 0 0.974929
1 0 0.969146
1 0 0.970275
1 0.703395 0.960525
1 0.915602 0.971832
4.57771e-05 0 0.981277
4.57771e-05 0 0.981292
4.57771e-05 0 0.981308
4.57771e-05 0 0.981353
0.635233 0 0.974701
1 0 0.969039
1 0 0.970184
1 0.713161 0.95993
1 0.916197 0.971756
4.57771e-05 0 0.98114
4.57771e-05 0 0.981155
4.57771e-05 0 0.98117
4.57771e-05 0 0.981216
0.649409 0 0.97435
1 0 0.968887
1 0 0.970031
1 0.726772 0.959091
1 0.917067 0.971649
4.57771e-05 0 0.980697
4.57771e-05 0 0.980713
4.57771e-05 0 0.980728
4.57771e-05 0 0.980484
0.684153 0 0.973388
1 0 0.968414
1 0 0.967346
1 0.761349 0.956817
1 0.919722 0.971328
0.0182498 0.443946 0.967681
0.0183108 0.445319 0.967636
0.0183871 0.447395 0.967544
0.018555 0.45124 0.966842
0.680476 0.438437 0.962982
1 0.462593 0.958083
1 0.637583 0.952834
1 0.828153 0.951797
1 0.927138 0.970382
0.0370031 0.902937 0.934081
0.0369879 0.902358 0.934035
0.0369421 0.901335 0.933944
0.0367742 0.897246 0.933577
0.596613 0.883726 0.932937
0.94287 0.870954 0.932815
1 0.87715 0.935164
1 0.904585 0.944121
1 0.943496 0.96791
0.525185 0.977172 0.914595
0.550011 0.976532 0.914595
0.5832 0.975616 0.91458
0.662699 0.973114 0.914595
0.797772 0.967803 0.914763
0.940368 0.960845 0.915999
1 0.956268 0.920943
1 0.957565 0.934127
1 0.96553 0.962432
0.934203 0.978103 0.868284
0.935561 0.978103 0.868345
0.937591 0.978103 0.868437
0.943648 0.978088 0.868727
0.960143 0.978058 0.869673
0.994171 0.977981 0.872663
1 0.977874 0.881849
1 0.977798 0.905989
1 0.977752 0.948699
1 0.977829 0.929824
1 0.977829 0.929839
1 0.977829 0.92987
1 0.977829 0.929946
1 0.977829 0.930205
1 0.977813 0.931014
1 0.977783 0.933593
1 0.977752 0.941314
1 0.977722 0.962798
4.57771e-05 0 1
4.57771e-05 0 1
4.57771e-05 0 1
4.57771e-05 0 1
4.57771e-05 0 1
1 0 1
1 0 1
1 0 1
1 0.889738 1
4.57771e-05 0 1
4.57771e-05 0 1
4.57771e-05 0 1
4.57771e-05 0 1
4.57771e-05 0 1
1 0 1
1 0 1
1 0 1
1 0.890791 1
4.57771e-05 0 1
4.57771e-05 0 1
4.57771e-05 0 1
4.57771e-05 0 1
4.57771e-05 0 1
1 0 1
1 0 1
1 0 1
1 0.892378 1
4.57771e-05 0 1
4.57771e-05 0 1
4.57771e-05 0 1
4.57771e-05 0 1
4.57771e-05 0 1
1 0 1
1 0 1
1 0 1
1 0.897063 1
4.57771e-05 0 1
4.57771e-05 0 1
4.57771e-05 0 1
4.57771e-05 0 1
0.204227 0 1
1 0 1
1 0 1
1 0.547875 1
1 0.909438 1
0.0317998 0.775204 1
0.0318151 0.775555 1
0.0318303 0.776089 1
0.0319066 0.777752 1
0.031693 0.772793 1
0.946792 0.757244 1
1 0.790326 1
1 0.866072 1
1 0.933608 1
0.0401617 0.979675 1
0.0401617 0.979675 1
0.0401465 0.979324 1
0.0399786 0.975525 1
0.673732 0.96524 1
0.912581 0.954879 1
1 0.949615 1
1 0.952346 1
1 0.962478 1
0.902083 0.977981 1
0.903899 0.977966 1
0.906569 0.977966 1
0.914534 0.977951 1
0.935821 0.977905 1
0.977737 0.977829 1
1 0.977722 1
1 0.977661 1
1 0.977646 1
1 0.977752 0.99266
1 0.977752 0.99266
1 0.977752 0.992676
1 0.977752 0.992706
1 0.977752 0.992813
1 0.977737 0.993149
1 0.977707 0.994247
1 0.977676 0.997635
1 0.977661 1
0.00354009 0.0839551 1
0.00354009 0.0839551 1
0.00354009 0.0839704 1
0.00354009 0.0839704 1
0.00354009 0.0840009 1
0.00355535 0.0840925 1
1 0 1
1 0.211719 1
1 0.627329 1
0.00354009 0.0839399 1
0.00354009 0.0839399 1
0.00354009 0.0839551 1
0.00354009 0.0839551 1
0.00354009 0.0839857 1
0.00355535 0.0840772 1
1 0 1
1 0.212009 1
1 0.627298 1
0.00354009 0.0839246 1
0.00354009 0.0839246 1
0.00354009 0.0839246 1
0.00354009 0.0839399 1
0.00354009 0.0839704 1
0.00354009 0.084062 1
1 0 1
1 0.212451 1
1 0.627268 1
0.00354009 0.0838483 1
0.00354009 0.0838483 1
0.00354009 0.0838483 1
0.00354009 0.0838636 1
0.00354009 0.0838941 1
0.00354009 0.0839857 1
1 0 1
1 0.213825 1
1 0.627146 1
0.00352483 0.0836194 1
0.00352483 0.0836194 1
0.00352483 0.0836347 1
0.00352483 0.0836347 1
0.00352483 0.0836652 1
0.00354009 0.0837568 1
1 0 1
1 0.216312 1
1 0.626734 1
0.00349432 0.0829023 1
0.00349432 0.0829023 1
0.00349432 0.0829023 1
0.00349432 0.0829175 1
0.00349432 0.0829328 1
0.712947 0 1
1 0 1
1 0.220371 1
1 0.835065 1
0.0385748 0.940978 1
0.0385748 0.941009 1
0.0385748 0.94107 1
0.0385901 0.941253 1
0.0386053 0.941848 1
0.751583 0.916548 1
1 0.907195 1
1 0.919844 1
1 0.948135 1
0.733547 0.978256 1
0.741024 0.978241 1
0.751781 0.978225 1
0.781491 0.978164 1
0.846922 0.978027 1
0.939071 0.977844 1
1 0.977691 1
1 0.977615 1
1 0.977615 1
1 0.977707 1
1 0.977707 1
1 0.977707 1
1 0.977707 1
1 0.977691 1
1 0.977676 1
1 0.977646 1
1 0.977615 1
1 0.977615 1
0.011841 0.286778 1
0.011841 0.286778 1
0.011841 0.286778 1
0.011841 0.286778 1
0.011841 0.286793 1
0.011841 0.286824 1
0.011841 0.286931 1
1 0.31928 1
1 0.676982 1
0.011841 0.286778 1
0.011841 0.286778 1
0.011841 0.286778 1
0.011841 0.286778 1
0.011841 0.286793 1
0.011841 0.286824 1
0.011841 0.286915 1
1 0.319432 1
1 0.677028 1
0.011841 0.286763 1
0.011841 0.286763 1
0.011841 0.286763 1
0.011841 0.286778 1
0.011841 0.286778 1
0.011841 0.286809 1
0.011841 0.286915 1
1 0.319677 1
1 0.677073 1
0.0118257 0.286748 1
0.0118257 0.286748 1
0.0118257 0.286748 1
0.0118257 0.286748 1
0.0118257 0.286763 1
0.011841 0.286793 1
0.011841 0.286885 1
1 0.320455 1
1 0.677256 1
0.0118257 0.286656 1
0.0118257 0.286656 1
0.0118257 0.286671 1
0.0118257 0.286671 1
0.0118257 0.286671 1
0.0118257 0.286702 1
0.011841 0.286809 1
1 0.322911 1
1 0.677852 1
0.0118257 0.286412 1
0.0118257 0.286412 1
0.0118257 0.286412 1
0.0118257 0.286427 1
0.0118257 0.286427 1
0.0118257 0.286458 1
0.0117342 0.28452 1
1 0.330632 1
1 0.678889 1
0.01178 0.285618 1
0.01178 0.285618 1
0.01178 0.285618 1
0.01178 0.285618 1
0.01178 0.285634 1
0.0117952 0.285664 1
1 0 1
1 0.348638 1
1 0.680644 1
0.0401617 0.979644 1
0.0401617 0.979644 1
0.0401617 0.979644 1
0.0401617 0.979644 1
0.0401617 0.979644 1
0.0401617 0.979644 1
0.960906 0.9673 1
1 0.9635 1
1 0.967987 1
0.957305 0.977813 1
0.958022 0.977813 1
0.959091 0.977813 1
0.962341 0.977798 1
0.971664 0.977783 1
0.9935 0.977737 1
1 0.977676 1
1 0.97763 1
1 0.977615 1
