BBLuts/BB_104_0110_LUT.cube
TITLE "Generated by Resolve"
LUT_3D_SIZE 9
0.0455329 0.0566262 0.066865
0.0455329 0.0566262 0.066865
0.254108 0.0579995 0.0689708
0.531518 0.0685893 0.0805371
0.800534 0.350454 0.353674
0.991608 0.65098 0.617517
0.990295 0.677714 0.616907
0.980697 0.850004 0.575631
0.973571 0.954406 0.699397
0.0361944 0.106111 0.0624247
0.0344854 0.11516 0.0616159
0.260685 0.0972915 0.0657206
0.542077 0.06981 0.082002
0.80264 0.355016 0.357305
0.991608 0.65098 0.617517
0.989929 0.685115 0.616053
0.980423 0.853758 0.570199
0.97351 0.954894 0.698833
0.0220188 0.254276 0.049012
0.0218357 0.258198 0.0486305
0.187991 0.258198 0.0502937
0.543725 0.246509 0.0676738
0.805264 0.395102 0.360937
0.991424 0.654612 0.617258
0.989242 0.698528 0.614343
0.97998 0.859541 0.560357
0.973419 0.955673 0.697902
0.0074464 0.546593 0.020737
0.00737011 0.547662 0.0207065
0.00733959 0.548257 0.0206912
0.444877 0.545876 0.0182193
0.805432 0.566995 0.343374
0.990188 0.679637 0.615167
0.986893 0.74406 0.606348
0.978714 0.874876 0.519585
0.973114 0.957916 0.695064
0 0.803937 0.0106813
0 0.803876 0.0106813
0 0.80354 0.0106966
0 0.801373 0.0107881
0.728527 0.79237 0.00595102
0.954772 0.805508 0.530861
0.980819 0.845441 0.548608
0.974426 0.905257 0
0.972305 0.963836 0.686366
0 0.953933 0.00462348
0 0.953292 0.004654
0 0.952193 0.00469978
0 0.948928 0.00482185
0 0.940703 0.00515755
0.898497 0.931167 0
0.971756 0.9337 0
0.970199 0.948653 0
0.970474 0.976455 0.668116
0 1 0.00273136
0 1 0.00274662
0 0.999985 0.00277714
0 0.998169 0.00283818
0.607217 0.993011 0
0.876692 0.987305 0
0.958801 0.984237 0
0.965499 0.984771 0
0.968338 0.993942 0.690013
0.824872 1 0
0.827176 1 0
0.830777 1 0
0.840803 1 0
0.864576 1 0
0.905074 1 0
0.948745 1 0
0.965362 1 0.562341
0.967865 1 0.754986
0.935393 1 0.786587
0.935576 1 0.786618
0.935882 1 0.786664
0.936812 1 0.786816
0.939452 1 0.787213
0.946075 1 0.788388
0.958633 1 0.791669
0.96936 1 0.799756
0.970245 1 0.818326
0.0523995 0.0612955 0.109499
0.0524453 0.0613107 0.109697
0.25948 0.0630045 0.112047
0.532906 0.0735485 0.125185
0.800443 0.352651 0.367926
0.991592 0.651133 0.618555
0.990372 0.676616 0.617838
0.980804 0.849317 0.584512
0.973693 0.954421 0.706401
0.0459297 0.0885786 0.0996109
0.0897993 0.0994583 0.0978561
0.277943 0.0624399 0.105287
0.538125 0.0730907 0.116136
0.801373 0.353368 0.361868
0.991592 0.651087 0.61825
0.98999 0.68394 0.616999
0.980529 0.853086 0.580377
0.973632 0.95491 0.705898
0.0224918 0.244327 0.0499428
0.0223392 0.247608 0.0496529
0.210376 0.248341 0.0514229
0.54229 0.236896 0.0682231
0.803067 0.380377 0.357458
0.99144 0.654292 0.617273
0.989319 0.697261 0.615351
0.980102 0.8589 0.571939
0.973541 0.955688 0.705043
0.00770581 0.542458 0.0208591
0.00764477 0.543481 0.0208286
0.00761425 0.543908 0.0208133
0.463294 0.541192 0.0182498
0.805127 0.564157 0.343481
0.990234 0.678981 0.615244
0.986969 0.742947 0.607248
0.978851 0.874388 0.537591
0.973236 0.957946 0.702434
0 0.802869 0.0107118
0 0.802777 0.0107271
0 0.802441 0.0107424
0 0.800229 0.0108339
0.731777 0.791302 0.00595102
0.954925 0.804852 0.532021
0.98085 0.84506 0.549233
0.974456 0.905074 0
0.972427 0.963882 0.694484
0 0.953704 0.00463874
0 0.953048 0.00466926
0 0.95198 0.00469978
0 0.948699 0.00483711
0 0.94052 0.00517281
0.898848 0.931029 0
0.971771 0.933608 0
0.970199 0.948608 0
0.970489 0.97644 0.669032
0 1 0.00273136
0 1 0.00274662
0 0.999908 0.00277714
0 0.998093 0.00283818
0.614252 0.99295 0
0.876921 0.987274 0
0.958846 0.984207 0
0.965515 0.984771 0
0.968338 0.993927 0.689967
0.825223 1 0
0.827512 1 0
0.831098 1 0
0.841077 1 0
0.864775 1 0
0.90515 1 0
0.948775 1 0
0.965362 1 0.562264
0.967865 1 0.754971
0.935409 1 0.786587
0.935592 1 0.786618
0.935912 1 0.786664
0.936843 1 0.786801
0.939483 1 0.787213
0.94609 1 0.788388
0.958648 1 0.791669
0.96936 1 0.799756
0.970245 1 0.818326
0.0708476 0.0738231 0.223713
0.0708934 0.0738384 0.223911
0.253117 0.075227 0.224948
0.545663 0.0868696 0.234318
0.800336 0.357931 0.396429
0.991608 0.651392 0.620172
0.990478 0.674632 0.620295
0.980987 0.848173 0.597406
0.973892 0.954437 0.716701
0.0702373 0.0734112 0.219989
0.0702831 0.0734264 0.22034
0.278721 0.0750591 0.221439
0.544167 0.086305 0.230945
0.802319 0.361837 0.397894
0.991608 0.651377 0.62005
0.990127 0.681682 0.619455
0.980713 0.851987 0.594171
0.973816 0.954925 0.716228
0.0381323 0.233021 0.194476
0.0376745 0.235126 0.194018
0.226963 0.229938 0.193774
0.530434 0.226429 0.209018
0.80116 0.358907 0.393957
0.991485 0.653681 0.619669
0.989471 0.694667 0.617838
0.980285 0.857908 0.588861
0.973724 0.955718 0.715465
0.00860609 0.5308 0.0530709
0.00852979 0.532021 0.0531319
0.00851453 0.532631 0.0539101
0.469627 0.529595 0.0701152
0.801022 0.555245 0.363439
0.990341 0.676951 0.616983
0.987137 0.740063 0.610636
0.979049 0.87361 0.564904
0.973434 0.957977 0.713161
0 0.800656 0.0108034
0 0.800565 0.0108186
0 0.800214 0.0108339
0 0.797711 0.0109102
0.73489 0.78912 0.00601205
0.95491 0.80325 0.533745
0.980941 0.844022 0.55433
0.975433 0.905562 0.271168
0.972625 0.963943 0.706233
0 0.953338 0.004654
0 0.952682 0.00468452
0 0.951598 0.00471504
0 0.948333 0.00485237
0 0.940215 0.00517281
0.899397 0.930831 0
0.971771 0.933455 0
0.970214 0.948516 0
0.970703 0.976547 0.684703
0 1 0.00273136
0 1 0.00274662
0 0.999771 0.00277714
0 0.997986 0.00285344
0.624567 0.992828 0
0.877317 0.987243 0
0.958938 0.984192 0
0.965515 0.984756 0
0.968353 0.993912 0.689891
0.825772 1 0
0.828061 1 0
0.831617 1 0
0.841535 1 0
0.865095 1 0
0.905303 1 0
0.948806 1 0
0.965362 1 0.562264
0.967865 1 0.754955
0.935454 1 0.786587
0.935637 1 0.786618
0.935958 1 0.786679
0.936873 1 0.786801
0.939529 1 0.787198
0.946105 1 0.788388
0.958648 1 0.791653
0.96936 1 0.799756
0.970245 1 0.818326
0.181979 0.147906 0.45861
0.182147 0.148013 0.458793
0.182223 0.148058 0.458885
0.533303 0.158129 0.457313
0.816251 0.41561 0.508919
0.991623 0.653132 0.630732
0.990845 0.670527 0.636469
0.981628 0.844877 0.641657
0.974411 0.954467 0.741466
0.179614 0.146334 0.456275
0.179843 0.146456 0.456474
0.26482 0.147097 0.456077
0.546395 0.158083 0.455009
0.814542 0.412146 0.50663
0.991623 0.653086 0.630457
0.990524 0.676509 0.635523
0.981353 0.848844 0.639551
0.97435 0.954955 0.741115
0.163088 0.208255 0.449699
0.162325 0.213367 0.449714
0.27805 0.209842 0.449317
0.551476 0.156085 0.45095
0.809293 0.402319 0.501595
0.991623 0.652995 0.629969
0.98996 0.68809 0.633799
0.980926 0.854963 0.636011
0.974258 0.955749 0.740551
0.0242618 0.496025 0.407599
0.0229343 0.497795 0.407782
0.0224002 0.499062 0.408423
0.485161 0.495216 0.412497
0.787579 0.528054 0.470695
0.990692 0.671672 0.62681
0.987716 0.731594 0.626841
0.979721 0.87129 0.624384
0.973953 0.958038 0.738857
0 0.790768 0.0112001
0 0.790738 0.0112001
0 0.790494 0.0112154
0 0.788449 0.0112917
0.732952 0.780041 0.00639353
0.953201 0.796048 0.558373
0.981399 0.839902 0.58558
0.976791 0.905257 0.578546
0.973159 0.964065 0.733837
0 0.952316 0.00469978
0 0.951644 0.00471504
0 0.950561 0.00476081
0 0.947295 0.00489815
0 0.939193 0.00521859
0.898878 0.929839 0
0.971893 0.932647 0
0.970352 0.947936 0
0.971283 0.976806 0.719249
0 1 0.00274662
0 1 0.00276188
0 0.999405 0.0027924
0 0.997665 0.0028687
0.64976 0.992508 0
0.878508 0.987106 0
0.959152 0.9841 0
0.965515 0.984695 0
0.968353 0.993881 0.689662
0.827466 1 0
0.829694 1 0
0.833188 1 0
0.842893 1 0
0.866041 1 0
0.90573 1 0
0.948928 1 0
0.965362 1 0.562081
0.967865 1 0.754879
0.935592 1 0.786587
0.93579 1 0.786618
0.936095 1 0.786648
0.937011 1 0.786786
0.939635 1 0.787198
0.946212 1 0.788373
0.958694 1 0.791638
0.96936 1 0.799756
0.970245 1 0.818326
0.602762 0.584955 0.710765
0.602823 0.585016 0.710826
0.60293 0.585138 0.710933
0.611399 0.58439 0.710155
0.806363 0.595728 0.707973
0.991485 0.68127 0.724468
0.991348 0.687846 0.733593
0.98378 0.836561 0.746426
0.97583 0.954345 0.786938
0.602197 0.58436 0.710277
0.602274 0.584436 0.710338
0.60238 0.584558 0.710445
0.61265 0.583673 0.709529
0.810849 0.596109 0.70753
0.991501 0.681086 0.724056
0.991241 0.689647 0.732616
0.98349 0.840986 0.745525
0.975769 0.954849 0.786725
0.601297 0.583368 0.709468
0.601373 0.583444 0.709529
0.601495 0.583597 0.709636
0.614908 0.582483 0.708507
0.813581 0.595834 0.706706
0.991501 0.680751 0.723339
0.990982 0.694102 0.730968
0.983032 0.8477 0.744091
0.975662 0.955688 0.786389
0.594598 0.588357 0.704494
0.594598 0.588556 0.704509
0.594553 0.588785 0.704509
0.610025 0.587686 0.70367
0.812161 0.596689 0.7028
0.991348 0.682277 0.719432
0.989593 0.72018 0.725475
0.981796 0.865385 0.739849
0.975372 0.958053 0.785382
0 0.764828 0.67248
0 0.765087 0.672557
0 0.765148 0.672694
0 0.763897 0.673136
0.735393 0.756497 0.67332
0.948226 0.776867 0.691005
0.983459 0.828534 0.705516
0.978882 0.902464 0.727886
0.974563 0.964279 0.782498
0 0.949233 0.00482185
0 0.948592 0.00483711
0 0.947524 0.00488289
0 0.944259 0.00502022
0 0.935866 0.00535592
0.892836 0.928389 0.54255
0.975021 0.932784 0.644755
0.974044 0.949813 0.697246
0.972686 0.97731 0.774762
0 0.999771 0.00277714
0 0.999344 0.0027924
0 0.998703 0.00282292
0 0.996963 0.00289921
0.615915 0.991928 0
0.872877 0.986404 0
0.954543 0.983413 0
0.968154 0.98677 0.586053
0.96968 0.994629 0.755901
0.832441 1 0
0.834516 1 0
0.837797 1 0
0.846922 1 0
0.868864 1 0
0.907027 1 0
0.949325 1 0
0.965347 1 0.561608
0.967849 1 0.754696
0.936034 1 0.786557
0.936217 1 0.786572
0.936522 1 0.786633
0.937423 1 0.786755
0.940002 1 0.787152
0.946487 1 0.788357
0.958831 1 0.791608
0.96936 1 0.79971
0.970245 1 0.818326
0.76672 0.75845 0.858595
0.766735 0.758465 0.85861
0.766751 0.75848 0.858625
0.766796 0.758526 0.858671
0.791836 0.754025 0.854261
0.991989 0.770474 0.851667
0.99202 0.771145 0.852384
0.989242 0.812863 0.844495
0.978897 0.952377 0.840574
0.766659 0.758373 0.858534
0.766659 0.758389 0.858549
0.766674 0.758404 0.858549
0.76672 0.75845 0.858595
0.793896 0.753902 0.854109
0.992004 0.770428 0.851606
0.99202 0.771084 0.852308
0.988952 0.817441 0.843824
0.978836 0.952972 0.840452
0.766552 0.758267 0.858442
0.766552 0.758267 0.858442
0.766567 0.758282 0.858457
0.766598 0.758328 0.858488
0.797421 0.753704 0.853849
0.991989 0.770321 0.851484
0.992004 0.770993 0.852232
0.988449 0.824872 0.842771
0.978729 0.953887 0.840238
0.766201 0.757885 0.858122
0.766201 0.7579 0.858137
0.766217 0.757916 0.858137
0.765927 0.75761 0.857877
0.806638 0.753201 0.853178
0.991974 0.770016 0.851164
0.991958 0.769574 0.85069
0.987015 0.846052 0.839872
0.978393 0.956588 0.839658
0.753521 0.758694 0.847929
0.75346 0.758785 0.847898
0.753368 0.758953 0.847837
0.752789 0.758846 0.847349
0.79205 0.755856 0.84477
0.988464 0.7738 0.843015
0.989441 0.802472 0.838956
0.983612 0.891539 0.833432
0.977523 0.963561 0.83801
0 0.946105 0.816724
0 0.945724 0.816754
0 0.944991 0.816785
0 0.942077 0.816907
0.597421 0.932082 0.815305
0.892729 0.923415 0.815747
0.976394 0.929351 0.818921
0.978134 0.94844 0.822568
0.975586 0.977737 0.834119
0 1 0.787823
0 1 0.787991
0 1 0.788235
0 1 0.788937
0.573968 0.996399 0.788769
0.865614 0.990387 0.791074
0.950805 0.987488 0.797894
0.972534 0.989105 0.808454
0.972595 0.996063 0.826749
0.830533 1 0.743725
0.832563 1 0.743832
0.835767 1 0.743984
0.844755 1 0.744472
0.866438 1 0.745968
0.904509 1 0.750256
0.947219 1 0.760815
0.968673 1 0.781582
0.970001 1 0.813687
0.937316 1 0.78645
0.937484 1 0.78648
0.937774 1 0.786511
0.938643 1 0.786648
0.9411 1 0.787045
0.947311 1 0.788235
0.959274 1 0.791501
0.96936 1 0.799603
0.970245 1 0.818311
0.814298 0.808942 0.901381
0.814298 0.808942 0.901381
0.814298 0.808942 0.901381
0.814298 0.808942 0.901381
0.814298 0.808942 0.901381
0.98024 0.817777 0.90132
0.994537 0.819715 0.901442
0.994537 0.819715 0.901442
0.984405 0.935653 0.882734
0.814298 0.808942 0.901381
0.814298 0.808942 0.901381
0.814298 0.808942 0.901381
0.814298 0.808942 0.901381
0.814298 0.808942 0.901381
0.981323 0.817914 0.901335
0.994537 0.819715 0.901442
0.994537 0.819715 0.901442
0.984298 0.936599 0.882597
0.814298 0.808942 0.901381
0.814298 0.808942 0.901381
0.814298 0.808942 0.901381
0.814298 0.808942 0.901381
0.814298 0.808942 0.901381
0.983063 0.818143 0.90135
0.994537 0.819715 0.901442
0.994537 0.819715 0.901442
0.984146 0.938109 0.882383
0.814298 0.808942 0.901381
0.814298 0.808942 0.901381
0.814298 0.808942 0.901381
0.814298 0.808942 0.901381
0.814298 0.808942 0.901381
0.988159 0.818814 0.901381
0.994537 0.819715 0.901442
0.994537 0.819715 0.901442
0.983673 0.942443 0.881758
0.814298 0.808942 0.901381
0.814298 0.808942 0.901381
0.814298 0.808942 0.901381
0.814298 0.808942 0.901381
0.815412 0.808957 0.901381
0.994537 0.819715 0.901442
0.994537 0.819715 0.901442
0.993683 0.824933 0.8972
0.982452 0.953368 0.88014
0.786938 0.882506 0.890532
0.786862 0.882673 0.890517
0.78674 0.882933 0.890486
0.786343 0.883741 0.890379
0.785992 0.880293 0.889433
0.917128 0.874311 0.887053
0.98819 0.890425 0.885039
0.984695 0.929458 0.880583
0.979889 0.973556 0.876844
0 1 0.871534
0 1 0.87155
0 1 0.87158
0 1 0.871672
0.613474 0.998032 0.869764
0.862257 0.990051 0.869047
0.952392 0.986755 0.869795
0.977264 0.989029 0.870604
0.976394 0.996643 0.872206
0.823316 1 0.861524
0.825452 1 0.861524
0.828809 1 0.861509
0.838254 1 0.861494
0.861234 1 0.861463
0.901823 1 0.861585
0.946075 1 0.862287
0.973465 1 0.864118
0.973816 1 0.86775
0.938003 1 0.84979
0.93817 1 0.849805
0.938445 1 0.849805
0.939284 1 0.849851
0.941649 1 0.849958
0.947662 1 0.850294
0.959289 1 0.85127
0.972549 1 0.853864
0.973083 1 0.859892
0.814267 0.809094 0.901366
0.814267 0.809094 0.901366
0.814267 0.809094 0.901366
0.814267 0.809094 0.901366
0.814267 0.809094 0.901366
0.814267 0.809094 0.901366
0.994537 0.819715 0.901442
0.994537 0.819715 0.901442
0.993698 0.833875 0.90103
0.814267 0.809094 0.901366
0.814267 0.809094 0.901366
0.814267 0.809094 0.901366
0.814267 0.809094 0.901366
0.814267 0.809094 0.901366
0.814267 0.809094 0.901366
0.994537 0.819715 0.901442
0.994537 0.819715 0.901442
0.993698 0.83386 0.90103
0.814267 0.809094 0.901366
0.814267 0.809094 0.901366
0.814267 0.809094 0.901366
0.814267 0.809094 0.901366
0.814267 0.809094 0.901366
0.814267 0.809094 0.901366
0.994537 0.819715 0.901442
0.994537 0.819715 0.901442
0.993698 0.83386 0.90103
0.814267 0.809094 0.901366
0.814267 0.809094 0.901366
0.814267 0.809094 0.901366
0.814267 0.809094 0.901366
0.814267 0.809094 0.901366
0.814282 0.809018 0.901366
0.994537 0.819715 0.901442
0.994537 0.819715 0.901442
0.993698 0.833844 0.90103
0.814267 0.809094 0.901366
0.814267 0.809094 0.901366
0.814267 0.809094 0.901366
0.814267 0.809094 0.901366
0.814267 0.809094 0.901366
0.815763 0.808957 0.901381
0.994537 0.819715 0.901442
0.994537 0.819715 0.901442
0.993713 0.833783 0.90103
0.814267 0.809094 0.901366
0.814267 0.809094 0.901366
0.814267 0.809094 0.901366
0.814267 0.809094 0.901366
0.814267 0.809094 0.901366
0.866575 0.810056 0.901198
0.994537 0.819715 0.901442
0.994537 0.819852 0.901442
0.988449 0.91017 0.898299
0.716228 0.982818 0.89424
0.716136 0.982849 0.89424
0.716045 0.982879 0.894224
0.715724 0.983032 0.894224
0.714717 0.983459 0.894194
0.809964 0.96669 0.894942
0.962051 0.961944 0.895369
0.98262 0.969757 0.895094
0.98027 0.987945 0.893751
0.693462 1 0.891676
0.700954 1 0.891615
0.712215 1 0.891524
0.741634 1 0.891295
0.80206 1 0.890822
0.879088 1 0.890379
0.942138 1 0.890288
0.975402 1 0.890639
0.976425 1 0.890791
0.933654 1 0.888319
0.933883 1 0.888319
0.934218 1 0.888319
0.935256 1 0.888334
0.938201 1 0.888334
0.94548 1 0.888365
0.958801 1 0.888472
0.973144 1 0.888716
0.97615 1 0.889189
0.81416 0.809918 0.90135
0.81416 0.809918 0.90135
0.81416 0.809918 0.90135
0.81416 0.809918 0.90135
0.81416 0.809918 0.90135
0.81416 0.809918 0.90135
0.81416 0.809918 0.90135
0.994492 0.820478 0.901427
0.993225 0.841901 0.900786
0.81416 0.809918 0.90135
0.81416 0.809918 0.90135
0.81416 0.809918 0.90135
0.81416 0.809918 0.90135
0.81416 0.809918 0.90135
0.81416 0.809918 0.90135
0.81416 0.809918 0.90135
0.994492 0.820493 0.901427
0.993225 0.841917 0.900786
0.81416 0.809918 0.90135
0.81416 0.809918 0.90135
0.81416 0.809918 0.90135
0.81416 0.809918 0.90135
0.81416 0.809918 0.90135
0.81416 0.809918 0.90135
0.81416 0.809918 0.90135
0.994492 0.820493 0.901427
0.993225 0.841932 0.900786
0.81416 0.809918 0.90135
0.81416 0.809918 0.90135
0.81416 0.809918 0.90135
0.81416 0.809918 0.90135
0.81416 0.809918 0.90135
0.81416 0.809918 0.90135
0.81416 0.809918 0.90135
0.994492 0.820493 0.901427
0.99321 0.841978 0.900786
0.81416 0.809918 0.90135
0.81416 0.809918 0.90135
0.81416 0.809918 0.90135
0.81416 0.809918 0.90135
0.81416 0.809918 0.90135
0.81416 0.809918 0.90135
0.815641 0.809812 0.90135
0.994492 0.820523 0.901427
0.993194 0.842115 0.900771
0.81416 0.809918 0.90135
0.81416 0.809918 0.90135
0.81416 0.809918 0.90135
0.81416 0.809918 0.90135
0.81416 0.809918 0.90135
0.81416 0.809918 0.90135
0.877943 0.810651 0.901167
0.994492 0.8206 0.901427
0.993194 0.842344 0.900771
0.81416 0.809918 0.90135
0.81416 0.809918 0.90135
0.81416 0.809918 0.90135
0.81416 0.809918 0.90135
0.81416 0.809918 0.90135
0.81416 0.809918 0.90135
0.994537 0.819715 0.901442
0.994476 0.820768 0.901411
0.993164 0.842756 0.900755
0 1 0.894347
0 1 0.894347
0 1 0.894347
0 1 0.894347
0 1 0.894347
0 1 0.894347
0.907698 1 0.892027
0.978347 1 0.892683
0.977905 1 0.892409
0.886046 1 0.891112
0.886778 1 0.891112
0.887968 1 0.891112
0.891417 1 0.891112
0.900618 1 0.891112
0.920394 1 0.891173
0.948623 1 0.89131
0.970993 1 0.891508
0.97644 1 0.891569
