BBLuts/BB_103_0880_LUT.cube
TITLE "Generated by Resolve"
LUT_3D_SIZE 33
0.0240635 0.0148928 0.0181125
0.0240635 0.0148928 0.0181125
0.0240635 0.0148928 0.0181125
0.0240635 0.0148928 0.0181125
0.0290227 0.0149233 0.018143
0.0872663 0.0154574 0.0185702
0.150042 0.0161746 0.0191501
0.196368 0.0167391 0.0196384
0.242786 0.0173648 0.0201572
0.295781 0.0180972 0.0207675
0.355535 0.018967 0.0215
0.417624 0.0199435 0.0223087
0.487709 0.0210574 0.0232547
0.585931 0.0225223 0.0244755
0.7299 0.0244907 0.0261234
0.890013 0.026688 0.0279698
1 0.0289769 0.0298772
1 0.0313115 0.0318303
1 0.0334478 0.0336156
1 0.0351568 0.03505
1 0.035584 0.0354009
1 0.0355993 0.0354162
1 0.33492 0.00675975
1 0.509957 0.0396735
1 0.687205 0.0823224
1 0.884398 0.127565
1 1 0.180285
1 1 0.248859
1 1 0.331121
1 1 0.439567
1 1 0.581811
1 1 0.723873
1 1 0.849973
0.0240635 0.0148928 0.0181125
0.0240635 0.0148928 0.0181125
0.0240635 0.0148928 0.0181125
0.0240635 0.0148928 0.0181125
0.029633 0.0149386 0.018143
0.0990768 0.0155795 0.018677
0.153979 0.0162203 0.0191958
0.199619 0.0167849 0.0196689
0.247852 0.0174258 0.0202029
0.301549 0.0181735 0.0208438
0.361364 0.0190585 0.0215763
0.421958 0.0200046 0.0223697
0.489342 0.021088 0.02327
0.588205 0.0225528 0.024506
0.732403 0.0245212 0.026154
0.891554 0.0267033 0.027985
1 0.0289921 0.0298924
1 0.0313115 0.0318303
1 0.0334478 0.0336156
1 0.0351415 0.0350347
1 0.035584 0.0354009
1 0.0588846 0.0332952
1 0.363653 0.00395209
1 0.525994 0.0169375
1 0.700084 0.0764477
1 0.892744 0.124636
1 1 0.179187
1 1 0.248524
1 1 0.330724
1 1 0.439292
1 1 0.581659
1 1 0.723781
1 1 0.849912
0.0240635 0.0148928 0.0181125
0.0240635 0.0148928 0.0181125
0.0240635 0.0149233 0.0181125
0.024094 0.0150607 0.0181125
0.0295872 0.0152438 0.0181277
0.105272 0.0156405 0.0187228
0.154482 0.0162203 0.0191958
0.202152 0.0168154 0.0196994
0.252628 0.0174868 0.020264
0.305547 0.0182345 0.0208896
0.363836 0.019089 0.0216068
0.422965 0.0200198 0.022385
0.491539 0.0211185 0.0233005
0.591028 0.0225834 0.0245518
0.734936 0.0245518 0.0261845
0.893736 0.0267338 0.0280156
1 0.0290074 0.0299077
1 0.0313115 0.0318456
1 0.0334478 0.0336156
1 0.0351263 0.0350195
1 0.035584 0.0354009
1 0.133852 0.0261997
1 0.391745 0.00117494
1 0.541115 0
1 0.712566 0.0710155
1 0.900236 0.121996
1 1 0.17818
1 1 0.248219
1 1 0.330343
1 1 0.439002
1 1 0.581476
1 1 0.723659
1 1 0.849882
0.0239567 0.016495 0.0180362
0.0239567 0.0165713 0.0180209
0.0239261 0.0170291 0.0180056
0.0243076 0.0243839 0.0175937
0.0493477 0.0307012 0.0173648
0.106554 0.0184482 0.0185855
0.15172 0.0188602 0.0190127
0.199268 0.0194858 0.019501
0.250767 0.019791 0.0200961
0.306554 0.0184176 0.0208896
0.366171 0.0191348 0.0216373
0.424811 0.0200504 0.0224155
0.49424 0.0211643 0.023331
0.593927 0.0226291 0.0245823
0.737514 0.0245975 0.026215
0.895338 0.0267643 0.0280308
1 0.0290227 0.0299229
1 0.0313268 0.0318456
1 0.0334325 0.0336156
1 0.0351263 0.0350195
1 0.035584 0.0354009
1 0.213947 0.0185092
1 0.413581 0
1 0.553933 0
1 0.723232 0.066331
1 0.906935 0.119631
1 1 0.177249
1 1 0.247898
1 1 0.329961
1 1 0.438727
1 1 0.581292
1 1 0.723583
1 1 0.849821
0.0184634 0.0836042 0.0136721
0.0181277 0.0873121 0.0134127
0.0178073 0.0908827 0.0131533
0.0175021 0.0944076 0.0129091
0.0173648 0.0958572 0.0128023
0.0873121 0.0955825 0.0131533
0.138384 0.0935683 0.0136721
0.188815 0.0879988 0.0145266
0.243778 0.0747234 0.016083
0.305943 0.0280308 0.0202335
0.366918 0.0247501 0.0212711
0.426749 0.0205692 0.0224002
0.496818 0.0211948 0.0233768
0.596918 0.0226749 0.0246128
0.74078 0.0246433 0.0262455
0.897597 0.0267948 0.0280613
1 0.0290379 0.0299382
1 0.031342 0.0318608
1 0.0334325 0.0336004
1 0.0350958 0.0350042
1 0.0355688 0.0354009
1 0.259129 0.0141451
1 0.431754 0
1 0.567132 0
1 0.734401 0.060502
1 0.913848 0.117021
1 1 0.176364
1 1 0.247608
1 1 0.329595
1 1 0.438468
1 1 0.58114
1 1 0.723461
1 1 0.84976
0.0147097 0.125093 0.0106355
0.014435 0.128054 0.0104067
0.0141451 0.131106 0.0101778
0.0139162 0.133486 0.00999466
0.0138094 0.134691 0.0099031
0.0599985 0.134981 0.0100404
0.123339 0.134691 0.0104219
0.178271 0.132815 0.0109712
0.235416 0.128359 0.0118257
0.296422 0.118883 0.0131838
0.360067 0.0996567 0.0154421
0.426703 0.0372625 0.0211948
0.498512 0.0316625 0.0226291
0.600122 0.0237278 0.0245823
0.743847 0.0246738 0.0262913
0.899535 0.0268254 0.0280766
1 0.0290684 0.0299535
1 0.031342 0.0318608
1 0.0334325 0.0336004
1 0.0350958 0.0349889
1 0.0669108 0.032517
1 0.295659 0.0105898
1 0.44773 0
1 0.578698 0
1 0.744839 0.0548867
1 0.920989 0.114153
1 1 0.175372
1 1 0.247318
1 1 0.329229
1 1 0.438193
1 1 0.580957
1 1 0.723369
1 1 0.849714
0.0106355 0.168399 0.00730907
0.0103914 0.170871 0.0071107
0.0101625 0.173281 0.0069276
0.0100252 0.174777 0.00682078
0.00991836 0.17583 0.00672923
0.00988785 0.176165 0.00669871
0.0953841 0.176486 0.00695811
0.162966 0.176028 0.00740063
0.22446 0.173999 0.0080415
0.288212 0.169284 0.00900282
0.352941 0.159991 0.0104067
0.417487 0.144518 0.0124208
0.493172 0.1149 0.0158236
0.602045 0.0451057 0.0229343
0.746914 0.0371252 0.0253452
0.902419 0.0280613 0.0280156
1 0.0290837 0.0299687
1 0.031342 0.0318608
1 0.0334173 0.0335851
1 0.0350652 0.0349737
1 0.138811 0.0257115
1 0.331731 0.00708019
1 0.465309 0
1 0.592599 0
1 0.756283 0.0486915
1 0.929076 0.110903
1 1 0.174151
1 1 0.246952
1 1 0.328817
1 1 0.437903
1 1 0.580743
1 1 0.723247
1 1 0.849653
0.00588998 0.217456 0.00340276
0.00567636 0.219593 0.00323491
0.00552377 0.221164 0.00311284
0.00540169 0.222385 0.00300603
0.0053254 0.223133 0.00294499
0.00526436 0.223774 0.00289921
0.0364538 0.223941 0.00291447
0.132647 0.224186 0.00326543
0.207324 0.223301 0.00383001
0.275502 0.220676 0.00459297
0.343496 0.214588 0.00570687
0.410956 0.205524 0.00717174
0.487709 0.191791 0.00920119
0.594079 0.168673 0.0123751
0.743053 0.119142 0.0183413
0.902785 0.0565957 0.0256504
1 0.0514992 0.0280766
1 0.0336614 0.0316777
1 0.033402 0.0335851
1 0.0932174 0.029572
1 0.231388 0.0168154
1 0.373419 0.00299077
1 0.487205 0
1 0.612009 0
1 0.772808 0.0366674
1 0.939742 0.1066
1 1 0.172564
1 1 0.246464
1 1 0.32813
1 1 0.437446
1 1 0.580468
1 1 0.723079
1 1 0.849561
0.000350958 0.273213 0
0.000198367 0.274769 0
9.15541e-05 0.275822 0
1.5259e-05 0.276646 0
0 0.277256 0
0 0.277913 0
0 0.278202 0
0.0797894 0.278264 0
0.175479 0.277455 0
0.254658 0.275349 0
0.328679 0.271641 0.000671397
0.40119 0.265827 0.00184634
0.481621 0.257527 0.00337224
0.591226 0.244709 0.00563058
0.737591 0.226871 0.00872816
0.89192 0.201205 0.0126955
1 0.162387 0.0180362
1 0.0827955 0.0272831
1 0.0943465 0.0280003
1 0.204547 0.0189212
1 0.315129 0.00866712
1 0.418296 0
1 0.515663 0
1 0.638315 0
1 0.794873 0.0180056
1 0.955062 0.100114
1 1 0.170428
1 1 0.245777
1 1 0.327199
1 1 0.436744
1 1 0.580041
1 1 0.722835
1 1 0.849409
0 0.334081 0
0 0.334768 0
0 0.33521 0
0 0.335561 0
0 0.33608 0
0 0.336156 0
0 0.336095 0
0 0.335744 0
0.113237 0.335317 0
0.220951 0.334218 0
0.306142 0.332158 0
0.385885 0.328481 0
0.47126 0.32282 0
0.58645 0.314321 0
0.735164 0.304692 0.00163272
0.886915 0.293355 0.00421149
1 0.281788 0.0069276
1 0.273304 0.00941482
1 0.282765 0.010071
1 0.324041 0.00730907
1 0.390219 0.00129702
1 0.466926 0
1 0.556649 0
1 0.674281 0
1 0.824094 0
1 0.975448 0.0912337
1 1 0.167452
1 1 0.244877
1 1 0.325963
1 1 0.435767
1 1 0.579293
1 1 0.722469
1 1 0.84921
0 0.397772 0
0 0.398398 0
0 0.398795 0
0 0.399115 0
0 0.399344 0
0 0.399512 0
0 0.399603 0
0 0.399817 0
0 0.399435 0
0.150393 0.398932 0
0.270207 0.398245 0
0.362066 0.396246 0
0.453056 0.392447 0
0.575174 0.386938 0
0.730114 0.381399 0
0.883452 0.375723 0
1 0.371405 0
1 0.371084 4.57771e-05
1 0.382849 0.000350958
1 0.413535 0
1 0.460517 0
1 0.52195 0
1 0.608316 0
1 0.725582 0
1 0.860929 0
1 1 0.0804303
1 1 0.163516
1 1 0.243717
1 1 0.3243
1 1 0.434455
1 1 0.578286
1 1 0.721828
1 1 0.848936
0 0.46717 0
0 0.46743 0
0 0.467796 0
0 0.468406 0
0 0.468635 0
0 0.468818 0
0 0.469001 0
0 0.469078 0
0 0.469001 0
0.0259251 0.46891 0
0.197559 0.468666 0
0.324117 0.468132 0
0.424155 0.466529 0
0.552743 0.463859 0
0.715969 0.460472 0
0.875288 0.457588 0
1 0.457115 0
1 0.460151 0
1 0.471656 0
1 0.494621 0
1 0.534844 0
1 0.593881 0
1 0.676234 0
1 0.787182 0
1 0.908675 0
1 1 0.0678111
1 1 0.158495
1 1 0.242267
1 1 0.323186
1 1 0.432731
1 1 0.576928
1 1 0.720913
1 1 0.848432
0 0.558114 0
0 0.558328 0
0 0.55874 0
0 0.559091 0
0 0.55938 0
0 0.560082 0
0 0.560342 0
0 0.560555 0
0 0.560754 0
0 0.560891 0
0.0729839 0.560571 0
0.249012 0.560861 0
0.382132 0.559899 0
0.513878 0.557946 0
0.685008 0.555306 0
0.85481 0.553109 0
1 0.552453 0
1 0.555978 0
1 0.567819 0
1 0.590967 0
1 0.628519 0
1 0.685679 0
1 0.765881 0
1 0.859754 0
1 0.966155 0
1 1 0.0496071
1 1 0.152422
1 1 0.240543
1 1 0.322713
1 1 0.430488
1 1 0.575113
1 1 0.719707
1 1 0.847715
0 0.687099 0
0 0.687205 0
0 0.687663 0
0 0.68806 0
0 0.68838 0
0 0.688716 0
0 0.689036 0
0 0.689418 0
0 0.690303 0
0 0.69044 0
0 0.690272 0
0.117601 0.68867 0
0.310079 0.687739 0
0.456657 0.684947 0
0.633448 0.68188 0
0.816709 0.678401 0
0.988113 0.676555 0
1 0.678645 0
1 0.690074 0
1 0.714305 0
1 0.750515 0
1 0.800549 0
1 0.865125 0
1 0.943496 0
1 1 0
1 1 0.0267338
1 1 0.144884
1 1 0.238651
1 1 0.322423
1 1 0.42768
1 1 0.57261
1 1 0.71812
1 1 0.846769
0 0.843244 0
0 0.843244 0
0 0.843442 0
0 0.843702 0
0 0.843915 0
0 0.844083 0
0 0.844251 0
0 0.84445 0
0 0.844556 0
0 0.844511 0
0 0.844785 0
0 0.843915 0
0.179889 0.841169 0
0.378576 0.839216 0
0.560891 0.836088 0
0.759533 0.833036 0
0.943816 0.83006 0
1 0.830442 0
1 0.83769 0
1 0.854871 0
1 0.88307 0
1 0.922057 0
1 0.973159 0
1 1 0
1 1 0
1 1 0
1 1 0.137423
1 1 0.236698
1 1 0.322301
1 1 0.426657
1 1 0.569375
1 1 0.715877
1 1 0.845487
0 1 0
0 1 0
0 1 0
0 1 0
0 1 0
0 1 0
0 1 0
0 1 0
0 1 0
0 1 0
0 1 0
0 1 0
0 0.997223 0
0.26891 0.993912 0
0.473762 0.991394 0
0.687053 0.987976 0
0.885039 0.984787 0
1 0.9832 0
1 0.987228 0
1 0.998581 0
1 1 0
1 1 0
1 1 0
1 1 0
1 1 0
1 1 0
1 1 0.130068
1 1 0.235798
1 1 0.322621
1 1 0.428336
1 1 0.567071
1 1 0.712901
1 1 0.843656
0 1 0
0 1 0
0 1 0
0 1 0
0 1 0
0 1 0
0 1 0
0 1 0
0 1 0
0 1 0
0 1 0
0 1 0
0 1 0
0.142351 1 0
0.380179 1 0
0.605112 1 0
0.816999 1 0
0.996399 1 0
1 1 0
1 1 0
1 1 0
1 1 0
1 1 0
1 1 0
1 1 0
1 1 0
1 1 0.125566
1 1 0.236561
1 1 0.324468
1 1 0.430869
1 1 0.566369
1 1 0.709667
1 1 0.841123
0 1 0
0 1 0
0 1 0
0 1 0
0 1 0
0 1 0
0 1 0
0 1 0
0 1 0
0 1 0
0 1 0
0 1 0
0 1 0
0.0295567 1 0
0.295277 1 0
0.533211 1 0
0.757656 1 0
0.941894 1 0
1 1 0
1 1 0
1 1 0
1 1 0
1 1 0
1 1 0
1 1 0
1 1 0
1 1 0.128862
1 1 0.239857
1 1 0.328374
1 1 0.435492
1 1 0.570138
1 1 0.70631
1 1 0.83801
0 1 0
0 1 0
0 1 0
0 1 0
0 1 0
0 1 0
0 1 0
0 1 0
0 1 0
0 1 0
0 1 0
0 1 0
0 1 0
0 1 0
0.235477 1 0
0.486183 1 0
0.716854 1 0
0.901076 1 0
1 1 0
1 1 0
1 1 0
1 1 0
1 1 0
1 1 0
1 1 0
1 1 0
1 1 0.142718
1 1 0.246555
1 1 0.335302
1 1 0.442557
1 1 0.576608
1 1 0.710277
1 1 0.834257
0 1 0
0 1 0
0 1 0
0 1 0
0 1 0
0 1 0
0 1 0
0 1 0
0 1 0
0 1 0
0 1 0
0 1 0
0 1 0
0 1 0
0.233265 1 0
0.47187 1 0
0.696696 1 0
0.87422 1 0
1 1 0
1 1 0
1 1 0
1 1 0
1 1 0
1 1 0
1 1 0
1 1 0.0352178
1 1 0.163363
1 1 0.258717
1 1 0.345663
1 1 0.453391
1 1 0.585809
1 1 0.717159
1 1 0.836713
0 1 0
0 1 0
0 1 0
0 1 0
0 1 0
0 1 0
0 1 0
0 1 0
0 1 0
0 1 0
0 1 0
0 1 0
0 1 0
0 1 0
0.276158 1 0
0.494652 1 0
0.700908 1 0
0.864576 1 0
0.994079 1 0
1 1 0
1 1 0
1 1 0
1 1 0
1 1 0
1 1 0
1 1 0.0823224
1 1 0.192081
1 1 0.276478
1 1 0.361929
1 1 0.469673
1 1 0.598764
1 1 0.726513
1 1 0.842191
0 1 0
0 1 0
0 1 0
0 1 0
0 1 0
0 1 0
0 1 0
0 1 0
0 1 0
0 1 0
0 1 0
0 1 0
0 1 0
0.0637827 1 0
0.344198 1 0
0.546471 1 0
0.723842 1 0
0.868452 1 0
0.986374 1 0
1 1 0
1 1 0
1 1 0
1 1 0
1 1 0
1 1 0.0283207
1 1 0.143206
1 1 0.228016
1 1 0.300008
1 1 0.385122
1 1 0.494011
1 1 0.616007
1 1 0.739254
1 1 0.850095
0 1 0
0 1 0
0 1 0
0 1 0
0 1 0
0 1 0
0 1 0
0 1 0
0 1 0
0 1 0
0 1 0
0 1 0
0 1 0
0.257542 1 0
0.436332 1 0
0.615869 1 0
0.762631 1 0
0.885557 1 0
0.989761 1 0
1 1 0
1 1 0
1 1 0
1 1 0
1 1 0.00759899
1 1 0.118532
1 1 0.2
1 1 0.26775
1 1 0.335225
1 1 0.418036
1 1 0.525231
1 1 0.64007
1 1 0.755642
1 1 0.860685
0.219287 1 0
0.219287 1 0
0.219287 1 0
0.219287 1 0
0.219272 1 0
0.219272 1 0
0.219272 1 0
0.219272 1 0
0.219257 1 0
0.219242 1 0
0.219242 1 0
0.219196 1 0
0.219165 1 0
0.371771 1 0
0.550988 1 0
0.692561 1 0
0.811292 1 0
0.912551 1 0
1 1 0
1 1 0
1 1 0
1 1 0.0200656
1 1 0.0745403
1 1 0.133577
1 1 0.195529
1 1 0.254002
1 1 0.311254
1 1 0.380591
1 1 0.464607
1 1 0.565423
1 1 0.671199
1 1 0.777783
1 1 0.874083
0.529061 1 0.100038
0.529061 1 0.100038
0.529061 1 0.100038
0.529061 1 0.100038
0.529061 1 0.100038
0.529061 1 0.100038
0.529061 1 0.100038
0.529061 1 0.100038
0.529061 1 0.100038
0.52903 1 0.100038
0.52903 1 0.100038
0.52903 1 0.100038
0.529015 1 0.100038
0.528984 1 0.100038
0.647211 1 0.104585
0.767666 1 0.110948
0.862684 1 0.118029
0.946151 1 0.126223
1 1 0.136568
1 1 0.148989
1 1 0.164157
1 1 0.182452
1 1 0.204746
1 1 0.229465
1 1 0.2654
1 1 0.309682
1 1 0.367819
1 1 0.437461
1 1 0.524041
1 1 0.614771
1 1 0.710475
1 1 0.805173
1 1 0.891814
0.756115 1 0.243381
0.756115 1 0.243381
0.756115 1 0.243381
0.756115 1 0.243381
0.756115 1 0.243381
0.756115 1 0.243381
0.756115 1 0.243381
0.756115 1 0.243381
0.756115 1 0.243381
0.756115 1 0.243381
0.756115 1 0.243381
0.756115 1 0.243381
0.7561 1 0.243381
0.7561 1 0.243381
0.756069 1 0.243381
0.831785 1 0.246174
0.914778 1 0.250202
0.984878 1 0.255024
1 1 0.2607
1 1 0.267765
1 1 0.276158
1 1 0.286641
1 1 0.300435
1 1 0.319997
1 1 0.344182
1 1 0.382971
1 1 0.438025
1 1 0.510796
1 1 0.589532
1 1 0.672145
1 1 0.756512
1 1 0.838087
1 1 0.913176
0.9075 1 0.362219
0.9075 1 0.362219
0.9075 1 0.362219
0.9075 1 0.362219
0.9075 1 0.362219
0.9075 1 0.362219
0.9075 1 0.362219
0.9075 1 0.362219
0.907485 1 0.362219
0.907485 1 0.362219
0.907485 1 0.362219
0.907485 1 0.362219
0.907485 1 0.362219
0.907485 1 0.362219
0.907454 1 0.362219
0.907454 1 0.362219
0.962203 1 0.365164
1 1 0.369512
1 1 0.374487
1 1 0.380468
1 1 0.388357
1 1 0.39855
1 1 0.41181
1 1 0.42916
1 1 0.452903
1 1 0.483742
1 1 0.530709
1 1 0.591348
1 1 0.660456
1 1 0.73434
1 1 0.80679
1 1 0.87538
1 1 0.938338
1 1 0.509194
1 1 0.509194
1 1 0.509194
1 1 0.509194
1 1 0.509194
1 1 0.509194
1 1 0.509194
1 1 0.509194
1 1 0.509194
