BBLuts/BB_106_0150_LUT.cube
TITLE "Generated by Resolve"
LUT_3D_SIZE 5
0 0 0
0.167575 0 0.000122072
0.756985 0 0.000518807
1 0.464118 0.143267
1 0.924269 0.81976
0.00732433 0.179141 0.000823987
0.153826 0.181231 0.0009308
0.767086 0.0621653 0.000823987
1 0.531548 0.117693
1 0.925475 0.819226
0.0299535 0.732754 0.00337224
0.0299229 0.732189 0.00337224
0.732982 0.717601 0.0037995
1 0.778088 0.00428778
1 0.933852 0.81503
0.636118 0.979538 0.257465
0.675731 0.978943 0.25919
0.841962 0.972015 0.273213
1 0.960784 0.398062
1 0.967315 0.834714
1 0.977829 0.930022
1 0.977829 0.930068
1 0.977829 0.930388
1 0.977783 0.933776
1 0.977722 0.962844
1.5259e-05 0 0.175235
0.14815 0 0.175265
0.75671 0 0.17821
1 0.448905 0.291569
1 0.923949 0.833463
0.00614939 0.149935 0.160861
0.158694 0.146593 0.157
0.757733 0 0.163058
1 0.519982 0.276356
1 0.925155 0.83299
0.0297856 0.728786 0.00335698
0.0297704 0.728161 0.00335698
0.739025 0.713603 0.00378424
1 0.776028 0.136248
1 0.933577 0.829221
0.642512 0.979522 0.25713
0.68098 0.978714 0.258854
0.843824 0.971878 0.272908
1 0.960739 0.398016
1 0.9673 0.834638
1 0.977829 0.930007
1 0.977829 0.930053
1 0.977829 0.930388
1 0.977783 0.933776
1 0.977722 0.962829
3.0518e-05 0 0.745846
3.0518e-05 0 0.746105
0.763775 0 0.741054
1 0.263157 0.76643
1 0.921492 0.905074
3.0518e-05 0 0.743862
3.0518e-05 0 0.744121
0.774395 0 0.738903
1 0.390814 0.762539
1 0.922759 0.904784
0.0274815 0.670298 0.702296
0.0274968 0.670695 0.702647
0.712215 0.657893 0.704616
1 0.748562 0.735363
1 0.931609 0.902632
0.648798 0.978164 0.539284
0.685176 0.976898 0.540276
0.841825 0.970321 0.54844
1 0.959426 0.625483
1 0.966766 0.884459
1 0.977829 0.929961
1 0.977829 0.929992
1 0.977829 0.930327
1 0.977783 0.933715
1 0.977722 0.962829
4.57771e-05 0 1
4.57771e-05 0 1
4.57771e-05 0 1
1 0 1
1 0.889738 1
4.57771e-05 0 1
4.57771e-05 0 1
4.57771e-05 0 1
1 0 1
1 0.892378 1
4.57771e-05 0 1
4.57771e-05 0 1
0.204227 0 1
1 0 1
1 0.909438 1
0.0401617 0.979675 1
0.0401465 0.979324 1
0.673732 0.96524 1
1 0.949615 1
1 0.962478 1
1 0.977752 0.99266
1 0.977752 0.992676
1 0.977752 0.992813
1 0.977707 0.994247
1 0.977661 1
0.011841 0.286778 1
0.011841 0.286778 1
0.011841 0.286793 1
0.011841 0.286931 1
1 0.676982 1
0.011841 0.286763 1
0.011841 0.286763 1
0.011841 0.286778 1
0.011841 0.286915 1
1 0.677073 1
0.0118257 0.286656 1
0.0118257 0.286671 1
0.0118257 0.286671 1
0.011841 0.286809 1
1 0.677852 1
0.01178 0.285618 1
0.01178 0.285618 1
0.01178 0.285634 1
1 0 1
1 0.680644 1
0.957305 0.977813 1
0.959091 0.977813 1
0.971664 0.977783 1
1 0.977676 1
1 0.977615 1
