BBLuts/BB_103_0180_LUT.cube
TITLE "Generated by Resolve"
LUT_3D_SIZE 9
0 0 0
0 0 0
0.119646 0 0
0.346166 0 0
0.646204 0 0
0.804395 0 0
0.787015 0.510567 0.025742
0.766232 0.772473 0.270237
0.756649 0.845792 0.580987
0 7.62951e-05 0
0 0.00860609 0
0.121981 0 0
0.353979 0 0
0.647913 0 0
0.804288 0 0
0.784497 0.536736 0.0161288
0.766125 0.774029 0.269169
0.756649 0.845914 0.580926
0 0.136904 0
0 0.140047 0
0.0712596 0.139376 0
0.353109 0.115175 0
0.647776 0.0259861 0
0.803647 0.16669 0
0.780789 0.567849 0
0.765942 0.776547 0.267536
0.756634 0.846113 0.580804
0 0.391379 0
0 0.392432 0
0 0.393576 0
0.266011 0.401572 0
0.633494 0.394766 0
0.785153 0.466056 0
0.772534 0.641611 0
0.765286 0.785565 0.265827
0.756573 0.847013 0.580224
0 0.704509 0
0 0.704509 0
0 0.704295 0
0 0.702495 0
0.562814 0.701335 0
0.741558 0.709651 0
0.764004 0.747677 0
0.763561 0.808347 0.274556
0.756359 0.850355 0.577966
0 0.847501 0
0 0.847501 0
0 0.847501 0
0 0.844312 0
0.530968 0.831907 0
0.703532 0.823957 0
0.758846 0.825849 0
0.7608 0.841901 0.316518
0.755688 0.859113 0.579477
0.463035 0.887602 0.104112
0.463035 0.887602 0.104112
0.463035 0.887602 0.104112
0.463004 0.887602 0.104112
0.599649 0.878904 0.108812
0.697734 0.873838 0.141527
0.75256 0.871153 0.233936
0.757366 0.869749 0.434607
0.754452 0.872068 0.600916
0.677302 0.881239 0.506569
0.677302 0.881239 0.506569
0.677302 0.881239 0.506569
0.677302 0.881239 0.506569
0.677302 0.881239 0.506569
0.709255 0.881407 0.512184
0.742443 0.881483 0.528939
0.753902 0.880995 0.570825
0.753262 0.880476 0.642832
0.730434 0.880247 0.666194
0.730434 0.880247 0.666194
0.730434 0.880247 0.666194
0.730434 0.880247 0.666194
0.730434 0.880247 0.666194
0.730419 0.880247 0.666194
0.742397 0.880369 0.668147
0.753079 0.880385 0.673533
0.753017 0.880354 0.687007
0 0 0.00178531
0 0 0.00198367
0.118212 0 0
0.346273 0 0
0.646525 0 0
0.805585 0 0
0.787839 0.508782 0.0435187
0.766232 0.772457 0.270253
0.756649 0.845792 0.581003
0 0 0
0 0 0
0.130205 0 0
0.348592 0 0
0.646525 0 0
0.804746 0 0
0.785229 0.535439 0.0302892
0.766125 0.773999 0.269184
0.756649 0.845914 0.580926
0 0.127626 0
0 0.130449 0
0.0868086 0.129931 0
0.350896 0.105257 0
0.645716 0 0
0.803876 0.152438 0
0.781582 0.567086 0.00891127
0.765942 0.776547 0.267536
0.756634 0.846098 0.580804
0 0.385977 0
0 0.386938 0
0 0.387945 0
0.276967 0.395697 0
0.63328 0.389685 0
0.785306 0.462303 0
0.77261 0.640894 0
0.765286 0.785565 0.265827
0.756573 0.847013 0.580224
0 0.703166 0
0 0.703151 0
0 0.702922 0
0 0.701091 0
0.564691 0.700282 0
0.741619 0.70898 0
0.764019 0.747463 0
0.763561 0.808347 0.274556
0.756359 0.850355 0.577966
0 0.847181 0
0 0.847257 0
0 0.847257 0
0 0.844099 0
0.53254 0.831693 0
0.703685 0.82385 0
0.758846 0.825803 0
0.7608 0.841901 0.316518
0.755688 0.859113 0.579477
0.466407 0.887419 0.103792
0.466407 0.887419 0.103792
0.466392 0.887419 0.103792
0.466377 0.887419 0.103792
0.600336 0.878843 0.108598
0.697841 0.873808 0.141375
0.75259 0.871153 0.233921
0.757366 0.869749 0.434607
0.754452 0.872068 0.600916
0.677455 0.881239 0.506554
0.677455 0.881239 0.506554
0.677455 0.881239 0.506554
0.677455 0.881239 0.506554
0.67744 0.881239 0.506554
0.709316 0.881407 0.512169
0.742458 0.881483 0.528923
0.753902 0.880995 0.570825
0.753262 0.880476 0.642832
0.730434 0.880247 0.666194
0.730434 0.880247 0.666194
0.730434 0.880247 0.666194
0.730434 0.880247 0.666194
0.730434 0.880247 0.666194
0.730434 0.880247 0.666194
0.742397 0.880369 0.668147
0.753079 0.880385 0.673533
0.753017 0.880354 0.687007
0 0 0.0928206
0 0 0.0930343
0.0944076 0 0.0898146
0.357336 0 0.078233
0.648981 0 0.068925
0.808728 0 0.0867781
0.790982 0.49955 0.152697
0.766064 0.771801 0.30042
0.756649 0.845792 0.581003
0 0 0.090898
0 0 0.0912032
0.113115 0 0.0872969
0.356298 0 0.0758221
0.649821 0 0.0659648
0.808484 0 0.0809796
0.788632 0.52842 0.14641
0.765957 0.773373 0.299351
0.756649 0.845914 0.580926
0 0.104631 0.081117
0 0.106996 0.0810712
0.0781109 0.102281 0.0767681
0.339239 0.0809491 0.0719921
0.648188 0 0.0589609
0.809033 0.105791 0.0881819
0.785611 0.562676 0.137057
0.765774 0.775921 0.29752
0.756634 0.846098 0.580804
0 0.373861 0.0207065
0 0.375311 0.0208896
0 0.376287 0.0216678
0.279332 0.384146 0.0269474
0.633371 0.37879 0.0296635
0.789792 0.453696 0.0481575
0.777569 0.641886 0.102266
0.765133 0.785046 0.290562
0.756573 0.847013 0.580224
0 0.700572 0
0 0.700572 0
0 0.700343 0
0 0.698512 0
0.566369 0.697673 0
0.741619 0.706981 0
0.765148 0.74757 0
0.763561 0.808225 0.275914
0.756359 0.850355 0.577966
0 0.846815 0
0 0.846815 0
0 0.846815 0
0 0.843778 0
0.535271 0.831342 0
0.704021 0.823651 0
0.758862 0.825666 0
0.7608 0.841856 0.316335
0.755688 0.859113 0.579477
0.470878 0.887144 0.103334
0.470878 0.887144 0.103334
0.470878 0.887144 0.103334
0.470863 0.88716 0.103334
0.601251 0.878767 0.108324
0.6981 0.873777 0.141192
0.752621 0.871122 0.233722
0.757366 0.869734 0.434546
0.754452 0.872068 0.600916
0.677653 0.881239 0.506523
0.677653 0.881239 0.506523
0.677653 0.881239 0.506523
0.677653 0.881239 0.506523
0.677653 0.881239 0.506523
0.709392 0.881407 0.512123
0.742473 0.881483 0.528908
0.753918 0.880995 0.570809
0.753262 0.880476 0.642832
0.730465 0.880247 0.666194
0.730465 0.880247 0.666194
0.730465 0.880247 0.666194
0.730465 0.880247 0.666194
0.730465 0.880247 0.666194
0.730465 0.880247 0.666194
0.742412 0.880369 0.668147
0.753079 0.880385 0.673533
0.753017 0.880354 0.687007
0 0 0.30663
0 0 0.306737
0 0 0.306981
0.315618 0 0.294682
0.663417 0 0.281743
0.809323 0 0.301961
0.795193 0.453925 0.370565
0.764874 0.766751 0.456062
0.756573 0.845548 0.590036
0 0 0.305119
0 0 0.305241
0 0 0.305241
0.330312 0 0.291966
0.662272 0 0.27982
0.809232 0 0.299245
0.792538 0.49015 0.367224
0.764736 0.768414 0.455451
0.756558 0.845685 0.589975
0 0 0.301823
0 0 0.301915
0 0 0.301793
0.337148 0 0.288273
0.658305 0 0.276219
0.80911 0 0.295964
0.789075 0.532799 0.361929
0.764523 0.771099 0.454444
0.756542 0.845869 0.589868
0 0.323507 0.270604
0 0.324422 0.270665
0 0.326482 0.271199
0.264424 0.333654 0.278248
0.627573 0.327535 0.282567
0.796063 0.408392 0.307164
0.779889 0.627832 0.343023
0.763806 0.780728 0.450752
0.756481 0.846769 0.58938
0 0.697505 0.197559
0 0.697505 0.197559
0 0.697688 0.198276
0 0.695949 0.2009
0.566522 0.694652 0.211765
0.7449 0.704616 0.238987
0.768139 0.746334 0.298863
0.762127 0.805066 0.438254
0.756252 0.850126 0.587411
0 0.848753 0.0311437
0 0.848753 0.0311437
0 0.848753 0.0311437
0 0.845884 0.0318761
0.533974 0.833097 0.0246281
0.7066 0.826596 0.103288
0.762081 0.828809 0.221042
0.759976 0.840513 0.404334
0.755657 0.859052 0.581765
0.484092 0.886351 0.101488
0.484092 0.886351 0.101488
0.484092 0.886351 0.101488
0.484092 0.886351 0.101488
0.604059 0.878508 0.107439
0.698787 0.873671 0.140536
0.752758 0.871046 0.233402
0.757382 0.869688 0.434119
0.754452 0.872053 0.600855
0.678386 0.881254 0.506432
0.678386 0.881254 0.506432
0.678386 0.881254 0.506432
0.678386 0.881254 0.506432
0.678386 0.881254 0.506432
0.709682 0.881422 0.512016
0.74258 0.881483 0.528817
0.753918 0.880995 0.570718
0.753262 0.880476 0.642802
0.730541 0.880247 0.666178
0.730541 0.880247 0.666178
0.730541 0.880247 0.666178
0.730541 0.880247 0.666178
0.730541 0.880247 0.666178
0.730541 0.880247 0.666178
0.742428 0.880369 0.668132
0.753079 0.880385 0.673518
0.753017 0.880354 0.687007
0 0 0.586725
0 0 0.586725
0 0 0.586801
0.0327459 0 0.584848
0.638392 0 0.566278
0.808865 0 0.572534
0.810376 0.21239 0.60116
0.76379 0.75288 0.605737
0.756161 0.843626 0.648402
0 0 0.586664
0 0 0.586664
0 0 0.586709
0.0385138 0 0.584405
0.641199 0 0.565942
0.808865 0 0.572244
0.806317 0.293385 0.60148
0.763607 0.754955 0.605432
0.756161 0.843748 0.648356
0 0 0.585916
0 0 0.585916
0 0 0.585962
0.115358 0 0.582101
0.645365 0 0.565072
0.808865 0 0.57142
0.800351 0.381216 0.599847
0.763317 0.758114 0.604974
0.756146 0.843961 0.64831
0 0.107042 0.58175
0 0.107042 0.58175
0 0.110491 0.581735
0.112902 0.104738 0.579812
0.644862 0.0162051 0.567483
0.810483 0.106126 0.58175
0.78616 0.557702 0.592508
0.762325 0.769558 0.60325
0.756069 0.844907 0.648051
0 0.658427 0.554162
0 0.658427 0.554162
0 0.658473 0.554192
0 0.658289 0.554482
0.546075 0.657511 0.556603
0.740093 0.672709 0.562554
0.76701 0.72668 0.571679
0.760067 0.797604 0.598352
0.755825 0.848432 0.647105
0 0.8477 0.538643
0 0.8477 0.538643
0 0.847776 0.538598
0 0.845487 0.538872
0.493248 0.830716 0.531182
0.696025 0.820142 0.533883
0.757717 0.822309 0.552087
0.75729 0.835966 0.588174
0.755169 0.857679 0.643702
0.460838 0.884733 0.470542
0.460838 0.884733 0.470542
0.460838 0.884733 0.470542
0.460838 0.884733 0.470542
0.589975 0.876234 0.468925
0.690822 0.870542 0.479942
0.7458 0.867506 0.509087
0.755261 0.867231 0.564248
0.754208 0.871504 0.634028
0.680705 0.88127 0.505898
0.680705 0.88127 0.505898
0.680705 0.88127 0.505898
0.680705 0.88127 0.505898
0.680705 0.88127 0.505898
0.710552 0.881437 0.511635
0.742855 0.881498 0.528496
0.753918 0.880995 0.570565
0.753262 0.880476 0.642664
0.730816 0.880247 0.666148
0.730816 0.880247 0.666148
0.730816 0.880247 0.666148
0.730816 0.880247 0.666148
0.730816 0.880247 0.666148
0.730816 0.880247 0.666148
0.742535 0.880369 0.668086
0.753079 0.880385 0.673487
0.753017 0.880354 0.686992
0 0 0.716411
0 0 0.716472
0 0 0.716472
0 0 0.716487
0.448432 0 0.701427
0.806027 0 0.697841
0.809354 0 0.698344
0.770291 0.69247 0.701671
0.756176 0.839078 0.699336
0 0 0.716472
0 0 0.716472
0 0 0.716472
0 0 0.716487
0.447623 0 0.701457
0.806027 0 0.697841
0.809354 0 0.698299
0.769696 0.697246 0.701122
0.756161 0.839231 0.699306
0 0 0.716442
0 0 0.716442
0 0 0.716442
0 0 0.716457
0.460075 0 0.700984
0.806287 0 0.69778
0.809354 0 0.698207
0.768826 0.704494 0.700328
0.756146 0.839475 0.699275
0 0 0.716136
0 0 0.716136
0 0 0.716136
0 0 0.716152
0.522805 0 0.698528
0.806928 0 0.69749
0.809567 0 0.697505
0.766125 0.727977 0.69778
0.756069 0.840589 0.699138
0 0.379522 0.706706
0 0.379522 0.706706
0 0.379522 0.706706
0 0.383871 0.706584
0.500053 0.388922 0.707515
0.790005 0.427054 0.713481
0.778637 0.627604 0.703792
0.761151 0.775967 0.693019
0.755764 0.844724 0.698619
0 0.835081 0.698436
0 0.835081 0.698436
0 0.835081 0.698436
0 0.835081 0.698436
0.254292 0.824887 0.694179
0.683818 0.806546 0.683101
0.754299 0.811261 0.684153
0.756985 0.829129 0.687572
0.755016 0.855283 0.697047
0.273487 0.887495 0.684749
0.273487 0.887495 0.684749
0.27454 0.88748 0.684703
0.27454 0.88748 0.684703
0.524926 0.875578 0.676036
0.673869 0.866682 0.673381
0.73666 0.863996 0.675853
0.754391 0.864912 0.681773
0.753918 0.870359 0.693675
0.670558 0.879744 0.652369
0.670558 0.879744 0.652369
0.670558 0.879744 0.652369
0.670558 0.879744 0.652369
0.670558 0.879744 0.652369
0.700984 0.879988 0.653681
0.735729 0.880323 0.65774
0.752865 0.880461 0.667872
0.753017 0.880354 0.685817
0.731731 0.880262 0.666041
0.731731 0.880262 0.666041
0.731731 0.880262 0.666041
0.731731 0.880262 0.666041
0.731731 0.880262 0.666041
0.731731 0.880262 0.666041
0.74287 0.880369 0.667964
0.753079 0.880385 0.673396
0.753017 0.880354 0.686961
0 0 0.751339
0 0 0.751339
0 0 0.751339
0 0 0.751339
0 0 0.751339
0.744305 0 0.737667
0.809598 0 0.740597
0.809598 0 0.740597
0.757473 0.818555 0.735164
0 0 0.751339
0 0 0.751339
0 0 0.751339
0 0 0.751339
0 0 0.751339
0.744305 0 0.737667
0.809598 0 0.740597
0.809598 0 0.740597
0.757443 0.818891 0.735134
0 0 0.751339
0 0 0.751339
0 0 0.751339
0 0 0.751339
0 0 0.751339
0.744305 0 0.737667
0.809598 0 0.740597
0.809598 0 0.740597
0.757397 0.819501 0.735088
0 0 0.751339
0 0 0.751339
0 0 0.751339
0 0 0.751339
0 0 0.751339
0.747936 0 0.737819
0.809598 0 0.740597
0.809598 0 0.740597
0.757214 0.821851 0.73489
0 0 0.751339
0 0 0.751339
0 0 0.751339
0 0 0.751339
0 0 0.751339
0.773205 0 0.738949
0.809598 0 0.740597
0.803967 0.353674 0.761593
0.756634 0.829847 0.734234
0 0.687785 0.745174
0 0.687785 0.745174
0 0.687785 0.745174
0 0.687785 0.745174
0 0.690715 0.745266
0.683848 0.686641 0.74284
0.766049 0.72723 0.7402
0.759182 0.796551 0.734783
0.755383 0.84715 0.732784
0 0.893355 0.748501
0 0.893355 0.748501
0 0.893355 0.748501
0 0.893355 0.748501
0 0.893355 0.748501
0.639628 0.862684 0.729
0.731945 0.858732 0.728893
0.754437 0.860685 0.729244
0.753902 0.867842 0.730709
0.64828 0.879469 0.724636
0.64828 0.879469 0.724636
0.64828 0.879469 0.724636
0.64828 0.879469 0.724636
0.64828 0.879469 0.724636
0.682689 0.879606 0.724529
0.728985 0.880095 0.72491
0.75198 0.880339 0.725933
0.752804 0.880262 0.728298
0.72781 0.880095 0.716976
0.72781 0.880095 0.716976
0.72781 0.880095 0.716976
0.72781 0.880095 0.716976
0.72781 0.880095 0.716976
0.72781 0.880095 0.716976
0.739055 0.880217 0.717494
0.751431 0.880339 0.719081
0.752834 0.880278 0.722835
0 0.0113832 0.751522
0 0.0113832 0.751522
0 0.0113832 0.751522
0 0.0113832 0.751522
0 0.0113832 0.751522
0 0.0114595 0.751522
0.809598 0 0.740597
0.810117 0 0.742855
0.781796 0.604471 0.758389
0 0.0113832 0.751522
0 0.0113832 0.751522
0 0.0113832 0.751522
0 0.0113832 0.751522
0 0.0113832 0.751522
0 0.0114595 0.751522
0.809598 0 0.740597
0.810117 0 0.742855
0.781796 0.604471 0.758389
0 0.0113832 0.751522
0 0.0113832 0.751522
0 0.0113832 0.751522
0 0.0113832 0.751522
0 0.0113832 0.751522
0 0.0114595 0.751522
0.809598 0 0.740597
0.810117 0 0.742855
0.781811 0.60444 0.758404
0 0.0113832 0.751522
0 0.0113832 0.751522
0 0.0113832 0.751522
0 0.0113832 0.751522
0 0.0113832 0.751522
0 0.0114595 0.751522
0.809598 0 0.740597
0.810117 0 0.742855
0.781826 0.604334 0.758404
0 0.0112917 0.751522
0 0.0112917 0.751522
0 0.0112917 0.751522
0 0.0112917 0.751522
0 0.0112917 0.751522
0 0.0113527 0.751522
0.809598 0 0.740597
0.810162 0 0.743038
0.781857 0.604013 0.758419
0 0.0099794 0.751522
0 0.0099794 0.751522
0 0.0099794 0.751522
0 0.0099794 0.751522
0 0.0099794 0.751522
0 0.0100404 0.751522
0.809598 0 0.740597
0.811078 0 0.746563
0.766186 0.725307 0.75021
0 0.832105 0.762356
0 0.832105 0.762356
0 0.832105 0.762356
0 0.832105 0.762356
0 0.832105 0.762356
0 0.833646 0.762478
0.733288 0.804837 0.747524
0.756588 0.828885 0.74728
0.754696 0.854963 0.747112
0.375662 0.887236 0.755169
0.375662 0.887236 0.755169
0.375662 0.887236 0.755169
0.375662 0.887236 0.755169
0.375662 0.887236 0.755169
0.375662 0.887236 0.755169
0.716335 0.879759 0.745968
0.750698 0.879072 0.746105
0.752956 0.879438 0.746166
0.719753 0.879927 0.74464
0.719753 0.879927 0.74464
0.719753 0.879927 0.74464
0.719753 0.879927 0.74464
0.719753 0.879927 0.74464
0.719753 0.879927 0.74464
0.732326 0.880064 0.744701
0.748943 0.880247 0.744808
0.752712 0.880217 0.745022
0 0.21413 0.751812
0 0.21413 0.751812
0 0.21413 0.751812
0 0.21413 0.751812
0 0.21413 0.751812
0 0.21413 0.751812
0 0.214206 0.751812
0.812207 0.0546273 0.751919
0.777935 0.633738 0.756313
0 0.21413 0.751812
0 0.21413 0.751812
0 0.21413 0.751812
0 0.21413 0.751812
0 0.21413 0.751812
0 0.21413 0.751812
0 0.214206 0.751812
0.812207 0.0546273 0.751919
0.777935 0.633738 0.756313
0 0.21413 0.751812
0 0.21413 0.751812
0 0.21413 0.751812
0 0.21413 0.751812
0 0.21413 0.751812
0 0.21413 0.751812
0 0.214206 0.751812
0.812207 0.0546273 0.751919
0.777935 0.633738 0.756313
0 0.21413 0.751812
0 0.21413 0.751812
0 0.21413 0.751812
0 0.21413 0.751812
0 0.21413 0.751812
0 0.21413 0.751812
0 0.214206 0.751812
0.812207 0.0546273 0.751919
0.777935 0.633738 0.756313
0 0.21413 0.751812
0 0.21413 0.751812
0 0.21413 0.751812
0 0.21413 0.751812
0 0.21413 0.751812
0 0.21413 0.751812
0 0.214206 0.751812
0.812207 0.0546273 0.751919
0.777935 0.633738 0.756313
0 0.214054 0.751812
0 0.214054 0.751812
0 0.214054 0.751812
0 0.214054 0.751812
0 0.214054 0.751812
0 0.214054 0.751812
0 0.214115 0.751812
0.812222 0.0555428 0.751995
0.777768 0.634928 0.756237
0 0.21294 0.751827
0 0.21294 0.751827
0 0.21294 0.751827
0 0.21294 0.751827
0 0.21294 0.751827
0 0.21294 0.751827
0 0.212985 0.751827
0.812802 0.17496 0.761151
0.777493 0.637049 0.756069
0 0.892729 0.765652
0 0.892729 0.765652
0 0.892729 0.765652
0 0.892729 0.765652
0 0.892729 0.765652
0 0.892729 0.765652
0 0.892882 0.765652
0.749554 0.867109 0.747082
0.753552 0.871031 0.747005
0.683452 0.879515 0.746441
0.683452 0.879515 0.746441
0.683452 0.879515 0.746441
0.683452 0.879515 0.746441
0.683452 0.879515 0.746441
0.683452 0.879515 0.746441
0.683452 0.879515 0.746441
0.745205 0.880186 0.746761
0.752941 0.880491 0.747021
