BBLuts/BB_106_0030_LUT.cube
TITLE "Generated by Resolve"
LUT_3D_SIZE 5
0 0 0
0.245182 0 0
0.782238 0.00929274 0.0121004
0.918883 0.6056 0.263355
0.896056 0.926116 0.915679
0 0.283833 0
0.196796 0.283803 0
0.779492 0.114778 0.00366217
0.916472 0.65449 0.220752
0.896025 0.92694 0.915297
0 0.808225 0.0289921
0 0.807813 0.0289464
0.709392 0.786709 0.00875868
0.909926 0.83035 0.0140688
0.895766 0.932647 0.91223
0.626795 0.9664 0.436332
0.652979 0.96582 0.438224
0.761425 0.960601 0.455528
0.895827 0.952346 0.590646
0.89453 0.955383 0.927214
0.873472 0.962371 0.998016
0.873716 0.962371 0.998047
0.875639 0.962371 0.998291
0.887419 0.962371 1
0.893446 0.962325 1
0 0 0.300145
0.215549 0 0.303166
0.780362 0.0069276 0.333104
0.917922 0.594125 0.474266
0.895979 0.925872 0.925933
0 0.237476 0.280324
0.205203 0.229343 0.270878
0.781109 0.00704967 0.309331
0.915007 0.644984 0.454612
0.895949 0.926696 0.925582
0 0.805356 0.028687
0 0.804898 0.0286412
0.713573 0.783902 0.00863661
0.907378 0.826917 0.255116
0.895689 0.932448 0.92282
0.631037 0.966369 0.435859
0.656458 0.965637 0.437766
0.762646 0.960525 0.455146
0.895903 0.952316 0.590616
0.89453 0.955383 0.927153
0.873503 0.962371 0.998016
0.873762 0.962371 0.998047
0.875669 0.962371 0.998291
0.887434 0.962371 1
0.893446 0.962325 1
0 0 0.861479
0 0 0.861677
0.785092 0.0103761 0.86807
0.925353 0.407218 0.877134
0.895659 0.924132 0.979156
0 0 0.859937
0 0 0.860151
0.792142 0.0107729 0.866651
0.918029 0.543847 0.87216
0.895628 0.925002 0.978958
0 0.760357 0.835889
0 0.760647 0.836164
0.691722 0.740337 0.825895
0.902739 0.80499 0.851041
0.895338 0.931029 0.977417
0.632349 0.963943 0.702525
0.656413 0.962905 0.703105
0.758633 0.957992 0.708919
0.890623 0.950454 0.768444
0.894255 0.954955 0.964218
0.873808 0.962371 0.997971
0.874067 0.962371 0.998001
0.875944 0.962371 0.998245
0.887541 0.962371 1
0.893446 0.962325 1
0 0 1
0 0 1
0 0 1
0.952804 0.0238651 1
0.896147 0.902403 1
0 0 1
0 0 1
0 0 1
0.952804 0.0238651 1
0.896056 0.904219 1
0 0 1
0 0 1
0.304097 0 1
0.952804 0.0238651 1
0.89546 0.915862 1
0 0.980194 1
0 0.97995 1
0.646448 0.954314 1
0.875746 0.94316 1
0.89366 0.951949 1
0.871931 0.96228 1
0.872175 0.96228 1
0.873991 0.96228 1
0.885252 0.962264 1
0.893217 0.962249 1
0 0.434897 1
0 0.434897 1
0 0.434913 1
0 0.43508 1
0.904097 0.755154 1
0 0.434882 1
0 0.434882 1
0 0.434897 1
0 0.435065 1
0.904082 0.755215 1
0 0.434775 1
0 0.434775 1
0 0.434791 1
0 0.434943 1
0.904051 0.755749 1
0 0.433524 1
0 0.433524 1
0 0.433539 1
0.952804 0.0238651 1
0.903944 0.757702 1
0.82884 0.962264 1
0.829969 0.962264 1
0.837964 0.962249 1
0.872877 0.962203 1
0.893019 0.962203 1
