BBLuts/BB_106_0060_LUT.cube
TITLE "Generated by Resolve"
LUT_3D_SIZE 5
0.0184176 0.0175479 0.0163119
0.179187 0.0174716 0.0160067
0.701488 0.0184634 0.0146487
0.916472 0.475914 0.125444
0.923186 0.889418 0.656138
0.0162509 0.196231 0.0145876
0.158633 0.197436 0.0145418
0.707149 0.0822156 0.013962
0.915373 0.538003 0.103395
0.923903 0.890227 0.656184
0.0081178 0.713832 0.00941482
0.00227359 0.715801 0.00880446
0.64567 0.70399 0.00755322
0.913207 0.758831 0.00640879
0.922332 0.898253 0.652018
0.560983 0.936034 0.217884
0.584436 0.939895 0.215946
0.73109 0.932387 0.228504
0.914336 0.922606 0.330419
0.927825 0.926574 0.669932
0.90396 0.934951 0.744076
0.901869 0.935882 0.742443
0.900542 0.937377 0.740032
0.919173 0.9364 0.744305
0.930251 0.93547 0.768002
0.019028 0.0179294 0.162997
0.160143 0.0179599 0.163333
0.70219 0.0188754 0.161532
0.918898 0.461753 0.248539
0.927306 0.887663 0.669017
0.0175174 0.167483 0.149081
0.161837 0.164843 0.144839
0.703792 0.0187381 0.149432
0.920027 0.526726 0.235996
0.928634 0.888243 0.66949
0.00970474 0.709651 0.00961318
0.00192264 0.712367 0.0087892
0.652399 0.699916 0.00770581
0.915267 0.756924 0.116258
0.92491 0.897124 0.664256
0.565744 0.936355 0.21735
0.590097 0.939269 0.215991
0.732876 0.932204 0.228305
0.915251 0.922271 0.330694
0.928405 0.926345 0.670222
0.90425 0.934859 0.744228
0.904555 0.934874 0.744228
0.900633 0.937346 0.740063
0.919921 0.93611 0.744793
0.927916 0.936355 0.766384
0.0209506 0.019089 0.615961
0.0209506 0.0194247 0.607263
0.710475 0.0202029 0.602686
0.929839 0.284077 0.624964
0.933623 0.883421 0.727199
0.0209354 0.0190433 0.615671
0.0209506 0.0193942 0.60676
0.720638 0.0199893 0.603372
0.930556 0.405768 0.621881
0.93753 0.883101 0.72961
0.0177768 0.657359 0.577737
0.00579843 0.663111 0.566705
0.637842 0.651072 0.571176
0.930953 0.72961 0.598825
0.938201 0.890715 0.728328
0.581125 0.932509 0.448295
0.593713 0.93904 0.43975
0.73225 0.931685 0.448035
0.92578 0.916121 0.514916
0.942016 0.920516 0.716579
0.91075 0.93254 0.748287
0.895537 0.93846 0.737804
0.901442 0.937179 0.740322
0.931121 0.931945 0.752209
0.935042 0.933669 0.771313
0.0218967 0.0195163 0.84358
0.0218967 0.0201724 0.826505
0.0218967 0.0201724 0.826398
0.928313 0.021088 0.827634
0.941268 0.852781 0.826413
0.0218967 0.0196536 0.839872
0.0218967 0.0201724 0.82652
0.0218967 0.0201419 0.827268
0.930175 0.0207065 0.831647
0.934646 0.857603 0.821118
0.0218967 0.0196841 0.839384
0.0218967 0.0201724 0.826535
0.214908 0.0204166 0.825757
0.933089 0.0201114 0.837903
0.930007 0.87454 0.816403
0.0133669 0.9364 0.810605
0 0.943069 0.795926
0.581079 0.932143 0.793805
0.898848 0.912596 0.804395
0.935897 0.919554 0.816571
0.903792 0.934585 0.792401
0.878614 0.94432 0.774105
0.881117 0.944289 0.774258
0.911955 0.938369 0.78645
0.943038 0.930755 0.810224
0.0177005 0.306447 0.830793
0.0152438 0.307851 0.823346
0.0152132 0.307881 0.823255
0.0153048 0.307958 0.823514
0.92578 0.668956 0.82855
0.0171969 0.306722 0.829252
0.0152438 0.307836 0.823316
0.0152285 0.307866 0.823255
0.0153964 0.307881 0.823789
0.916716 0.672267 0.820249
0.0159915 0.307317 0.825574
0.0152438 0.307744 0.823285
0.0152285 0.307759 0.823255
0.0173953 0.306661 0.829816
0.916732 0.672953 0.820264
0.0161746 0.306188 0.826093
0.015259 0.306706 0.823301
0.0152438 0.306737 0.823255
0.926665 0.0214237 0.824063
0.916442 0.675547 0.82002
0.823819 0.943465 0.816358
0.822995 0.944381 0.814557
0.833661 0.944381 0.814527
0.880095 0.944442 0.814404
0.91223 0.94258 0.818067
