BBLuts/BB_106_0260_LUT.cube
TITLE "Generated by Resolve"
LUT_3D_SIZE 9
0.00764477 0.0238346 0.0493172
0.00764477 0.0238346 0.0493172
0.211902 0.0301823 0.0542
0.481651 0.0463417 0.0799115
0.768368 0.331609 0.41529
0.961715 0.640284 0.685161
0.960357 0.668223 0.68423
0.95108 0.847562 0.634012
0.943206 0.954437 0.781903
0 0.0759747 0.0429999
0 0.0853895 0.0418708
0.217166 0.0715343 0.0489815
0.49337 0.0478218 0.0821088
0.770489 0.336095 0.419425
0.961715 0.640284 0.685161
0.959976 0.675959 0.683162
0.950851 0.851484 0.62884
0.94316 0.954925 0.781231
0 0.228077 0.0251469
0 0.232059 0.0246433
0.145968 0.234226 0.0300298
0.492988 0.227176 0.0606088
0.772992 0.375296 0.423194
0.961547 0.644083 0.68481
0.959289 0.689937 0.681025
0.950484 0.857527 0.619699
0.943069 0.955749 0.780118
0 0.522972 0
0 0.524132 0
0 0.524758 0
0.392813 0.52546 0
0.772808 0.54786 0.402029
0.96025 0.670237 0.682139
0.956939 0.737423 0.671138
0.949523 0.87364 0.585275
0.942794 0.958068 0.776761
0 0.799527 0
0 0.799451 0
0 0.799115 0
0 0.796841 0
0.698177 0.790814 0
0.924819 0.801282 0.594156
0.951385 0.843015 0.609171
0.949935 0.909529 0
0.942061 0.964218 0.7664
0 0.956115 0
0 0.955444 0
0 0.954314 0
0 0.950912 0
0 0.942382 0
0.872648 0.935866 0
0.947356 0.938903 0
0.945861 0.954345 0
0.940383 0.977325 0.744656
0 1 0
0 1 0
0 1 0
0 1 0
0.574548 0.998169 0
0.850782 0.993683 0
0.934462 0.990967 0
0.941283 0.991562 0
0.938125 0.995163 0.770687
0.797711 1 0
0.800061 1 0
0.803738 1 0
0.813977 1 0
0.838514 1 0
0.879789 1 0
0.9243 1 0
0.936187 1 0.621378
0.937255 1 0.847791
0.903975 1 0.884627
0.904158 1 0.884672
0.904479 1 0.884718
0.905425 1 0.884901
0.90811 1 0.88539
0.914855 1 0.886824
0.927626 1 0.890761
0.938491 1 0.900008
0.9393 1 0.921706
0.0137484 0.0283513 0.105959
0.0137789 0.0283665 0.106233
0.216724 0.0346532 0.110872
0.482399 0.0507362 0.137728
0.768185 0.333639 0.431403
0.961715 0.640452 0.686412
0.960418 0.667063 0.685359
0.95111 0.846784 0.643458
0.943282 0.954406 0.790204
0.00738537 0.0571756 0.0927901
0.0502327 0.0694591 0.0915389
0.235691 0.0345312 0.10103
0.48838 0.0505226 0.126299
0.769177 0.334401 0.424567
0.961715 0.640406 0.68603
0.960037 0.674708 0.684306
0.950881 0.850721 0.638743
0.943236 0.954894 0.789609
0 0.217945 0.0263828
0 0.221286 0.0259861
0.170581 0.224369 0.0294652
0.491432 0.217487 0.0613565
0.770809 0.360845 0.419333
0.961563 0.643748 0.68484
0.95935 0.688624 0.682246
0.950515 0.856794 0.630472
0.943145 0.955718 0.788586
0 0.518563 0
0 0.519661 0
0 0.520119 0
0.409598 0.520668 0
0.772488 0.544854 0.402167
0.960296 0.669551 0.682216
0.957015 0.736248 0.672236
0.949523 0.87303 0.599634
0.942855 0.958053 0.785489
0 0.798413 0
0 0.798306 0
0 0.797955 0
0 0.795636 0
0.701503 0.789715 0
0.924971 0.80058 0.595056
0.9514 0.842618 0.609735
0.949966 0.909346 0
0.942123 0.964202 0.776059
0 0.955871 0
0 0.9552 0
0 0.954086 0
0 0.950668 0
0 0.942184 0
0.873014 0.935729 0
0.947372 0.938811 0
0.945861 0.954284 0
0.940398 0.97731 0.745754
0 1 0
0 1 0
0 1 0
0 1 0
0.583169 0.998123 0
0.851011 0.993652 0
0.934508 0.990936 0
0.941299 0.991547 0
0.938125 0.995148 0.770642
0.798077 1 0
0.800412 1 0
0.804074 1 0
0.814237 1 0
0.838712 1 0
0.879881 1 0
0.924346 1 0
0.936187 1 0.621302
0.937255 1 0.847776
0.904005 1 0.884627
0.904189 1 0.884672
0.904509 1 0.884718
0.905455 1 0.884886
0.908141 1 0.88539
0.91487 1 0.886824
0.927626 1 0.890761
0.938491 1 0.900008
0.9393 1 0.921706
0.0305638 0.0408331 0.249302
0.0306096 0.0408637 0.249546
0.207355 0.0459602 0.255085
0.495109 0.0633707 0.272633
0.767895 0.338537 0.464103
0.961715 0.640711 0.68835
0.96051 0.664973 0.688334
0.951186 0.845487 0.659998
0.943404 0.954345 0.802396
0.0299992 0.0404212 0.244785
0.030045 0.0404517 0.245197
0.232181 0.0463111 0.251423
0.493492 0.0627756 0.268559
0.769909 0.342382 0.465797
0.961715 0.640681 0.688212
0.960159 0.672328 0.687282
0.950942 0.84947 0.655955
0.943343 0.954849 0.801846
0 0.204379 0.212421
0 0.2065 0.211856
0.183871 0.204425 0.201877
0.476127 0.204578 0.239261
0.76875 0.339529 0.461234
0.961578 0.643091 0.687739
0.959487 0.685893 0.685252
0.950576 0.855634 0.648951
0.943252 0.955673 0.800946
0 0.505379 0.0333257
0 0.506676 0.0334173
0 0.507301 0.0344701
0.414038 0.507408 0.0626383
0.768185 0.535241 0.424735
0.960388 0.667414 0.684337
0.957153 0.733211 0.676326
0.949554 0.872038 0.623865
0.942977 0.958007 0.798215
0 0.796094 0
0 0.795987 0
0 0.795621 0
0 0.793286 0
0.704677 0.787472 0
0.924926 0.798917 0.596414
0.951461 0.841505 0.614267
0.947921 0.906905 0.321508
0.942229 0.964187 0.78999
0 0.955505 0
0 0.954818 0
0 0.953689 0
0 0.950301 0
0 0.941878 0
0.873579 0.935515 0
0.947387 0.938659 0
0.945876 0.954192 0
0.94049 0.97731 0.764401
0 1 0
0 1 0
0 1 0
0 1 0
0.593759 0.998047 0
0.851423 0.993622 0
0.934585 0.990921 0
0.941299 0.991531 0
0.93814 0.995132 0.77055
0.798642 1 0
0.800961 1 0
0.804593 1 0
0.81471 1 0
0.839033 1 0
0.880034 1 0
0.924376 1 0
0.936187 1 0.621302
0.937255 1 0.847745
0.904036 1 0.884627
0.904234 1 0.884657
0.904555 1 0.884733
0.905486 1 0.884886
0.908186 1 0.885359
0.914885 1 0.886809
0.927642 1 0.890745
0.938491 1 0.900008
0.9393 1 0.921706
0.136019 0.117845 0.519524
0.136172 0.117952 0.519677
0.136263 0.117998 0.519768
0.478126 0.13373 0.523674
0.783413 0.394095 0.575174
0.961639 0.642451 0.70106
0.960769 0.660578 0.707835
0.951461 0.841749 0.713268
0.943786 0.954223 0.831952
0.133761 0.116213 0.517266
0.133989 0.11635 0.517464
0.2159 0.118349 0.518425
0.492973 0.133944 0.521767
0.781674 0.390753 0.572976
0.961639 0.642405 0.700725
0.960449 0.666835 0.706661
0.951217 0.845869 0.710735
0.943725 0.954726 0.83154
0.117494 0.178897 0.510155
0.116747 0.184054 0.51014
0.228138 0.182132 0.511482
0.498726 0.132052 0.518059
0.776364 0.381247 0.568139
0.961639 0.642313 0.700145
0.959869 0.67892 0.704509
0.950835 0.852232 0.706477
0.943633 0.95555 0.830869
0 0.463737 0.462989
0 0.46566 0.463203
0 0.467033 0.463935
0.431571 0.46775 0.446876
0.754131 0.505745 0.537987
0.960693 0.66183 0.696223
0.957626 0.7243 0.695918
0.949737 0.8692 0.69247
0.943343 0.957916 0.82887
0 0.786007 0
0 0.785992 0
0 0.785718 0
0 0.783581 0
0.702647 0.777996 0
0.923003 0.791547 0.617716
0.95169 0.837034 0.644785
0.947265 0.904646 0.636744
0.942596 0.964141 0.822644
0 0.954437 0
0 0.95375 0
0 0.952605 0
0 0.949218 0
0 0.940795 0
0.873045 0.934508 0
0.947494 0.937819 0
0.946014 0.953597 0
0.940841 0.977356 0.805371
0 1 0
0 1 0
0 1 0
0 1 0
0.619074 0.997848 0
0.852628 0.993484 0
0.934798 0.990814 0
0.941299 0.99147 0
0.93814 0.995117 0.770275
0.800366 1 0
0.80264 1 0
0.80621 1 0
0.816098 1 0
0.840009 1 0
0.880476 1 0
0.924498 1 0
0.936187 1 0.621134
0.937255 1 0.847669
0.904189 1 0.884611
0.904387 1 0.884657
0.904692 1 0.884688
0.905638 1 0.884871
0.908293 1 0.885374
0.914992 1 0.886809
0.927687 1 0.890745
0.938491 1 0.899992
0.9393 1 0.921706
0.558831 0.563027 0.792462
0.558907 0.563119 0.792523
0.55906 0.563272 0.792645
0.56997 0.562387 0.791836
0.771511 0.580255 0.791577
0.960845 0.67126 0.812711
0.960632 0.678065 0.823468
0.952911 0.832486 0.838132
0.94493 0.953841 0.88542
0.558099 0.562234 0.791867
0.55819 0.562325 0.791928
0.558343 0.562493 0.792065
0.571572 0.561456 0.791104
0.77612 0.580804 0.791119
0.960845 0.671061 0.812222
0.960525 0.679957 0.822309
0.952621 0.837064 0.837049
0.944884 0.95436 0.885176
0.556909 0.560922 0.79089
0.557015 0.561044 0.790967
0.557168 0.561227 0.791104
0.574426 0.559976 0.789944
0.778927 0.580484 0.790173
0.960861 0.670726 0.811383
0.960266 0.684611 0.820325
0.952193 0.844022 0.835355
0.944778 0.95523 0.884779
0.547936 0.567681 0.784863
0.547951 0.567956 0.784894
0.547875 0.568276 0.784878
0.568261 0.566918 0.784085
0.777478 0.581582 0.785504
0.960723 0.672328 0.806729
0.958862 0.711803 0.813657
0.951003 0.862333 0.830289
0.944488 0.957671 0.883589
0 0.753796 0.743023
0 0.75407 0.743114
0 0.754131 0.743267
0 0.752819 0.743801
0.704356 0.747967 0.736431
0.916915 0.770657 0.772045
0.952834 0.824125 0.789487
0.948226 0.900694 0.815763
0.943709 0.964096 0.880201
0 0.951232 0
0 0.950561 0
0 0.949462 0
0 0.946059 0
0 0.937362 0
0.862028 0.928298 0.603006
0.945006 0.932509 0.716808
0.943679 0.949706 0.779339
0.941909 0.977554 0.871092
0 1 0
0 1 0
0 1 0
0 1 0
0.585031 0.997086 0
0.846876 0.992737 0
0.930114 0.990097 0
0.938766 0.988586 0.645182
0.93904 0.995468 0.84889
0.805432 1 0
0.807553 1 0
0.810895 1 0
0.820203 1 0
0.842878 1 0
0.881804 1 0
0.924895 1 0
0.936187 1 0.620706
0.93724 1 0.847456
0.904631 1 0.884581
0.904814 1 0.884611
0.905135 1 0.884672
0.90605 1 0.88484
0.908675 1 0.885313
0.915267 1 0.886778
0.927825 1 0.8907
0.938491 1 0.899947
0.9393 1 0.921706
0.73051 0.749447 0.967315
0.730526 0.749447 0.96733
0.730541 0.749477 0.967346
0.730587 0.749523 0.967391
0.756207 0.745037 0.962539
0.960632 0.763485 0.961456
0.960647 0.764172 0.962295
0.9579 0.807172 0.952865
0.947738 0.951553 0.947784
0.730449 0.749371 0.967239
0.730449 0.749386 0.967254
0.730465 0.749386 0.967269
0.73051 0.749447 0.967315
0.758312 0.744915 0.962386
0.960632 0.763424 0.961379
0.960647 0.764111 0.962203
0.957595 0.811917 0.952071
0.947677 0.952163 0.947646
0.730327 0.749249 0.967132
0.730343 0.749264 0.967147
0.730358 0.749264 0.967147
0.730388 0.74931 0.967193
0.761913 0.744732 0.962112
0.960616 0.763302 0.961242
0.960647 0.764004 0.962112
0.957122 0.819608 0.95082
0.94757 0.953124 0.947402
0.729976 0.748852 0.966751
0.729992 0.748867 0.966766
0.729992 0.748882 0.966781
0.729702 0.748562 0.966476
0.771069 0.744274 0.961425
0.960616 0.762997 0.960876
0.960601 0.762539 0.960327
0.955703 0.84184 0.947341
0.94725 0.955886 0.9467
0.717067 0.749645 0.954772
0.717006 0.749752 0.954726
0.716899 0.74992 0.95465
0.716304 0.749813 0.954086
0.756466 0.746975 0.951476
0.957076 0.766934 0.951324
0.958114 0.796429 0.946471
0.952377 0.888869 0.939651
0.946395 0.963088 0.944778
0 0.941878 0.914092
0 0.941482 0.914107
0 0.940703 0.914153
0 0.937697 0.91429
0.552911 0.928771 0.915038
0.859953 0.92137 0.918151
0.945235 0.927916 0.922576
0.947051 0.947585 0.926802
0.944503 0.977676 0.9402
0 1 0.880796
0 1 0.880995
0 1 0.88127
0 0.999634 0.882094
0.522423 0.995224 0.884199
0.832761 0.990387 0.889311
0.919509 0.987778 0.898009
0.941604 0.989502 0.910216
0.941573 0.996567 0.931563
0.79707 1 0.833387
0.799146 1 0.833509
0.802411 1 0.833722
0.811566 1 0.834379
0.833967 1 0.836316
0.872755 1 0.841688
0.916197 1 0.854475
0.937911 1 0.879026
0.939071 1 0.916289
0.905928 1 0.884474
0.906111 1 0.88452
0.906401 1 0.884565
0.907286 1 0.884718
0.909789 1 0.885206
0.916106 1 0.886656
0.928267 1 0.890578
0.938491 1 0.899825
0.9393 1 0.921675
0.77879 0.80177 1
0.77879 0.80177 1
0.77879 0.80177 1
0.77879 0.80177 1
0.77879 0.80177 1
0.948455 0.811963 1
0.963027 0.814054 1
0.963027 0.814054 1
0.953063 0.934142 0.996841
0.77879 0.80177 1
0.77879 0.80177 1
0.77879 0.80177 1
0.77879 0.80177 1
0.77879 0.80177 1
0.949554 0.812116 1
0.963027 0.814054 1
0.963027 0.814054 1
0.952972 0.935119 0.996674
0.77879 0.80177 1
0.77879 0.80177 1
0.77879 0.80177 1
0.77879 0.80177 1
0.77879 0.80177 1
0.951339 0.81236 1
0.963027 0.814054 1
0.963027 0.814054 1
0.952819 0.93669 0.996429
0.77879 0.80177 1
0.77879 0.80177 1
0.77879 0.80177 1
0.77879 0.80177 1
0.77879 0.80177 1
0.956527 0.813092 1
0.963027 0.814054 1
0.963027 0.814054 1
0.952361 0.941146 0.995697
0.77879 0.80177 1
0.77879 0.80177 1
0.77879 0.80177 1
0.77879 0.80177 1
0.779934 0.801801 1
0.963027 0.814054 1
0.963027 0.814054 1
0.962188 0.819471 1
0.951156 0.952407 0.99379
0.751415 0.878172 1
0.751354 0.87834 1
0.751232 0.878614 1
0.750835 0.879438 1
0.750469 0.875883 1
0.884291 0.870451 1
0.956786 0.88751 0.99968
0.953353 0.927779 0.994369
0.948638 0.97319 0.989899
0 1 0.978195
0 1 0.97821
0 1 0.978256
0 1 0.978332
0.573785 0.996689 0.978668
0.828901 0.989639 0.979843
0.920729 0.986664 0.981476
0.946059 0.989136 0.98262
0.945205 0.996963 0.984451
0.789044 1 0.970794
0.791226 1 0.97081
0.794644 1 0.970825
0.804273 1 0.970871
0.828 1 0.971038
0.869368 1 0.971511
0.914443 1 0.972686
0.942336 1 0.975021
0.942657 1 0.979248
0.906279 1 0.958083
0.906447 1 0.958114
0.906737 1 0.958114
0.907576 1 0.958175
0.910002 1 0.958312
0.916121 1 0.95877
0.927947 1 0.959991
0.941436 1 0.963119
0.94197 1 0.970108
0.778775 0.801938 1
0.778775 0.801938 1
0.778775 0.801938 1
0.778775 0.801938 1
0.778775 0.801938 1
0.778775 0.801938 1
0.963027 0.814054 1
0.963027 0.814054 1
0.962203 0.829007 1
0.778775 0.801938 1
0.778775 0.801938 1
0.778775 0.801938 1
0.778775 0.801938 1
0.778775 0.801938 1
0.778775 0.801938 1
0.963027 0.814054 1
0.963027 0.814054 1
0.962203 0.829007 1
0.778775 0.801938 1
0.778775 0.801938 1
0.778775 0.801938 1
0.778775 0.801938 1
0.778775 0.801938 1
0.778775 0.801938 1
0.963027 0.814054 1
0.963027 0.814054 1
0.962203 0.829007 1
0.778775 0.801938 1
0.778775 0.801938 1
0.778775 0.801938 1
0.778775 0.801938 1
0.778775 0.801938 1
0.778775 0.801862 1
0.963027 0.814054 1
0.963027 0.814054 1
0.962203 0.828977 1
0.778775 0.801923 1
0.778775 0.801923 1
0.778775 0.801923 1
0.778775 0.801923 1
0.778775 0.801923 1
0.780285 0.801801 1
0.963027 0.814054 1
0.963027 0.814054 1
0.962203 0.828916 1
0.778775 0.801923 1
0.778775 0.801923 1
0.778775 0.801923 1
0.778775 0.801923 1
0.778775 0.801923 1
0.832486 0.803265 1
0.963027 0.814054 1
0.963027 0.814191 1
0.957031 0.90782 1
0.679698 0.981369 1
0.679622 0.981399 1
0.67953 0.981445 1
0.679194 0.981598 1
0.678172 0.982025 1
0.775036 0.965209 1
0.930343 0.961074 1
0.951324 0.969223 1
0.949004 0.98793 1
0.656657 1 1
0.664302 1 1
0.675807 1 1
0.705852 1 1
0.767224 1 1
0.846067 1 1
0.910307 1 1
0.944167 1 1
0.945205 1 1
0.901671 1 1
0.901884 1 1
0.902235 1 1
0.903304 1 1
0.906294 1 1
0.91371 1 1
0.927275 1 1
0.941878 1 1
0.94493 1 1
0.778653 0.802792 1
0.778653 0.802792 1
0.778653 0.802792 1
0.778653 0.802792 1
0.778653 0.802792 1
0.778653 0.802792 1
0.778653 0.802792 1
0.962982 0.814847 1
0.96173 0.837308 1
0.778653 0.802792 1
0.778653 0.802792 1
0.778653 0.802792 1
0.778653 0.802792 1
0.778653 0.802792 1
0.778653 0.802792 1
0.778653 0.802792 1
0.962982 0.814862 1
0.96173 0.837324 1
0.778653 0.802792 1
0.778653 0.802792 1
0.778653 0.802792 1
0.778653 0.802792 1
0.778653 0.802792 1
0.778653 0.802792 1
0.778653 0.802792 1
0.962982 0.814862 1
0.961715 0.837354 1
0.778653 0.802792 1
0.778653 0.802792 1
0.778653 0.802792 1
0.778653 0.802792 1
0.778653 0.802792 1
0.778653 0.802792 1
0.778653 0.802792 1
0.962982 0.814862 1
0.961715 0.8374 1
0.778653 0.802792 1
0.778653 0.802792 1
0.778653 0.802792 1
0.778653 0.802792 1
0.778653 0.802792 1
0.778653 0.802792 1
0.780179 0.802686 1
0.962982 0.814893 1
0.9617 0.837537 1
0.778653 0.802792 1
0.778653 0.802792 1
0.778653 0.802792 1
0.778653 0.802792 1
0.778653 0.802792 1
0.778653 0.802792 1
0.844083 0.803952 1
0.962982 0.814969 1
0.961685 0.837766 1
0.778653 0.802792 1
0.778653 0.802792 1
0.778653 0.802792 1
0.778653 0.802792 1
0.778653 0.802792 1
0.778653 0.802792 1
0.963027 0.814054 1
0.962966 0.815137 1
0.961669 0.838193 1
0 1 1
0 1 1
0 1 1
0 1 1
0 1 1
0 1 1
0.875166 1 1
0.947112 1 1
0.946654 1 1
0.853147 1 1
0.853895 1 1
0.855116 1 1
0.858625 1 1
0.867994 1 1
0.888136 1 1
0.916899 1 1
0.939681 1 1
0.94522 1 1
