BBLuts/BB_103_0928_LUT.cube
TITLE "Generated by Resolve"
LUT_3D_SIZE 33
0 0 0
0 0 0
0 0 0
0 0 0
0 0 0
0.032929 0 0
0.0887465 0 0
0.130159 0 0
0.17377 0 0
0.229053 0 0
0.29691 0 0
0.375952 0 0
0.461234 0 0
0.54963 0 0
0.624094 0 0
0.695369 0 0
0.760052 0 0
0.815579 0 0
0.861708 0 0
0.897566 0 0
0.904555 0 0
0.904768 0 0
0.929473 0.148623 0.0455024
0.950637 0.405264 0.145129
0.953597 0.560082 0.200061
0.954574 0.65211 0.259434
0.951919 0.726925 0.329839
0.949233 0.781552 0.441123
0.946639 0.816571 0.566171
0.944289 0.840543 0.655497
0.941894 0.856977 0.742535
0.939849 0.868986 0.822431
0.938735 0.878996 0.882521
0 0 0
0 0 0
0 0 0
0 0 0
0 0 0
0.0441901 0 0
0.0927291 0 0
0.133547 0 0
0.179385 0 0
0.235935 0 0
0.30428 0 0
0.382574 0 0
0.465141 0 0
0.55169 0 0
0.625452 0 0
0.696254 0 0
0.76051 0 0
0.815763 0 0
0.861662 0 0
0.897322 0 0
0.904555 0 0
0.904768 0 0
0.935134 0.197665 0.0411841
0.950851 0.423377 0.138979
0.953765 0.568933 0.196811
0.954437 0.656733 0.256947
0.951797 0.729763 0.327031
0.949218 0.783032 0.439658
0.946654 0.817319 0.56556
0.944305 0.84097 0.655222
0.941909 0.857206 0.742367
0.939864 0.869123 0.822339
0.938735 0.879072 0.882475
0 0 0
0 0 0
0 0 0
0 0 0
0 0 0
0.050782 0 0
0.0940719 0 0
0.136721 0 0
0.185229 0 0
0.242329 0 0
0.309911 0 0
0.385901 0 0
0.468376 0 0
0.553857 0 0
0.626825 0 0
0.697108 0 0
0.760967 0 0
0.815946 0 0
0.861585 0 0
0.897078 0 0
0.904555 0 0
0.904784 0 0
0.938918 0.237232 0.015198
0.950973 0.440574 0.13193
0.953887 0.577279 0.193332
0.954284 0.661204 0.254459
0.951675 0.732525 0.324361
0.949203 0.784482 0.438193
0.94667 0.818067 0.56495
0.94432 0.841382 0.654932
0.941909 0.85742 0.742184
0.939864 0.869261 0.822248
0.93875 0.879164 0.882429
0 0 0
0 0 0
0 0 0
0 0 0
0.00755322 0 0
0.0561074 0 0
0.0949569 0 0
0.137285 0 0
0.186481 0 0
0.244953 0 0
0.313573 0 0
0.388754 0 0
0.471504 0 0
0.556069 0 0
0.628199 0 0
0.697993 0 0
0.76141 0 0
0.816114 0 0
0.861494 0 0
0.896803 0 0
0.904555 0 0
0.904799 0 0
0.942184 0.272419 0.0235294
0.951034 0.457298 0.123735
0.953979 0.584878 0.189654
0.954131 0.665599 0.251942
0.951568 0.735195 0.322927
0.949187 0.785901 0.436759
0.946685 0.819089 0.56434
0.944335 0.841794 0.654643
0.941924 0.857649 0.742031
0.939879 0.869398 0.822141
0.93875 0.87924 0.882383
0 0.0367132 0
0 0.0396124 0
0 0.0424048 0
0 0.0450752 0
0 0.0462196 0
0.0492256 0.0453346 0
0.0912032 0.0430915 0
0.134951 0.0375372 0
0.185672 0.0243229 0
0.246479 0 0
0.315999 0 0
0.391394 0 0
0.474495 0 0
0.558312 0 0
0.629633 0 0
0.698878 0 0
0.761868 0 0
0.816251 0 0
0.861402 0 0
0.896529 0 0
0.904631 0 0
0.909911 0 0
0.94464 0.303593 0.0297093
0.951034 0.473243 0.113985
0.954025 0.591165 0.185733
0.953979 0.669886 0.249393
0.951461 0.737804 0.321523
0.949187 0.787305 0.435355
0.9467 0.819806 0.563714
0.94435 0.842206 0.654353
0.941924 0.857877 0.741848
0.939879 0.869535 0.822049
0.93875 0.879316 0.882322
0 0.0686046 0
0 0.0708934 0
0 0.0731365 0
0 0.0749218 0
0 0.0758221 0
0.0311131 0.0755779 0
0.0846265 0.0747387 0
0.13138 0.072343 0
0.184161 0.066804 0
0.246983 0.055314 0
0.317372 0.0327764 0
0.39408 0 0
0.477806 0 0
0.560678 0 0
0.631144 0 0
0.69984 0 0
0.762325 0 0
0.816403 0 0
0.861295 0 0
0.896223 0 0
0.904753 0 0
0.923247 0.104677 0
0.946487 0.332677 0.0343175
0.950957 0.488441 0.100984
0.954025 0.597208 0.18143
0.953826 0.674266 0.246723
0.95137 0.740444 0.320089
0.949187 0.788724 0.43386
0.946715 0.820569 0.563073
0.944366 0.842634 0.654078
0.941939 0.858106 0.741665
0.939879 0.869673 0.821942
0.93875 0.879408 0.882277
0 0.10219 0
0 0.104112 0
0 0.10602 0
0 0.107088 0
0 0.107774 0
0 0.108125 0
0.0696727 0.107683 0
0.12401 0.106645 0
0.180209 0.103502 0
0.246128 0.096437 0
0.318822 0.0830701 0
0.397925 0.0615549 0
0.48217 0.0242161 0
0.563897 0 0
0.63328 0 0
0.70106 0 0
0.762936 0 0
0.816602 0 0
0.861158 0 0
0.895827 0 0
0.904799 0 0
0.932601 0.179171 0
0.948028 0.36614 0.0380407
0.950683 0.505684 0.0722515
0.953994 0.605127 0.175555
0.953613 0.679744 0.243275
0.951247 0.74377 0.318303
0.949172 0.790524 0.431968
0.946746 0.821515 0.562264
0.944396 0.843168 0.653681
0.941955 0.858396 0.741436
0.939895 0.869856 0.821805
0.93875 0.879515 0.8822
0 0.140917 0
0 0.142641 0
0 0.143923 0
0 0.144778 0
0 0.145388 0
0 0.145769 0
0.0186465 0.1458 0
0.107988 0.145907 0
0.171176 0.144457 0
0.240833 0.139483 0
0.317388 0.129366 0
0.401404 0.113832 0
0.489418 0.091783 0
0.570962 0.0590066 0
0.636973 0 0
0.702876 0 0
0.763943 0 0
0.816861 0 0
0.860945 0 0
0.895476 0 0
0.916121 0.0491951 0
0.940246 0.251011 0.0185855
0.94902 0.402838 0.0402838
0.9505 0.526268 0.0426337
0.953887 0.615335 0.167117
0.953323 0.686732 0.238682
0.95111 0.747997 0.316045
0.949172 0.792828 0.429511
0.946777 0.822736 0.561181
0.944411 0.84387 0.653178
0.94197 0.858793 0.741131
0.93991 0.8701 0.821622
0.938766 0.879652 0.882124
0 0.188205 0
0 0.189578 0
0 0.190356 0
0 0.191135 0
0 0.191684 0
0 0.19205 0
0 0.192416 0
0.0676432 0.19321 0
0.150973 0.192767 0
0.227604 0.189456 0
0.310521 0.182177 0
0.401495 0.170001 0
0.495689 0.153033 0
0.579843 0.13109 0
0.646479 0.102968 0
0.712154 0.0674144 0
0.769924 0.0188602 0
0.817395 0 0
0.860807 0 0
0.906584 0.0556344 0
0.933989 0.191211 0.00248722
0.945937 0.323537 0.0329747
0.949615 0.444541 0.0413519
0.950957 0.550774 0.043473
0.953643 0.628107 0.154711
0.952941 0.695521 0.232563
0.950942 0.753292 0.313191
0.949187 0.795743 0.426307
0.946822 0.824323 0.559747
0.944457 0.844785 0.652522
0.942 0.859297 0.740719
0.93991 0.870405 0.821378
0.938766 0.879835 0.881987
0 0.24416 0
0 0.244617 0
0 0.245045 0
0 0.245396 0
0 0.245624 0
0 0.245686 0
0 0.245563 0
0 0.245289 0
0.10811 0.247852 0
0.202518 0.247974 0
0.294881 0.244099 0
0.395209 0.235492 0
0.49778 0.222416 0
0.586786 0.205921 0
0.655863 0.18761 0
0.723308 0.1691 0
0.7841 0.153918 0
0.837842 0.146075 0
0.884016 0.161669 0
0.924956 0.217319 0.00669871
0.94432 0.299519 0.0289464
0.948898 0.395972 0.0400092
0.950072 0.493187 0.0419776
0.951614 0.578393 0.0447547
0.95317 0.643793 0.135012
0.952453 0.706432 0.22443
0.950774 0.759869 0.309682
0.949203 0.79939 0.422171
0.946883 0.826352 0.55787
0.944503 0.84596 0.651667
0.942031 0.859968 0.740185
0.939925 0.870817 0.821073
0.938766 0.880079 0.881834
0 0.307576 0
0 0.308034 0
0 0.308507 0
0 0.308843 0
0 0.309102 0
0 0.30927 0
0 0.309331 0
0 0.309209 0
0 0.308858 0
0.154223 0.315999 0
0.265003 0.316411 0
0.378424 0.311727 0
0.492226 0.302632 0
0.589883 0.291646 0
0.663523 0.28014 0
0.733089 0.271077 0
0.794934 0.267933 0
0.849729 0.27332 0
0.895521 0.294682 0.0126497
0.932906 0.338766 0.0308385
0.948928 0.398077 0.0401007
0.949828 0.467567 0.0416724
0.950744 0.541741 0.0430457
0.951995 0.604501 0.0452277
0.952285 0.662531 0.0951858
0.951858 0.719738 0.213581
0.950591 0.767849 0.30544
0.949248 0.803891 0.416892
0.94696 0.828916 0.555428
0.944564 0.847456 0.650538
0.942061 0.860822 0.739483
0.939956 0.871351 0.820661
0.938781 0.8804 0.881636
0 0.386358 0
0 0.38677 0
0 0.387167 0
0 0.387472 0
0 0.387701 0
0 0.387884 0
0 0.388037 0
0 0.388083 0
0 0.388022 0
0.015671 0.390417 0
0.208591 0.400061 0
0.34284 0.400534 0
0.474311 0.396445 0
0.586252 0.390799 0
0.6654 0.384558 0
0.738689 0.380392 0
0.801419 0.382666 0
0.85539 0.392111 0.00833143
0.898909 0.411948 0.0236362
0.932998 0.444526 0.0359045
0.950027 0.488731 0.0419165
0.950652 0.537514 0.0428931
0.951797 0.588586 0.0450141
0.951965 0.634668 0.04448
0.951156 0.684703 0.0412909
0.951217 0.735363 0.199435
0.950439 0.777295 0.300618
0.949248 0.809201 0.4159
0.947082 0.83212 0.552209
0.94464 0.849348 0.649042
0.942123 0.861921 0.738537
0.939986 0.872038 0.820127
0.938796 0.880812 0.881361
0 0.477333 0
0 0.47776 0
0 0.478141 0
0 0.478431 0
0 0.478691 0
0 0.478904 0
0 0.479103 0
0 0.479271 0
0 0.479423 0
0 0.479667 0
0.0797131 0.489036 0
0.280018 0.498878 0
0.438666 0.498756 0
0.571374 0.495583 0
0.658808 0.491402 0
0.737087 0.488792 0
0.802274 0.491112 0
0.855695 0.499977 0.00906386
0.897642 0.515984 0.0236973
0.930678 0.539178 0.0362249
0.951354 0.567437 0.0442664
0.951919 0.596521 0.0451667
0.951995 0.629847 0.0446784
0.951476 0.66865 0.0424811
0.950515 0.710719 0.0390173
0.950683 0.752895 0.181628
0.950347 0.788159 0.295384
0.949294 0.815442 0.415259
0.947234 0.836042 0.547982
0.944747 0.851698 0.64712
0.942184 0.863325 0.737331
0.940017 0.872923 0.819409
0.938811 0.881346 0.88098
0 0.569802 0
0 0.570077 0
0 0.570321 0
0 0.57052 0
0 0.570687 0
0 0.57084 0
0 0.571008 0
0 0.57116 0
0 0.571283 0
0 0.571298 0
0 0.571313 0
0.16173 0.583581 0
0.383383 0.587335 0
0.543954 0.585245 0
0.644251 0.582513 0
0.729412 0.580545 0
0.799969 0.582208 0
0.85536 0.587747 0.0116274
0.896406 0.596521 0.0258335
0.927794 0.609903 0.0371405
0.951782 0.627695 0.0448768
0.951812 0.648371 0.0437934
0.951354 0.674647 0.0420233
0.950622 0.705425 0.0394141
0.949905 0.738918 0.0368048
0.950347 0.771786 0.159457
0.950347 0.800198 0.290257
0.949386 0.822965 0.415183
0.947433 0.840757 0.543282
0.9449 0.854566 0.644617
0.942275 0.865095 0.735729
0.940063 0.874037 0.818463
0.938842 0.882033 0.880507
0 0.641138 0
0 0.641276 0
0 0.641382 0
0 0.641474 0
0 0.64155 0
0 0.641611 0
0 0.641672 0
0 0.641718 0
0 0.641733 0
0 0.641688 0
0 0.641505 0
0 0.64123 0
0.283619 0.653635 0
0.499382 0.653056 0
0.622568 0.651072 0
0.715389 0.649195 0
0.792477 0.649866 0
0.850874 0.653895 0.0110475
0.892149 0.661021 0.0239261
0.922194 0.67129 0.0334783
0.94612 0.684779 0.0399939
0.950759 0.700496 0.0398718
0.950256 0.720012 0.0381476
0.949844 0.742779 0.0365301
0.949737 0.766934 0.0356909
0.950271 0.791196 0.131777
0.950469 0.812909 0.286183
0.949508 0.831144 0.416052
0.947509 0.846036 0.545068
0.945068 0.857969 0.641428
0.942397 0.867262 0.733639
0.940139 0.875441 0.816922
0.938872 0.882887 0.879881
0 0.709621 0
0 0.709682 0
0 0.709712 0
0 0.709743 0
0 0.709758 0
0 0.709773 0
0 0.709789 0
0 0.709758 0
0 0.709712 0
0 0.709575 0
0 0.7093 0
0 0.708888 0
0.068925 0.713207 0
0.43064 0.721553 0
0.596414 0.719356 0
0.696849 0.716686 0
0.780591 0.715908 0.000411994
0.842435 0.718181 0.0106813
0.884764 0.722881 0.0212253
0.914702 0.729702 0.0290379
0.937621 0.738811 0.0343023
0.949569 0.749783 0.0363165
0.949722 0.762432 0.0357519
0.949767 0.777234 0.035584
0.950027 0.793484 0.0358587
0.950545 0.810224 0.0945449
0.950729 0.82623 0.284581
0.949676 0.840192 0.41854
0.947585 0.852033 0.548028
0.945266 0.861906 0.63827
0.942535 0.869947 0.730907
0.940215 0.87718 0.815274
0.938903 0.88397 0.879057
0 0.774441 0
0 0.774426 0
0 0.774426 0
0 0.774395 0
0 0.774365 0
0 0.774334 0
0 0.774273 0
0 0.774197 0
0 0.774044 0
0 0.773816 0
0 0.773434 0
0 0.772808 0
0 0.772015 0
0.338491 0.784207 0.0205539
0.565713 0.781445 0.0186007
0.677653 0.777279 0.0132296
0.767483 0.774136 0.011017
0.83241 0.773953 0.0156405
0.876127 0.775952 0.0226291
0.90692 0.77937 0.0285496
0.930053 0.784192 0.0328374
0.947066 0.79057 0.0355383
0.950118 0.797971 0.035996
0.950347 0.806882 0.0364233
0.950698 0.816999 0.0371099
0.951156 0.828275 0.0384833
0.951095 0.83949 0.286778
0.949859 0.849729 0.423758
0.947662 0.858534 0.552621
0.945281 0.866239 0.641245
0.942718 0.873121 0.727352
0.940322 0.879286 0.813123
0.938964 0.885313 0.877943
0.0257725 0.826993 0.0189059
0.0257267 0.826947 0.0188602
0.0256809 0.826871 0.0188144
0.0256352 0.82681 0.0187533
0.0255894 0.826734 0.0187076
0.0255283 0.826658 0.0186465
0.025452 0.826535 0.018555
0.0253605 0.826383 0.0184329
0.0251926 0.826154 0.018265
0.024979 0.825818 0.0180209
0.0246281 0.825315 0.0176242
0.0241245 0.824552 0.0170596
0.0247044 0.823636 0.0166171
0.238895 0.831846 0.043122
0.537743 0.83006 0.0441138
0.663569 0.823926 0.0333867
0.757382 0.818509 0.0250095
0.823774 0.81593 0.0243839
0.868284 0.8159 0.0278782
0.900038 0.817014 0.031754
0.92372 0.819303 0.0348211
0.941024 0.822324 0.0368658
0.950851 0.826291 0.0379644
0.951263 0.831296 0.0382849
0.951553 0.837613 0.0388952
0.951873 0.844953 0.0602426
0.951476 0.85243 0.295247
0.950011 0.859297 0.433158
0.947692 0.865263 0.559457
0.945281 0.871092 0.645502
0.942809 0.876677 0.727321
0.940444 0.881788 0.810285
0.939025 0.886961 0.876493
0.0521553 0.865034 0.0487373
0.0520943 0.864942 0.048661
0.052018 0.864851 0.0485847
0.051957 0.864744 0.0485084
0.0518807 0.864652 0.0484321
0.0518044 0.86453 0.0483253
0.0516976 0.864378 0.0482185
0.051545 0.864164 0.0480507
0.0513466 0.86389 0.0478218
0.0510567 0.863478 0.0474861
0.0506447 0.862882 0.0470283
0.0500954 0.862089 0.0463874
0.0500801 0.861112 0.0458228
0.19791 0.866011 0.0627604
0.531487 0.864393 0.0643015
0.659983 0.856748 0.0494545
0.753063 0.849973 0.0372015
0.818067 0.846372 0.0330053
0.862165 0.845106 0.0337377
0.894102 0.844923 0.0358282
0.91812 0.845441 0.0377661
0.935866 0.846693 0.0391394
0.949874 0.848737 0.0400854
0.952224 0.85156 0.0403296
0.952422 0.855375 0.0407721
0.952453 0.859861 0.134295
0.951751 0.864363 0.312963
0.950042 0.86836 0.448631
0.947646 0.872206 0.569177
0.94522 0.876356 0.651469
0.942748 0.880522 0.731929
0.940581 0.884627 0.807797
0.939101 0.88893 0.874571
0.0717327 0.893355 0.0708324
0.0716564 0.893233 0.0707561
0.0715801 0.893126 0.0706645
0.0714885 0.892989 0.0705577
0.0714122 0.892866 0.0704814
0.0713207 0.892744 0.0703746
0.0711986 0.892561 0.0702373
0.0710307 0.892317 0.0700542
0.0708171 0.891981 0.06981
0.0705119 0.891539 0.0694743
0.0701305 0.890959 0.0690318
0.0695811 0.890166 0.0684215
0.070222 0.88925 0.0679484
0.289799 0.894957 0.0874342
0.553506 0.888869 0.0764477
0.668452 0.880491 0.0593729
0.75494 0.873259 0.0455329
0.815869 0.869062 0.0394446
0.857954 0.867094 0.0384222
0.889113 0.866209 0.039292
0.912917 0.865904 0.0404364
0.931044 0.866133 0.0413367
0.945495 0.86685 0.0419318
0.95285 0.868193 0.042237
0.953155 0.870176 0.042359
0.952819 0.872496 0.195483
0.951827 0.874846 0.342428
0.94992 0.876997 0.471916
0.947494 0.87921 0.582315
0.945098 0.881834 0.659693
0.942641 0.884611 0.738155
0.94052 0.887602 0.812055
0.939193 0.891218 0.872053
0.0846723 0.913405 0.08542
0.084596 0.913283 0.0853285
0.0845045 0.913146 0.0852369
0.0844282 0.913008 0.0851453
0.0843366 0.912871 0.0850385
0.0842451 0.912718 0.084947
0.0841382 0.912535 0.0848096
0.0839857 0.912291 0.0846418
0.0837873 0.911971 0.0844129
0.0835126 0.911528 0.0841077
0.0831617 0.910964 0.083711
0.0826886 0.910201 0.0831769
0.0856489 0.909392 0.0829786
0.431342 0.912871 0.0973373
0.596902 0.904463 0.079469
0.690242 0.896239 0.0623636
0.764202 0.889555 0.0494545
0.81796 0.885481 0.0433051
0.856596 0.883314 0.0415961
0.886122 0.882078 0.0417487
0.908888 0.881376 0.0423743
0.926894 0.881041 0.0429541
0.941604 0.881056 0.0433509
0.952987 0.881514 0.043534
0.953719 0.88249 0.0444038
0.952895 0.883345 0.258808
0.951598 0.884276 0.384527
0.949554 0.885008 0.50222
0.947188 0.885924 0.596735
0.944854 0.887266 0.670939
0.942473 0.888808 0.746548
0.940444 0.890867 0.817609
0.939193 0.89369 0.874495
0.0933852 0.928176 0.095201
0.0933242 0.928054 0.0951247
0.0932326 0.927916 0.0950332
0.0931716 0.927779 0.0949569
0.09308 0.927642 0.0948653
0.093019 0.927504 0.0947738
0.0929122 0.927337 0.094667
0.0927749 0.927077 0.0944991
0.092607 0.926772 0.094316
0.0927901 0.926436 0.094255
0.0929274 0.925917 0.0939498
0.0954147 0.925292 0.0937209
0.411215 0.928328 0.106035
0.562722 0.921233 0.0906996
0.648402 0.913954 0.0751354
0.720546 0.906935 0.0605783
0.779171 0.901534 0.0504311
0.823972 0.898085 0.0453498
0.857832 0.89601 0.0435798
0.884886 0.894682 0.0433814
0.906096 0.893812 0.0437018
0.92343 0.893233 0.0440833
0.937957 0.892882 0.0443427
0.949508 0.892851 0.0450599
0.953521 0.892622 0.202441
0.952544 0.892515 0.328389
0.950988 0.892302 0.436027
0.948913 0.892042 0.538705
0.946715 0.892027 0.615961
0.944472 0.892378 0.686015
0.942214 0.893034 0.757626
0.940322 0.89427 0.825132
0.939162 0.896345 0.878462
0.10013 0.939025 0.1019
0.10013 0.938918 0.101839
0.10013 0.938781 0.101762
0.10013 0.938659 0.101701
0.100114 0.938537 0.101625
0.100114 0.938399 0.101564
0.100099 0.938247 0.101472
0.100069 0.938033 0.10135
0.101701 0.937774 0.101305
0.309438 0.941558 0.113695
0.422736 0.93959 0.110338
0.519249 0.935225 0.100801
0.592859 0.930083 0.0894636
0.64947 0.924712 0.0779431
0.704555 0.919158 0.0662394
0.755062 0.914153 0.0562905
0.797909 0.910323 0.0496376
0.832898 0.907698 0.0460517
0.861723 0.905882 0.0446174
0.885527 0.904601 0.0443275
0.904753 0.9037 0.0445258
0.921111 0.902983 0.0448005
0.934981 0.902434 0.0457465
0.9458 0.901625 0.187549
0.952804 0.900786 0.304417
0.951705 0.899779 0.404013
0.94995 0.898772 0.498909
0.947997 0.897932 0.579751
0.946029 0.897414 0.640742
0.943923 0.897124 0.705592
0.941848 0.897124 0.771984
0.940139 0.897719 0.834287
0.939116 0.899092 0.883558
0.44947 0.94757 0.111696
0.468711 0.946731 0.109865
0.486259 0.945907 0.108019
0.5019 0.945068 0.106157
0.516182 0.944244 0.104311
0.52987 0.943404 0.102419
0.545907 0.942336 0.100069
0.564797 0.941009 0.0971237
0.585977 0.939376 0.0935073
0.606027 0.937453 0.0893416
0.630365 0.935103 0.0842756
0.658396 0.93228 0.0781872
0.689647 0.929046 0.0713359
0.723018 0.925597 0.0641947
0.75671 0.92221 0.057557
0.788937 0.919234 0.0522316
0.818051 0.916808 0.0485847
0.844633 0.914916 0.0464485
0.867933 0.913466 0.0455482
0.887968 0.912352 0.0457465
0.904555 0.911177 0.135561
0.91931 0.910216 0.199939
0.931945 0.9093 0.253193
0.942123 0.908232 0.32343
0.950134 0.906905 0.40238
0.950362 0.905425 0.484321
0.948653 0.904051 0.558709
0.946899 0.902907 0.616419
0.945113 0.902022 0.67155
0.943206 0.901289 0.730205
0.941375 0.900862 0.790127
0.939925 0.900984 0.845655
0.939055 0.901808 0.889967
0.669993 0.937057 0.313191
0.674189 0.936599 0.312581
0.678248 0.936156 0.312001
0.682246 0.935729 0.311437
0.686137 0.935302 0.310903
0.690089 0.934874 0.310369
0.695064 0.934325 0.309728
0.701366 0.933639 0.308934
0.7093 0.932784 0.307958
0.719142 0.931716 0.306874
0.73109 0.930434 0.305684
0.74522 0.928939 0.304555
0.761425 0.927275 0.303761
0.779293 0.925521 0.303624
0.798108 0.923766 0.304662
0.817472 0.922087 0.307332
0.837339 0.920516 0.312139
0.856336 0.919127 0.319631
0.874083 0.917891 0.330297
0.889952 0.916808 0.344671
0.904341 0.91577 0.363394
0.917388 0.914733 0.386877
0.92871 0.913695 0.414069
0.938262 0.912581 0.448539
0.945876 0.911192 0.502525
0.948684 0.909606 0.559838
0.947204 0.908171 0.608927
0.945647 0.906889 0.656748
0.943984 0.905699 0.707454
0.942321 0.904753 0.759655
0.940795 0.904097 0.812024
0.939666 0.903975 0.859281
0.938964 0.904433 0.897826
0.766293 0.92723 0.481651
0.768093 0.927092 0.481575
0.769833 0.92697 0.481529
0.771542 0.926848 0.481468
0.773236 0.926726 0.481422
0.77496 0.926604 0.481361
0.777127 0.926452 0.481346
0.779904 0.926253 0.481285
0.783459 0.926024 0.48127
0.7879 0.925734 0.4813
0.793393 0.925383 0.481392
0.800107 0.924971 0.481636
0.808225 0.924514 0.482109
0.817929 0.923964 0.483299
0.829068 0.923354 0.484688
0.841093 0.922408 0.486931
0.853895 0.921447 0.490211
0.867033 0.920501 0.494896
0.879881 0.919585 0.501244
0.892271 0.918685 0.509636
0.904295 0.917754 0.520348
0.915541 0.916808 0.533761
0.925536 0.915831 0.55024
0.934325 0.914824 0.569986
0.941833 0.913787 0.591409
0.946654 0.91252 0.620844
0.945632 0.911147 0.658305
0.944228 0.909804 0.700954
0.942763 0.908537 0.746456
0.941375 0.907515 0.792584
0.940215 0.906859 0.836545
0.939391 0.906661 0.874876
0.938872 0.906874 0.907057
0.819287 0.920928 0.605432
0.820111 0.920882 0.605463
0.820935 0.920851 0.605509
0.821729 0.920806 0.605554
0.822538 0.920775 0.605585
0.823362 0.920745 0.605631
0.824414 0.920699 0.605692
0.825772 0.920638 0.605768
0.827543 0.920562 0.605859
0.829786 0.92047 0.606012
0.832654 0.920363 0.606226
0.83624 0.920226 0.6065
0.84065 0.920089 0.606928
0.845991 0.919921 0.607523
0.852293 0.919738 0.608331
0.859571 0.91957 0.609476
0.867658 0.919387 0.611063
0.876295 0.919234 0.613245
0.885542 0.919081 0.616159
0.895399 0.918853 0.620264
0.905135 0.918441 0.625406
0.914519 0.917693 0.632136
0.923171 0.916899 0.640848
0.931121 0.91606 0.652033
0.938064 0.915175 0.666255
0.943755 0.91426 0.684077
0.943877 0.913085 0.712535
0.942748 0.911849 0.748165
0.941558 0.910704 0.786999
0.94049 0.909773 0.826169
0.939681 0.909194 0.861189
0.939116 0.908965 0.89163
0.938766 0.909026 0.917418
0.852125 0.916991 0.6972
0.852537 0.916976 0.697246
0.852949 0.91696 0.697307
0.853346 0.91696 0.697353
0.853758 0.916945 0.697383
0.854185 0.916945 0.697429
0.854704 0.91693 0.69752
0.855406 0.916915 0.697581
0.856306 0.916884 0.697719
