BBLuts/BB_104_0420_LUT.cube
TITLE "Generated by Resolve"
LUT_3D_SIZE 5
0.0549325 0.0594797 0.0617838
0.210758 0.0610971 0.0631266
0.757229 0.2869 0.279927
0.923354 0.634531 0.540444
0.911116 0.859525 0.609171
0.0420996 0.206592 0.0493172
0.166293 0.210681 0.0509194
0.764065 0.328496 0.288685
0.922438 0.653529 0.537713
0.91104 0.860487 0.607935
0.0195163 0.733852 0.0187381
0.0194705 0.733486 0.0186923
0.710018 0.73077 0.0244755
0.915938 0.778866 0.472984
0.910567 0.866667 0.598337
0.0495308 0.907332 0.0485084
0.0493935 0.906401 0.0483711
0.625055 0.894591 0.0425269
0.904387 0.887144 0.0306096
0.90837 0.888808 0.601648
0.883574 0.896971 0.677699
0.88394 0.896986 0.67776
0.88658 0.897002 0.678172
0.900801 0.897215 0.681483
0.909422 0.897871 0.700664
0.074342 0.0719463 0.174044
0.211139 0.0732128 0.17499
0.757717 0.293721 0.317769
0.923491 0.631678 0.543557
0.911177 0.859327 0.623346
0.0537118 0.190326 0.153216
0.194385 0.189471 0.152514
0.75848 0.294667 0.315648
0.922637 0.650004 0.540948
0.911101 0.860288 0.622354
0.0192264 0.730831 0.0184176
0.0191958 0.730419 0.0183871
0.715541 0.727901 0.0243687
0.915969 0.777676 0.478294
0.910582 0.866468 0.614878
0.0495003 0.907149 0.0484779
0.0493629 0.906218 0.0483406
0.649348 0.890486 0.0430457
0.904479 0.887114 0.0306096
0.908385 0.888792 0.601556
0.883619 0.896971 0.677714
0.884001 0.896986 0.67776
0.886641 0.897017 0.678157
0.900816 0.897215 0.681483
0.909422 0.897871 0.700664
0.575967 0.52256 0.615198
0.576211 0.522835 0.615335
0.774121 0.541939 0.614542
0.924163 0.643381 0.64123
0.91223 0.858671 0.677714
0.573892 0.520348 0.614099
0.574182 0.520653 0.614252
0.780301 0.542412 0.613657
0.923781 0.649027 0.638911
0.912139 0.859663 0.677317
0.0252689 0.699306 0.578775
0.0252689 0.699611 0.578973
0.716487 0.698619 0.584146
0.916335 0.763378 0.614343
0.911559 0.866026 0.674479
0.0493629 0.906218 0.0483406
0.0492256 0.905333 0.0482032
0.637461 0.891752 0.0427558
0.942412 0.8719 0.037171
0.908843 0.888594 0.654597
0.884047 0.896986 0.677668
0.884413 0.896986 0.677729
0.886992 0.897017 0.678126
0.900954 0.897215 0.681453
0.909422 0.897871 0.700664
0.786221 0.744823 0.759319
0.786221 0.744823 0.759319
0.786221 0.744823 0.759319
0.924895 0.755978 0.760861
0.918074 0.844556 0.746212
0.786221 0.744823 0.759319
0.786221 0.744823 0.759319
0.786221 0.744823 0.759319
0.924895 0.755978 0.760861
0.917952 0.846387 0.745968
0.786221 0.744823 0.759319
0.786221 0.744823 0.759319
0.787121 0.744854 0.759319
0.924895 0.755978 0.760861
0.917052 0.857664 0.744442
0.0527352 0.91281 0.750759
0.0526589 0.911574 0.750729
0.61471 0.89662 0.742824
0.895598 0.882246 0.737301
0.91371 0.889616 0.739086
0.885496 0.898665 0.723262
0.885832 0.898665 0.723278
0.888212 0.898695 0.723384
0.901305 0.898878 0.724361
0.911604 0.899351 0.730465
0.786114 0.745647 0.759289
0.786114 0.745647 0.759289
0.786114 0.745647 0.759289
0.786114 0.745647 0.759289
0.923674 0.773419 0.759793
0.786114 0.745647 0.759289
0.786114 0.745647 0.759289
0.786114 0.745647 0.759289
0.786114 0.745647 0.759289
0.923674 0.773449 0.759793
0.786114 0.745647 0.759289
0.786114 0.745647 0.759289
0.786114 0.745647 0.759289
0.787335 0.745571 0.759289
0.923659 0.773602 0.759777
0.786114 0.745647 0.759289
0.786114 0.745647 0.759289
0.786114 0.745647 0.759289
0.924895 0.755978 0.760861
0.923629 0.77409 0.759747
0.846693 0.900603 0.752361
0.848127 0.900603 0.752361
0.857847 0.900633 0.752377
0.893477 0.900908 0.752605
0.914183 0.901137 0.752834
