BBLuts/BB_103_0180_LUT.cube
TITLE "Generated by Resolve"
LUT_3D_SIZE 5
0 0 0
0.119646 0 0
0.646204 0 0
0.787015 0.510567 0.025742
0.756649 0.845792 0.580987
0 0.136904 0
0.0712596 0.139376 0
0.647776 0.0259861 0
0.780789 0.567849 0
0.756634 0.846113 0.580804
0 0.704509 0
0 0.704295 0
0.562814 0.701335 0
0.764004 0.747677 0
0.756359 0.850355 0.577966
0.463035 0.887602 0.104112
0.463035 0.887602 0.104112
0.599649 0.878904 0.108812
0.75256 0.871153 0.233936
0.754452 0.872068 0.600916
0.730434 0.880247 0.666194
0.730434 0.880247 0.666194
0.730434 0.880247 0.666194
0.742397 0.880369 0.668147
0.753017 0.880354 0.687007
0 0 0.0928206
0.0944076 0 0.0898146
0.648981 0 0.068925
0.790982 0.49955 0.152697
0.756649 0.845792 0.581003
0 0.104631 0.081117
0.0781109 0.102281 0.0767681
0.648188 0 0.0589609
0.785611 0.562676 0.137057
0.756634 0.846098 0.580804
0 0.700572 0
0 0.700343 0
0.566369 0.697673 0
0.765148 0.74757 0
0.756359 0.850355 0.577966
0.470878 0.887144 0.103334
0.470878 0.887144 0.103334
0.601251 0.878767 0.108324
0.752621 0.871122 0.233722
0.754452 0.872068 0.600916
0.730465 0.880247 0.666194
0.730465 0.880247 0.666194
0.730465 0.880247 0.666194
0.742412 0.880369 0.668147
0.753017 0.880354 0.687007
0 0 0.586725
0 0 0.586801
0.638392 0 0.566278
0.810376 0.21239 0.60116
0.756161 0.843626 0.648402
0 0 0.585916
0 0 0.585962
0.645365 0 0.565072
0.800351 0.381216 0.599847
0.756146 0.843961 0.64831
0 0.658427 0.554162
0 0.658473 0.554192
0.546075 0.657511 0.556603
0.76701 0.72668 0.571679
0.755825 0.848432 0.647105
0.460838 0.884733 0.470542
0.460838 0.884733 0.470542
0.589975 0.876234 0.468925
0.7458 0.867506 0.509087
0.754208 0.871504 0.634028
0.730816 0.880247 0.666148
0.730816 0.880247 0.666148
0.730816 0.880247 0.666148
0.742535 0.880369 0.668086
0.753017 0.880354 0.686992
0 0 0.751339
0 0 0.751339
0 0 0.751339
0.809598 0 0.740597
0.757473 0.818555 0.735164
0 0 0.751339
0 0 0.751339
0 0 0.751339
0.809598 0 0.740597
0.757397 0.819501 0.735088
0 0 0.751339
0 0 0.751339
0 0 0.751339
0.809598 0 0.740597
0.756634 0.829847 0.734234
0 0.893355 0.748501
0 0.893355 0.748501
0 0.893355 0.748501
0.731945 0.858732 0.728893
0.753902 0.867842 0.730709
0.72781 0.880095 0.716976
0.72781 0.880095 0.716976
0.72781 0.880095 0.716976
0.739055 0.880217 0.717494
0.752834 0.880278 0.722835
0 0.21413 0.751812
0 0.21413 0.751812
0 0.21413 0.751812
0 0.214206 0.751812
0.777935 0.633738 0.756313
0 0.21413 0.751812
0 0.21413 0.751812
0 0.21413 0.751812
0 0.214206 0.751812
0.777935 0.633738 0.756313
0 0.21413 0.751812
0 0.21413 0.751812
0 0.21413 0.751812
0 0.214206 0.751812
0.777935 0.633738 0.756313
0 0.21294 0.751827
0 0.21294 0.751827
0 0.21294 0.751827
0 0.212985 0.751827
0.777493 0.637049 0.756069
0.683452 0.879515 0.746441
0.683452 0.879515 0.746441
0.683452 0.879515 0.746441
0.683452 0.879515 0.746441
0.752941 0.880491 0.747021
