BBLuts/BB_104_0420_LUT.cube
TITLE "Generated by Resolve"
LUT_3D_SIZE 33
0.0549325 0.0594797 0.0617838
0.0549325 0.0594797 0.0617838
0.0549325 0.0594797 0.0617838
0.0549325 0.0594797 0.0617838
0.0549325 0.0594797 0.0617838
0.0948501 0.0599832 0.062211
0.141268 0.0606088 0.0627146
0.175204 0.0609445 0.0630045
0.210758 0.0610971 0.0631266
0.256367 0.0610666 0.0631418
0.312642 0.0607767 0.0630808
0.378286 0.060502 0.0633097
0.456489 0.0614481 0.0652018
0.543236 0.0674601 0.0730144
0.616968 0.0884413 0.0978561
0.684779 0.151827 0.169863
0.757229 0.2869 0.279927
0.822492 0.425818 0.393149
0.876524 0.539437 0.483604
0.917067 0.600275 0.533593
0.924346 0.609812 0.54139
0.924346 0.609812 0.54139
0.924239 0.61268 0.54165
0.923995 0.619455 0.541497
0.923354 0.634531 0.540444
0.921965 0.662638 0.537362
0.919615 0.703563 0.530282
0.917311 0.746685 0.518395
0.915694 0.782162 0.498054
0.914611 0.810269 0.478035
0.913542 0.831327 0.500511
0.912184 0.846906 0.556573
0.911116 0.859525 0.609171
0.0549325 0.0594797 0.0617838
0.0549325 0.0594797 0.0617838
0.0549325 0.0594797 0.0617838
0.0549325 0.0594797 0.0617838
0.0549325 0.0594797 0.0617838
0.104189 0.0601205 0.0623026
0.144518 0.0606394 0.0627451
0.177905 0.0609751 0.0630045
0.215412 0.0611124 0.0631418
0.262135 0.0610513 0.0631418
0.318791 0.0607309 0.0630808
0.383932 0.060502 0.0633707
0.460121 0.0615396 0.0653697
0.545266 0.0677501 0.0733501
0.618189 0.0890974 0.0986343
0.685679 0.153155 0.17116
0.757778 0.287999 0.280827
0.822705 0.426307 0.393561
0.876463 0.53933 0.483513
0.916808 0.599924 0.533318
0.924346 0.609812 0.54139
0.924346 0.609812 0.54139
0.924224 0.613291 0.541421
0.923949 0.620523 0.541329
0.923293 0.636164 0.54023
0.921843 0.664652 0.537026
0.919509 0.705486 0.529747
0.917235 0.747997 0.517708
0.915663 0.78294 0.496818
0.914611 0.810742 0.476432
0.913542 0.831571 0.499504
0.912169 0.847059 0.556252
0.911101 0.859617 0.609049
0.0549325 0.0594797 0.0617838
0.0549325 0.0594797 0.0617838
0.0549325 0.0594797 0.0617838
0.0549325 0.0594797 0.0617838
0.0549325 0.0594797 0.0617838
0.109743 0.0601968 0.0623789
0.145647 0.0606546 0.0627451
0.180484 0.0609903 0.0630198
0.220279 0.0611276 0.0631418
0.267491 0.0610361 0.0631266
0.323491 0.0607156 0.0630961
0.386954 0.060502 0.0634165
0.463157 0.0616464 0.0655222
0.547402 0.06804 0.0737316
0.619425 0.0897993 0.099443
0.68658 0.154482 0.172457
0.758312 0.289082 0.281697
0.822919 0.42678 0.393957
0.876371 0.539178 0.483391
0.916548 0.599573 0.533013
0.924346 0.609812 0.54139
0.924346 0.609812 0.54139
0.924193 0.613947 0.541039
0.923903 0.621637 0.541161
0.923201 0.637842 0.540017
0.921736 0.666682 0.53669
0.919387 0.707408 0.529198
0.917189 0.749279 0.516991
0.915648 0.783703 0.495583
0.914595 0.8112 0.474784
0.913542 0.831846 0.498482
0.912169 0.847211 0.555932
0.911101 0.859709 0.608927
0.0549325 0.0594797 0.0617838
0.0549325 0.0594797 0.0617838
0.0549325 0.0594797 0.0617838
0.0543221 0.0634775 0.0614786
0.0726177 0.0673228 0.0613718
0.114 0.0602579 0.0624247
0.146166 0.0606546 0.0627604
0.180713 0.0609903 0.0630198
0.221118 0.0611276 0.0631418
0.269673 0.0610208 0.0631266
0.326543 0.0607004 0.0630808
0.3897 0.0605173 0.063447
0.466117 0.0617533 0.0656443
0.549554 0.0683604 0.0741131
0.620691 0.0905165 0.100282
0.68751 0.15584 0.173785
0.758846 0.290135 0.282567
0.823117 0.427222 0.394308
0.87628 0.53901 0.483238
0.916243 0.599191 0.532692
0.924346 0.609812 0.54139
0.924346 0.609812 0.54139
0.924163 0.614694 0.540978
0.923858 0.622812 0.540978
0.923125 0.639567 0.539773
0.92163 0.668727 0.536339
0.91928 0.70927 0.528679
0.917113 0.750546 0.516274
0.915618 0.784451 0.494301
0.91458 0.811658 0.473091
0.913527 0.83209 0.497444
0.912154 0.847379 0.555611
0.911086 0.8598 0.60882
0.0493019 0.0963149 0.0589303
0.0489815 0.0983902 0.0587778
0.048661 0.100359 0.0586099
0.0483864 0.102281 0.0584726
0.0482643 0.103029 0.0584115
0.100832 0.103151 0.0588846
0.136004 0.102037 0.0593729
0.172473 0.0987106 0.0599527
0.216144 0.0904097 0.0607614
0.270649 0.0610208 0.0631266
0.328313 0.0606851 0.0630961
0.392203 0.0605173 0.0634775
0.468971 0.0618448 0.0657969
0.551736 0.0686809 0.0745098
0.621973 0.091249 0.101152
0.688441 0.157229 0.175113
0.75938 0.291188 0.283406
0.823285 0.427604 0.394614
0.876158 0.538811 0.483085
0.915953 0.59881 0.532387
0.924346 0.609812 0.54139
0.924315 0.610697 0.541314
0.924132 0.615488 0.540917
0.923812 0.624048 0.540764
0.923049 0.641321 0.539544
0.921508 0.670771 0.535973
0.919173 0.711116 0.52813
0.917067 0.751797 0.515511
0.915587 0.785183 0.493019
0.914565 0.812116 0.471382
0.913527 0.832349 0.496406
0.912154 0.847532 0.555306
0.911086 0.859892 0.608698
0.0457923 0.11899 0.0571756
0.0455329 0.120623 0.0570382
0.0452888 0.12224 0.0569162
0.0450904 0.123507 0.0568093
0.0449989 0.124117 0.0567636
0.0819409 0.124483 0.0570382
0.126574 0.124468 0.0575113
0.165164 0.123384 0.0579843
0.209842 0.120424 0.0584115
0.265263 0.114122 0.0589456
0.326421 0.101442 0.0598917
0.394415 0.0605325 0.063508
0.47187 0.0619364 0.0659495
0.554025 0.0690471 0.0749523
0.623346 0.0920729 0.102113
0.689433 0.15877 0.176562
0.759915 0.292302 0.284306
0.823468 0.428016 0.394965
0.876051 0.538598 0.482918
0.915618 0.598367 0.532036
0.924346 0.609812 0.54139
0.924269 0.6121 0.541192
0.924102 0.616358 0.540841
0.923751 0.625391 0.54052
0.922957 0.643198 0.539269
0.921386 0.672923 0.535592
0.919066 0.713008 0.527565
0.917006 0.753063 0.514702
0.915557 0.785946 0.49163
0.914565 0.812573 0.469566
0.913512 0.832624 0.495262
0.912154 0.847684 0.554955
0.91107 0.859998 0.608576
0.0437324 0.142733 0.0551461
0.0437171 0.144106 0.055024
0.0436866 0.145464 0.054902
0.0436713 0.146227 0.0548409
0.0436713 0.146715 0.0548104
0.0436713 0.146883 0.0547951
0.110292 0.147585 0.0554971
0.154925 0.147448 0.0560159
0.201663 0.146151 0.0564584
0.260655 0.142962 0.0568551
0.324071 0.136645 0.057435
0.393957 0.126619 0.058793
0.474357 0.108827 0.0629282
0.556954 0.0695354 0.0755474
0.625116 0.0931716 0.103365
0.690715 0.160769 0.178424
0.760632 0.293736 0.285481
0.823697 0.428534 0.395377
0.875868 0.538277 0.482658
0.915175 0.597787 0.531548
0.924346 0.609812 0.54139
0.924239 0.613016 0.541131
0.924056 0.617594 0.540734
0.923674 0.627192 0.540078
0.92285 0.64564 0.538918
0.921233 0.675685 0.535073
0.918929 0.715434 0.526833
0.91693 0.754696 0.513603
0.915526 0.786923 0.489799
0.914549 0.813169 0.46714
0.913512 0.832959 0.493828
0.912139 0.847898 0.554513
0.91107 0.860105 0.608423
0.0431983 0.169879 0.0528115
0.0431678 0.171084 0.0526894
0.0431525 0.171969 0.0526131
0.0431373 0.172564 0.0525673
0.043122 0.172976 0.0525216
0.043122 0.17322 0.052491
0.0632944 0.173632 0.0528115
0.13753 0.17435 0.0536507
0.18854 0.174105 0.0542153
0.251911 0.172213 0.0547189
0.319295 0.168093 0.055314
0.393851 0.162371 0.056611
0.477775 0.155581 0.0605936
0.561852 0.148699 0.0723125
0.629084 0.139727 0.103624
0.692454 0.163485 0.180941
0.761593 0.295674 0.287053
0.824002 0.429221 0.395956
0.875624 0.537835 0.482292
0.914549 0.596963 0.530892
0.924285 0.611414 0.541253
0.924178 0.614221 0.541024
0.923995 0.619364 0.540566
0.923568 0.629725 0.539559
0.922683 0.648997 0.538415
0.921019 0.679347 0.534371
0.918761 0.718547 0.525856
0.916823 0.756786 0.512062
0.91548 0.788174 0.487327
0.914519 0.813962 0.463813
0.913497 0.833402 0.491844
0.912123 0.848173 0.553948
0.911055 0.860273 0.608209
0.0420996 0.206592 0.0493172
0.0420539 0.207767 0.0491951
0.0420386 0.208438 0.0491188
0.0420081 0.209094 0.0490425
0.0419928 0.209567 0.0489967
0.0419776 0.209888 0.0489662
0.0419623 0.210086 0.0489509
0.0993362 0.210956 0.049836
0.166293 0.210681 0.0509194
0.23505 0.209064 0.0518044
0.309377 0.205844 0.0526741
0.390249 0.201266 0.0542763
0.480232 0.196918 0.0588083
0.567239 0.19707 0.0716106
0.635035 0.211231 0.104433
0.699229 0.252155 0.184039
0.764065 0.328496 0.288685
0.824399 0.430121 0.396689
0.875242 0.537148 0.481743
0.913619 0.597848 0.529778
0.924224 0.613184 0.541115
0.924117 0.616068 0.540856
0.923888 0.621988 0.540322
0.9234 0.633341 0.539162
0.922438 0.653529 0.537713
0.920745 0.684184 0.533379
0.918547 0.722576 0.524559
0.916716 0.759457 0.509819
0.915419 0.789822 0.483894
0.914504 0.814969 0.459205
0.913481 0.833997 0.489158
0.912108 0.848539 0.55317
0.91104 0.860487 0.607935
0.0397803 0.254414 0.0430915
0.0397498 0.254795 0.0430304
0.0397345 0.255161 0.0429694
0.0397192 0.255482 0.0429236
0.0396887 0.255665 0.0428779
0.039704 0.255711 0.0428779
0.039704 0.255619 0.0428931
0.0397192 0.255283 0.0429541
0.124727 0.256123 0.044831
0.203464 0.25597 0.0464332
0.290166 0.2542 0.0479744
0.37995 0.25066 0.0501106
0.478157 0.246693 0.0553597
0.57142 0.246265 0.069749
0.640085 0.258091 0.104921
0.703639 0.293339 0.186511
0.766583 0.361059 0.290181
0.825086 0.457252 0.395834
0.874708 0.545846 0.480308
0.912261 0.598795 0.528206
0.924132 0.615366 0.540917
0.92401 0.618982 0.540597
0.92372 0.62591 0.53994
0.923171 0.638544 0.538598
0.922118 0.659709 0.53666
0.920363 0.690547 0.532006
0.918273 0.727687 0.52282
0.916564 0.762844 0.506554
0.915358 0.792187 0.479118
0.914473 0.816281 0.452705
0.913481 0.83476 0.48542
0.912093 0.849012 0.552132
0.911025 0.860761 0.607553
0.0360876 0.308568 0.0328679
0.0360418 0.308949 0.0327764
0.0360266 0.309377 0.0327001
0.035996 0.309651 0.0326238
0.0359808 0.30988 0.032578
0.0359655 0.310018 0.0325322
0.0359655 0.310079 0.0325475
0.0359808 0.309972 0.0325628
0.0360113 0.309545 0.0326543
0.145861 0.311437 0.0361181
0.252949 0.31191 0.038941
0.357839 0.309865 0.0418555
0.467399 0.306447 0.0478065
0.571893 0.30573 0.0637522
0.644114 0.314153 0.101656
0.707942 0.3411 0.186847
0.7691 0.394827 0.291203
0.825727 0.476188 0.395392
0.873823 0.552102 0.478431
0.910292 0.600275 0.525963
0.92401 0.619089 0.540581
0.923812 0.623652 0.540154
0.923461 0.631907 0.53933
0.92282 0.64596 0.537697
0.92166 0.668055 0.534981
0.91989 0.698863 0.530007
0.917937 0.734112 0.520439
0.916381 0.767086 0.501991
0.915282 0.794858 0.472267
0.914443 0.81796 0.443198
0.913451 0.835752 0.480232
0.912062 0.849607 0.550774
0.910994 0.861112 0.60708
0.0307164 0.376303 0.0240787
0.0306859 0.37673 0.0240482
0.0306554 0.377096 0.0240177
0.0306249 0.377417 0.0240024
0.0306096 0.377661 0.0239872
0.0305943 0.377829 0.0239719
0.0305791 0.377981 0.0239567
0.0305791 0.378042 0.0239567
0.0305943 0.37789 0.0239719
0.0306096 0.377539 0.0239872
0.165927 0.381094 0.0269627
0.312215 0.382422 0.028687
0.442329 0.380667 0.0315862
0.563943 0.379919 0.0482338
0.643961 0.384802 0.0878004
0.710414 0.403342 0.178424
0.771145 0.442512 0.288823
0.826047 0.503532 0.393179
0.872343 0.5635 0.47512
0.907469 0.604257 0.522774
0.923751 0.625467 0.539986
0.923491 0.631266 0.539391
0.923049 0.641032 0.538308
0.922286 0.656504 0.536278
0.921019 0.679286 0.532494
0.91928 0.709407 0.527123
0.91754 0.742031 0.516991
0.916167 0.772274 0.495857
0.915175 0.79823 0.462119
0.914397 0.820111 0.428626
0.91342 0.837018 0.472786
0.912032 0.850401 0.548913
0.910948 0.86157 0.606455
0.0249027 0.462074 0.0188907
0.0248722 0.462486 0.0188754
0.0248569 0.462867 0.0188602
0.0248417 0.463157 0.0188449
0.0248264 0.463386 0.0188296
0.0248112 0.4636 0.0188144
0.0248112 0.463798 0.0188144
0.0247959 0.463951 0.0187991
0.0247959 0.464118 0.0187991
0.0247959 0.46421 0.0187991
0.0247959 0.46421 0.0187991
0.191135 0.470832 0.0241093
0.38883 0.47332 0.0263981
0.54078 0.472023 0.0259556
0.636408 0.473518 0.0516518
0.707607 0.483345 0.143084
0.771008 0.505638 0.276341
0.825635 0.541787 0.386892
0.870039 0.581857 0.46949
0.903655 0.613382 0.518135
0.923278 0.636301 0.538842
0.922942 0.643442 0.538003
0.922377 0.654643 0.536538
0.921492 0.671199 0.533959
0.920165 0.694102 0.529366
0.918563 0.722271 0.523125
0.917082 0.751537 0.511482
0.915908 0.7785 0.486961
0.915068 0.802426 0.446326
0.914366 0.822828 0.403937
0.913405 0.838666 0.461723
0.911986 0.851408 0.546426
0.910903 0.862181 0.605585
0.0212863 0.549737 0.0161288
0.0212863 0.549996 0.0161288
0.0212711 0.55021 0.0161135
0.0212558 0.550393 0.0161135
0.0212558 0.550546 0.0161135
0.0212558 0.550698 0.0161135
0.0212406 0.550851 0.0161135
0.0212406 0.551003 0.0160983
0.0212406 0.551095 0.0161135
0.0212406 0.551125 0.0160983
0.0212406 0.551003 0.0160983
0.0212558 0.550622 0.0161135
0.241993 0.557244 0.0240482
0.487617 0.557488 0.0251621
0.620401 0.556344 0.0246128
0.697246 0.558297 0.0624552
0.766827 0.569299 0.238636
0.82327 0.58558 0.370901
0.8663 0.607019 0.45919
0.898528 0.631113 0.509911
0.922423 0.653819 0.536645
0.921996 0.662028 0.535439
0.921324 0.674113 0.53344
0.920348 0.690898 0.530098
0.919081 0.712703 0.524544
0.917784 0.737408 0.517311
0.916594 0.76257 0.501869
0.915633 0.785885 0.473243
0.914931 0.807553 0.419104
0.914351 0.826215 0.36112
0.913375 0.840757 0.444373
0.91194 0.852705 0.543038
0.910857 0.862959 0.604471
0.0189059 0.614969 0.0151217
0.0188907 0.615091 0.0151217
0.0188907 0.615183 0.0151217
0.0188907 0.615259 0.0151217
0.0188907 0.615335 0.0151217
0.0188907 0.615381 0.0151217
0.0188754 0.615442 0.0151217
0.0188754 0.615488 0.0151217
0.0188754 0.615488 0.0151217
0.0188754 0.615457 0.0151217
0.0188907 0.61529 0.0151217
0.0189059 0.614908 0.0151217
0.0189364 0.614176 0.0151369
0.334722 0.619425 0.0241703
0.579858 0.618158 0.0235294
0.678828 0.617487 0.0233616
0.754376 0.620737 0.0909895
0.81619 0.630549 0.325292
0.860075 0.643732 0.436652
0.891569 0.6598 0.494224
0.916136 0.677256 0.52668
0.920516 0.688106 0.530709
0.919814 0.700023 0.527932
0.918929 0.715572 0.523705
0.917967 0.73402 0.517327
0.916976 0.754314 0.506416
0.916075 0.774868 0.486534
0.915358 0.794812 0.449973
0.914824 0.813672 0.370138
0.914351 0.830457 0.269047
0.913359 0.843412 0.413199
0.911879 0.854337 0.538354
0.91078 0.86392 0.60296
0.0169833 0.675425 0.0150912
0.0169833 0.675471 0.0150912
0.0169833 0.675502 0.0151064
0.0169833 0.675532 0.0150912
0.0169833 0.675547 0.0150912
0.0169833 0.675563 0.0151064
0.0169833 0.675563 0.0151064
0.0169833 0.675547 0.0150912
0.0169833 0.675502 0.0151064
0.0169833 0.67538 0.0150912
0.0169833 0.675151 0.0150912
0.0169833 0.674708 0.0150759
0.0169985 0.673915 0.0150759
0.0170138 0.67277 0.0150454
0.446281 0.677897 0.0239567
0.648524 0.676341 0.0231327
0.735927 0.676173 0.0236973
0.801648 0.680385 0.104753
0.849744 0.688777 0.370169
0.882063 0.698283 0.461311
0.906371 0.709743 0.506722
0.918654 0.720668 0.522148
0.918151 0.730419 0.518776
0.91754 0.742519 0.513191
0.916869 0.756664 0.502586
0.916197 0.772137 0.485847
0.915572 0.788067 0.459922
0.915099 0.804715 0.401282
0.914717 0.820935 0.251865
0.952087 0.820966 0.0366827
0.913405 0.846815 0.348531
0.911803 0.856352 0.531823
0.910689 0.865141 0.600992
0.0195163 0.733852 0.0187381
0.0195163 0.733852 0.0187381
0.019501 0.733837 0.0187381
0.019501 0.733806 0.0187228
0.019501 0.733791 0.0187228
0.019501 0.733761 0.0187228
0.019501 0.733715 0.0187228
0.0194858 0.733623 0.0187076
0.0194705 0.733486 0.0186923
0.0194553 0.733288 0.018677
0.0194247 0.732937 0.0186465
0.0193637 0.732372 0.0185855
0.0192874 0.731487 0.0184939
0.0191806 0.730266 0.0183719
0.0190433 0.728725 0.0182193
0.57052 0.733013 0.0259556
0.710018 0.73077 0.0244755
0.783688 0.730953 0.0255131
0.86598 0.722484 0.0323339
0.870359 0.740093 0.351446
0.895857 0.746166 0.456077
0.914107 0.753704 0.498512
0.916686 0.760754 0.498619
0.91632 0.76907 0.488823
0.915938 0.778866 0.472984
0.915541 0.789929 0.44477
0.915175 0.802518 0.397787
0.9149 0.815839 0.262303
0.951995 0.814481 0.0365911
0.952117 0.82591 0.0367437
0.952712 0.836912 0.120195
0.911742 0.858839 0.522637
0.910567 0.866667 0.598337
0.0260319 0.782544 0.0254368
0.0260166 0.782483 0.0254368
0.0260014 0.782422 0.0254215
0.0259861 0.782361 0.0254063
0.0259861 0.782284 0.025391
0.0259709 0.782208 0.025391
0.0259556 0.782116 0.0253605
0.0259251 0.781964 0.0253452
0.0258946 0.78175 0.0253147
0.0258335 0.78143 0.0252537
0.0257572 0.780957 0.0251774
0.0256352 0.78024 0.0250553
0.0254673 0.779248 0.0248875
0.0252537 0.777935 0.0246738
0.024979 0.776226 0.0243992
0.0246433 0.774166 0.0240787
0.672007 0.775647 0.0276188
0.76463 0.773617 0.0265507
0.853422 0.761822 0.0327153
0.891661 0.763485 0.0340734
0.885298 0.779706 0.186374
0.905043 0.783368 0.405814
0.915602 0.787869 0.451316
0.91545 0.793347 0.432959
0.915282 0.800046 0.396429
0.915129 0.808209 0.31928
0.952331 0.8038 0.100572
0.951965 0.812833 0.0365606
0.952071 0.822156 0.0366979
0.952132 0.831525 0.0368353
0.952117 0.840742 0.0369573
0.911681 0.861814 0.508614
0.910414 0.868528 0.594766
0.0325475 0.819364 0.0321508
0.0325322 0.819272 0.0321508
0.032517 0.819181 0.0321202
0.0325017 0.819089 0.032105
0.0324712 0.818982 0.0320897
0.0324559 0.818875 0.0320592
0.0324254 0.818723 0.0320439
0.0323796 0.818524 0.0319982
0.0323339 0.81825 0.0319524
0.0322423 0.817853 0.0318608
0.0321202 0.817273 0.031754
0.0319677 0.81651 0.0316014
0.0317388 0.815457 0.0314031
0.0314641 0.814099 0.0311437
0.0311131 0.81236 0.030808
0.0306706 0.810224 0.030396
0.594034 0.810864 0.0330968
0.744488 0.806439 0.0285039
0.84065 0.79263 0.0338903
0.88191 0.792721 0.0346838
0.911543 0.793774 0.0354467
0.932876 0.795773 0.0359808
0.950088 0.798993 0.124163
0.952056 0.801968 0.0704509
0.951858 0.805905 0.0364538
0.951934 0.810925 0.0365301
0.95201 0.816754 0.0366217
0.952056 0.823178 0.0367132
0.952102 0.830198 0.03682
0.952102 0.83769 0.0369116
0.952056 0.845258 0.0370031
0.91162 0.865263 0.483177
0.910231 0.870756 0.589929
0.0384222 0.847364 0.0377203
0.038407 0.847242 0.037705
0.0383764 0.847135 0.0376745
0.0383459 0.846998 0.0376593
0.0383307 0.846876 0.0376287
0.0383001 0.846754 0.0375982
0.0382544 0.846571 0.0375677
0.0382086 0.846326 0.0375219
0.0381323 0.845991 0.0374456
0.0380407 0.845548 0.0373693
0.0379187 0.844968 0.0372473
0.0377661 0.84419 0.0370947
0.0375372 0.843153 0.0368811
0.0372625 0.841794 0.0366217
0.0368963 0.840101 0.0362707
0.0364538 0.83801 0.0358587
0.0359655 0.83566 0.0353857
0.75639 0.819135 0.0366217
0.828382 0.816876 0.0352789
0.872328 0.816052 0.0354925
0.903243 0.816022 0.035935
0.925811 0.816678 0.0363012
0.943328 0.817975 0.0365454
0.952026 0.81976 0.0366674
0.952041 0.821973 0.0366979
0.952071 0.824964 0.0367437
0.952071 0.828733 0.0367895
0.952071 0.83328 0.0368505
0.952056 0.838483 0.0369268
0.95201 0.844175 0.0370031
0.951965 0.850126 0.0370642
0.911391 0.86891 0.472328
0.910033 0.873381 0.583261
0.0425879 0.867704 0.0417029
0.0425574 0.867552 0.0416724
0.0425269 0.867414 0.0416571
0.0425116 0.867277 0.0416266
0.0424811 0.86714 0.0415961
0.0424506 0.867002 0.0415656
0.0424048 0.866804 0.0415351
0.042359 0.866545 0.0414893
0.0422827 0.866209 0.0414282
0.0422065 0.865782 0.0413367
0.0420844 0.865187 0.0412299
0.0419318 0.864424 0.0410773
0.0417334 0.863416 0.0408789
0.041474 0.862135 0.0406348
0.0411383 0.860502 0.0403143
0.0407263 0.858518 0.0399329
0.0402991 0.856367 0.0395056
0.734386 0.8383 0.0391394
0.818311 0.835187 0.0364385
0.864546 0.83386 0.0361639
0.895933 0.833265 0.0363622
0.919295 0.833173 0.0365911
0.937667 0.83357 0.0367742
0.951507 0.83447 0.0368658
0.952041 0.83563 0.0368811
0.952041 0.83743 0.0369116
0.95201 0.839887 0.0369421
0.95198 0.842969 0.0369879
0.951934 0.846616 0.0370184
0.951873 0.850736 0.0370642
0.951812 0.855177 0.0371099
0.911131 0.872923 0.461952
0.909758 0.876249 0.58291
0.0454871 0.882918 0.0445106
0.0454719 0.882765 0.0444953
0.0454414 0.882643 0.0444648
0.0454108 0.88249 0.0444495
0.0453956 0.882353 0.044419
0.0453651 0.882216 0.0443885
0.0453346 0.882033 0.044358
0.0452888 0.881773 0.0443122
0.0452277 0.881453 0.0442512
0.0451514 0.881041 0.0441749
0.0450446 0.880476 0.0440833
0.0449073 0.879759 0.043946
0.0447395 0.878813 0.0437781
0.0445106 0.877607 0.0435645
0.0442206 0.876112 0.0432898
0.0438849 0.874357 0.0429541
0.0435187 0.872496 0.0426032
0.717021 0.853529 0.0412757
0.811231 0.84976 0.0373541
0.858549 0.848173 0.0366979
0.889769 0.847318 0.0367132
0.913329 0.846876 0.0368505
0.932097 0.846754 0.0369573
0.946487 0.847013 0.0370184
0.951873 0.847547 0.0370336
0.951858 0.848463 0.0370489
0.951827 0.849897 0.0370489
0.951782 0.85182 0.0370794
0.951736 0.854215 0.0370947
0.951675 0.857069 0.0371099
0.951629 0.860349 0.0371405
0.910765 0.877104 0.457603
0.909453 0.879347 0.584497
0.0474556 0.894118 0.0464332
0.0474403 0.893996 0.0464179
0.0474098 0.893858 0.0463874
0.0473945 0.893721 0.0463722
0.047364 0.893599 0.0463569
0.0473487 0.893462 0.0463264
0.0473182 0.893278 0.0462959
0.0472725 0.893065 0.0462654
0.0472267 0.892744 0.0462196
0.0471656 0.892363 0.0461433
0.0470741 0.891859 0.046067
0.046952 0.891188 0.0459449
0.0467994 0.890318 0.0458076
0.0466163 0.889235 0.0456092
0.0464027 0.887968 0.0453956
0.0461433 0.886519 0.0451514
0.0458686 0.884978 0.0448768
0.717052 0.865003 0.0421302
0.809583 0.861173 0.0379034
0.855283 0.859541 0.0370794
0.88539 0.858564 0.0369726
0.908629 0.857908 0.0370184
0.927199 0.857496 0.0370794
0.941787 0.857374 0.0371099
0.951583 0.857496 0.0371252
0.951568 0.857786 0.0371252
0.951553 0.858503 0.0371252
0.951507 0.859648 0.0371405
0.951461 0.861189 0.0371405
0.951415 0.863142 0.0371405
0.9514 0.865461 0.0371557
0.910323 0.881209 0.466789
0.909117 0.882567 0.587793
0.0487221 0.901946 0.0476997
0.0487068 0.901839 0.0476844
0.0486763 0.901732 0.0476539
0.048661 0.90161 0.0476387
0.0486458 0.901488 0.0476234
0.0486305 0.901366 0.0476081
0.0486 0.901213 0.0475776
0.0485695 0.900999 0.0475471
0.0485237 0.90074 0.0475013
0.0484627 0.900374 0.0474556
0.0484016 0.899931 0.0473793
0.0483101 0.899382 0.0472877
0.0482032 0.898665 0.0471809
0.0480659 0.897826 0.0470436
0.0478981 0.896819 0.0468757
0.047715 0.895689 0.0466926
0.0475166 0.894499 0.0464942
0.74139 0.872923 0.0412604
0.814847 0.869917 0.038056
0.855344 0.868437 0.0372778
0.883238 0.867475 0.0371099
0.90547 0.866743 0.0371099
0.923369 0.866224 0.0371405
0.937652 0.865888 0.037171
0.949279 0.865736 0.0371557
0.951202 0.865736 0.0371557
0.910063 0.880491 0.0306401
0.910033 0.881086 0.0306401
0.909972 0.882017 0.0306249
0.909895 0.883299 0.0306249
0.909834 0.884871 0.0306096
0.909743 0.885008 0.49247
0.908751 0.88574 0.593408
0.0495308 0.907332 0.0485084
0.0495155 0.907225 0.0484932
0.0495003 0.907134 0.0484779
0.049485 0.907042 0.0484627
0.0494698 0.90695 0.0484474
0.0494698 0.906859 0.0484474
0.0494392 0.906737 0.0484169
0.049424 0.9066 0.0484016
0.0493935 0.906401 0.0483711
0.0493477 0.906142 0.0483253
0.0493019 0.905806 0.0482795
0.0492409 0.905394 0.0482185
0.0491646 0.904891 0.0481422
0.049073 0.904265 0.0480507
0.0489662 0.903548 0.0479438
0.0488441 0.902724 0.0478065
0.625055 0.894591 0.0425269
0.775799 0.878599 0.039765
0.825925 0.876616 0.0379339
0.858625 0.875425 0.0373541
0.883482 0.874525 0.0371862
0.903899 0.873793 0.0371557
0.920638 0.873228 0.037171
0.934371 0.872786 0.037171
0.904387 0.887144 0.0306096
0.909377 0.886961 0.0305943
0.909407 0.886915 0.0305943
0.909407 0.887114 0.0305791
0.909392 0.887572 0.0305791
0.909377 0.888304 0.0305791
0.909407 0.889281 0.0305638
0.909041 0.888365 0.523583
0.90837 0.888808 0.601648
0.0496986 0.908492 0.0486763
0.0496986 0.908492 0.0486763
0.0496986 0.908492 0.0486763
0.0496986 0.908492 0.0486763
0.0496986 0.908492 0.0486763
0.0496986 0.908492 0.0486763
0.0496986 0.908492 0.0486763
0.0496986 0.908492 0.0486763
0.0496986 0.908492 0.0486763
0.0496986 0.908492 0.0486763
0.0496986 0.908507 0.0486763
0.0496986 0.908507 0.0486763
0.0496986 0.908522 0.0486915
0.0496986 0.908522 0.0486915
0.0496834 0.9084 0.0486763
0.657893 0.895064 0.0432136
0.763607 0.884596 0.040528
0.808988 0.882734 0.038529
0.840421 0.881529 0.0376898
0.865324 0.880629 0.0373388
0.886275 0.879866 0.0372015
0.904173 0.879194 0.037171
0.919249 0.87863 0.037171
0.932067 0.878172 0.037171
0.901381 0.892546 0.0305486
0.908751 0.892287 0.030518
0.908812 0.892088 0.030518
0.908843 0.892042 0.030518
0.908888 0.89221 0.030518
0.908934 0.892576 0.030518
0.909026 0.893172 0.0305028
0.908339 0.891356 0.553994
0.908019 0.891661 0.61236
0.0496986 0.908553 0.0486915
0.0496986 0.908553 0.0486915
0.0496986 0.908553 0.0486915
0.0496986 0.908553 0.0486915
0.0496986 0.908553 0.0486915
0.0496986 0.908553 0.0486915
