BBLuts/BB_106_0270_LUT.cube
TITLE "Generated by Resolve"
LUT_3D_SIZE 5
0.0229191 0.0391699 0.0644999
0.223728 0.0459297 0.0697948
0.76997 0.340505 0.423041
0.957885 0.671031 0.686824
0.940993 0.951965 0.782879
0.00149538 0.239612 0.0415045
0.159503 0.244938 0.0457008
0.774426 0.383108 0.430793
0.956817 0.692424 0.683635
0.940856 0.953262 0.78114
0 0.802625 0.00109865
0 0.802213 0.00109865
0.70103 0.792172 0.00122072
0.94902 0.842893 0.61265
0.939879 0.961547 0.767666
0 1 0
0 1 0
0.580652 0.995895 0
0.933318 0.988571 0
0.936049 0.991821 0.771908
0.902632 1 0.88368
0.90312 1 0.883772
0.906676 1 0.884428
0.925765 1 0.889693
0.937179 1 0.919982
0.046128 0.0563363 0.259586
0.219272 0.0616159 0.265476
0.769497 0.347234 0.471733
0.958053 0.667826 0.690867
0.941192 0.951888 0.803006
0.0147402 0.216419 0.224186
0.196109 0.215976 0.213504
0.770336 0.348211 0.468925
0.957015 0.688441 0.687816
0.941024 0.953185 0.801587
0 0.799237 0.00115969
0 0.798779 0.00117494
0.707424 0.788876 0.00132753
0.949081 0.841413 0.617685
0.940047 0.961517 0.790829
0 1 0
0 1 0
0.598245 0.995743 0
0.93344 0.98851 0
0.936065 0.991791 0.771771
0.902693 1 0.88368
0.903197 1 0.883787
0.906737 1 0.884413
0.92578 1 0.889677
0.937179 1 0.919982
0.563561 0.567666 0.793133
0.563775 0.56791 0.793317
0.772671 0.584466 0.792386
0.958144 0.680735 0.823789
0.942672 0.951385 0.884428
0.561685 0.565606 0.791592
0.561929 0.565896 0.791806
0.77995 0.58468 0.791012
0.957794 0.687175 0.820691
0.942504 0.952728 0.883787
0 0.757046 0.746441
0 0.757382 0.746685
0.706447 0.749386 0.738018
0.950378 0.824292 0.790295
0.941466 0.96141 0.879301
0 1 0
0 1 0
0.590005 0.994812 0
0.929061 0.987716 0
0.936919 0.992096 0.848661
0.903273 1 0.883635
0.903761 1 0.883741
0.907225 1 0.884367
0.925963 1 0.889632
0.937179 1 0.919982
0.779767 0.80235 1
0.779767 0.80235 1
0.779767 0.80235 1
0.960403 0.81445 1
0.950622 0.932113 0.993408
0.779767 0.80235 1
0.779767 0.80235 1
0.779767 0.80235 1
0.960403 0.81445 1
0.950378 0.9346 0.992996
0.779767 0.80235 1
0.779767 0.80235 1
0.78088 0.802365 1
0.960403 0.81445 1
0.948745 0.949981 0.990417
0 1 0.978073
0 1 0.978119
0.578973 0.993652 0.976059
0.919005 0.98349 0.978408
0.942946 0.99353 0.981323
0.904875 1 0.955566
0.905318 1 0.955596
0.908522 1 0.955795
0.926085 1 0.957427
0.939788 1 0.967315
0.779629 0.803342 1
0.779629 0.803342 1
0.779629 0.803342 1
0.779629 0.803342 1
0.959106 0.837278 1
0.779629 0.803342 1
0.779629 0.803342 1
0.779629 0.803342 1
0.779629 0.803342 1
0.959106 0.837308 1
0.779629 0.803342 1
0.779629 0.803342 1
0.779629 0.803342 1
0.781125 0.80325 1
0.959075 0.837491 1
0.779629 0.803342 1
0.779629 0.803342 1
0.779629 0.803342 1
0.960403 0.81445 1
0.959045 0.838148 1
0.852857 1 1
0.85478 1 1
0.867399 1 1
0.915282 1 1
0.942977 1 1
