BBLuts/BB_106_0290_LUT.cube
TITLE "Generated by Resolve"
LUT_3D_SIZE 33
0.00842298 0.0103456 0.0121157
0.00842298 0.0103456 0.0121157
0.00842298 0.0103456 0.0121157
0.00842298 0.0103456 0.0121157
0.00842298 0.0103456 0.0121157
0.0600595 0.011429 0.0131991
0.120989 0.0123293 0.0140993
0.166842 0.0128939 0.0146639
0.212329 0.0133822 0.0151522
0.264591 0.014023 0.0160678
0.328557 0.0145724 0.0166934
0.400259 0.0151217 0.017319
0.483406 0.0156558 0.0179446
0.563531 0.0162051 0.0186007
0.625742 0.0167239 0.0192416
0.690211 0.0171817 0.0198215
0.756817 0.0175479 0.020325
0.823987 0.0178073 0.0207218
0.883177 0.0179751 0.0210117
0.928847 0.0180667 0.0211795
0.929183 0.0180667 0.0211948
0.929183 0.0180667 0.0211948
0.921599 0.298772 0.097322
0.916777 0.492088 0.146181
0.912917 0.601404 0.201694
0.909422 0.675624 0.268132
0.906233 0.743404 0.358892
0.90367 0.797757 0.47924
0.901778 0.838193 0.580133
0.900313 0.869505 0.64593
0.89926 0.892729 0.711727
0.898451 0.911177 0.772351
0.897841 0.925475 0.820447
0.00842298 0.0103456 0.0121157
0.00842298 0.0103456 0.0121157
0.00842298 0.0103456 0.0121157
0.00842298 0.0103456 0.0121157
0.00842298 0.0103456 0.0121157
0.0735027 0.0116426 0.0134127
0.125933 0.0124056 0.0141604
0.170489 0.0129397 0.0147097
0.216281 0.0135348 0.0155337
0.271473 0.0140688 0.016144
0.335576 0.0146334 0.0167544
0.406531 0.0151675 0.0173648
0.487327 0.0156863 0.0179751
0.565377 0.0162203 0.018616
0.626932 0.0167391 0.0192569
0.691051 0.0171817 0.0198367
0.757305 0.0175479 0.020325
0.824186 0.0178073 0.0207218
0.883055 0.0179751 0.0210117
0.928496 0.0180667 0.0211795
0.929183 0.0180667 0.0211948
0.929183 0.0180667 0.0211948
0.920943 0.328542 0.0823377
0.916426 0.505776 0.139635
0.912688 0.606638 0.198184
0.90927 0.679225 0.266224
0.906142 0.745724 0.356939
0.903624 0.799069 0.478233
0.901747 0.838941 0.579812
0.900298 0.869932 0.645762
0.89926 0.892973 0.71162
0.898451 0.911315 0.772274
0.897841 0.925566 0.820401
0.00842298 0.0103456 0.0121157
0.00842298 0.0103456 0.0121157
0.00842298 0.0103456 0.0121157
0.00842298 0.0103456 0.0121157
0.00842298 0.0103456 0.0121157
0.0815442 0.01178 0.01355
0.128054 0.0124208 0.0141909
0.173983 0.0129702 0.0147402
0.222324 0.0135958 0.0155947
0.278111 0.0141299 0.0162051
0.341192 0.0146792 0.0168002
0.410025 0.0151827 0.0173953
0.490272 0.0157015 0.0180056
0.567376 0.0162356 0.0186313
0.628138 0.0167544 0.0192721
0.691859 0.0171969 0.0198367
0.757794 0.0175479 0.020325
0.824369 0.0178073 0.0207218
0.882918 0.0179751 0.0210117
0.92813 0.0180667 0.0211795
0.929183 0.0180667 0.0211948
0.929183 0.0180667 0.0211948
0.920394 0.355062 0.0610666
0.916106 0.518318 0.132692
0.912474 0.611734 0.194629
0.909117 0.68278 0.264332
0.906035 0.747997 0.355001
0.903563 0.800366 0.477226
0.901701 0.839689 0.579477
0.900282 0.870344 0.645579
0.899245 0.893217 0.711498
0.898436 0.911467 0.772213
0.897826 0.925643 0.820371
0.00842298 0.0103456 0.0121157
0.00842298 0.0103456 0.0121157
0.00842298 0.0103456 0.0121157
0.00794995 0.0191348 0.01178
0.0339666 0.025803 0.0120851
0.0875563 0.0118715 0.0136416
0.129122 0.0124361 0.0142061
0.174502 0.0129854 0.0147555
0.223453 0.013611 0.01561
0.280629 0.0141604 0.0162356
0.34464 0.0147097 0.016846
0.413046 0.0152132 0.0174258
0.493111 0.0157321 0.0180209
0.569375 0.0162509 0.0186465
0.629358 0.0167544 0.0192721
0.692683 0.0171969 0.019852
0.758282 0.0175479 0.020325
0.824537 0.0178073 0.0207218
0.882765 0.0179751 0.0210117
0.927733 0.0180667 0.0211795
0.929183 0.0180667 0.0211948
0.926055 0.137346 0.0171511
0.920104 0.379416 0.00978103
0.915801 0.52987 0.125246
0.912261 0.616709 0.191012
0.908965 0.686259 0.26244
0.905943 0.75024 0.353063
0.903517 0.801633 0.476219
0.901671 0.840436 0.579141
0.900267 0.870771 0.645396
0.899229 0.893462 0.711376
0.898436 0.911604 0.772137
0.897826 0.925734 0.820325
0.00509651 0.0757305 0.00981155
0.00492866 0.0793774 0.00968948
0.00474556 0.0829023 0.00956741
0.00457771 0.0862898 0.00946059
0.00451667 0.0875868 0.00941482
0.0751202 0.0882277 0.0104067
0.120836 0.0865034 0.0111391
0.168475 0.0814374 0.0119326
0.221881 0.0693065 0.0129854
0.28159 0.0141756 0.0162356
0.346731 0.014725 0.0168612
0.415717 0.0152285 0.0174411
0.495811 0.0157473 0.0180362
0.571389 0.0162661 0.0186618
0.63061 0.0167697 0.0192874
0.693538 0.0171969 0.019852
0.758755 0.0175479 0.020325
0.824674 0.0178073 0.0207218
0.882582 0.0179751 0.0209964
0.927337 0.0180667 0.0211795
0.929183 0.0180667 0.0211948
0.924346 0.20502 0.0150301
0.919585 0.401358 0.0091249
0.915511 0.540536 0.117144
0.912047 0.621561 0.18735
0.908812 0.689677 0.260548
0.905852 0.752422 0.351125
0.903456 0.802884 0.475212
0.90164 0.841154 0.578805
0.900252 0.871183 0.645212
0.899214 0.893706 0.711269
0.898421 0.911742 0.772076
0.897826 0.925811 0.820294
0.00320439 0.114748 0.00851453
0.00306706 0.117662 0.00842298
0.00292973 0.120531 0.00833143
0.00282292 0.12282 0.00825513
0.00277714 0.123903 0.00822461
0.0507057 0.125002 0.00933852
0.110857 0.124926 0.00956741
0.161944 0.123201 0.0102846
0.217304 0.1187 0.0110628
0.276295 0.109407 0.0129549
0.343603 0.0900893 0.0142367
0.41796 0.0152438 0.0174563
0.498405 0.0157626 0.0180667
0.573419 0.0162814 0.0186923
0.631891 0.0167849 0.0193027
0.694392 0.0172122 0.0198672
0.759243 0.0175479 0.0203403
0.824826 0.0178073 0.0207218
0.882399 0.0179751 0.0209964
0.926909 0.0180514 0.0211795
0.929183 0.0180667 0.0211948
0.923232 0.250126 0.0136416
0.919097 0.421881 0.00852979
0.915221 0.550515 0.108171
0.911849 0.626322 0.183597
0.908675 0.693065 0.25864
0.90576 0.754574 0.349187
0.90341 0.80412 0.474205
0.90161 0.841886 0.578454
0.900236 0.871595 0.645029
0.899214 0.89395 0.711162
0.898421 0.911894 0.772
0.897826 0.925902 0.820249
0.00134279 0.154086 0.00724804
0.00132753 0.156542 0.00717174
0.00132753 0.158999 0.00709544
0.00132753 0.160418 0.00704967
0.00132753 0.161318 0.00701915
0.00132753 0.161608 0.00701915
0.0900282 0.163104 0.00886549
0.151751 0.162554 0.00869764
0.210712 0.160464 0.00944533
0.271839 0.155871 0.0114443
0.340307 0.145968 0.0124361
0.414099 0.129091 0.0135958
0.497642 0.0955215 0.0153201
0.575875 0.0162966 0.0187076
0.633463 0.0167849 0.0193179
0.695445 0.0172122 0.0198672
0.759823 0.0175631 0.0203403
0.824994 0.0178073 0.0207218
0.882155 0.0179751 0.0209964
0.92636 0.0180514 0.0211795
0.929183 0.0180667 0.0211948
0.922179 0.293538 0.0123293
0.918532 0.445304 0.0078584
0.9149 0.561807 0.095552
0.911604 0.632013 0.178897
0.908492 0.697139 0.256306
0.905653 0.757168 0.346822
0.903334 0.805615 0.472953
0.901579 0.842771 0.578027
0.900206 0.872099 0.644816
0.899199 0.89424 0.711009
0.898405 0.912062 0.771923
0.89781 0.926009 0.820203
0 0.199405 0.00582895
0 0.201556 0.00575265
0 0.203296 0.00570687
0 0.204349 0.00567636
0 0.205097 0.00564584
0 0.205493 0.00563058
0.0319982 0.206348 0.00645457
0.129168 0.207446 0.0081178
0.199145 0.2065 0.00764477
0.263416 0.203861 0.00988785
0.334661 0.197299 0.0107881
0.411948 0.187335 0.0117647
0.497383 0.17174 0.0128939
0.574609 0.143847 0.014435
0.633951 0.0760204 0.017258
0.69688 0.0172274 0.0198825
0.760632 0.0175631 0.0203403
0.825223 0.0178073 0.0207218
0.881804 0.0179751 0.0209964
0.925597 0.0180514 0.0211795
0.924926 0.182223 0.0157321
0.921035 0.341085 0.0109102
0.917861 0.474632 0.00701915
0.914534 0.575555 0.0736095
0.911299 0.639399 0.172427
0.908263 0.702464 0.253193
0.905516 0.760525 0.344961
0.903258 0.807553 0.471321
0.901534 0.843931 0.577462
0.900175 0.872755 0.644526
0.899184 0.894636 0.710826
0.898405 0.912306 0.771801
0.89781 0.926146 0.820142
0 0.252964 0.00416571
0 0.254734 0.00411994
0 0.25565 0.00408942
0 0.256596 0.0040589
0 0.257221 0.00404364
0 0.257649 0.00402838
0 0.257908 0.00402838
0.0837873 0.259586 0.00584421
0.173144 0.259037 0.0069276
0.247684 0.256809 0.0081178
0.3243 0.252644 0.00901808
0.4065 0.246036 0.00993362
0.496605 0.235935 0.0109255
0.57557 0.22031 0.0120699
0.633524 0.197757 0.0133822
0.694987 0.163806 0.0149844
0.759441 0.103914 0.01738
0.825513 0.0178073 0.0207218
0.881285 0.0179751 0.0209964
0.920882 0.156588 0.0165255
0.922591 0.276905 0.0128176
0.919768 0.393484 0.00935378
0.917037 0.506752 0.00602731
0.914305 0.589136 0.00273136
0.910903 0.648859 0.163394
0.907973 0.709361 0.249058
0.905318 0.764843 0.343465
0.903151 0.810056 0.469123
0.901457 0.845441 0.576669
0.900145 0.873625 0.644129
0.899153 0.895155 0.710582
0.89839 0.912612 0.771664
0.897795 0.926329 0.820066
0 0.314488 0.00230411
0 0.314992 0.00228885
0 0.315465 0.00227359
0 0.315877 0.00225834
0 0.316106 0.00225834
0 0.316167 0.00225834
0 0.31606 0.00225834
0 0.315633 0.00227359
0.127489 0.317037 0.00483711
0.221851 0.316197 0.00607309
0.306874 0.313771 0.00703441
0.395544 0.309346 0.00794995
0.492409 0.30219 0.00891127
0.575998 0.291341 0.00993362
0.634577 0.278386 0.0109407
0.695018 0.262501 0.0119631
0.757412 0.244511 0.0129702
0.820432 0.229374 0.0138094
0.87483 0.237964 0.0138094
0.916121 0.284703 0.0125734
0.920577 0.359487 0.0103609
0.918395 0.451423 0.00769055
0.916045 0.54081 0.00482185
0.913588 0.604883 0.0018616
0.910399 0.660853 0.150484
0.907591 0.71809 0.243656
0.905089 0.770352 0.341619
0.903014 0.813275 0.466209
0.901381 0.84741 0.575586
0.900099 0.874754 0.64361
0.899138 0.895827 0.710246
0.898375 0.913024 0.771466
0.897795 0.926558 0.819944
0 0.380636 0.000823987
0 0.381125 0.000808728
0 0.381613 0.000793469
0 0.381994 0.00077821
0 0.382254 0.00077821
0 0.382406 0.000762951
0 0.382467 0.000762951
0 0.382345 0.000762951
0 0.381857 0.00077821
0.175616 0.38378 0.00354009
0.278218 0.382788 0.0047303
0.376196 0.380133 0.00572213
0.481758 0.375158 0.00668345
0.573693 0.367742 0.00766003
0.634989 0.359152 0.00856031
0.695583 0.35024 0.00935378
0.756817 0.342245 0.0100404
0.818082 0.33843 0.0105135
0.870878 0.349737 0.0104524
0.911391 0.384939 0.00958267
0.918624 0.441855 0.00794995
0.916884 0.512016 0.00584421
0.914885 0.576104 0.00343328
0.912703 0.624537 0.00128176
0.909804 0.675868 0.131136
0.907134 0.728954 0.236713
0.904784 0.777279 0.339361
0.902846 0.817395 0.462364
0.901274 0.849958 0.574121
0.900038 0.876219 0.642939
0.899092 0.896727 0.709804
0.898344 0.913558 0.771191
0.89778 0.926879 0.819806
0 0.4598 0
0 0.460304 0
0 0.460761 0
0 0.461128 0
0 0.461402 0
0 0.461616 0
0 0.461769 0
0 0.46183 0
0 0.461677 0
0 0.461143 0
0.226856 0.463722 0.00187686
0.343236 0.462577 0.00308232
0.459937 0.459815 0.00410468
0.56527 0.455161 0.005066
0.63212 0.449165 0.0059205
0.694896 0.443488 0.00663767
0.756039 0.440101 0.007187
0.81561 0.441505 0.00750744
0.866392 0.45449 0.00738537
0.905806 0.482963 0.00672923
0.916625 0.521508 0.00552377
0.915236 0.566232 0.00384527
0.913558 0.605631 0.00181582
0.91165 0.648127 1.5259e-05
0.909102 0.694362 0.098436
0.906569 0.742168 0.227939
0.904418 0.786038 0.336736
0.902617 0.822568 0.457252
0.901137 0.853193 0.572168
0.899947 0.878096 0.642023
0.899046 0.897887 0.709209
0.898314 0.91426 0.77084
0.897765 0.927306 0.819608
0 0.543099 0
0 0.543435 0
0 0.54374 0
0 0.543984 0
0 0.544182 0
0 0.544335 0
0 0.544488 0
0 0.544625 0
0 0.544717 0
0 0.544808 0
0.0928359 0.546288 0
0.285039 0.547311 0.000274662
0.422217 0.546715 0.00132753
0.546761 0.544656 0.00204471
0.623468 0.541634 0.00291447
0.690059 0.538521 0.00361639
0.753506 0.536751 0.00415045
0.812268 0.538399 0.00445563
0.861128 0.546563 0.0043946
0.899199 0.562799 0.00392157
0.914534 0.584588 0.00300603
0.91342 0.608545 0.00166323
0.912047 0.639429 0.000488289
0.910414 0.675868 0
0.908598 0.716915 0
0.905913 0.757839 0.217182
0.903975 0.796262 0.333928
0.902342 0.828992 0.454582
0.900954 0.857267 0.569589
0.899855 0.880476 0.640833
0.89897 0.899382 0.708431
0.898283 0.915175 0.770367
0.897734 0.927855 0.819348
0 0.608057 0
0 0.60824 0
0 0.608392 0
0 0.60853 0
0 0.608652 0
0 0.608759 0
0 0.608865 0
0 0.608957 0
0 0.609033 0
0 0.609064 0
0 0.608972 0
0.165927 0.610254 0
0.363134 0.610391 0
0.514916 0.609461 0
0.608377 0.607858 0.000167849
0.679789 0.605936 0.0009308
0.747265 0.604471 0.00132753
0.807248 0.604898 0.00137331
0.854704 0.609186 0.00138857
0.891356 0.618235 0.00132753
0.912367 0.632303 0.000869764
0.911482 0.652018 0
0.910353 0.677241 0
0.90901 0.70779 0
0.9075 0.74197 0
0.90515 0.775753 0.2047
0.903456 0.808118 0.331304
0.902007 0.836744 0.454994
0.90074 0.862272 0.566186
0.899718 0.883467 0.639261
0.898894 0.901305 0.707408
0.898222 0.916365 0.769741
0.897704 0.928573 0.818998
0 0.666926 0
0 0.667033 0
0 0.667124 0
0 0.667201 0
0 0.667262 0
0 0.667308 0
0 0.667353 0
0 0.667399 0
0 0.667414 0
0 0.667369 0
0 0.667231 0
0 0.666865 0
0.268208 0.668299 0
0.463035 0.667781 0
0.587488 0.666514 0
0.663569 0.664775 0
0.73579 0.66305 0
0.798367 0.662699 0
0.846189 0.665446 0
0.881956 0.672175 0
0.910109 0.683009 0
0.909422 0.698466 0
0.908522 0.718608 0
0.907469 0.74255 0
0.90631 0.768917 0
0.904326 0.795636 0.191653
0.902876 0.821408 0.329564
0.90161 0.845914 0.456184
0.900481 0.868254 0.562554
0.899565 0.88719 0.637201
0.898787 0.903731 0.706035
0.898161 0.917861 0.768917
0.897658 0.929503 0.818524
0 0.726802 0
0 0.726848 0
0 0.726894 0
0 0.726909 0
0 0.726925 0
0 0.72694 0
0 0.72694 0
0 0.726925 0
0 0.726864 0
0 0.726757 0
0 0.726528 0
0 0.726101 0
0 0.725307 0
0.38497 0.726833 0
0.55404 0.725826 0
0.642023 0.724285 0
0.718715 0.722484 0
0.784344 0.721538 0
0.833829 0.722896 0
0.870344 0.727367 0
0.898054 0.735103 0
0.907301 0.746197 0
0.906691 0.760342 0
0.905943 0.77731 0
0.905104 0.796628 0
0.903456 0.816007 0.181201
0.902235 0.836194 0.329458
0.901137 0.856367 0.458717
0.900191 0.875151 0.564599
0.899367 0.891737 0.634485
0.898665 0.906737 0.704234
0.898085 0.919753 0.767819
0.897612 0.930694 0.817914
0 0.785382 0
0 0.785367 0
0 0.785351 0
0 0.785321 0
0 0.78529 0
0 0.78526 0
0 0.785199 0
0 0.785122 0
0 0.784985 0
0 0.784772 0
0 0.784421 0
0 0.783856 0
0 0.782696 0
0.278157 0.784024 0
0.50486 0.783185 0
0.617868 0.781323 0
0.698451 0.779293 0
0.766247 0.77763 0
0.818143 0.777386 0
0.856794 0.779156 0
0.885481 0.78352 0
0.905379 0.790204 0
0.904997 0.79913 0
0.904509 0.810132 0
0.90396 0.822858 0
0.902571 0.836637 0.177447
0.901534 0.852018 0.332464
0.900633 0.867796 0.463478
0.89984 0.882856 0.567727
0.899138 0.897124 0.633051
0.898497 0.910384 0.701885
0.897978 0.922072 0.766369
0.897551 0.932189 0.81709
0 0.833982 0
0 0.833921 0
0 0.83386 0
0 0.833783 0
0 0.833707 0
0 0.833616 0
0 0.833509 0
0 0.833356 0
0 0.833143 0
0 0.832807 0
0 0.832319 0
0 0.831586 0
0 0.830564 0
0.160372 0.83093 0
0.457252 0.830381 0
0.59881 0.828626 0
0.681743 0.826307 0
0.749828 0.82414 0
0.802686 0.822797 0
0.843275 0.822629 0
0.873487 0.824018 0
0.89543 0.827237 0
0.903548 0.832258 0
0.903243 0.839094 0
0.902876 0.847654 0
0.901656 0.857084 0.185428
0.900816 0.868055 0.340749
0.900114 0.879667 0.471626
0.899474 0.891417 0.572305
0.898863 0.903304 0.635828
0.898314 0.914672 0.698787
0.897856 0.92488 0.764462
0.897475 0.934051 0.816007
0 0.870924 0
0 0.870817 0
0 0.87071 0
0 0.870604 0
0 0.870497 0
0 0.870375 0
0 0.870237 0
0 0.870024 0
0 0.869734 0
0 0.869322 0
0 0.868727 0
0 0.867933 0
0 0.866835 0
0.115602 0.866911 0
0.439933 0.866514 0
0.590967 0.864698 0
0.672358 0.862333 0
0.738384 0.859998 0
0.790051 0.858213 0
0.831144 0.85716 0
0.862333 0.85716 0
0.885557 0.858412 0
0.902296 0.861006 0
0.902113 0.865019 0
0.901884 0.870329 0
0.900755 0.876112 0.209842
0.90013 0.883345 0.356909
0.89958 0.891585 0.484062
0.899062 0.900679 0.578668
0.898558 0.910185 0.639735
0.898116 0.919524 0.700938
0.897719 0.928222 0.761944
0.897368 0.936309 0.814572
0 0.899504 0
0 0.899367 0
0 0.899245 0
0 0.899092 0
0 0.898955 0
0 0.898817 0
0 0.898634 0
0 0.898375 0
0 0.898039 0
0 0.897581 0
0 0.896971 0
0 0.896147 0
0 0.895048 0
0.208759 0.895674 0
0.462516 0.89482 0
0.595346 0.892973 0
0.670726 0.890684 0
0.732235 0.88838 0
0.781003 0.886442 0
0.821225 0.884932 0
0.852369 0.884108 0
0.8766 0.884062 0
0.895415 0.884916 0
0.901167 0.886778 0
0.901045 0.889693 0
0.899931 0.892882 0.250599
0.899458 0.897734 0.382696
0.899031 0.903609 0.500954
0.898634 0.910307 0.585977
0.898238 0.917525 0.645228
0.897871 0.924834 0.705089
0.897551 0.932067 0.762097
0.897261 0.938979 0.812665
0 0.920241 0
0 0.920089 0
0 0.919921 0
0 0.919768 0
0 0.919615 0
0 0.919463 0
0 0.919264 0
0 0.919005 0
0 0.918669 0
0 0.918196 0
0 0.917586 0
0 0.916777 0
0 0.915709 0
0.345373 0.916991 0
0.519051 0.915785 0
0.612802 0.913985 0
0.677836 0.911879 0
0.732296 0.909743 0
0.777066 0.90782 0
0.814954 0.906188 0
0.844785 0.905028 0
0.869078 0.904387 0
0.888441 0.904341 0
0.900374 0.905058 0
0.899611 0.906004 0.153674
0.899153 0.908125 0.303456
0.898817 0.911238 0.418952
0.898497 0.91516 0.523125
0.898207 0.919799 0.595453
0.897902 0.924971 0.652857
0.897627 0.930556 0.710781
0.897368 0.936324 0.765759
0.897124 0.942 0.81178
0 0.935958 0
0 0.935805 0
0 0.935637 0
0 0.935485 0
0 0.935332 0
0 0.93518 0
0 0.934997 0
0 0.934737 0
0 0.934417 0
0 0.933974 0
0 0.933379 0
0.148623 0.934371 0
0.344533 0.934279 0
0.48397 0.93344 0
0.580987 0.932143 0
0.638804 0.930495 0
0.691539 0.928649 0
0.737224 0.926802 0
0.777127 0.925017 0
0.811658 0.9234 0
0.839445 0.922148 0
0.862882 0.921218 0
0.882124 0.920699 0
0.896834 0.920378 0.0504921
0.898726 0.920424 0.25565
0.898451 0.921477 0.366003
0.898222 0.923262 0.465919
0.898009 0.925673 0.550301
0.897795 0.92874 0.609186
0.897581 0.932403 0.663172
0.897368 0.936492 0.718471
0.897169 0.940856 0.770657
0.896986 0.945312 0.814603
0 0.947265 0
0 0.947112 0
0 0.946975 0
0 0.946822 0
0 0.946685 0
0 0.946548 0
0.0645762 0.947585 0
0.165469 0.947997 0
0.240864 0.948074 0
0.311772 0.947967 0
0.383383 0.947692 0
0.458579 0.947234 0
0.530114 0.946548 0
0.586069 0.945617 0
0.628092 0.944442 0
0.670253 0.943053 0
0.710262 0.941527 0
0.747112 0.939941 0
0.781262 0.938354 0
0.81149 0.936873 0
0.836713 0.935637 0
0.858717 0.934585 0
0.876585 0.933364 0.101915
0.891112 0.932616 0.245609
0.898024 0.932448 0.34403
0.897856 0.932784 0.434104
0.897719 0.933684 0.516594
0.897566 0.935119 0.580591
0.897414 0.937087 0.627054
0.897261 0.939544 0.67686
0.897108 0.942367 0.728588
0.896971 0.945495 0.777096
0.896834 0.948775 0.818341
0.443259 0.958129 0
0.45626 0.958038 0
0.468772 0.957946 0
0.48043 0.957855 0
0.491005 0.957763 0
0.500816 0.957656 0
0.511971 0.957549 0
0.525597 0.957397 0
0.541848 0.957183 0
0.560693 0.956909 0
0.581277 0.956527 0
0.599664 0.956054 0
0.621942 0.955428 0
0.647074 0.95465 0
0.674434 0.953719 0
0.702602 0.9523 0.0596323
0.731334 0.950988 0.0930648
0.760266 0.949599 0.123156
0.78822 0.94818 0.153399
0.813153 0.946838 0.185306
0.835431 0.945602 0.219791
0.855421 0.944503 0.257755
0.87245 0.943603 0.300084
0.886641 0.942916 0.361303
0.897444 0.942489 0.431846
0.897353 0.942412 0.503716
0.897261 0.942702 0.563424
0.897169 0.94342 0.607019
0.897063 0.944564 0.649393
0.896971 0.946075 0.694453
0.896864 0.94789 0.741482
0.896773 0.949966 0.785626
0.896681 0.9523 0.823178
0.618906 0.962539 0.33283
0.621714 0.962539 0.333074
0.62446 0.962554 0.333318
0.627146 0.96257 0.333562
0.629786 0.96257 0.333822
0.632395 0.962585 0.334066
0.635508 0.96257 0.334371
0.639582 0.962432 0.334783
0.644831 0.962264 0.335332
0.65153 0.962051 0.336065
0.659953 0.961761 0.337057
0.670344 0.961395 0.338354
0.682887 0.960937 0.340108
0.697566 0.960372 0.342428
0.714397 0.959701 0.34551
0.733455 0.958877 0.349615
0.754223 0.957931 0.355047
0.775876 0.956893 0.362188
0.797482 0.95581 0.371527
0.817594 0.954726 0.383673
0.836851 0.953674 0.399268
0.854551 0.952682 0.419043
0.870008 0.951812 0.443824
0.883375 0.95111 0.474891
0.894499 0.950561 0.517906
0.896941 0.95024 0.563516
0.89688 0.950164 0.600671
0.896834 0.950378 0.637324
0.896773 0.950912 0.675792
0.896712 0.951751 0.716228
0.896651 0.95285 0.757259
0.89659 0.954192 0.795941
0.896529 0.955749 0.829404
0.696544 0.962661 0.49958
0.697917 0.962676 0.499718
0.699275 0.962676 0.49984
0.700618 0.962676 0.499977
0.701946 0.962676 0.500099
0.703258 0.962676 0.500237
0.70486 0.962692 0.500404
0.70695 0.962692 0.500618
0.709697 0.962707 0.500908
0.713268 0.962707 0.501289
0.717861 0.962722 0.501808
0.72369 0.962737 0.50248
0.731014 0.962753 0.503395
0.740001 0.962783 0.504616
0.75079 0.962798 0.506218
0.763348 0.962829 0.508354
0.777432 0.96286 0.511177
0.792813 0.962341 0.5149
0.808362 0.961532 0.519783
0.82443 0.960647 0.526101
0.840391 0.959747 0.534157
0.855451 0.958877 0.544289
0.869047 0.958083 0.556817
0.881224 0.957382 0.571923
0.891661 0.956817 0.587335
0.896605 0.95639 0.609323
0.896574 0.95613 0.63798
0.896544 0.956069 0.670222
0.896529 0.956237 0.705058
0.896498 0.956634 0.740993
0.896468 0.957214 0.775601
0.896437 0.958007 0.808255
0.896406 0.958968 0.837247
0.750195 0.962768 0.599649
0.750957 0.962768 0.599695
0.75172 0.962768 0.599741
0.752468 0.962768 0.599802
0.753201 0.962768 0.599847
0.753933 0.962768 0.599908
0.754833 0.962783 0.59997
0.756024 0.962783 0.600061
0.75758 0.962783 0.600168
0.759609 0.962783 0.600336
0.762249 0.962798 0.600534
0.765637 0.962798 0.600824
0.769924 0.962814 0.60119
0.77528 0.962814 0.601694
0.781826 0.962829 0.60235
0.789837 0.962844 0.603235
0.798779 0.96286 0.604425
0.809064 0.962875 0.605997
0.820539 0.962905 0.608103
0.832837 0.962921 0.61088
0.845426 0.962936 0.614557
0.857679 0.962951 0.619394
0.869307 0.962844 0.625696
0.880064 0.962188 0.633875
0.889479 0.961624 0.644343
0.896345 0.961181 0.657557
0.896345 0.96083 0.678828
0.89633 0.960616 0.706035
0.89633 0.960571 0.736202
0.896315 0.960647 0.766552
0.8963 0.960876 0.795697
0.8963 0.961257 0.822141
0.896284 0.961761 0.846754
0.788876 0.96286 0.669963
0.789273 0.96286 0.669993
0.78967 0.96286 0.670039
0.790066 0.96286 0.670069
0.790463 0.96286 0.6701
0.79086 0.96286 0.670146
0.791333 0.96286 0.670192
0.791974 0.962875 0.670253
0.792813 0.962875 0.670344
