BBLuts/BB_102_0390_LUT.cube
TITLE "Generated by Resolve"
LUT_3D_SIZE 9
0.00860609 0.00970474 0.00415045
0.0135042 0.00961318 0.00402838
0.212558 0.00933852 0.00239567
0.441398 0.011841 0.00296025
0.788525 0.0178683 0.00579843
1 0.0235142 0.00892653
1 0.586206 0.0775616
0.98471 0.947463 0.34905
0.973465 1 0.711025
0.00321965 0.0719768 0.00386053
0.00227359 0.0830091 0.00383001
0.213611 0.0611124 0.00172427
0.448646 0.0119478 0.00300603
0.791241 0.0179294 0.00582895
1 0.0235142 0.00892653
1 0.612985 0.0644083
0.984512 0.950072 0.348058
0.973449 1 0.710918
0 0.242847 0.00369268
0 0.246555 0.00369268
0.154696 0.243702 0.000823987
0.437583 0.224079 0.000457771
0.784405 0.137591 0.00349432
1 0.274739 0.00433356
1 0.647684 0.0376898
0.984207 0.954345 0.346548
0.973434 1 0.710719
0 0.501015 0.00367742
0 0.501976 0.00367742
0 0.503029 0.00367742
0.358068 0.497993 0
0.760586 0.491234 0.000335698
1 0.547265 0.0019379
0.997147 0.746181 0.000885023
0.983093 0.96968 0.34493
0.973312 1 0.709789
0 0.859541 0.00395209
0 0.859525 0.00395209
0 0.859236 0.00395209
0 0.856641 0.00395209
0.659434 0.842664 0
0.948013 0.850431 0.00015259
0.985016 0.910735 0.000259403
0.980209 1 0.352804
0.972915 1 0.706172
0 1 0.00421149
0 1 0.00421149
0 1 0.00421149
0 1 0.00419623
0.602304 1 0
0.88014 1 0
0.975448 1 0.00350958
0.975814 1 0.391791
0.971801 1 0.708583
0.508705 1 0.170855
0.508705 1 0.170855
0.508705 1 0.170855
0.508675 1 0.170855
0.702068 1 0.183734
0.865904 1 0.22182
0.961776 1 0.314778
0.971771 1 0.5075
0.969909 1 0.743526
0.83563 1 0.596689
0.83563 1 0.596704
0.83563 1 0.596704
0.83563 1 0.596704
0.835615 1 0.596704
0.891554 1 0.60528
0.949294 1 0.630396
0.969146 1 0.695216
0.968338 1 0.815183
0.929442 1 0.856168
0.929442 1 0.856168
0.929442 1 0.856168
0.929442 1 0.856168
0.929442 1 0.856168
0.929442 1 0.856168
0.950042 1 0.859648
0.967941 1 0.869383
0.967758 1 0.893492
0.00978103 0.0110628 0.0468147
0.00978103 0.0110628 0.0472267
0.210697 0.0105898 0.0460822
0.441596 0.0130465 0.047715
0.78851 0.0189822 0.0509194
1 0.0246281 0.0569619
1 0.583886 0.10135
0.98471 0.947417 0.349065
0.973465 1 0.71104
0.0069276 0.0416876 0.0404822
0.0449531 0.055848 0.0387274
0.224277 0.0117037 0.040116
0.443809 0.0128786 0.0388037
0.788968 0.0183566 0.0215305
1 0.024033 0.0276646
1 0.611109 0.0839399
0.984527 0.950042 0.348074
0.973449 1 0.710918
0 0.231907 0.00764477
0 0.235264 0.00775158
0.172549 0.232898 0.00485237
0.436057 0.212848 0.0037232
0.782925 0.105257 0.00395209
1 0.261036 0.00450141
1 0.646189 0.0544289
0.984207 0.954345 0.346548
0.973434 1 0.710719
0 0.496025 0.00367742
0 0.49691 0.00367742
0 0.497856 0.00367742
0.367697 0.492515 0
0.759991 0.486686 0.000350958
1 0.543908 0.00195315
0.997238 0.745129 0.000885023
0.983093 0.96968 0.34493
0.973312 1 0.709789
0 0.857603 0.00395209
0 0.857572 0.00395209
0 0.857252 0.00395209
0 0.854612 0.00395209
0.662272 0.841093 0
0.948104 0.849378 0.000167849
0.985046 0.910369 0.000259403
0.980209 1 0.352804
0.972915 1 0.706172
0 1 0.00419623
0 1 0.00421149
0 1 0.00421149
0 1 0.00419623
0.604623 1 0
0.8804 1 0
0.975494 1 0.00352483
0.975814 1 0.391791
0.971801 1 0.708583
0.512551 1 0.170657
0.512551 1 0.170657
0.512535 1 0.170657
0.51252 1 0.170657
0.703166 1 0.18352
0.866102 1 0.221653
0.961807 1 0.314763
0.971771 1 0.5075
0.969909 1 0.743526
0.835889 1 0.596674
0.835889 1 0.596674
0.835889 1 0.596674
0.835889 1 0.596674
0.835874 1 0.596674
0.891661 1 0.605264
0.949325 1 0.630365
0.969146 1 0.695216
0.968338 1 0.815183
0.929458 1 0.856168
0.929458 1 0.856168
0.929458 1 0.856168
0.929458 1 0.856168
0.929458 1 0.856168
0.929458 1 0.856168
0.950057 1 0.859648
0.967941 1 0.869383
0.967758 1 0.893492
0.0114748 0.0131838 0.173007
0.0114748 0.0131991 0.173266
0.182025 0.0123903 0.171221
0.451316 0.0148928 0.169558
0.789487 0.0205844 0.176715
1 0.0262303 0.19826
1 0.5729 0.229572
0.984726 0.946609 0.376822
0.973465 1 0.71104
0.0114443 0.0131685 0.170657
0.0114595 0.0131685 0.171038
0.204242 0.0124514 0.168597
0.450355 0.014847 0.166522
0.79086 0.0205692 0.173068
1 0.0261692 0.191363
1 0.601267 0.223117
0.984527 0.949264 0.37583
0.973449 1 0.710918
0 0.202609 0.159472
0 0.205478 0.159457
0.160082 0.198474 0.153216
0.425559 0.181857 0.15462
0.787152 0.04065 0.162341
1 0.2103 0.173754
1 0.637827 0.213596
0.984222 0.953582 0.374136
0.973434 1 0.710719
0 0.482887 0.0936294
0 0.484215 0.0939498
0 0.485069 0.0950942
0.367697 0.479774 0.0916609
0.755779 0.474754 0.0943923
1 0.533349 0.107607
0.999756 0.741253 0.177081
0.983093 0.96907 0.367697
0.973312 1 0.709789
0 0.85388 0.00395209
0 0.85388 0.00395209
0 0.853544 0.00395209
0 0.850935 0.00395209
0.664897 0.837171 0
0.948089 0.84625 0.000167849
0.986084 0.909575 0.0350958
0.980224 1 0.354055
0.972915 1 0.706172
0 1 0.00419623
0 1 0.00419623
0 1 0.00419623
0 1 0.00418097
0.608667 1 0
0.880995 1 0
0.975525 1 0.00350958
0.97583 1 0.391608
0.971801 1 0.708583
0.517708 1 0.170352
0.517708 1 0.170352
0.517708 1 0.170352
0.517693 1 0.170352
0.704631 1 0.18323
0.86656 1 0.221454
0.961852 1 0.314565
0.971771 1 0.507424
0.969909 1 0.743526
0.83624 1 0.596628
0.83624 1 0.596628
0.83624 1 0.596628
0.83624 1 0.596628
0.83624 1 0.596628
0.891798 1 0.605203
0.949371 1 0.630335
0.969146 1 0.695201
0.968338 1 0.815183
0.929488 1 0.856168
0.929488 1 0.856168
0.929488 1 0.856168
0.929488 1 0.856168
0.929488 1 0.856168
0.929488 1 0.856168
0.950072 1 0.859632
0.967941 1 0.869383
0.967758 1 0.893492
0.012726 0.0151369 0.390799
0.012726 0.0151522 0.39089
0.012726 0.0151522 0.391119
0.415106 0.0159457 0.388449
0.812619 0.0222477 0.393957
1 0.0272374 0.411704
1 0.530465 0.436713
0.98468 0.940185 0.531716
0.973388 1 0.725658
0.012726 0.0151369 0.389395
0.012726 0.0151369 0.389517
0.0370489 0.0146792 0.38909
0.428611 0.0160983 0.386648
0.810758 0.0222019 0.392157
1 0.0272221 0.409171
1 0.563333 0.433463
0.984482 0.943023 0.531029
0.973373 1 0.725536
0.00779736 0.0669413 0.385458
0.00755322 0.0695659 0.385534
0.037583 0.0697185 0.384817
0.434867 0.0161593 0.383566
0.804379 0.0220798 0.388708
1 0.0394141 0.404395
1 0.604791 0.428824
0.984146 0.94757 0.5299
0.973358 1 0.725383
0 0.434379 0.363592
0 0.435218 0.363653
0 0.43711 0.364218
0.351736 0.432029 0.360388
0.740215 0.426764 0.364218
1 0.489006 0.377569
1 0.718944 0.413535
0.982971 0.963958 0.525719
0.973251 1 0.724575
0 0.841108 0.294347
0 0.841108 0.294347
0 0.841352 0.295033
0 0.838834 0.297765
0.65951 0.825513 0.297841
0.947738 0.836683 0.320027
0.987854 0.903868 0.375296
0.97998 1 0.511742
0.972839 1 0.721386
0 1 0.0788434
0 1 0.0788434
0 1 0.0788434
0 1 0.0802014
0.604898 1 0.0751507
0.881636 1 0.179522
0.977447 1 0.303059
0.975631 1 0.4757
0.971771 1 0.712276
0.533227 1 0.168917
0.533227 1 0.168917
0.533227 1 0.168917
0.533227 1 0.168917
0.709102 1 0.182315
0.867735 1 0.220752
0.962097 1 0.314275
0.971771 1 0.506966
0.969909 1 0.74342
0.837507 1 0.596506
0.837507 1 0.596506
0.837507 1 0.596506
0.837507 1 0.596506
0.837507 1 0.596506
0.892271 1 0.605051
0.949554 1 0.630213
0.969146 1 0.695064
0.968338 1 0.815137
0.929625 1 0.856153
0.929625 1 0.856153
0.929625 1 0.856153
0.929625 1 0.856153
0.929625 1 0.856153
0.929625 1 0.856153
0.950118 1 0.859617
0.967941 1 0.869368
0.967758 1 0.893492
0.0129397 0.0163729 0.725567
0.0129397 0.0163729 0.725567
0.0129397 0.0163729 0.725673
0.119005 0.0151827 0.723735
0.77586 0.0219577 0.721538
1 0.0274052 0.72842
1 0.310796 0.733242
0.985016 0.918914 0.750622
0.972915 1 0.824491
0.0129397 0.0163729 0.72546
0.0129397 0.0163729 0.72546
0.0129397 0.0163729 0.725551
0.126024 0.0151675 0.723125
0.78024 0.022034 0.721065
1 0.0274052 0.727962
1 0.385931 0.730205
0.984756 0.922438 0.750195
0.9729 1 0.824414
0.0129397 0.0163729 0.724239
0.0129397 0.0163729 0.724239
0.0129549 0.0163729 0.724315
0.217639 0.0152132 0.721111
0.78677 0.0221561 0.719783
1 0.0274052 0.726665
1 0.463416 0.726619
0.984375 0.927794 0.749508
0.972869 1 0.824323
0 0.214603 0.715785
0 0.214603 0.715785
0 0.218631 0.715755
0.206043 0.208209 0.711238
0.776898 0.124697 0.711131
1 0.20798 0.713726
1 0.631006 0.716823
0.982956 0.947311 0.746944
0.972747 1 0.82388
0 0.78352 0.678416
0 0.78352 0.678416
0 0.783581 0.678447
0 0.783337 0.67892
0.630823 0.770352 0.672572
0.940383 0.789242 0.678065
0.988647 0.874907 0.694514
0.979446 0.995682 0.739223
0.97232 1 0.822202
0 1 0.631357
0 1 0.631357
0 1 0.631296
0 1 0.631968
0.550591 1 0.626596
0.867918 1 0.637263
0.975387 1 0.665385
0.97464 1 0.722637
0.971191 1 0.816266
0.509224 1 0.539574
0.509224 1 0.539574
0.509224 1 0.539574
0.509224 1 0.539574
0.689998 1 0.544198
0.857923 1 0.559365
0.954208 1 0.600381
0.970932 1 0.684428
0.969573 1 0.799496
0.841489 1 0.595666
0.841489 1 0.595666
0.841489 1 0.595666
0.841489 1 0.595666
0.841489 1 0.595666
0.893767 1 0.604486
0.950011 1 0.629725
0.969146 1 0.69482
0.968338 1 0.814893
0.930114 1 0.856077
0.930114 1 0.856077
0.930114 1 0.856077
0.930114 1 0.856077
0.930114 1 0.856077
0.930098 1 0.856077
0.950301 1 0.859556
0.967941 1 0.869307
0.967758 1 0.893462
0.0123751 0.0164645 0.952926
0.0123751 0.0164645 0.953048
0.0123751 0.0164645 0.953048
0.0123751 0.0164645 0.953079
0.543877 0.0180514 0.946487
1 0.0268406 0.944152
1 0.0269474 0.944991
0.991287 0.818692 0.914443
0.972778 1 0.91577
0.0123751 0.0164645 0.953048
0.0123751 0.0164645 0.953048
0.0123751 0.0164645 0.953048
0.0123751 0.0164645 0.953079
0.543114 0.0180362 0.946502
1 0.0268406 0.944152
1 0.0269474 0.944884
0.990707 0.826383 0.913909
0.972763 1 0.91574
0.0123751 0.0164645 0.952987
0.0123751 0.0164645 0.952987
0.0123751 0.0164645 0.952987
0.0123751 0.0164645 0.953002
0.554711 0.0181888 0.946334
1 0.0268559 0.944045
1 0.0269474 0.944747
0.989837 0.838148 0.9131
0.972732 1 0.915663
0.0123751 0.0164645 0.952453
0.0123751 0.0164645 0.952453
0.0123751 0.0164645 0.952453
0.0123751 0.0164645 0.952468
0.618387 0.019089 0.945388
1 0.0268711 0.943465
1 0.0287175 0.942794
0.986969 0.876783 0.910353
0.972595 1 0.915419
0 0.481987 0.935058
0 0.481987 0.935058
0 0.481987 0.935058
0 0.485878 0.93489
0.566522 0.47744 0.924727
1 0.502174 0.920729
0.998932 0.717723 0.911604
0.980987 0.958251 0.903426
0.972076 1 0.914473
0 1 0.895262
0 1 0.895262
0 1 0.895262
0 1 0.895262
0.31577 1 0.886564
0.847623 1 0.885679
0.970077 1 0.887816
0.974227 1 0.894118
0.970748 1 0.911635
0.327688 1 0.868086
0.327688 1 0.868086
0.328649 1 0.868055
0.328649 1 0.868055
0.592706 1 0.867002
0.830533 1 0.86833
0.939727 1 0.872908
0.969757 1 0.88368
0.968902 1 0.905043
0.825422 1 0.831632
0.825422 1 0.831632
0.825422 1 0.831632
0.825422 1 0.831632
0.825422 1 0.831632
0.877974 1 0.834028
0.938613 1 0.841199
0.967987 1 0.85919
0.967773 1 0.891371
0.931685 1 0.855894
0.931685 1 0.855894
0.931685 1 0.855894
0.931685 1 0.855894
0.931685 1 0.855894
0.931685 1 0.855894
0.950881 1 0.859327
0.967941 1 0.869139
0.967758 1 0.8934
0.0121309 0.0164187 1
0.0121309 0.0164187 1
0.0121309 0.0164187 1
0.0121309 0.0164187 1
0.0121309 0.0164187 1
0.947173 0.0245518 1
1 0.0267185 1
1 0.0267185 1
0.974914 1 0.980117
0.0121309 0.0164187 1
0.0121309 0.0164187 1
0.0121309 0.0164187 1
0.0121309 0.0164187 1
0.0121309 0.0164187 1
0.947173 0.0245518 1
1 0.0267185 1
1 0.0267185 1
0.974868 1 0.980087
0.0121309 0.0164187 1
0.0121309 0.0164187 1
0.0121309 0.0164187 1
0.0121309 0.0164187 1
0.0121309 0.0164187 1
0.947173 0.0245518 1
1 0.0267185 1
1 0.0267185 1
0.974792 1 0.979995
0.0121309 0.0164187 1
0.0121309 0.0164187 1
0.0121309 0.0164187 1
0.0121309 0.0164187 1
0.0121309 0.0164187 1
0.953307 0.0246738 1
1 0.0267185 1
1 0.0267185 1
0.974502 1 0.979644
0.0121309 0.0164187 1
0.0121309 0.0164187 1
0.0121309 0.0164187 1
0.0121309 0.0164187 1
0.0121309 0.0164187 1
0.996414 0.0254978 1
1 0.0267185 1
1 0.434699 1
0.973449 1 0.978469
0 0.820661 1
0 0.820661 1
0 0.820661 1
0 0.820661 1
0 0.824872 1
0.843763 0.810742 0.989822
0.986465 0.875212 0.986267
0.977737 0.993774 0.979294
0.971252 1 0.97583
0 1 0.97908
0 1 0.97908
0 1 0.97908
0 1 0.97908
0 1 0.97908
0.772137 1 0.968246
0.931304 1 0.968627
0.969589 1 0.969451
0.968673 1 0.972076
0.787198 1 0.961212
0.787198 1 0.961212
0.787198 1 0.961212
0.787198 1 0.961212
0.787198 1 0.961212
0.846021 1 0.961303
0.926635 1 0.961944
0.966125 1 0.96379
0.967163 1 0.968139
0.924666 1 0.947723
0.924666 1 0.947723
0.924666 1 0.947723
0.924666 1 0.947723
0.924666 1 0.947723
0.924666 1 0.947723
0.944045 1 0.948653
0.965255 1 0.951507
0.967239 1 0.958358
0.00376898 0.0998245 1
0.00376898 0.0998245 1
0.00376898 0.0998245 1
0.00376898 0.0998245 1
0.00376898 0.0998245 1
0.00375372 0.0999161 1
1 0.0267185 1
1 0.0520485 1
1 0.68304 1
0.00376898 0.0998245 1
0.00376898 0.0998245 1
0.00376898 0.0998245 1
0.00376898 0.0998245 1
0.00376898 0.0998245 1
0.00375372 0.0999161 1
1 0.0267185 1
1 0.0520485 1
1 0.68304 1
0.00376898 0.0998245 1
0.00376898 0.0998245 1
0.00376898 0.0998245 1
0.00376898 0.0998245 1
0.00376898 0.0998245 1
0.00375372 0.0999161 1
1 0.0267185 1
1 0.0520485 1
1 0.682994 1
0.00376898 0.0998245 1
0.00376898 0.0998245 1
0.00376898 0.0998245 1
0.00376898 0.0998245 1
0.00376898 0.0998245 1
0.00375372 0.0999161 1
1 0.0267185 1
1 0.0520485 1
1 0.682857 1
0.00378424 0.0997024 1
0.00378424 0.0997024 1
0.00378424 0.0997024 1
0.00378424 0.0997024 1
0.00378424 0.0997024 1
0.00376898 0.099794 1
1 0.0267185 1
1 0.054078 1
1 0.68246 1
0.00393683 0.098085 1
0.00393683 0.098085 1
0.00393683 0.098085 1
0.00393683 0.098085 1
0.00393683 0.098085 1
0.00392157 0.0981613 1
1 0.0267185 1
1 0.0920577 1
0.986572 0.871977 1
0 1 1
0 1 1
0 1 1
0 1 1
0 1 1
0 1 1
0.933608 1 1
0.973373 1 1
0.970047 1 1
0.423301 1 0.99968
0.423301 1 0.99968
0.423301 1 0.99968
0.423301 1 0.99968
0.423301 1 0.99968
0.423301 1 0.99968
0.904311 1 0.999146
0.9635 1 0.999359
0.96698 1 0.999573
0.910597 1 0.997147
0.910597 1 0.997147
0.910597 1 0.997147
0.910597 1 0.997147
0.910597 1 0.997147
0.910597 1 0.997147
0.932342 1 0.997223
0.960861 1 0.997436
0.966903 1 0.997909
0 0.327977 1
0 0.327977 1
0 0.327977 1
0 0.327977 1
0 0.327977 1
0 0.327977 1
0 0.328054 1
1 0.151156 1
0.997528 0.726314 1
0 0.327977 1
0 0.327977 1
0 0.327977 1
0 0.327977 1
0 0.327977 1
0 0.327977 1
0 0.328054 1
1 0.151156 1
0.997528 0.726314 1
0 0.327977 1
0 0.327977 1
0 0.327977 1
0 0.327977 1
0 0.327977 1
0 0.327977 1
0 0.328054 1
1 0.151156 1
0.997528 0.726314 1
0 0.327977 1
0 0.327977 1
0 0.327977 1
0 0.327977 1
0 0.327977 1
0 0.327977 1
0 0.328054 1
1 0.151156 1
0.997528 0.726314 1
0 0.327977 1
0 0.327977 1
0 0.327977 1
0 0.327977 1
0 0.327977 1
0 0.327977 1
0 0.328054 1
1 0.151156 1
0.997528 0.726314 1
0 0.327901 1
0 0.327901 1
0 0.327901 1
0 0.327901 1
0 0.327901 1
0 0.327901 1
0 0.327962 1
1 0.152071 1
0.997391 0.728115 1
0 0.326787 1
0 0.326787 1
0 0.326787 1
0 0.326787 1
0 0.326787 1
0 0.326787 1
0 0.326848 1
1 0.270497 1
0.997147 0.73135 1
0 1 1
0 1 1
0 1 1
0 1 1
0 1 1
0 1 1
0 1 1
0.961578 1 1
0.968017 1 1
0.847288 1 0.999893
0.847288 1 0.999893
0.847288 1 0.999893
0.847288 1 0.999893
0.847288 1 0.999893
0.847288 1 0.999893
0.847288 1 0.999893
0.954482 1 1
0.966888 1 1
