BBLuts/BB_106_0250_LUT.cube
TITLE "Generated by Resolve"
LUT_3D_SIZE 5
0.0123293 0.0218662 0.038529
0.207813 0.0240635 0.0394903
0.776837 0.296681 0.37232
0.982437 0.64271 0.668559
0.974441 0.929747 0.779675
0 0.20531 0.0243534
0.151843 0.209613 0.0271458
0.782666 0.338643 0.381796
0.982132 0.664363 0.666041
0.974334 0.931075 0.777859
0 0.77351 0.00399786
0 0.773114 0.00399786
0.716854 0.763973 0.00503548
0.979355 0.81738 0.597986
0.973587 0.939666 0.763806
0 0.978912 0.00564584
0 0.977752 0.00563058
0.597803 0.972198 0.00645457
0.964523 0.96466 0.007187
0.97052 0.970932 0.769268
0.935653 0.982879 0.889418
0.936156 0.982895 0.889509
0.939879 0.98294 0.890227
0.959884 0.983215 0.895918
0.971786 0.98407 0.928756
0.0351263 0.0366827 0.212604
0.204944 0.0387121 0.215412
0.776577 0.303349 0.420417
0.982467 0.639475 0.672648
0.974594 0.929641 0.801114
0.0101778 0.184482 0.18468
0.188617 0.182818 0.173526
0.777462 0.304295 0.41767
0.982193 0.660319 0.670253
0.974487 0.930968 0.799634
0 0.770108 0.00396735
0 0.76965 0.00396735
0.723384 0.760632 0.00502022
0.979385 0.815869 0.602991
0.973724 0.939605 0.788449
0 0.978683 0.00564584
0 0.977523 0.00563058
0.615778 0.972076 0.00648508
0.964645 0.964614 0.007187
0.970535 0.970901 0.769131
0.935714 0.982879 0.889418
0.936248 0.982895 0.889525
0.939956 0.98294 0.890196
0.959899 0.983215 0.895903
0.971786 0.98407 0.928756
0.571878 0.532296 0.778531
0.572106 0.53257 0.778729
0.78613 0.549554 0.777173
0.982773 0.652232 0.813535
0.975952 0.928923 0.888502
0.569924 0.530068 0.776852
0.570184 0.530388 0.777081
0.793698 0.549767 0.775677
0.982651 0.658763 0.810483
0.97583 0.930327 0.887861
0 0.729488 0.733898
0 0.729824 0.734173
0.723598 0.722866 0.725978
0.980026 0.79852 0.783246
0.975021 0.939284 0.883299
0 0.977523 0.00563058
0 0.97641 0.00563058
0.606714 0.971099 0.00645457
0.960037 0.96379 0.00717174
0.971313 0.971084 0.851286
0.936324 0.982895 0.889372
0.936828 0.982895 0.889464
0.940459 0.98294 0.89015
0.960098 0.983215 0.895857
0.971786 0.98407 0.928756
0.800443 0.775662 1
0.800443 0.775662 1
0.800443 0.775662 1
0.989364 0.787671 1
0.983276 0.90869 1
0.800443 0.775662 1
0.800443 0.775662 1
0.800443 0.775662 1
0.989364 0.787671 1
0.983093 0.911254 1
0.800443 0.775662 1
0.800443 0.775662 1
0.801617 0.775677 1
0.989364 0.787671 1
0.981918 0.927138 1
0 0.983337 0.98851
0 0.98172 0.988525
0.598459 0.97203 0.989151
0.951873 0.961807 0.991714
0.977264 0.972198 0.995239
0.93785 0.985031 0.967514
0.938323 0.985031 0.967544
0.94168 0.985077 0.967773
0.960082 0.985306 0.969558
0.974426 0.985931 0.980362
0.800336 0.776684 1
0.800336 0.776684 1
0.800336 0.776684 1
0.800336 0.776684 1
0.988815 0.810742 1
0.800336 0.776684 1
0.800336 0.776684 1
0.800336 0.776684 1
0.800336 0.776684 1
0.988815 0.810788 1
0.800336 0.776684 1
0.800336 0.776684 1
0.800336 0.776684 1
0.801892 0.776577 1
0.9888 0.810987 1
0.800336 0.776684 1
0.800336 0.776684 1
0.800336 0.776684 1
0.989364 0.787671 1
0.9888 0.811643 1
0.883299 0.987503 1
0.885328 0.987503 1
0.898528 0.987579 1
0.948669 0.987945 1
0.977707 0.988266 1
