BBLuts/BB_104_0020_LUT.cube
TITLE "Generated by Resolve"
LUT_3D_SIZE 33
0 0 0
0 0 0
0 0 0
0 0 0
0 0 0
0.0332341 0 0
0.0941329 0 0
0.140246 0 0
0.187793 0 0
0.244221 0 0
0.308873 0 0
0.379446 0 0
0.455222 0 0
0.538262 0 0
0.623346 0 0
0.712963 0 0
0.806622 0 0
0.902617 0 0
0.990356 0 0
1 0 0
1 0 0
1 0 0
1 0.255436 0
1 0.465461 0.000534066
1 0.617517 0.0428168
1 0.733486 0.098497
1 0.84004 0.167559
1 0.925811 0.256367
1 0.991241 0.36585
1 1 0.473869
1 1 0.569024
1 1 0.663645
1 1 0.750225
0 0 0
0 0 0
0 0 0
0 0 0
0 0 0
0.0445563 0 0
0.098024 0 0
0.143496 0 0
0.193149 0 0
0.250401 0 0
0.315236 0 0
0.3841 0 0
0.456794 0 0
0.539895 0 0
0.624735 0 0
0.713848 0 0
0.807385 0 0
0.902617 0 0
0.990265 0 0
1 0 0
1 0 0
1 0 0
1 0.288716 0
1 0.481056 0
1 0.624872 0.039292
1 0.738354 0.0966201
1 0.842741 0.166934
1 0.927199 0.25626
1 0.991958 0.36553
1 1 0.473701
1 1 0.568948
1 1 0.6636
1 1 0.750195
0 0 0
0 0 0
0 0 0
0 0 0
0 0 0
0.0505074 0 0
0.0985275 0 0
0.146044 0 0
0.198215 0 0
0.254719 0 0
0.317952 0 0
0.385183 0 0
0.458885 0 0
0.541939 0 0
0.626139 0 0
0.715068 0 0
0.807797 0 0
0.902983 0 0
0.990143 0 0
1 0 0
1 0 0
1 0.0333257 0
1 0.321492 0
1 0.495552 0
1 0.631632 0.0361028
1 0.742733 0.0949416
1 0.845258 0.166339
1 0.928496 0.256153
1 0.99263 0.365225
1 1 0.473533
1 1 0.568841
1 1 0.663523
1 1 0.750164
0 0 0
0 0 0
0 0 0
0 0 0
0 0 0
0.0518044 0 0
0.0959029 0 0
0.143282 0 0
0.196399 0 0
0.255802 0 0
0.320485 0 0
0.387182 0 0
0.461448 0 0
0.543999 0 0
0.627573 0 0
0.715984 0 0
0.808576 0 0
0.903304 0 0
0.98999 0 0
1 0 0
1 0 0
1 0.118944 0
1 0.347539 0
1 0.507546 0
1 0.637415 0.033402
1 0.746654 0.0934462
1 0.847593 0.165789
1 0.929732 0.256031
1 0.993301 0.36492
1 1 0.473365
1 1 0.56875
1 1 0.663478
1 1 0.750134
0 0.0328527 0
0 0.0361791 0
0 0.0394141 0
0 0.0426032 0
0 0.0439307 0
0.0341955 0.0425269 0
0.0846723 0.0395666 0
0.135378 0.0331273 0
0.191974 0.0191501 0
0.255879 0 0
0.321813 0 0
0.389349 0 0
0.463905 0 0
0.546105 0 0
0.629389 0 0
0.71725 0 0
0.809339 0 0
0.903624 0 0
0.989822 0 0
1 0 0
1 0 0
1 0.168582 0
1 0.370062 0
1 0.519921 0
1 0.643656 0.0298924
1 0.750683 0.0917525
1 0.849821 0.165286
1 0.930953 0.25594
1 0.993973 0.364614
1 1 0.473198
1 1 0.568673
1 1 0.663417
1 1 0.750103
0 0.0708934 0
0 0.0736553 0
0 0.076524 0
0 0.0787518 0
0 0.0798962 0
0.00746166 0.0798199 0
0.0702678 0.0785992 0
0.125856 0.0757916 0
0.185229 0.0702068 0
0.250767 0.0594186 0
0.319478 0.0388342 0
0.390753 0 0
0.466407 0 0
0.548409 0 0
0.631083 0 0
0.718349 0 0
0.810193 0 0
0.90396 0 0
0.989624 0 0
1 0 0
1 0 0
1 0.210147 0
1 0.389715 0
1 0.530404 0
1 0.649561 0.026566
1 0.754849 0.0898756
1 0.852323 0.164691
1 0.932113 0.255833
1 0.994629 0.36434
1 1 0.47303
1 1 0.568582
1 1 0.663371
1 1 0.750072
0 0.111986 0
0 0.114366 0
0 0.116701 0
0 0.118135 0
0 0.119158 0
0 0.119478 0
0.0426947 0.119371 0
0.111101 0.11809 0
0.174975 0.115068 0
0.243992 0.109041 0
0.314824 0.098146 0
0.387701 0.0807202 0
0.466682 0.048661 0
0.551049 0 0
0.633463 0 0
0.720073 0 0
0.810849 0 0
0.904005 0 0
0.989044 0 0
1 0 0
1 0.0386511 0
1 0.251759 0
1 0.410452 0
1 0.54258 0
1 0.656046 0.0229496
1 0.759564 0.0877394
1 0.855283 0.163973
1 0.933761 0.255726
1 0.995377 0.364004
1 1 0.472847
1 1 0.568475
1 1 0.663294
1 1 0.750042
0 0.159792 0
0 0.161898 0
0 0.16347 0
0 0.164691 0
0 0.165423 0
0 0.166064 0
0 0.16669 0
0.080766 0.166278 0
0.158007 0.164599 0
0.231968 0.160861 0
0.306813 0.153307 0
0.383612 0.142397 0
0.464912 0.126207 0
0.549584 0.0994583 0
0.633783 0.0447395 0
0.721859 0 0
0.812299 0 0
0.90457 0 0
0.988693 0 0
1 0 0
1 0.137926 0
1 0.300084 0
1 0.43679 0
1 0.558785 0
1 0.665293 0.0157626
1 0.765805 0.0849165
1 0.859266 0.163043
1 0.935988 0.255604
1 0.996689 0.36347
1 1 0.472572
1 1 0.568322
1 1 0.663203
1 1 0.749981
0 0.216938 0
0 0.218555 0
0 0.219669 0
0 0.220554 0
0 0.221195 0
0 0.221866 0
0 0.222171 0
0.0271916 0.222782 0
0.125536 0.221592 0
0.210773 0.218601 0
0.292515 0.213565 0
0.375433 0.205875 0
0.461387 0.195026 0
0.548623 0.1785 0
0.631678 0.155871 0
0.719219 0.124666 0
0.81059 0.079118 0
0.905135 0 0
0.988037 0 0
1 0.110231 0
1 0.2327 0
1 0.353429 0
1 0.469368 0
1 0.579339 0
1 0.677516 0.00527962
1 0.774746 0.0806287
1 0.864546 0.161807
1 0.939422 0.255421
1 0.998444 0.362722
1 1 0.472145
1 1 0.568109
1 1 0.663066
1 1 0.749905
0 0.281239 0
0 0.281987 0
0 0.282445 0
0 0.282826 0
0 0.283375 0
0 0.283467 0
0 0.283406 0
0 0.283024 0
0.0614481 0.283558 0
0.175128 0.282139 0
0.269322 0.27921 0
0.360754 0.274159 0
0.453361 0.266438 0
0.545571 0.254765 0
0.629999 0.240955 0
0.716716 0.22472 0
0.806378 0.207614 0
0.897856 0.193606 0
0.979339 0.200168 0
1 0.244221 0
1 0.319783 0
1 0.412314 0
1 0.510124 0
1 0.604898 0
1 0.693477 0
1 0.786664 0.0747539
1 0.871992 0.160052
1 0.943496 0.255192
1 1 0.361746
1 1 0.471565
1 1 0.567712
1 1 0.662882
1 1 0.749783
0 0.35024 0
0 0.350973 0
0 0.351446 0
0 0.351827 0
0 0.352087 0
0 0.352285 0
0 0.352392 0
0 0.352636 0
0 0.352193 0
0.100435 0.353155 0
0.231006 0.352209 0
0.335805 0.34934 0
0.437537 0.343999 0
0.537758 0.335912 0
0.626322 0.326925 0
0.714351 0.317372 0
0.802915 0.309071 0
0.892302 0.305043 0
0.971817 0.315251 0
1 0.348821 0
1 0.40499 0
1 0.475761 0
1 0.555779 0
1 0.634913 0
1 0.713832 0
1 0.802197 0.0678416
1 0.881804 0.157763
1 0.949126 0.254948
1 1 0.360418
1 1 0.470771
1 1 0.567193
1 1 0.662516
1 1 0.74963
0 0.428779 0
0 0.429084 0
0 0.429511 0
0 0.430198 0
0 0.430472 0
0 0.430701 0
0 0.4309 0
0 0.430991 0
0 0.4309 0
0 0.432181 0
0.151385 0.43267 0
0.293263 0.431998 0
0.409918 0.429572 0
0.521569 0.425132 0
0.616922 0.419059 0
0.708659 0.41326 0
0.798321 0.41001 0
0.886 0.410636 0
0.962936 0.421347 0
1 0.446998 0
1 0.488884 0
1 0.543679 0
1 0.60618 0
1 0.670604 0
1 0.741787 0
1 0.8215 0.0600595
1 0.894469 0.154849
1 0.956664 0.254734
1 1 0.360006
1 1 0.469718
1 1 0.566476
1 1 0.662013
1 1 0.749355
0 0.519463 0
0 0.519661 0
0 0.520012 0
0 0.520317 0
0 0.520562 0
0 0.521172 0
0 0.521401 0
0 0.521584 0
0 0.521752 0
0 0.521874 0
0.0197604 0.523735 0
0.21146 0.52546 0
0.364889 0.525048 0
0.492866 0.522972 0
0.598032 0.519295 0
0.695979 0.515557 0
0.789792 0.512963 0
0.878004 0.514153 0
0.952773 0.523186 0
1 0.542168 0
1 0.571923 0
1 0.612253 0
1 0.658213 0
1 0.713039 0
1 0.775723 0
1 0.845533 0.0485847
1 0.910048 0.151354
1 0.966354 0.254643
1 1 0.360739
1 1 0.468391
1 1 0.56553
1 1 0.661341
1 1 0.748928
0 0.612985 0
0 0.613046 0
0 0.613291 0
0 0.613519 0
0 0.613703 0
0 0.613886 0
0 0.614054 0
0 0.614267 0
0 0.614755 0
0 0.614847 0
0 0.61474 0
0.0726635 0.616617 0
0.288746 0.61796 0
0.449363 0.617243 0
0.569406 0.615381 0
0.67509 0.61265 0
0.775464 0.610513 0
0.866773 0.610651 0
0.941085 0.616526 0
0.998596 0.629297 0
1 0.649348 0
1 0.678401 0
1 0.716182 0
1 0.762325 0
1 0.814847 0
1 0.873411 0.0344549
1 0.928969 0.14699
1 0.978332 0.254765
1 1 0.361913
1 1 0.466743
1 1 0.564233
1 1 0.660471
1 1 0.748394
0 0.699489 0
0 0.699489 0
0 0.699596 0
0 0.699748 0
0 0.699855 0
0 0.699962 0
0 0.700053 0
0 0.70016 0
0 0.700221 0
0 0.700191 0
0 0.700359 0
0 0.699855 0
0.151537 0.702617 0
0.382757 0.703777 0
0.531655 0.702617 0
0.645518 0.700633 0
0.753475 0.69836 0
0.84947 0.697841 0
0.925872 0.701366 0
0.982788 0.710811 0
1 0.726879 0
1 0.749676 0
1 0.779873 0
1 0.816587 0
1 0.857847 0
1 0.904097 0.016495
1 0.951034 0.143145
1 0.993164 0.25536
1 1 0.363592
1 1 0.466682
1 1 0.562554
1 1 0.659236
1 1 0.747662
0 0.789044 0
0 0.789044 0
0 0.789044 0
0 0.78912 0
0 0.789151 0
0 0.789197 0
0 0.789212 0
0 0.789242 0
0 0.789212 0
0 0.78909 0
0 0.788769 0
0 0.78851 0
0 0.789746 0
0.265171 0.791714 0
0.477943 0.79234 0
0.606744 0.790722 0
0.722637 0.788693 0
0.824262 0.78735 0
0.903944 0.789242 0
0.963104 0.795529 0
1 0.806973 0
1 0.823957 0
1 0.84564 0
1 0.872023 0
1 0.902129 0
1 0.936446 0
1 0.975097 0.139834
1 1 0.257633
1 1 0.366155
1 1 0.46894
1 1 0.561593
1 1 0.657588
1 1 0.746609
0 0.877836 0
0 0.877836 0
0 0.877836 0
0 0.877836 0
0 0.877821 0
0 0.877806 0
0 0.87776 0
0 0.877684 0
0 0.877531 0
0 0.877226 0
0 0.876753 0
0 0.875929 0
0 0.874937 0
0.130648 0.877913 0
0.404501 0.879499 0
0.562188 0.878782 0
0.685954 0.876493 0
0.792386 0.874495 0
0.876585 0.874159 0
0.939208 0.876936 0
0.986481 0.883131 0
1 0.893339 0
1 0.907469 0
1 0.924849 0
1 0.945739 0
1 0.968872 0
1 1 0.139681
1 1 0.262058
1 1 0.370642
1 1 0.472068
1 1 0.56173
1 1 0.655863
1 1 0.745159
0 0.954391 0
0 0.954391 0
0 0.954391 0
0 0.954391 0
0 0.954391 0
0 0.954345 0
0 0.954223 0
0 0.95404 0
0 0.953719 0
0 0.953246 0
0 0.952544 0
0 0.951415 0
0 0.949844 0
0.0127108 0.951461 0
0.320409 0.953719 0
0.522927 0.953338 0
0.653681 0.950973 0
0.762844 0.948409 0
0.849149 0.946654 0
0.915221 0.946578 0
0.96527 0.948943 0
1 0.953979 0
1 0.961807 0
1 0.972671 0
1 0.986236 0
1 1 0
1 1 0.147494
1 1 0.269856
1 1 0.37734
1 1 0.476967
1 1 0.564828
1 1 0.654139
1 1 0.743374
0 1 0
0 1 0
0 1 0
0 1 0
0 1 0
0 1 0
0 1 0
0 1 0
0 1 0
0 1 0
0 1 0
0 1 0
0 1 0
0 1 0
0.256855 1 0
0.498116 1 0
0.631739 1 0
0.74081 1 0
0.826505 1 0
0.893675 1 0
0.945769 1 0
0.984222 1 0
1 1 0
1 1 0
1 1 0
1 1 0.0265812
1 1 0.165988
1 1 0.28191
1 1 0.387045
1 1 0.483742
1 1 0.569741
1 1 0.657328
1 1 0.741238
0 1 0
0 1 0
0 1 0
0 1 0
0 1 0
0 1 0
0 1 0
0 1 0
0 1 0
0 1 0
0 1 0
0 1 0
0 1 0
0 1 0
0.261067 1 0
0.490867 1 0
0.621439 1 0
0.726543 1 0
0.809567 1 0
0.875731 1 0
0.928069 1 0
0.968154 1 0
0.999405 1 0
1 1 0
1 1 0
1 1 0.0671244
1 1 0.191577
1 1 0.300481
1 1 0.400046
1 1 0.493156
1 1 0.576486
1 1 0.662516
1 1 0.743389
0 1 0
0 1 0
0 1 0
0 1 0
0 1 0
0 1 0
0 1 0
0 1 0
0 1 0
0 1 0
0 1 0
0 1 0
0 1 0
0 1 0
0.318013 1 0
0.504967 1 0
0.625086 1 0
0.722118 1 0
0.800046 1 0
0.863539 1 0
0.914351 1 0
0.95462 1 0
0.986984 1 0
1 1 0
1 1 0
1 1 0.112795
1 1 0.226337
1 1 0.324361
1 1 0.418204
1 1 0.504891
1 1 0.585718
1 1 0.669444
1 1 0.747662
0 1 0
0 1 0
0 1 0
0 1 0
0 1 0
0 1 0
0 1 0
0 1 0
0 1 0
0 1 0
0 1 0
0 1 0
0 1 0
0.0700236 1 0
0.394186 1 0
0.535515 1 0
0.639567 1 0
0.725475 1 0
0.796536 1 0
0.856062 1 0
0.90425 1 0
0.943435 1 0
0.975753 1 0
1 1 0
1 1 0.0676738
1 1 0.177371
1 1 0.270375
1 1 0.356359
1 1 0.441489
1 1 0.520378
1 1 0.597757
1 1 0.678676
1 1 0.753643
0 1 0
0 1 0
0 1 0
0 1 0
0 1 0
0 1 0
0 1 0
0 1 0
0 1 0
0 1 0
0 1 0
0 1 0
0 1 0
0.303044 1 0
0.471 1 0
0.576745 1 0
0.66331 1 0
0.736553 1 0
0.799481 1 0
0.8533 1 0
0.897917 1 0
0.93547 1 0
0.966873 1 0
0.996338 1 0.0532998
1 1 0.155215
1 1 0.241688
1 1 0.320378
1 1 0.396674
1 1 0.470695
1 1 0.540963
1 1 0.614267
1 1 0.690379
1 1 0.761501
0.259663 1 0
0.259663 1 0
0.259663 1 0
0.259663 1 0
0.259648 1 0
0.259648 1 0
0.259648 1 0
0.259648 1 0
0.259632 1 0
0.259602 1 0
0.259602 1 0
0.259571 1 0
0.259525 1 0
0.422583 1 0
0.539498 1 0
0.622614 1 0
0.693034 1 0
0.753582 1 0
0.808087 1 0
0.855512 1 0
0.89807 1 0.0104829
0.93489 1 0.066743
0.96585 1 0.115084
0.991348 1 0.173846
1 1 0.239811
1 1 0.307515
1 1 0.374548
1 1 0.441123
1 1 0.505074
1 1 0.567315
1 1 0.635401
1 1 0.705959
1 1 0.771313
0.533425 1 0.145754
0.533425 1 0.145754
0.533425 1 0.145754
0.533425 1 0.145754
0.533425 1 0.145754
0.533425 1 0.145754
0.533425 1 0.145754
0.533425 1 0.145754
0.533425 1 0.145754
0.53341 1 0.145739
0.53341 1 0.145739
0.53341 1 0.145739
0.533394 1 0.145739
0.533379 1 0.145754
0.602686 1 0.150393
0.674022 1 0.156664
0.73077 1 0.163531
0.780957 1 0.171511
0.827375 1 0.181735
0.867857 1 0.194278
0.903639 1 0.209918
0.935454 1 0.229252
0.96318 1 0.253391
0.986725 1 0.28188
1 1 0.323308
1 1 0.375174
1 1 0.43151
1 1 0.488289
1 1 0.542199
1 1 0.59971
1 1 0.661982
1 1 0.725078
1 1 0.7841
0.668788 1 0.304143
0.668788 1 0.304143
0.668788 1 0.304143
0.668788 1 0.304143
0.668788 1 0.304143
0.668788 1 0.304143
0.668788 1 0.304143
0.668788 1 0.304143
0.668788 1 0.304143
0.668788 1 0.304143
0.668788 1 0.304143
0.668788 1 0.304143
0.668772 1 0.304143
0.668772 1 0.304143
0.668757 1 0.304143
0.713954 1 0.307286
0.763775 1 0.311757
0.806378 1 0.316808
0.844053 1 0.322774
0.877882 1 0.330541
0.908583 1 0.3402
0.936889 1 0.352468
0.961791 1 0.368063
0.983444 1 0.388052
1 1 0.411475
1 1 0.446403
1 1 0.489891
1 1 0.534859
1 1 0.584421
1 1 0.637644
1 1 0.693187
1 1 0.747997
1 1 0.799756
0.759747 1 0.430808
0.759747 1 0.430808
0.759747 1 0.430808
0.759747 1 0.430808
0.759747 1 0.430808
0.759747 1 0.430808
0.759747 1 0.430808
0.759747 1 0.430808
0.759731 1 0.430808
0.759731 1 0.430808
0.759731 1 0.430808
0.759731 1 0.430808
0.759731 1 0.430808
0.759731 1 0.430808
0.759716 1 0.430793
0.759716 1 0.430793
0.793072 1 0.433433
0.830427 1 0.437263
0.861234 1 0.441566
0.889021 1 0.446662
0.915389 1 0.453239
0.939818 1 0.461448
0.961807 1 0.471763
0.981445 1 0.484764
0.99855 1 0.500938
1 1 0.51902
1 1 0.548119
1 1 0.586374
1 1 0.630777
1 1 0.679164
1 1 0.727474
1 1 0.773968
1 1 0.817685
0.826719 1 0.535363
0.826719 1 0.535363
0.826719 1 0.535363
0.826719 1 0.535363
0.826719 1 0.535363
0.826719 1 0.535363
0.826719 1 0.535363
0.826719 1 0.535363
0.826719 1 0.535363
