BBLuts/BB_102_0170_LUT.cube
TITLE "Generated by Resolve"
LUT_3D_SIZE 9
0.00502022 0.00601205 0.00225834
0.00502022 0.00601205 0.00225834
0.192767 0.00228885 0
0.435035 0 0
0.745312 0 0
0.963195 0 0
0.936477 0.527932 0.0883955
0.915389 0.865156 0.367514
0.905455 0.995895 0.685069
0 0.0591287 0.00183108
0 0.0691234 0.00175479
0.200961 0.0455482 0
0.44622 0 0
0.747707 0 0
0.963195 0 0
0.933867 0.563607 0.0778668
0.915022 0.8701 0.36524
0.905409 0.996521 0.68481
0 0.221454 0.000320439
0 0.225055 0.000289921
0.152163 0.223835 0
0.446128 0.199405 0
0.747723 0.0875715 0
0.953613 0.205402 0
0.93019 0.610971 0.0574197
0.914458 0.877699 0.361608
0.905333 0.997513 0.684382
0 0.494347 0
0 0.495567 0
0 0.496223 0
0.369787 0.496498 0
0.728252 0.483055 0
0.932692 0.535225 0
0.92105 0.703807 0
0.912978 0.897734 0.351064
0.905135 1 0.683101
0 0.803433 0
0 0.803357 0
0 0.802976 0
0 0.800443 0
0.650172 0.797742 0
0.882658 0.803082 0
0.910246 0.852338 0
0.909941 0.939254 0.354391
0.904601 1 0.679255
0 0.980926 0
0 0.980148 0
0 0.978866 0
0 0.97496 0
0.614145 0.972763 0
0.826291 0.965209 0
0.90161 0.967529 0
0.906035 0.993622 0.397696
0.903441 1 0.6748
0.506233 1 0.150072
0.523033 1 0.151049
0.548058 1 0.152651
0.607446 1 0.157366
0.708751 1 0.17113
0.819455 1 0.209552
0.895796 1 0.31107
0.90277 1 0.509133
0.901747 1 0.703639
0.784985 1 0.577935
0.78648 1 0.578088
0.788861 1 0.578332
0.795682 1 0.57911
0.813169 1 0.58143
0.846677 1 0.588449
0.887053 1 0.608606
0.900938 1 0.663325
0.900465 1 0.76347
0.866621 1 0.796857
0.866804 1 0.796887
0.867109 1 0.796918
0.868009 1 0.797024
0.870588 1 0.797345
0.877104 1 0.798306
0.889586 1 0.80116
0.900191 1 0.809033
0.900053 1 0.829801
0.00588998 0.00701915 0.0356756
0.00588998 0.00701915 0.0358587
0.194156 0.00354009 0.0327306
0.437049 0 0.0298161
0.746746 0 0.0267948
0.965454 0 0.0469215
0.937743 0.522194 0.146502
0.915511 0.864256 0.403571
0.905425 0.995727 0.691829
0.0030518 0.0367742 0.0290684
0.0438849 0.0477913 0.0271305
0.21149 0.00308232 0.0263676
0.442527 0 0.0213626
0.747112 0 0.00608835
0.964965 0 0.026688
0.935134 0.559304 0.136309
0.915145 0.869245 0.401648
0.905379 0.996353 0.691585
0 0.212284 0.000396735
0 0.215335 0.000366217
0.171191 0.214435 0
0.444785 0.189487 0
0.746548 0.0542458 0
0.954589 0.187915 0
0.931563 0.608286 0.11812
0.914595 0.876905 0.398535
0.905318 0.997345 0.691188
0 0.489647 0
0 0.490806 0
0 0.491279 0
0.381369 0.491157 0
0.728115 0.478431 0
0.932921 0.531838 0
0.92285 0.7037 0.0269474
0.9131 0.897154 0.389258
0.905104 1 0.689952
0 0.802182 0
0 0.802075 0
0 0.801678 0
0 0.7991 0
0.652964 0.796475 0
0.882841 0.802167 0
0.910292 0.85185 0
0.909987 0.939055 0.363012
0.90457 1 0.686275
0 0.980667 0
0 0.979873 0
0 0.978592 0
0 0.974685 0
0.616007 0.972564 0
0.826627 0.965057 0
0.90161 0.967422 0
0.906035 0.993545 0.397498
0.903441 1 0.675425
0.508766 1 0.149905
0.525444 1 0.150912
0.550164 1 0.152514
0.608911 1 0.157214
0.709438 1 0.170993
0.819638 1 0.20943
0.895842 1 0.311055
0.90277 1 0.509071
0.901747 1 0.703609
0.785229 1 0.577905
0.786709 1 0.578073
0.789075 1 0.578317
0.79588 1 0.57908
0.813321 1 0.581415
0.846754 1 0.588418
0.887083 1 0.608591
0.900938 1 0.66331
0.900465 1 0.763455
0.866651 1 0.796857
0.866819 1 0.796887
0.86714 1 0.796918
0.86804 1 0.797009
0.870619 1 0.797345
0.877119 1 0.798306
0.889601 1 0.80116
0.900191 1 0.809033
0.900053 1 0.829801
0.00640879 0.00790417 0.147997
0.00640879 0.00790417 0.148196
0.173373 0.00521859 0.144686
0.450324 0.000900282 0.137087
0.748241 0 0.13576
0.966857 0 0.156497
0.939391 0.509407 0.239307
0.915663 0.862654 0.45098
0.905394 0.995453 0.702083
0.00640879 0.00788891 0.144472
0.00640879 0.00788891 0.144808
0.199878 0.00479133 0.140551
0.448707 0.000900282 0.133654
0.750484 0 0.131914
0.966812 0 0.150118
0.936721 0.549081 0.233051
0.915297 0.86772 0.449424
0.905348 0.996078 0.701854
0 0.188663 0.132067
0 0.190982 0.131746
0.164874 0.184375 0.126879
0.43357 0.16524 0.127214
0.749065 0 0.121614
0.961303 0.133394 0.143664
0.933196 0.600748 0.222538
0.914733 0.875517 0.446937
0.905287 0.997086 0.701473
0 0.478157 0.0578317
0 0.479545 0.0586252
0 0.480232 0.0597543
0.384955 0.479591 0.0617075
0.726574 0.467857 0.0650339
0.936782 0.523583 0.0891127
0.926009 0.701854 0.188434
0.913237 0.896071 0.439612
0.905074 0.999969 0.700328
0 0.799603 0
0 0.799496 0
0 0.799084 0
0 0.79646 0
0.655543 0.793866 0
0.882856 0.800046 0
0.913054 0.853498 0.0602426
0.910124 0.938582 0.419379
0.90454 1 0.69691
0 0.980224 0
0 0.979431 0
0 0.978149 0
0 0.974258 0
0.619013 0.972213 0
0.827161 0.964797 0
0.901625 0.967239 0
0.906035 0.993454 0.397162
0.90341 1 0.686885
0.51284 1 0.149676
0.529351 1 0.150668
0.553552 1 0.152255
0.611276 1 0.15697
0.710552 1 0.170764
0.819959 1 0.209247
0.895918 1 0.311025
0.90277 1 0.508965
0.901747 1 0.703548
0.78558 1 0.577874
0.78706 1 0.578027
0.789425 1 0.578271
0.796201 1 0.579049
0.813565 1 0.581369
0.846876 1 0.588388
0.887114 1 0.60856
0.900938 1 0.66331
0.900465 1 0.763439
0.866682 1 0.796857
0.86688 1 0.796872
0.867185 1 0.796918
0.868086 1 0.797009
0.870665 1 0.79733
0.87715 1 0.798291
0.889616 1 0.801144
0.900191 1 0.809033
0.900053 1 0.829801
0.00474556 0.0069276 0.367239
0.00474556 0.00691234 0.367391
0.00474556 0.00691234 0.367483
0.425956 0.00148013 0.35906
0.766827 0 0.355108
0.967254 0 0.37023
0.942977 0.459953 0.435935
0.915953 0.857221 0.54728
0.905318 0.994629 0.728191
0.00477607 0.00694286 0.365072
0.00477607 0.00694286 0.36527
0.0849012 0.00590524 0.363745
0.441794 0.0012665 0.356497
0.764889 0 0.352728
0.967254 0 0.367422
0.939742 0.509728 0.432898
0.915572 0.862562 0.546288
0.905272 0.995254 0.727993
0 0.0785992 0.361257
0 0.0842298 0.36141
0.11252 0.0785687 0.359915
0.448356 0.00120546 0.352514
0.758938 0 0.348943
0.967269 0 0.362173
0.935714 0.571374 0.427787
0.914992 0.870741 0.544671
0.905211 0.996292 0.727687
0 0.431907 0.332921
0 0.433768 0.333211
0 0.435065 0.333852
0.379019 0.433982 0.33518
0.715724 0.423636 0.337423
0.941558 0.482155 0.352605
0.928054 0.686107 0.411917
0.913451 0.892271 0.540063
0.904997 0.999237 0.726741
0 0.794095 0.241825
0 0.794064 0.242481
0 0.793774 0.243503
0 0.791394 0.246433
0.657282 0.788983 0.259495
0.886229 0.797223 0.287968
0.916365 0.851698 0.368154
0.910262 0.936584 0.527962
0.904448 1 0.72398
0 0.978988 0
0 0.97821 0
0 0.976913 0
0 0.973022 0
0.618982 0.970977 0
0.830472 0.968231 0.122133
0.907134 0.973022 0.283268
0.906142 0.992996 0.499718
0.903288 1 0.71603
0.52517 1 0.148943
0.540734 1 0.149935
0.563531 1 0.151522
0.61828 1 0.156237
0.713863 1 0.170077
0.82092 1 0.208682
0.896132 1 0.310918
0.90277 1 0.508644
0.901762 1 0.703365
0.786679 1 0.577768
0.788144 1 0.577905
0.790478 1 0.578164
0.797147 1 0.578927
0.814298 1 0.581262
0.847257 1 0.588266
0.887236 1 0.608454
0.900938 1 0.663294
0.900465 1 0.763363
0.866835 1 0.796841
0.867018 1 0.796857
0.867308 1 0.796887
0.868223 1 0.796994
0.870771 1 0.797314
0.877256 1 0.798276
0.889662 1 0.801129
0.900191 1 0.809018
0.900053 1 0.829801
0 0.002533 0.664286
0 0.002533 0.664363
0 0.002533 0.6645
0.264332 9.15541e-05 0.659983
0.752331 0 0.65066
0.965576 0 0.651499
0.957397 0.195727 0.672618
0.916686 0.837674 0.707164
0.905196 0.992172 0.780774
0 0.00254826 0.66363
0 0.00254826 0.663706
0 0.002533 0.663859
0.292317 0 0.658869
0.757687 0 0.649912
0.965591 0 0.650813
0.950805 0.314366 0.67245
0.916228 0.844175 0.706477
0.905135 0.992859 0.780636
0 0.00256352 0.662562
0 0.00256352 0.662654
0 0.00256352 0.662806
0.329656 0 0.657145
0.760967 0 0.648692
0.965591 0 0.649622
0.943725 0.431678 0.670741
0.915557 0.85388 0.705409
0.905058 0.993927 0.780423
0 0.247303 0.656107
0 0.250294 0.656107
0 0.254124 0.656077
0.323217 0.245869 0.653284
0.754253 0.133806 0.647639
0.954818 0.247089 0.64979
0.931487 0.623133 0.664012
0.913802 0.878782 0.702419
0.904845 0.99704 0.779782
0 0.753735 0.619379
0 0.75404 0.619501
0 0.754131 0.619654
0 0.752514 0.620035
0.644541 0.750088 0.623026
0.879988 0.764462 0.627985
0.917464 0.831189 0.645899
0.910246 0.92903 0.69514
0.904265 1 0.77792
0 0.982498 0.572976
0 0.981735 0.573159
0 0.980453 0.573465
0 0.976516 0.574334
0.597406 0.973983 0.580682
0.823224 0.966537 0.591821
0.907591 0.970077 0.619806
0.905882 0.990219 0.680354
0.903059 1 0.772854
0.516609 1 0.495079
0.532616 1 0.495506
0.556008 1 0.496162
0.611933 1 0.498039
0.708888 1 0.503136
0.816602 1 0.517617
0.891478 1 0.558389
0.902541 1 0.646448
0.901503 1 0.759274
0.78999 1 0.577386
0.791379 1 0.577554
0.793606 1 0.577798
0.800015 1 0.578561
0.81651 1 0.580896
0.848432 1 0.587915
0.887617 1 0.608148
0.900938 1 0.663218
0.900465 1 0.763195
0.867262 1 0.796796
0.867445 1 0.796811
0.867735 1 0.796841
0.86862 1 0.796948
0.871138 1 0.797253
0.877516 1 0.79823
0.889815 1 0.801099
0.900191 1 0.808988
0.900053 1 0.829801
0 0 0.863569
0 0 0.863584
0 0 0.863615
0 0 0.863661
0.646204 0 0.85034
0.963592 0 0.84094
0.963577 0 0.841962
0.921965 0.747356 0.842145
0.905287 0.984588 0.846952
0 0 0.863478
0 0 0.863493
0 0 0.863508
0 0 0.863569
0.653605 0 0.850034
0.963592 0 0.840864
0.963577 0 0.841871
0.921111 0.75996 0.841428
0.905226 0.985382 0.846876
0 0 0.86334
0 0 0.863355
0 0 0.863371
0 0 0.863416
0.665309 0 0.849531
0.963592 0 0.840696
0.963592 0 0.841733
0.91986 0.778561 0.840314
0.905135 0.986664 0.846723
0 0 0.862913
0 0 0.862928
0 0 0.862943
0 0 0.862577
0.69099 0 0.848295
0.963607 0 0.840223
0.963607 0 0.839551
0.916777 0.82356 0.837415
0.904875 0.990326 0.846296
0 0.558358 0.846738
0 0.559762 0.846677
0 0.562005 0.846571
0 0.565515 0.845884
0.637644 0.558724 0.842924
0.929717 0.580255 0.838346
0.92343 0.726482 0.834012
0.911421 0.900359 0.831601
0.904189 0.999771 0.845136
0 0.967193 0.810086
0 0.966705 0.81004
0 0.965759 0.809995
0 0.962051 0.809781
0.522942 0.957748 0.812512
0.810452 0.949935 0.814099
0.903792 0.956588 0.816403
0.905669 0.981521 0.823453
0.902846 1 0.842405
0.360113 1 0.793698
0.401083 1 0.793988
0.451072 1 0.794385
0.541955 1 0.795148
0.670817 1 0.796262
0.797559 1 0.798154
0.87953 1 0.802823
0.901839 1 0.813901
0.901122 1 0.836881
0.779492 1 0.75903
0.780926 1 0.759091
0.783215 1 0.759182
0.789792 1 0.759487
0.806668 1 0.760357
0.839338 1 0.762982
0.879545 1 0.77084
0.900313 1 0.790005
0.900084 1 0.824521
0.868528 1 0.796628
0.868696 1 0.796658
0.868971 1 0.796689
0.869825 1 0.796796
0.872236 1 0.797116
0.878355 1 0.798077
0.890257 1 0.800946
0.900191 1 0.80885
0.900053 1 0.82977
0 0 0.922881
0 0 0.922881
0 0 0.922881
0 0 0.922881
0 0 0.922881
0.944839 0 0.911574
0.962737 0 0.91133
0.962737 0 0.91133
0.907164 0.952361 0.900862
0 0 0.922881
0 0 0.922881
0 0 0.922881
0 0 0.922881
0 0 0.922881
0.946212 0 0.911559
0.962737 0 0.91133
0.962737 0 0.91133
0.907073 0.953826 0.90074
0 0 0.922881
0 0 0.922881
0 0 0.922881
0 0 0.922881
0 0 0.922881
0.948394 0 0.911528
0.962737 0 0.91133
0.962737 0 0.91133
0.906905 0.956161 0.900557
0 0 0.922881
0 0 0.922881
0 0 0.922881
0 0 0.922881
0 0 0.922881
0.954803 0 0.911437
0.962737 0 0.91133
0.962737 0 0.91133
0.906432 0.962707 0.900038
0 0 0.922881
0 0 0.922881
0 0 0.922881
0 0 0.922881
0.340612 0 0.918929
0.962737 0 0.91133
0.962737 0 0.91133
0.92932 0.624964 0.915267
0.905287 0.978943 0.898726
0 0.855467 0.904585
0 0.855772 0.904555
0 0.856275 0.904524
0 0.857816 0.904387
0 0.852262 0.903059
0.821775 0.849104 0.904021
0.91252 0.876875 0.901366
0.90782 0.94374 0.897551
0.903227 1 0.896193
0 1 0.88426
0 1 0.884199
0 1 0.884123
0 1 0.883864
0.5673 1 0.887617
0.774701 1 0.888457
0.873823 1 0.888914
0.901686 1 0.88986
0.900954 1 0.892836
0.748592 1 0.881697
0.750484 1 0.881697
0.753506 1 0.881712
0.762448 1 0.881743
0.784131 1 0.881849
0.824445 1 0.882094
0.870497 1 0.88275
0.899672 1 0.884627
0.899641 1 0.889158
0.863691 1 0.867582
0.863874 1 0.867597
0.864149 1 0.867597
0.865003 1 0.867643
0.867475 1 0.86775
0.873716 1 0.868086
0.885863 1 0.869078
0.899718 1 0.871962
0.899702 1 0.879377
0 0.0571298 0.923781
0 0.0571298 0.923781
0 0.0571298 0.923781
0 0.057145 0.923781
0 0.0572213 0.923781
0 0.0573892 0.923781
0.962737 0 0.91133
0.962737 0 0.91133
0.926192 0.672831 0.921004
0 0.057084 0.923781
0 0.057084 0.923781
0 0.0570993 0.923781
0 0.0571298 0.923781
0 0.0571908 0.923781
0 0.0573739 0.923781
0.962737 0 0.91133
0.962737 0 0.91133
0.926192 0.672801 0.921004
0 0.0570382 0.923781
0 0.0570382 0.923781
0 0.0570535 0.923781
0 0.0570687 0.923781
0 0.0571298 0.923781
0 0.0573281 0.923781
0.962737 0 0.91133
0.962737 0 0.91133
0.926192 0.67277 0.921004
0 0.0568856 0.923781
0 0.0568704 0.923781
0 0.0568856 0.923781
0 0.0569009 0.923781
0 0.0569772 0.923781
0 0.0267491 0.923445
0.962737 0 0.91133
0.962737 0 0.91133
0.926207 0.672618 0.921004
0 0.0563821 0.923781
0 0.0563821 0.923781
0 0.0563973 0.923781
0 0.0564126 0.923781
0 0.0564736 0.923781
0.376715 0 0.918593
0.962737 0 0.91133
0.962737 0 0.91133
0.926238 0.67216 0.921004
0 0.0548257 0.923766
0 0.0548257 0.923766
0 0.0548257 0.923766
0 0.0548562 0.923766
0 0.0549172 0.923766
0.766674 0 0.914
0.962737 0 0.91133
0.961273 0.0476234 0.914244
0.91043 0.904112 0.920409
0 1 0.91342
0 1 0.91342
0 1 0.91342
0 1 0.91342
0 1 0.913405
0.662943 0.993149 0.918578
0.878813 0.987732 0.919799
0.90367 0.998795 0.919829
0.901808 1 0.919646
0.586023 1 0.91725
0.594263 1 0.917281
0.606653 1 0.917342
0.639017 1 0.917479
0.705364 1 0.917693
0.791028 1 0.917861
0.86125 1 0.917937
0.898314 1 0.91809
0.899458 1 0.918349
0.852247 1 0.91545
0.852491 1 0.91545
0.852872 1 0.91545
0.854032 1 0.915465
0.857282 1 0.915465
0.865385 1 0.915496
0.880201 1 0.915557
0.896147 1 0.91577
0.899428 1 0.916335
0 0.30518 0.923217
0 0.30518 0.923217
0 0.30518 0.923217
0 0.305196 0.923217
0 0.305196 0.923217
0 0.305257 0.923217
0 0.305364 0.923217
0.949798 0.29012 0.919234
0.922988 0.721401 0.921004
0 0.30518 0.923217
0 0.30518 0.923217
0 0.30518 0.923217
0 0.30518 0.923217
0 0.305196 0.923217
0 0.305226 0.923217
0 0.305364 0.923217
0.949767 0.29044 0.919234
0.922988 0.721447 0.921004
0 0.30515 0.923217
0 0.30515 0.923217
0 0.30515 0.923217
0 0.30518 0.923217
0 0.30518 0.923217
0 0.305226 0.923217
0 0.305348 0.923217
0.949752 0.290913 0.919234
0.922988 0.721523 0.921004
0 0.305135 0.923217
0 0.305135 0.923217
0 0.305135 0.923217
0 0.305135 0.923217
0 0.30515 0.923217
0 0.305196 0.923217
0 0.305303 0.923217
0.94966 0.292424 0.919249
0.922972 0.721767 0.921004
0 0.305028 0.923217
0 0.305028 0.923217
0 0.305028 0.923217
0 0.305028 0.923217
0 0.305043 0.923217
0 0.305074 0.923217
0.363165 0.284459 0.922011
0.949401 0.297002 0.919295
0.922927 0.722484 0.921004
0 0.304707 0.923217
0 0.304707 0.923217
0 0.304707 0.923217
0 0.304723 0.923217
0 0.304723 0.923217
0 0.304753 0.923217
0.787945 0.0812085 0.917189
0.948638 0.310536 0.919432
0.92285 0.723552 0.921004
0 0.303716 0.923232
0 0.303716 0.923232
0 0.303716 0.923232
0 0.303731 0.923232
0 0.303731 0.923232
0 0.303777 0.923232
0.962737 0 0.91133
0.947112 0.336858 0.919676
0.922713 0.725567 0.921004
0 1 0.912718
0 1 0.912718
0 1 0.912718
0 1 0.912718
0 1 0.912718
0 1 0.912718
0.819974 1 0.919066
0.900511 1 0.919524
0.900252 1 0.919493
0.798428 1 0.918853
0.799252 1 0.918853
0.80058 1 0.918853
0.804425 1 0.918883
0.814664 1 0.918944
0.836728 1 0.919066
0.868284 1 0.919234
0.893309 1 0.919371
0.899397 1 0.919402
