BBLuts/BB_103_0610_LUT.cube
TITLE "Generated by Resolve"
LUT_3D_SIZE 5
0.00999466 0.0103304 0.0108949
0.305974 0.015198 0.0161746
0.740261 0.0009308 0.00137331
0.829175 0.619379 0.271
0.817472 0.820966 0.790921
0.00619516 0.337835 0.0140383
0.26125 0.339376 0.0126497
0.736919 0.148867 0
0.828199 0.656321 0.207828
0.817456 0.821576 0.7906
0.0103914 0.754528 0.0276646
0.0102541 0.754299 0.027512
0.706127 0.747326 0.0252232
0.825162 0.773297 0.0423743
0.817426 0.825574 0.78819
0.640452 0.8533 0.398398
0.663066 0.851621 0.396948
0.741344 0.846113 0.413275
0.817884 0.840513 0.600488
0.81706 0.839643 0.799924
0.802533 0.844617 0.840711
0.802731 0.844617 0.840742
0.804181 0.844617 0.840909
0.812039 0.844633 0.842481
0.816556 0.844587 0.854292
0.0110475 0.0119478 0.327977
0.274037 0.0150607 0.331212
0.738766 0 0.335882
0.828916 0.61088 0.530617
0.817395 0.820722 0.798932
0.00648508 0.287007 0.303624
0.270314 0.279606 0.294926
0.7393 0 0.310201
0.827787 0.650202 0.503426
0.81738 0.821363 0.798657
0.00927749 0.75259 0.0264286
0.00914015 0.752346 0.026276
0.708644 0.745495 0.0248264
0.824262 0.771832 0.205264
0.817334 0.825376 0.796582
0.644175 0.85301 0.39675
0.665965 0.851392 0.39556
0.742153 0.846052 0.412604
0.817945 0.840497 0.600458
0.81706 0.839643 0.799878
0.802563 0.844617 0.840711
0.802762 0.844617 0.840742
0.804211 0.844617 0.840909
0.812055 0.844633 0.842481
0.816556 0.844587 0.854292
0.0105287 0.0121767 0.775357
0.010544 0.012192 0.775464
0.740398 0 0.774685
0.832822 0.333837 0.791028
0.817166 0.819379 0.833646
0.0105135 0.0121614 0.774472
0.0105135 0.0121767 0.774594
0.744656 0 0.773877
0.829541 0.580804 0.79118
0.817151 0.820035 0.833509
0 0.725124 0.758755
0 0.725338 0.758923
0.694957 0.718853 0.758251
0.819547 0.756237 0.771725
0.81709 0.824308 0.832502
0.641855 0.849302 0.693904
0.662852 0.847715 0.693141
0.737209 0.842405 0.693721
0.813367 0.837598 0.725124
0.816892 0.839277 0.824842
0.802808 0.844617 0.840681
0.802991 0.844617 0.840711
0.80441 0.844633 0.840879
0.812131 0.844633 0.842451
0.816556 0.844587 0.854292
0.0167849 0.0188296 0.890715
0.0167849 0.0188296 0.890715
0.0167849 0.0188296 0.890715
0.839307 0.0284428 0.897322
0.817304 0.804273 0.882826
0.0167849 0.0188296 0.890715
0.0167849 0.0188296 0.890715
0.0167849 0.0188296 0.890715
0.839307 0.0284428 0.897322
0.817273 0.805722 0.882719
0.0167849 0.0188296 0.890715
0.0167849 0.0188296 0.890715
0.523888 0.0119631 0.890471
0.839307 0.0284428 0.897322
0.817105 0.814435 0.882048
0.0695811 0.858961 0.894942
0.0693828 0.858137 0.89482
0.667185 0.841093 0.881682
0.805066 0.832746 0.878386
0.816739 0.837491 0.879957
0.80145 0.844587 0.86978
0.801633 0.844587 0.86978
0.803006 0.844587 0.869841
0.810605 0.844602 0.870359
0.81651 0.844572 0.874464
0.00300603 0.457099 0.890043
0.00300603 0.457099 0.890043
0.00300603 0.45713 0.890043
0.00300603 0.457374 0.890043
0.823041 0.70898 0.894881
0.00300603 0.457084 0.890043
0.00300603 0.457084 0.890043
0.00300603 0.457099 0.890043
0.00300603 0.457343 0.890043
0.823026 0.709041 0.894865
0.00300603 0.456886 0.890043
0.00300603 0.456886 0.890043
0.00300603 0.456916 0.890043
0.548424 0.43032 0.891417
0.822995 0.709468 0.894835
0.0030518 0.455009 0.890043
0.0030518 0.455009 0.890043
0.0030518 0.455039 0.890043
0.839307 0.0284428 0.897322
0.822858 0.710887 0.894728
0.774502 0.844526 0.890791
0.775402 0.844526 0.890791
0.781262 0.844526 0.890791
0.803433 0.844572 0.890837
0.816632 0.844724 0.89102
