BBLuts/BB_103_0370_LUT.cube
TITLE "Generated by Resolve"
LUT_3D_SIZE 33
0.0303502 0.0330358 0.0176394
0.0303502 0.0330358 0.0176394
0.0303502 0.0330358 0.0176394
0.0303502 0.0330358 0.0176394
0.0303502 0.0330358 0.0176394
0.0896162 0.0320745 0.0165408
0.157977 0.0320745 0.0161135
0.207462 0.0320287 0.0158236
0.257038 0.0317235 0.0153964
0.316121 0.0307927 0.0145724
0.38555 0.0288548 0.0131075
0.462913 0.0256809 0.0109255
0.536965 0.0213169 0.00810254
0.591638 0.016144 0.0049897
0.64773 0.0102693 0.00167849
0.707195 0.00502022 0
0.765011 0.00259403 0
0.818784 0.00376898 0
0.865309 0.007187 9.15541e-05
0.901747 0.010544 0.00173953
0.908751 0.0110323 0.00198367
0.908751 0.0110323 0.00198367
0.901579 0.251881 0.0586252
0.889754 0.513649 0.111086
0.881514 0.634104 0.154391
0.875837 0.712077 0.205844
0.869413 0.781872 0.27129
0.86392 0.837583 0.372091
0.859617 0.876814 0.474723
0.856306 0.905333 0.536629
0.853544 0.926238 0.598352
0.85127 0.941863 0.657832
0.849577 0.954498 0.707118
0.0303502 0.0330358 0.0176394
0.0303502 0.0330358 0.0176394
0.0303502 0.0330358 0.0176394
0.0303502 0.0330358 0.0176394
0.0303502 0.0330358 0.0176394
0.103487 0.0320439 0.016434
0.162722 0.0320745 0.016083
0.211368 0.0320134 0.0157931
0.263157 0.0316625 0.0153201
0.323384 0.0306401 0.014435
0.392767 0.0285801 0.0129091
0.469245 0.0253758 0.0107118
0.539818 0.0211032 0.00798047
0.59292 0.0159915 0.00491341
0.648844 0.0101472 0.00161746
0.707958 0.00497444 0
0.765454 0.00257877 0
0.818967 0.00378424 0
0.865248 0.007187 7.62951e-05
0.901503 0.0105287 0.00172427
0.908751 0.0110323 0.00198367
0.908751 0.0110323 0.00198367
0.899657 0.301701 0.0472572
0.888334 0.531533 0.105196
0.881041 0.640208 0.151202
0.875425 0.716213 0.203784
0.869123 0.784588 0.268956
0.863783 0.839124 0.370748
0.859556 0.877638 0.474235
0.856275 0.905806 0.536416
0.853529 0.926513 0.59823
0.851255 0.942031 0.65774
0.849577 0.954589 0.707073
0.0303502 0.0330358 0.0176394
0.0303502 0.0330358 0.0176394
0.0303502 0.0330358 0.0176394
0.0303502 0.0330358 0.0176394
0.0303502 0.0330358 0.0176394
0.111696 0.0320439 0.0163729
0.16437 0.0320745 0.0160678
0.215106 0.0319982 0.0157626
0.269551 0.0315862 0.015259
0.330144 0.0304875 0.014313
0.398291 0.0283818 0.0127718
0.472541 0.0252232 0.010605
0.542153 0.0209354 0.00787366
0.594308 0.0158541 0.00482185
0.649989 0.0100404 0.00155642
0.70869 0.00492866 0
0.765881 0.00257877 0
0.81915 0.0037995 0
0.865171 0.00717174 7.62951e-05
0.901259 0.0104982 0.00170901
0.908751 0.0110323 0.00198367
0.908751 0.0110323 0.00198367
0.897337 0.34165 0.0220798
0.887022 0.547494 0.0986801
0.880568 0.646128 0.14786
0.875029 0.720272 0.201724
0.868849 0.787243 0.266697
0.863661 0.84062 0.369375
0.859495 0.878462 0.473762
0.856245 0.906279 0.536202
0.853498 0.926772 0.598093
0.85124 0.942199 0.657664
0.849561 0.954681 0.707027
0.0303502 0.0330358 0.0176394
0.0303502 0.0330358 0.0176394
0.0303502 0.0330358 0.0176394
0.0295872 0.0396277 0.0174716
0.0572976 0.0461891 0.0170596
0.117983 0.0320439 0.0163272
0.165118 0.0320745 0.0160678
0.215442 0.0319982 0.0157626
0.270649 0.0315709 0.0152438
0.332891 0.0304265 0.0142672
0.401877 0.0282444 0.0126802
0.475456 0.0250706 0.0105135
0.544381 0.0207675 0.00776684
0.595712 0.0157015 0.00474556
0.651118 0.00991836 0.00149538
0.709453 0.00486763 0
0.766308 0.00257877 0
0.819318 0.0037995 0
0.86508 0.00717174 7.62951e-05
0.900984 0.0104829 0.00169375
0.908751 0.0110323 0.00198367
0.908751 0.0110323 0.00198367
0.895811 0.377401 0.0238804
0.885786 0.561807 0.0913405
0.880095 0.651865 0.144411
0.874632 0.724224 0.199664
0.868589 0.789837 0.265553
0.863523 0.8421 0.368048
0.859449 0.879271 0.473274
0.856214 0.906752 0.535988
0.853483 0.927031 0.597971
0.85124 0.942351 0.657588
0.849561 0.954787 0.706981
0.0246433 0.100435 0.0171817
0.0243381 0.104219 0.0171664
0.0240482 0.107881 0.0171511
0.0237583 0.111406 0.0171359
0.0236515 0.112779 0.0171206
0.102159 0.111269 0.016022
0.153689 0.108263 0.0155947
0.206592 0.101305 0.0152438
0.265217 0.0852369 0.0147707
0.334112 0.030396 0.0142367
0.403952 0.0281529 0.0126192
0.478065 0.0249332 0.0104219
0.546517 0.0205997 0.00766003
0.597131 0.0155642 0.004654
0.652293 0.00981155 0.00143435
0.710216 0.00480659 0
0.76672 0.00257877 0
0.819455 0.00381476 0
0.864988 0.00715648 7.62951e-05
0.90071 0.0104524 0.00167849
0.908751 0.0110323 0.00198367
0.905348 0.0845808 0.00479133
0.894301 0.408667 0.0251469
0.884642 0.574624 0.0828412
0.879622 0.657435 0.140841
0.87425 0.728099 0.197589
0.86833 0.792599 0.264439
0.863401 0.843565 0.366735
0.859388 0.880064 0.472786
0.856184 0.907225 0.53579
0.853468 0.927275 0.597833
0.851225 0.942519 0.657511
0.849561 0.954879 0.706935
0.0212558 0.142092 0.0169985
0.0210117 0.145098 0.0169833
0.0207523 0.148043 0.016968
0.0205692 0.150378 0.0169528
0.0204623 0.151492 0.0169528
0.0758679 0.150881 0.0160372
0.141634 0.149554 0.0153964
0.197925 0.146593 0.0149691
0.258213 0.140246 0.0143893
0.326101 0.12752 0.0133822
0.398947 0.102571 0.0118563
0.480354 0.0248112 0.0103456
0.548653 0.0204471 0.00756847
0.598642 0.0153964 0.00456245
0.653544 0.00968948 0.00137331
0.71104 0.00476081 0
0.767147 0.00256352 0
0.819623 0.00381476 0
0.864881 0.00715648 7.62951e-05
0.900404 0.0104219 0.00166323
0.908751 0.0110323 0.00198367
0.90161 0.205417 0.0126955
0.892729 0.437476 0.0259861
0.883467 0.586618 0.07187
0.879118 0.663096 0.136965
0.873854 0.732067 0.195377
0.86807 0.795178 0.263279
0.863279 0.845045 0.365347
0.859327 0.880903 0.472282
0.856153 0.907698 0.535576
0.853452 0.92755 0.597696
0.851209 0.942672 0.65742
0.849546 0.954986 0.706889
0.0174716 0.185885 0.0166934
0.0172427 0.188403 0.0166781
0.0170138 0.19089 0.0166476
0.0168917 0.192294 0.0166323
0.0168002 0.193194 0.0166323
0.0167697 0.19353 0.0166323
0.119509 0.192325 0.0152132
0.184909 0.19089 0.0147402
0.249256 0.187442 0.0142061
0.319966 0.180301 0.0132448
0.393988 0.166873 0.0117037
0.473304 0.145251 0.00955215
0.544579 0.105348 0.00686656
0.60058 0.0151827 0.00444038
0.655161 0.00952163 0.00128176
0.712093 0.00469978 0
0.767712 0.00256352 0
0.819821 0.00383001 0
0.864729 0.00714122 6.10361e-05
0.899992 0.0103761 0.00164797
0.908751 0.0110323 0.00198367
0.899413 0.283146 0.0183871
0.890608 0.471504 0.0265354
0.881865 0.599741 0.0484016
0.878477 0.670146 0.131777
0.87335 0.737041 0.192584
0.86775 0.798413 0.26186
0.863127 0.846922 0.363577
0.859251 0.881941 0.471641
0.856107 0.908309 0.535286
0.853437 0.927901 0.597528
0.851194 0.942901 0.657313
0.849546 0.955108 0.706828
0.0126497 0.235874 0.016083
0.0124208 0.238071 0.0160525
0.012253 0.239704 0.016022
0.0121309 0.240772 0.0160067
0.0120546 0.24155 0.0159915
0.0120089 0.241978 0.0159762
0.051606 0.241566 0.0152743
0.161364 0.240772 0.0143587
0.23447 0.239109 0.013962
0.309102 0.234272 0.0131991
0.38674 0.224811 0.0118563
0.469978 0.210727 0.00984207
0.541665 0.190051 0.00737011
0.592889 0.156771 0.00459297
0.651469 0.0890516 0.00114443
0.713512 0.00459297 0
0.76849 0.00254826 0
0.820081 0.00384527 0
0.864515 0.00712596 6.10361e-05
0.899413 0.0103304 0.00161746
0.903304 0.144808 0.00834669
0.896773 0.355535 0.0228275
0.887861 0.510933 0.026627
0.880293 0.611109 0.0257572
0.877623 0.679088 0.124468
0.872694 0.74342 0.188815
0.867338 0.802563 0.260029
0.862928 0.849332 0.361288
0.859159 0.883299 0.470802
0.856062 0.909117 0.53492
0.853407 0.928344 0.597299
0.851179 0.943175 0.65716
0.849531 0.955276 0.706752
0.00598154 0.293965 0.0148318
0.00575265 0.295628 0.0147707
0.00564584 0.296559 0.0147555
0.00550851 0.297505 0.014725
0.00543221 0.298161 0.0147097
0.00537118 0.298604 0.0146944
0.0053254 0.298894 0.0146792
0.108614 0.298238 0.013489
0.20705 0.296788 0.0132906
0.289738 0.293339 0.0129244
0.373953 0.287053 0.0119783
0.463325 0.277165 0.0103609
0.538933 0.262943 0.00834669
0.590478 0.242847 0.00624094
0.646952 0.215503 0.00386053
0.705013 0.178088 0.00164797
0.762509 0.122484 0
0.820417 0.00386053 0
0.864195 0.00709544 4.57771e-05
0.892729 0.153063 0.00825513
0.899031 0.29514 0.0192111
0.893248 0.428214 0.0257572
0.884916 0.550484 0.0263523
0.879164 0.626719 0.0257115
0.876478 0.690288 0.113832
0.871855 0.751507 0.183825
0.866835 0.807782 0.257694
0.862669 0.852399 0.358312
0.859022 0.885054 0.469657
0.855985 0.910155 0.534447
0.853361 0.928939 0.596994
0.851164 0.943542 0.656962
0.849515 0.955489 0.706645
0 0.360189 0.012665
0 0.360708 0.0126345
0 0.361227 0.0126192
0 0.361639 0.012604
0 0.361898 0.0125887
0 0.361959 0.0125887
0 0.361837 0.0125887
0 0.361379 0.0126192
0.154009 0.3608 0.0117494
0.258213 0.359777 0.0120089
0.352667 0.356161 0.0116579
0.450309 0.34931 0.0105898
0.533028 0.338857 0.00914015
0.58764 0.324605 0.00781262
0.64506 0.308492 0.00654612
0.70219 0.290654 0.00590524
0.757641 0.273152 0.00660716
0.809598 0.260487 0.00898756
0.853391 0.271275 0.0133516
0.886397 0.322789 0.0199283
0.894514 0.404456 0.0249943
0.888395 0.503655 0.0266423
0.88191 0.589807 0.0259556
0.877836 0.645747 0.0257572
0.874968 0.704082 0.0972763
0.870802 0.761639 0.177157
0.866224 0.814328 0.25481
0.862364 0.856245 0.354498
0.858869 0.887282 0.468177
0.855894 0.911482 0.533822
0.853315 0.929702 0.596597
0.851133 0.944015 0.656718
0.8495 0.955779 0.706493
0 0.431388 0.00958267
0 0.431891 0.00956741
0 0.43241 0.00953689
0 0.432792 0.00952163
0 0.433066 0.00950637
0 0.433249 0.00950637
0 0.43331 0.00949111
0 0.433173 0.00950637
0 0.432624 0.00953689
0.203052 0.434165 0.00985733
0.317113 0.433448 0.0104524
0.426383 0.429664 0.0101472
0.521309 0.422705 0.00939956
0.581842 0.413474 0.00889601
0.641764 0.403433 0.00857557
0.699275 0.394491 0.00909438
0.753841 0.388632 0.0112001
0.804517 0.389242 0.0150912
0.846937 0.40528 0.0200046
0.878798 0.444831 0.0248264
0.888228 0.505852 0.0266423
0.883467 0.569467 0.0261845
0.879576 0.620768 0.0257115
0.876097 0.668452 0.0255283
0.872786 0.720531 0.0644694
0.869474 0.774136 0.168215
0.865476 0.822339 0.251301
0.861982 0.861036 0.349599
0.858671 0.890135 0.466224
0.855787 0.913191 0.532998
0.853254 0.930694 0.596078
0.851087 0.944625 0.656382
0.84947 0.956146 0.706325
0 0.516106 0.00579843
0 0.516564 0.00578317
0 0.516991 0.00576791
0 0.517327 0.00575265
0 0.517586 0.00573739
0 0.517784 0.00572213
0 0.517937 0.00572213
0 0.517998 0.00572213
0 0.517845 0.00572213
0.039353 0.517632 0.00534066
0.255116 0.521523 0.00808728
0.384939 0.521096 0.00891127
0.500282 0.51809 0.00883497
0.570199 0.513298 0.00892653
0.633738 0.507454 0.00920119
0.693568 0.502892 0.0103151
0.748135 0.50248 0.0129397
0.797375 0.508339 0.0170443
0.837964 0.524269 0.0213626
0.868803 0.551583 0.0247196
0.882185 0.586191 0.0260014
0.879774 0.618006 0.0257267
0.877226 0.65388 0.0257115
0.873884 0.695018 0.024918
0.869841 0.739895 0.0233768
0.867903 0.789044 0.15642
0.864607 0.831952 0.247181
0.861509 0.866789 0.348684
0.858427 0.89369 0.463645
0.85565 0.915343 0.531914
0.853178 0.93196 0.595376
0.851041 0.945434 0.655955
0.849439 0.956634 0.706081
0 0.595224 0.00297551
0 0.595499 0.00297551
0 0.595743 0.00297551
0 0.595941 0.00296025
0 0.596094 0.00296025
0 0.596231 0.00296025
0 0.596368 0.00296025
0 0.59646 0.00296025
0 0.596567 0.00294499
0 0.596628 0.00296025
0.111177 0.597604 0.00408942
0.319234 0.600244 0.00755322
0.466117 0.600412 0.00819409
0.552743 0.599237 0.00846876
0.620691 0.597284 0.00877394
0.684138 0.59559 0.00972
0.740826 0.596033 0.0121462
0.789822 0.599939 0.016022
0.829541 0.607263 0.0201724
0.860334 0.619852 0.0236973
0.878386 0.637964 0.0257572
0.876661 0.661265 0.0256352
0.87425 0.69073 0.0250401
0.871183 0.725338 0.0239261
0.867613 0.763897 0.0224308
0.866133 0.806317 0.141283
0.86363 0.843183 0.242588
0.86096 0.87361 0.348058
0.858137 0.898085 0.460243
0.855482 0.918029 0.53051
0.853071 0.933577 0.594476
0.85098 0.946456 0.655375
0.849393 0.957259 0.705745
0 0.652277 0.00251774
0 0.652461 0.00251774
0 0.652628 0.00251774
0 0.652766 0.00250248
0 0.652888 0.00251774
0 0.65301 0.00250248
0 0.653117 0.00251774
0 0.653223 0.00251774
0 0.6533 0.00251774
0 0.65333 0.00251774
0 0.653223 0.00251774
0.193591 0.65565 0.0059205
0.408865 0.657343 0.00830091
0.53051 0.656443 0.00823987
0.603876 0.654902 0.00833143
0.672328 0.65362 0.00914015
0.733135 0.653956 0.0117189
0.783749 0.656916 0.0157473
0.82266 0.663432 0.019791
0.852216 0.674037 0.0230259
0.874418 0.688762 0.0250858
0.872831 0.707134 0.0245518
0.870695 0.730724 0.0237278
0.86807 0.758953 0.0226291
0.865141 0.790936 0.0214237
0.864256 0.825101 0.122072
0.862562 0.855848 0.237964
0.860349 0.881575 0.347875
0.857801 0.903365 0.456367
0.855268 0.921309 0.528695
0.852949 0.935607 0.593286
0.850889 0.947753 0.654612
0.849348 0.958053 0.705333
0 0.713115 0.00276188
0 0.713237 0.00276188
0 0.713329 0.00276188
0 0.713405 0.00276188
0 0.713481 0.00276188
0 0.713527 0.00276188
0 0.713588 0.00276188
0 0.713634 0.00276188
0 0.713649 0.00276188
0 0.713603 0.00276188
0 0.713436 0.00276188
0 0.713054 0.00276188
0.307362 0.716304 0.00743114
0.498573 0.716289 0.00793469
0.580987 0.71516 0.00813306
0.654978 0.713909 0.00869764
0.720714 0.713832 0.0109255
0.774029 0.715892 0.0146639
0.813474 0.72076 0.0183719
0.842298 0.728847 0.021149
0.864942 0.740261 0.0230411
0.868498 0.754528 0.0228122
0.866789 0.772778 0.0220798
0.86479 0.794827 0.0213016
0.86276 0.818662 0.020676
0.862318 0.844892 0.0976272
0.861479 0.869551 0.234089
0.859648 0.890761 0.348424
0.857328 0.909468 0.45774
0.855024 0.925231 0.52636
0.852796 0.93814 0.59173
0.850797 0.949401 0.65362
0.849271 0.959075 0.704768
0 0.773953 0.00437934
0 0.774014 0.00437934
0 0.774044 0.00437934
0 0.774075 0.00437934
0 0.77409 0.00437934
0 0.774105 0.00437934
0 0.774105 0.0043946
0 0.77409 0.00437934
0 0.774044 0.00437934
0 0.773922 0.00437934
0 0.773678 0.00436408
0 0.773236 0.00433356
0.066804 0.772976 0.00518807
0.436683 0.776394 0.00994888
0.553414 0.775387 0.00976577
0.633387 0.773907 0.00958267
0.704021 0.773159 0.0107881
0.760388 0.774166 0.0136416
0.801312 0.777356 0.0167391
0.830655 0.782925 0.019089
0.852918 0.791257 0.0206607
0.864195 0.801617 0.021088
0.863127 0.81416 0.0207828
0.861921 0.829099 0.0204929
0.860639 0.845853 0.020325
0.860334 0.864607 0.0653391
0.86041 0.883864 0.232242
0.8589 0.900999 0.350408
0.856809 0.916426 0.459953
0.854749 0.929763 0.524025
0.852613 0.941238 0.589715
0.85066 0.951431 0.652308
0.849195 0.960327 0.704036
0 0.83299 0.0103609
0 0.832975 0.0103609
0 0.832959 0.0103609
0 0.832944 0.0103609
0 0.832914 0.0103609
0 0.832883 0.0103456
0 0.832837 0.0103456
0 0.832761 0.0103304
0 0.832624 0.0103151
0 0.83241 0.0102846
0 0.832059 0.0102235
0 0.831495 0.0101472
0 0.83061 0.0100252
0.331838 0.833539 0.0154421
0.523049 0.832471 0.0145724
0.610452 0.83032 0.0132296
0.685618 0.828428 0.0127718
0.74461 0.828016 0.0141451
0.78732 0.829252 0.0162966
0.818173 0.832059 0.0181582
0.841276 0.836515 0.019501
0.857969 0.842863 0.020325
0.860288 0.850568 0.0202945
0.859617 0.860014 0.0202945
0.858869 0.870909 0.0203403
0.858091 0.882918 0.0204623
0.859358 0.898726 0.233616
0.858091 0.911955 0.354818
0.856214 0.924041 0.463386
0.854337 0.93489 0.526085
0.852399 0.944915 0.587076
0.850523 0.953872 0.650584
0.849088 0.961913 0.703075
0 0.881682 0.0190127
0 0.881621 0.0190127
0 0.881559 0.0189975
0 0.881498 0.0189822
0 0.881422 0.018967
0 0.881361 0.0189517
0 0.881254 0.0189364
0 0.881102 0.0189059
0 0.880888 0.0188602
0 0.880568 0.0187839
0 0.880095 0.0186923
0 0.879377 0.018555
0 0.878386 0.0183413
0.211231 0.879347 0.0218509
0.499306 0.878706 0.0211795
0.592554 0.875578 0.0183108
0.670771 0.872496 0.0161135
0.730739 0.870817 0.0160372
0.77438 0.870573 0.0171817
0.806668 0.871382 0.0184787
0.830915 0.873274 0.0195163
0.848417 0.876432 0.0201877
0.858244 0.880705 0.0204318
0.857877 0.88629 0.0204929
0.857435 0.893309 0.0205997
0.857282 0.901991 0.0353246
0.858351 0.913542 0.240482
0.857252 0.923125 0.363165
0.855589 0.931991 0.468544
0.853864 0.940688 0.529
0.852094 0.949096 0.587015
0.85034 0.956786 0.648341
0.848966 0.963836 0.701793
0 0.91809 0.0270085
0 0.918013 0.0269932
0 0.917922 0.026978
0 0.91783 0.0269474
0 0.917723 0.0269322
0 0.917617 0.0269017
0 0.917464 0.0268711
0 0.917266 0.0268254
0 0.916991 0.0267643
0 0.916594 0.0266728
0 0.916014 0.0265354
0 0.915251 0.0263676
0 0.914214 0.0261387
0.148119 0.913802 0.0278477
0.48896 0.913085 0.0269169
0.584726 0.909194 0.0227512
0.662226 0.905409 0.019379
0.721248 0.902983 0.0182498
0.764172 0.901884 0.0185702
0.796887 0.90161 0.0193332
0.821836 0.902098 0.0200198
0.840162 0.903487 0.0205234
0.854398 0.905837 0.0208438
0.856474 0.909041 0.0208438
0.856199 0.91339 0.0209049
0.857114 0.920195 0.0961166
0.857404 0.927489 0.255528
0.856413 0.933898 0.377157
0.854887 0.940322 0.475853
0.85333 0.947036 0.533104
0.851698 0.953719 0.590234
0.850141 0.960098 0.646357
0.848829 0.966125 0.70013
0 0.945922 0.0333104
0 0.9458 0.0332799
0 0.945693 0.0332647
0 0.945556 0.0332341
0 0.945449 0.0332036
0 0.945312 0.0331731
0 0.945129 0.0331273
0 0.9449 0.0330816
0 0.944564 0.0330053
0 0.944121 0.0329137
0 0.943542 0.0327764
0 0.942763 0.0326085
0 0.941741 0.0323796
0.239307 0.941802 0.0345617
0.498772 0.939116 0.0305486
0.588006 0.934813 0.0256352
0.660471 0.93077 0.0217288
0.715908 0.928023 0.0199893
0.756832 0.926452 0.0197452
0.788815 0.925597 0.0200961
0.813733 0.925307 0.0205539
0.832685 0.925597 0.0209049
0.847654 0.926513 0.0211337
0.855299 0.928069 0.021149
0.855161 0.930404 0.0211795
0.856596 0.935592 0.149416
0.856519 0.940063 0.280995
0.855528 0.94432 0.396994
0.854139 0.948806 0.484779
0.852735 0.953674 0.538796
0.85124 0.958709 0.594659
0.849821 0.963684 0.649592
0.848661 0.968811 0.697932
0 0.966079 0.0376135
0 0.965942 0.037583
0 0.965805 0.0375525
0 0.965667 0.0375219
0 0.96553 0.0375067
0 0.965377 0.0374762
0 0.965194 0.0374304
0 0.964935 0.0373846
0 0.964614 0.0373083
0 0.964172 0.0372168
0 0.963592 0.0370947
0 0.962829 0.0369421
0 0.961837 0.0367437
0.388006 0.961379 0.0369879
0.526558 0.957427 0.0315099
0.603449 0.95314 0.0265507
0.666438 0.94934 0.0228275
0.715618 0.946639 0.0210117
0.753246 0.94493 0.0205234
0.783597 0.943801 0.0206607
0.807492 0.943114 0.0209354
0.826474 0.942824 0.0211795
0.841871 0.942962 0.0213626
0.853666 0.943618 0.0214542
0.854261 0.944762 0.0213779
0.85594 0.94902 0.205753
0.855573 0.951629 0.316899
0.854597 0.954223 0.421729
0.853361 0.957076 0.494072
0.852094 0.960342 0.546624
0.850736 0.963836 0.600641
0.849439 0.96762 0.653834
0.848417 0.97174 0.699947
0 0.98114 0.0405432
0 0.981003 0.040528
0 0.98088 0.0404974
0 0.980743 0.0404669
0 0.980591 0.0404517
0 0.980453 0.0404212
0 0.98027 0.0403754
0 0.980026 0.0403296
0 0.979706 0.0402838
0 0.979278 0.0402075
0 0.978729 0.0401007
0 0.978012 0.0399634
0.360983 0.977478 0.039765
0.499001 0.974258 0.0349279
0.567132 0.970535 0.0302892
0.626947 0.966766 0.0260319
0.678035 0.963561 0.0230411
0.719371 0.961242 0.0215152
0.75285 0.959594 0.0209964
0.780697 0.958404 0.0209964
0.802991 0.95758 0.0211643
0.821332 0.957031 0.0213474
0.836637 0.956756 0.0214847
0.848692 0.956832 0.021561
0.855039 0.959258 0.154482
0.855131 0.960647 0.267353
0.854566 0.961837 0.364416
0.853605 0.963134 0.451301
0.852552 0.964721 0.507591
0.851408 0.96672 0.557198
0.850202 0.969055 0.608637
0.849042 0.971771 0.659419
0.848127 0.974899 0.703273
0 0.992248 0.0424964
0 0.992126 0.0424811
0 0.991989 0.0424659
0 0.991867 0.0424353
0 0.99173 0.0424201
0 0.991592 0.0423896
0 0.991424 0.042359
0 0.991211 0.0423285
0 0.99089 0.0422827
0.244648 0.990784 0.0427405
0.371633 0.989868 0.0410925
0.465003 0.98793 0.0380255
0.519234 0.985412 0.0345617
0.566445 0.982651 0.0311131
0.612207 0.97969 0.0276493
0.655177 0.976852 0.0247044
0.693843 0.974456 0.0227054
0.726772 0.972595 0.021622
0.755566 0.97113 0.0211948
0.780194 0.969985 0.0211643
0.800412 0.969116 0.0212711
0.817731 0.968429 0.0214084
0.83241 0.967926 0.0215305
0.845869 0.969558 0.140688
0.85449 0.970031 0.245686
0.854154 0.970199 0.334188
0.853452 0.970413 0.418509
0.852583 0.970855 0.48275
0.851698 0.971649 0.525048
0.85069 0.972747 0.571023
0.849607 0.974166 0.61912
0.8486 0.975952 0.666835
0.847822 0.97818 0.707591
0.399573 0.999222 0.0413367
0.41796 0.998856 0.0407416
0.434134 0.998474 0.0401465
0.448463 0.998093 0.0395514
0.461219 0.997726 0.0389715
0.473106 0.99733 0.0383917
0.486412 0.996826 0.0376745
0.497917 0.99617 0.036759
0.512383 0.995361 0.0356603
0.529625 0.994385 0.0343786
0.549767 0.993179 0.0328527
0.572869 0.991714 0.0310369
0.598703 0.990005 0.0289921
0.626627 0.988128 0.0268864
0.655665 0.986175 0.0248875
0.684657 0.984329 0.02327
0.711803 0.982712 0.0221561
0.737408 0.981277 0.0215
0.761013 0.980087 0.0212406
0.781842 0.97908 0.02121
0.800839 0.979629 0.0944686
0.817212 0.979522 0.151537
0.831113 0.979232 0.199496
0.842512 0.978958 0.262364
0.851759 0.978561 0.332479
0.853025 0.978042 0.40589
0.852323 0.977676 0.46685
0.851591 0.977569 0.507698
0.850797 0.977768 0.546746
0.849912 0.97821 0.588556
0.848997 0.978912 0.632578
0.848157 0.979965 0.675898
0.847517 0.98143 0.713069
0.584176 1 0.238773
0.587671 1 0.238682
0.591058 1 0.23859
0.594385 1 0.238514
0.59762 1 0.238453
0.600916 0.999908 0.238392
0.605051 0.999634 0.238331
0.61033 0.999283 0.238285
0.616983 0.998825 0.238239
0.625269 0.99826 0.23827
0.635431 0.997559 0.238392
0.647578 0.996735 0.238727
0.661753 0.995789 0.239445
0.677943 0.994766 0.240726
0.695262 0.993667 0.242924
0.713558 0.992584 0.246372
0.732647 0.991501 0.251423
0.751781 0.990478 0.258564
0.770138 0.989532 0.268238
0.786877 0.988678 0.281025
0.802304 0.987884 0.29752
0.816419 0.987121 0.317739
0.828763 0.986419 0.343069
0.839277 0.985763 0.375006
0.84799 0.985061 0.420935
0.851804 0.984253 0.467414
0.851225 0.983612 0.502281
0.850599 0.983169 0.536171
0.849882 0.98291 0.572168
0.849134 0.982895 0.609873
0.848371 0.983108 0.64921
0.8477 0.983642 0.686992
0.847181 0.984558 0.71989
0.667567 0.998474 0.400107
0.669169 0.998428 0.400137
0.670726 0.998383 0.400183
0.672267 0.998337 0.400214
0.673777 0.998291 0.400259
0.675334 0.998245 0.400305
0.677287 0.998184 0.400397
0.679805 0.998123 0.400488
0.683024 0.998032 0.400641
0.687083 0.997925 0.40087
0.692134 0.997803 0.401175
0.698375 0.99765 0.401663
0.705989 0.997497 0.40235
0.715084 0.99733 0.403372
0.725826 0.996979 0.405188
0.737774 0.996292 0.407309
0.750729 0.99556 0.410269
0.764263 0.994812 0.414313
0.777737 0.994064 0.419699
0.79089 0.993317 0.426673
0.8038 0.992569 0.435508
0.815946 0.991806 0.446464
0.82681 0.991073 0.459693
0.836439 0.990372 0.475181
0.844755 0.989715 0.489723
0.85066 0.988937 0.510491
0.850187 0.98822 0.537194
0.849622 0.987579 0.567452
0.848997 0.987076 0.600168
0.848356 0.986786 0.634287
0.847761 0.986725 0.668437
0.847257 0.986954 0.699992
0.846876 0.987472 0.728054
0.718242 0.996094 0.499031
0.719051 0.996094 0.499062
0.719844 0.996078 0.499107
0.720623 0.996063 0.499153
0.721401 0.996048 0.499184
0.722194 0.996048 0.499245
0.723217 0.996033 0.49929
0.724544 0.996017 0.499367
0.726268 0.995987 0.499458
0.728481 0.995972 0.499596
0.731289 0.995941 0.499779
0.734844 0.995895 0.500023
0.739239 0.995865 0.500374
0.74461 0.995834 0.500847
0.751003 0.995804 0.501472
0.75845 0.995789 0.502342
0.766781 0.995789 0.503517
0.775799 0.995789 0.505104
0.785519 0.995819 0.50721
0.795773 0.99585 0.509987
0.806363 0.995529 0.513848
0.816464 0.994888 0.518639
0.825818 0.994263 0.524819
0.834455 0.993637 0.532769
0.842054 0.993011 0.54284
0.848386 0.992432 0.555474
0.849119 0.991699 0.575799
0.848661 0.990997 0.60148
0.848142 0.990417 0.630137
0.847639 0.98999 0.660243
0.847211 0.989776 0.688548
0.84686 0.989807 0.714412
0.846571 0.990051 0.737438
0.752651 0.994614 0.564492
0.753079 0.994614 0.564523
0.753506 0.994614 0.564569
0.753918 0.994614 0.564599
0.75433 0.994614 0.56463
0.754757 0.994614 0.564675
0.755291 0.994614 0.564736
0.756008 0.994614 0.564797
0.756939 0.994614 0.564889
