BBLuts/BB_103_0950_LUT.cube
TITLE "Generated by Resolve"
LUT_3D_SIZE 5
0.0699626 0.0676738 0.0522469
0.309194 0.0696422 0.0527657
0.843366 0.0879072 0.0652323
0.977295 0.685374 0.234836
0.937194 1 0.904753
0.0425269 0.352102 0.0542
0.252079 0.35314 0.0509346
0.840024 0.186297 0.0607767
0.972198 0.740368 0.199893
0.937118 1 0.904341
0 0.905852 0.0654154
0 0.905409 0.0654002
0.740444 0.887282 0.0509651
0.953948 0.93901 0.0520333
0.936553 1 0.900938
0.645228 1 0.381613
0.673289 1 0.383642
0.790417 1 0.401938
0.935912 1 0.561059
0.933974 1 0.916579
0.910445 1 0.992844
0.910719 1 0.992874
0.912795 1 0.993149
0.925551 1 0.995926
0.931975 1 1
0.0715038 0.0705272 0.280156
0.283619 0.071519 0.280079
0.843366 0.0890669 0.297292
0.977417 0.672694 0.434546
0.937087 1 0.915724
0.0471199 0.308888 0.260685
0.265736 0.301961 0.25211
0.844144 0.0890516 0.276982
0.97203 0.730816 0.412207
0.936996 1 0.915343
0 0.902617 0.0653391
0 0.902098 0.0653239
0.745083 0.884108 0.0509804
0.954025 0.938033 0.220676
0.936431 1 0.912291
0.64976 1 0.381125
0.677012 1 0.383154
0.791714 1 0.401556
0.935988 1 0.561013
0.933974 1 0.916533
0.910475 1 0.992844
0.91075 1 0.992859
0.912825 1 0.993149
0.925566 1 0.995911
0.931975 1 1
0.0730144 0.0756085 0.85153
0.0730144 0.0756085 0.851728
0.845212 0.0904402 0.854612
0.9897 0.493111 0.86894
0.936568 1 0.973114
0.0730144 0.0755932 0.849912
0.0730144 0.0755932 0.850126
0.852674 0.0907454 0.853071
0.978256 0.623545 0.863493
0.936492 1 0.972869
0 0.853864 0.821317
0 0.854185 0.821607
0.727092 0.837842 0.812329
0.950759 0.913802 0.837766
0.935866 1 0.971115
0.651545 1 0.680552
0.677348 1 0.681239
0.787732 1 0.687602
0.930419 1 0.749294
0.933532 1 0.956436
0.910826 1 0.992782
0.911086 1 0.992828
0.913115 1 0.993103
0.925689 1 0.99588
0.931975 1 1
0.0736095 0.0778668 1
0.0736095 0.0778668 1
0.0736095 0.0778668 1
1 0.0986038 1
0.937667 1 1
0.0736095 0.0778668 1
0.0736095 0.0778668 1
0.0736095 0.0778668 1
1 0.0986038 1
0.937484 1 1
0.0736095 0.0778668 1
0.0736095 0.0778668 1
0.359411 0.0779278 1
1 0.0986038 1
0.936248 1 1
0 1 1
0 1 1
0.665965 1 1
0.913542 1 1
0.932479 1 1
0.908522 1 1
0.908797 1 1
0.91075 1 1
0.922942 1 1
0.931548 1 1
0.0222019 0.515648 1
0.0222019 0.515648 1
0.0222019 0.515663 1
0.0221866 0.515846 1
0.953246 0.854994 1
0.0222019 0.515633 1
0.0222019 0.515633 1
0.0222019 0.515648 1
0.0221866 0.515831 1
0.953246 0.855085 1
0.0222171 0.515511 1
0.0222171 0.515511 1
0.0222171 0.515526 1
0.0222019 0.515694 1
0.953185 0.855695 1
0.022385 0.514168 1
0.022385 0.514168 1
0.022385 0.514199 1
1 0.0986038 1
0.952972 0.857939 1
0.861982 1 1
0.863203 1 1
0.871839 1 1
0.9093 1 1
0.931136 1 1
