BBLuts/BB_104_0150_LUT.cube
TITLE "Generated by Resolve"
LUT_3D_SIZE 5
0 0 0
0.159533 0 0
0.627024 0 0.353918
0.700542 0.466682 0.600519
0.678935 0.721965 0.643977
0 0.19939 0
0.11165 0.199908 0
0.627909 0.016907 0.358419
0.696178 0.557748 0.597192
0.678904 0.72256 0.642145
0 0.66186 0.0143893
0 0.661601 0.0142519
0.582834 0.654658 0.011429
0.687388 0.67602 0.1131
0.678828 0.726436 0.624582
0 0.759274 0.0681926
0 0.758709 0.0678721
0.603632 0.745571 0.0291447
0.680156 0.740826 0.0239261
0.677623 0.739971 0.615167
0.665324 0.743999 0.703197
0.665492 0.743999 0.703227
0.666758 0.743999 0.703578
0.673426 0.743999 0.706401
0.677623 0.743984 0.722133
0.0274052 0.025452 0.235508
0.171283 0.0259251 0.237797
0.626917 0 0.406241
0.701427 0.442527 0.603754
0.678798 0.721889 0.659342
0.00242618 0.198001 0.195636
0.147555 0.194186 0.194827
0.625879 0.00697337 0.400534
0.696757 0.54844 0.600626
0.678752 0.722469 0.658122
0 0.660075 0.0134432
0 0.659785 0.0133059
0.585153 0.652934 0.0109102
0.686702 0.674815 0.275608
0.678508 0.726223 0.648096
0 0.759167 0.0681315
0 0.757809 0.0658122
0.604562 0.745495 0.0290074
0.680201 0.740795 0.0239261
0.677638 0.739971 0.615015
0.665354 0.743999 0.703182
0.665522 0.743999 0.703227
0.666773 0.743999 0.703578
0.673426 0.743999 0.706386
0.677623 0.743984 0.722133
0.506294 0.583078 0.664927
0.506477 0.583185 0.665019
0.615625 0.581109 0.664317
0.693019 0.590661 0.681819
0.679103 0.722499 0.707042
0.504768 0.582284 0.664134
0.504952 0.582391 0.66424
0.618784 0.580316 0.663676
0.692576 0.593912 0.680125
0.679026 0.723079 0.706676
0.438331 0.643854 0.642451
0.438682 0.643992 0.642618
0.582727 0.639048 0.643137
0.683803 0.666453 0.661326
0.67863 0.726726 0.704036
0 0.758709 0.0679026
0.219532 0.755673 0.0616159
0.603998 0.74519 0.0290837
0.67866 0.740627 0.0239261
0.677043 0.739712 0.684565
0.665553 0.743999 0.703151
0.665721 0.743999 0.703212
0.666941 0.743999 0.703548
0.673487 0.743999 0.706355
0.677623 0.743984 0.722133
0.630686 0.691707 0.756252
0.630686 0.691707 0.756252
0.630716 0.691707 0.756252
0.684825 0.691341 0.755993
0.68217 0.72018 0.756069
0.630686 0.691707 0.756252
0.630686 0.691707 0.756252
0.630732 0.691707 0.756252
0.684825 0.691341 0.755993
0.682078 0.721065 0.756069
0.630686 0.691707 0.756252
0.630686 0.691707 0.756252
0.631235 0.691707 0.756237
0.684825 0.691341 0.755993
0.681575 0.726604 0.755901
0.609995 0.744717 0.750423
0.610056 0.744717 0.750469
0.616449 0.743908 0.7505
0.671839 0.739223 0.750622
0.680003 0.743023 0.751827
0.667308 0.743938 0.740154
0.66746 0.743938 0.740169
0.668605 0.743938 0.740215
0.674464 0.743969 0.740963
0.679316 0.743984 0.745388
0.630671 0.691875 0.756252
0.630671 0.691875 0.756252
0.630671 0.691875 0.756252
0.633982 0.691814 0.756191
0.684398 0.695918 0.755993
0.630671 0.691875 0.756252
0.630671 0.691875 0.756252
0.630671 0.691875 0.756252
0.633982 0.691814 0.756191
0.684398 0.695918 0.755993
0.630671 0.691875 0.756252
0.630671 0.691875 0.756252
0.630671 0.691875 0.756252
0.634363 0.691783 0.756191
0.684382 0.695964 0.755993
0.630671 0.691875 0.756252
0.630671 0.691875 0.756252
0.630671 0.691875 0.756252
0.684825 0.691341 0.755993
0.684367 0.696132 0.755993
0.654276 0.743969 0.756069
0.65478 0.743954 0.756069
0.658244 0.743954 0.756039
0.672419 0.743969 0.756024
0.680049 0.744167 0.756207
