BBLuts/BB_102_0640_LUT.cube
TITLE "Generated by Resolve"
LUT_3D_SIZE 5
0 0 0
0.207294 0 0
0.73167 0 0
0.879835 0.613092 0.0582437
0.857618 0.958938 0.662821
0 0.238758 0
0.143679 0.242359 0
0.72929 0.105165 0
0.875914 0.653437 0.0171969
0.857603 0.959335 0.662608
0 0.791455 0
0 0.791241 0
0.63267 0.787167 0
0.861051 0.833799 0
0.857221 0.964569 0.659464
0.530648 0.994751 0.166293
0.530648 0.994751 0.166293
0.663874 0.991562 0.182925
0.84828 0.984955 0.340078
0.855116 0.991714 0.685237
0.826276 1 0.763745
0.826276 1 0.763745
0.826276 1 0.763745
0.841031 1 0.766186
0.853773 1 0.789822
0 0 0.171618
0.172427 0 0.167727
0.734508 0 0.156725
0.882429 0.605966 0.233616
0.857633 0.958923 0.662837
0 0.19379 0.155154
0.151293 0.191287 0.149783
0.733333 0 0.142168
0.879423 0.649348 0.215579
0.857603 0.959319 0.662608
0 0.78761 0
0 0.787381 0
0.636454 0.783383 0
0.862898 0.834257 0.0158541
0.857221 0.964569 0.659464
0.536751 0.994598 0.165805
0.536751 0.994598 0.165805
0.665644 0.991455 0.182345
0.848325 0.984909 0.339834
0.855116 0.991714 0.685237
0.826307 1 0.763745
0.826307 1 0.763745
0.826307 1 0.763745
0.841047 1 0.766171
0.853773 1 0.789822
0 0 0.671183
0 0 0.67126
0.723842 0 0.659358
0.901213 0.306325 0.67245
0.857389 0.956695 0.74168
0 0 0.670283
0 0 0.670344
0.731273 0 0.657969
0.889143 0.495674 0.670146
0.857359 0.957107 0.741573
0 0.744533 0.635309
0 0.744579 0.635325
0.617197 0.742489 0.636683
0.868101 0.814237 0.651209
0.856962 0.962646 0.740093
0.532403 0.995651 0.544137
0.532403 0.995651 0.544137
0.656794 0.992569 0.548211
0.84361 0.984634 0.586831
0.854963 0.991211 0.7243
0.826764 1 0.763699
0.826764 1 0.763699
0.826764 1 0.763699
0.841215 1 0.76611
0.853773 1 0.789792
0 0 0.869917
0 0 0.869917
0 0 0.869917
0.917205 0 0.859449
0.8589 0.925505 0.850141
0 0 0.869917
0 0 0.869917
0 0 0.869917
0.917205 0 0.859449
0.858824 0.92668 0.85005
0 0 0.869917
0 0 0.869917
0 0 0.869917
0.917205 0 0.859449
0.857908 0.939513 0.849012
0 0.990295 0.839551
0 0.990295 0.839551
0 0.990295 0.839551
0.827741 0.97525 0.842161
0.85452 0.986633 0.844556
0.822965 1 0.827466
0.822965 1 0.827466
0.822965 1 0.827466
0.836835 1 0.828107
0.853468 1 0.834913
0 0.332921 0.869108
0 0.332921 0.869108
0 0.332921 0.869108
0 0.332998 0.869108
0.87364 0.710994 0.865858
0 0.332921 0.869108
0 0.332921 0.869108
0 0.332921 0.869108
0 0.332998 0.869108
0.87364 0.710994 0.865858
0 0.332921 0.869108
0 0.332921 0.869108
0 0.332921 0.869108
0 0.332998 0.869108
0.87364 0.710994 0.865858
0 0.331502 0.869123
0 0.331502 0.869123
0 0.331502 0.869123
0 0.331579 0.869123
0.873411 0.714473 0.865858
0.768215 1 0.864103
0.768215 1 0.864103
0.768215 1 0.864103
0.768215 1 0.864103
0.853254 1 0.864546
