BBLuts/BB_106_0180_LUT.cube
TITLE "Generated by Resolve"
LUT_3D_SIZE 33
0.0155184 0.0155184 0.0155184
0.0155184 0.0155184 0.0155184
0.0155184 0.0155184 0.0155184
0.0155184 0.0155184 0.0155184
0.0155184 0.0155184 0.0155184
0.0591135 0.0155184 0.0155184
0.109468 0.0155184 0.0155184
0.147021 0.0155184 0.0155184
0.18407 0.0155184 0.0155184
0.228336 0.0155184 0.0155184
0.279866 0.0155184 0.0155184
0.336767 0.0155184 0.0155184
0.400885 0.0155184 0.0155184
0.475563 0.0155184 0.0155184
0.561868 0.0155184 0.0155184
0.65539 0.0155184 0.0155184
0.751705 0.0155184 0.0155184
0.848219 0.0155184 0.0155184
0.93341 0.0155184 0.0155184
0.999023 0.0155184 0.0155184
0.999512 0.0155184 0.0155184
0.999512 0.0155184 0.0155184
0.999512 0.232364 0.0726787
0.999512 0.378698 0.110857
0.999512 0.492699 0.153536
0.999512 0.596811 0.204349
0.999512 0.691966 0.27277
0.999512 0.767895 0.361227
0.999512 0.824613 0.453193
0.999512 0.868482 0.545403
0.999512 0.900984 0.636988
0.999512 0.926726 0.721767
0.999512 0.946685 0.788998
0.0155184 0.0155184 0.0155184
0.0155184 0.0155184 0.0155184
0.0155184 0.0155184 0.0155184
0.0155184 0.0155184 0.0155184
0.0155184 0.0155184 0.0155184
0.0702983 0.0155184 0.0155184
0.113527 0.0155184 0.0155184
0.149996 0.0155184 0.0155184
0.188815 0.0155184 0.0155184
0.233921 0.0155184 0.0155184
0.285481 0.0155184 0.0155184
0.341695 0.0155184 0.0155184
0.404044 0.0155184 0.0155184
0.477562 0.0155184 0.0155184
0.563592 0.0155184 0.0155184
0.656596 0.0155184 0.0155184
0.752422 0.0155184 0.0155184
0.848524 0.0155184 0.0155184
0.933242 0.0155184 0.0155184
0.99852 0.0155184 0.0155184
0.999512 0.0155184 0.0155184
0.999512 0.0155184 0.0155184
0.999512 0.255055 0.0629892
0.999512 0.389944 0.106569
0.999512 0.500008 0.151232
0.999512 0.601877 0.203113
0.999512 0.695201 0.271458
0.999512 0.769726 0.36054
0.999512 0.825666 0.452811
0.999512 0.869093 0.545174
0.999512 0.901335 0.636835
0.999512 0.92694 0.721675
0.999512 0.946807 0.788937
0.0155184 0.0155184 0.0155184
0.0155184 0.0155184 0.0155184
0.0155184 0.0155184 0.0155184
0.0155184 0.0155184 0.0155184
0.0155184 0.0155184 0.0155184
0.0769513 0.0155184 0.0155184
0.115282 0.0155184 0.0155184
0.15285 0.0155184 0.0155184
0.193774 0.0155184 0.0155184
0.239307 0.0155184 0.0155184
0.289952 0.0155184 0.0155184
0.344427 0.0155184 0.0155184
0.40647 0.0155184 0.0155184
0.479728 0.0155184 0.0155184
0.565347 0.0155184 0.0155184
0.657771 0.0155184 0.0155184
0.753124 0.0155184 0.0155184
0.848783 0.0155184 0.0155184
0.933043 0.0155184 0.0155184
0.997986 0.0155184 0.0155184
0.999512 0.0155184 0.0155184
0.999512 0.0155184 0.0155184
0.999512 0.27512 0.0489967
0.999512 0.400626 0.101976
0.999512 0.507134 0.148898
0.999512 0.606836 0.201877
0.999512 0.69839 0.270146
0.999512 0.771542 0.359838
0.999512 0.826719 0.45243
0.999512 0.869673 0.54493
0.999512 0.901671 0.636683
0.999512 0.927138 0.721584
0.999512 0.946929 0.788891
0.0155184 0.0155184 0.0155184
0.0155184 0.0155184 0.0155184
0.0155184 0.0155184 0.0155184
0.0155184 0.0222782 0.0155184
0.0378119 0.0269474 0.0155184
0.0819257 0.0155184 0.0155184
0.116152 0.0155184 0.0155184
0.153277 0.0155184 0.0155184
0.19469 0.0155184 0.0155184
0.241337 0.0155184 0.0155184
0.292699 0.0155184 0.0155184
0.346807 0.0155184 0.0155184
0.408835 0.0155184 0.0155184
0.481926 0.0155184 0.0155184
0.567117 0.0155184 0.0155184
0.658976 0.0155184 0.0155184
0.753826 0.0155184 0.0155184
0.849012 0.0155184 0.0155184
0.932815 0.0155184 0.0155184
0.997436 0.0155184 0.0155184
0.999512 0.0155184 0.0155184
0.999512 0.107378 0.0155184
0.999512 0.293217 0.0155184
0.999512 0.41088 0.0970474
0.999512 0.514092 0.146517
0.999512 0.611719 0.200626
0.999512 0.701518 0.268818
0.999512 0.773327 0.359167
0.999512 0.827756 0.452064
0.999512 0.870268 0.544701
0.999512 0.902007 0.636545
0.999512 0.927337 0.721508
0.999512 0.947036 0.788846
0.0155184 0.0658732 0.0155184
0.0155184 0.0686656 0.0155184
0.0155184 0.071397 0.0155184
0.0155184 0.0740063 0.0155184
0.0155184 0.0749981 0.0155184
0.0741894 0.0744945 0.0155184
0.111818 0.0726635 0.0155184
0.150622 0.0682994 0.0155184
0.193683 0.0585184 0.0155184
0.242115 0.0155184 0.0155184
0.294362 0.0155184 0.0155184
0.348882 0.0155184 0.0155184
0.411109 0.0155184 0.0155184
0.484154 0.0155184 0.0155184
0.568933 0.0155184 0.0155184
0.660197 0.0155184 0.0155184
0.754513 0.0155184 0.0155184
0.849226 0.0155184 0.0155184
0.932555 0.0155184 0.0155184
0.996857 0.0155184 0.0155184
0.999512 0.0155184 0.0155184
0.999512 0.159533 0.0155184
0.999512 0.309789 0.0155184
0.999512 0.420737 0.0916609
0.999512 0.520882 0.144091
0.999512 0.61651 0.19939
0.999512 0.70457 0.267506
0.999512 0.775067 0.35848
0.999512 0.828763 0.451682
0.999512 0.870848 0.544472
0.999512 0.902358 0.636393
0.999512 0.927535 0.721416
0.999512 0.947158 0.7888
0.0155184 0.0959335 0.0155184
0.0155184 0.0981765 0.0155184
0.0155184 0.100389 0.0155184
0.0155184 0.102159 0.0155184
0.0155184 0.102983 0.0155184
0.0564279 0.103029 0.0155184
0.104814 0.102373 0.0155184
0.146593 0.100572 0.0155184
0.191516 0.0966354 0.0155184
0.241749 0.0888533 0.0155184
0.294957 0.0735332 0.0155184
0.350652 0.0155184 0.0155184
0.413306 0.0155184 0.0155184
0.486412 0.0155184 0.0155184
0.570794 0.0155184 0.0155184
0.661433 0.0155184 0.0155184
0.755199 0.0155184 0.0155184
0.849439 0.0155184 0.0155184
0.932296 0.0155184 0.0155184
0.996246 0.0155184 0.0155184
0.999512 0.0155184 0.0155184
0.999512 0.194308 0.0155184
0.999512 0.325216 0.0155184
0.999512 0.43032 0.0856641
0.999512 0.52755 0.141588
0.999512 0.621241 0.198154
0.999512 0.707591 0.266194
0.999512 0.776806 0.357794
0.999512 0.829786 0.451301
0.999512 0.871412 0.544244
0.999512 0.902693 0.63624
0.999512 0.927749 0.721325
0.999512 0.94728 0.788754
0.0155184 0.126253 0.0155184
0.0155184 0.128145 0.0155184
0.0155184 0.130037 0.0155184
0.0155184 0.131136 0.0155184
0.0155184 0.131838 0.0155184
0.0155184 0.132067 0.0155184
0.0908217 0.131868 0.0155184
0.139483 0.131014 0.0155184
0.187427 0.128908 0.0155184
0.239963 0.124681 0.0155184
0.294514 0.116609 0.0155184
0.352148 0.103182 0.0155184
0.415763 0.0769055 0.0155184
0.489158 0.0155184 0.0155184
0.573083 0.0155184 0.0155184
0.662974 0.0155184 0.0155184
0.756054 0.0155184 0.0155184
0.849683 0.0155184 0.0155184
0.93193 0.0155184 0.0155184
0.995453 0.0155184 0.0155184
0.999512 0.0155184 0.0155184
0.999512 0.227787 0.0155184
0.999512 0.342733 0.0155184
0.999512 0.441596 0.0771954
0.999512 0.535515 0.13846
0.999512 0.626947 0.196628
0.999512 0.711223 0.264591
0.999512 0.778881 0.35697
0.999512 0.831022 0.450828
0.999512 0.872114 0.543954
0.999512 0.903105 0.636057
0.999512 0.927993 0.721218
0.999512 0.947417 0.788693
0.0155184 0.161196 0.0155184
0.0155184 0.16286 0.0155184
0.0155184 0.164202 0.0155184
0.0155184 0.165011 0.0155184
0.0155184 0.165591 0.0155184
0.0155184 0.165896 0.0155184
0.0439155 0.165957 0.0155184
0.125017 0.165621 0.0155184
0.1794 0.164523 0.0155184
0.235004 0.161715 0.0155184
0.291981 0.156176 0.0155184
0.352667 0.148074 0.0155184
0.418357 0.135637 0.0155184
0.492607 0.113725 0.0155184
0.576089 0.0610971 0.0155184
0.665049 0.0155184 0.0155184
0.757229 0.0155184 0.0155184
0.850004 0.0155184 0.0155184
0.931426 0.0155184 0.0155184
0.994354 0.0155184 0.0155184
0.999512 0.14197 0.0155184
0.999512 0.264118 0.0155184
0.999512 0.364233 0.0155184
0.999512 0.45597 0.0624399
0.999512 0.545815 0.134142
0.999512 0.634394 0.194583
0.999512 0.715923 0.263371
0.999512 0.781598 0.355856
0.999512 0.832639 0.450217
0.999512 0.873045 0.543587
0.999512 0.903655 0.635813
0.999512 0.928313 0.721065
0.999512 0.947616 0.788602
0.0155184 0.202518 0.0155184
0.0155184 0.203891 0.0155184
0.0155184 0.204593 0.0155184
0.0155184 0.205325 0.0155184
0.0155184 0.205814 0.0155184
0.0155184 0.206134 0.0155184
0.0155184 0.206332 0.0155184
0.0894179 0.206302 0.0155184
0.162768 0.20502 0.0155184
0.224247 0.20264 0.0155184
0.285801 0.198917 0.0155184
0.350591 0.193347 0.0155184
0.42002 0.185122 0.0155184
0.496452 0.172656 0.0155184
0.57995 0.154894 0.0155184
0.667842 0.128405 0.0155184
0.758831 0.082002 0.0155184
0.850431 0.0155184 0.0155184
0.930678 0.0155184 0.0155184
0.992782 0.12221 0.0155184
0.999512 0.214984 0.0155184
0.999512 0.303853 0.0155184
0.999512 0.390021 0.0155184
0.999512 0.474098 0.0155184
0.999512 0.559045 0.128099
0.999512 0.644038 0.191867
0.999512 0.721981 0.262455
0.999512 0.785122 0.354391
0.999512 0.834775 0.449393
0.999512 0.874266 0.543084
0.999512 0.904372 0.635493
0.999512 0.928756 0.720867
0.999512 0.94786 0.788495
0.0155184 0.249821 0.0155184
0.0155184 0.250187 0.0155184
0.0155184 0.250553 0.0155184
0.0155184 0.250874 0.0155184
0.0155184 0.251057 0.0155184
0.0155184 0.251087 0.0155184
0.0155184 0.251011 0.0155184
0.0155184 0.250675 0.0155184
0.127855 0.249928 0.0155184
0.205386 0.248478 0.0155184
0.274144 0.246021 0.0155184
0.34432 0.24213 0.0155184
0.418845 0.236179 0.0155184
0.499474 0.227405 0.0155184
0.58436 0.21706 0.0155184
0.671427 0.204501 0.0155184
0.760967 0.190356 0.0155184
0.85095 0.178515 0.0155184
0.929534 0.185016 0.0155184
0.990509 0.220996 0.0155184
0.999512 0.278096 0.0155184
0.999512 0.347234 0.0155184
0.999512 0.42034 0.0155184
0.999512 0.49662 0.0155184
0.999512 0.575814 0.119402
0.999512 0.65626 0.188296
0.999512 0.729686 0.261326
0.999512 0.789639 0.352453
0.999512 0.837537 0.448295
0.999512 0.875853 0.542412
0.999512 0.905333 0.635065
0.999512 0.92932 0.720607
0.999512 0.948211 0.788357
0.0155184 0.300069 0.0155184
0.0155184 0.300435 0.0155184
0.0155184 0.300816 0.0155184
0.0155184 0.301106 0.0155184
0.0155184 0.301305 0.0155184
0.0155184 0.301411 0.0155184
0.0155184 0.301457 0.0155184
0.0155184 0.301366 0.0155184
0.0155184 0.300984 0.0155184
0.170001 0.30016 0.0155184
0.253681 0.29865 0.0155184
0.331655 0.29604 0.0155184
0.412741 0.291752 0.0155184
0.49955 0.285679 0.0155184
0.587793 0.278767 0.0155184
0.675303 0.271702 0.0155184
0.763531 0.26537 0.0155184
0.851392 0.262287 0.0155184
0.927749 0.270771 0.0155184
0.987198 0.297398 0.0155184
0.999512 0.340185 0.0155184
0.999512 0.394476 0.0155184
0.999512 0.456138 0.0155184
0.999512 0.524147 0.0155184
0.999512 0.59678 0.106325
0.999512 0.671473 0.183719
0.999512 0.739376 0.259968
0.999512 0.795392 0.349905
0.999512 0.841093 0.44686
0.999512 0.877913 0.541527
0.999512 0.906584 0.634485
0.999512 0.930083 0.720272
0.999512 0.948653 0.788159
0.0155184 0.359213 0.0155184
0.0155184 0.359579 0.0155184
0.0155184 0.359915 0.0155184
0.0155184 0.360174 0.0155184
0.0155184 0.360388 0.0155184
0.0155184 0.360525 0.0155184
0.0155184 0.360647 0.0155184
0.0155184 0.360693 0.0155184
0.0155184 0.360586 0.0155184
0.0155184 0.360189 0.0155184
0.214969 0.359365 0.0155184
0.308553 0.357778 0.0155184
0.399176 0.355169 0.0155184
0.493309 0.351263 0.0155184
0.58674 0.346487 0.0155184
0.677516 0.342 0.0155184
0.765789 0.339239 0.0155184
0.851377 0.340124 0.0155184
0.924895 0.349538 0.0155184
0.982498 0.370611 0.0155184
0.999512 0.402716 0.0155184
0.999512 0.445609 0.0155184
0.999512 0.497673 0.0155184
0.999512 0.557183 0.0155184
0.999512 0.622568 0.0841077
0.999512 0.689967 0.177905
0.999512 0.751308 0.258396
0.999512 0.802655 0.346517
0.999512 0.84564 0.444938
0.999512 0.880537 0.540352
0.999512 0.908202 0.633707
0.999512 0.93106 0.719799
0.999512 0.949248 0.7879
0.0155184 0.428275 0.0155184
0.0155184 0.428595 0.0155184
0.0155184 0.428885 0.0155184
0.0155184 0.429114 0.0155184
0.0155184 0.429313 0.0155184
0.0155184 0.429465 0.0155184
0.0155184 0.429603 0.0155184
0.0155184 0.429725 0.0155184
0.0155184 0.429816 0.0155184
0.0155184 0.429908 0.0155184
0.108186 0.429801 0.0155184
0.265599 0.429267 0.0155184
0.37409 0.427939 0.0155184
0.47744 0.425376 0.0155184
0.577676 0.422049 0.0155184
0.674083 0.418799 0.0155184
0.765713 0.416892 0.0155184
0.850187 0.418265 0.0155184
0.920851 0.42594 0.0155184
0.976333 0.442069 0.0155184
0.999512 0.46714 0.0155184
0.999512 0.501747 0.0155184
0.999512 0.545022 0.0155184
0.999512 0.596063 0.0155184
0.999512 0.653559 0.0155184
0.999512 0.711879 0.170764
0.999512 0.765621 0.256764
0.999512 0.811627 0.3449
0.999512 0.851331 0.442435
0.999512 0.883864 0.538811
0.999512 0.910323 0.632685
0.999512 0.932342 0.719188
0.999512 0.950011 0.787549
0.0155184 0.506828 0.0155184
0.0155184 0.507088 0.0155184
0.0155184 0.507301 0.0155184
0.0155184 0.5075 0.0155184
0.0155184 0.507668 0.0155184
0.0155184 0.50782 0.0155184
0.0155184 0.507958 0.0155184
0.0155184 0.508095 0.0155184
0.0155184 0.508202 0.0155184
0.0155184 0.508232 0.0155184
0.0155184 0.50811 0.0155184
0.172457 0.507637 0.0155184
0.331563 0.506554 0.0155184
0.450843 0.50454 0.0155184
0.559457 0.501778 0.0155184
0.662943 0.498726 0.0155184
0.760418 0.496406 0.0155184
0.846586 0.496834 0.0155184
0.915175 0.502739 0.0155184
0.968444 0.515343 0.0155184
0.999512 0.535027 0.0155184
0.999512 0.562646 0.0155184
0.999512 0.597971 0.0155184
0.999512 0.640772 0.0155184
0.999512 0.688655 0.0155184
0.999512 0.736965 0.162478
0.999512 0.782223 0.255329
0.999512 0.822507 0.345495
0.999512 0.858351 0.439155
0.999512 0.88806 0.536767
0.999512 0.913008 0.631327
0.999512 0.934005 0.718364
0.999512 0.951034 0.787091
0.0155184 0.589319 0.0155184
0.0155184 0.589471 0.0155184
0.0155184 0.589609 0.0155184
0.0155184 0.589715 0.0155184
0.0155184 0.589807 0.0155184
0.0155184 0.589868 0.0155184
0.0155184 0.589929 0.0155184
0.0155184 0.58999 0.0155184
0.0155184 0.590005 0.0155184
0.0155184 0.58996 0.0155184
0.0155184 0.589746 0.0155184
0.0155184 0.589242 0.0155184
0.259907 0.58819 0.0155184
0.412268 0.586435 0.0155184
0.532174 0.58407 0.0155184
0.643244 0.581216 0.0155184
0.7476 0.5785 0.0155184
0.837507 0.577813 0.0155184
0.906523 0.581552 0.0155184
0.958404 0.590921 0.0155184
0.999512 0.606058 0.0155184
0.999512 0.62771 0.0155184
0.999512 0.65594 0.0155184
0.999512 0.689464 0.0155184
0.999512 0.726406 0.0155184
0.999512 0.764446 0.153872
0.999512 0.800839 0.254582
0.999512 0.83534 0.34667
0.999512 0.866728 0.435721
0.999512 0.893278 0.534066
0.999512 0.916411 0.629541
0.999512 0.93611 0.717266
0.999512 0.952331 0.78648
0.0155184 0.673259 0.0155184
0.0155184 0.67332 0.0155184
0.0155184 0.673381 0.0155184
0.0155184 0.673411 0.0155184
0.0155184 0.673426 0.0155184
0.0155184 0.673442 0.0155184
0.0155184 0.673442 0.0155184
0.0155184 0.673411 0.0155184
0.0155184 0.67335 0.0155184
0.0155184 0.673182 0.0155184
0.0155184 0.672862 0.0155184
0.0155184 0.672267 0.0155184
0.0155184 0.671168 0.0155184
0.356542 0.66952 0.0155184
0.496101 0.667338 0.0155184
0.615824 0.664668 0.0155184
0.726726 0.661814 0.0155184
0.821057 0.660273 0.0155184
0.892409 0.662058 0.0155184
0.945205 0.668254 0.0155184
0.985519 0.679057 0.0155184
0.999512 0.694591 0.0155184
0.999512 0.714412 0.0155184
0.999512 0.73817 0.0155184
0.999512 0.764904 0.0155184
0.999512 0.792935 0.147173
0.999512 0.821576 0.25507
0.999512 0.850004 0.348852
0.999512 0.876402 0.438025
0.999512 0.899641 0.530526
0.999512 0.920623 0.627161
0.999512 0.938766 0.715816
0.999512 0.953994 0.785657
0.0155184 0.755001 0.0155184
0.0155184 0.754986 0.0155184
0.0155184 0.754955 0.0155184
0.0155184 0.754925 0.0155184
0.0155184 0.754879 0.0155184
0.0155184 0.754833 0.0155184
0.0155184 0.754757 0.0155184
0.0155184 0.754635 0.0155184
0.0155184 0.754452 0.0155184
0.0155184 0.754147 0.0155184
0.0155184 0.753658 0.0155184
0.0155184 0.752865 0.0155184
0.0155184 0.751598 0.0155184
0.275715 0.749844 0.0155184
0.453132 0.747555 0.0155184
0.584405 0.744701 0.0155184
0.701045 0.741466 0.0155184
0.798871 0.738903 0.0155184
0.873289 0.738445 0.0155184
0.929 0.740826 0.0155184
0.970504 0.746563 0.0155184
0.999512 0.755886 0.0155184
0.999512 0.768383 0.0155184
0.999512 0.783825 0.0155184
0.999512 0.801648 0.0155184
0.999512 0.821851 0.145281
0.999512 0.843748 0.257847
0.999512 0.866026 0.352621
0.999512 0.88719 0.441489
0.999512 0.907195 0.528756
0.999512 0.925734 0.624033
0.999512 0.942016 0.713878
0.999512 0.9561 0.784573
0.0155184 0.823133 0.0155184
0.0155184 0.823041 0.0155184
0.0155184 0.82295 0.0155184
0.0155184 0.822858 0.0155184
0.0155184 0.822736 0.0155184
0.0155184 0.822629 0.0155184
0.0155184 0.822477 0.0155184
0.0155184 0.822263 0.0155184
0.0155184 0.821958 0.0155184
0.0155184 0.8215 0.0155184
0.0155184 0.820813 0.0155184
0.0155184 0.819776 0.0155184
0.0155184 0.818341 0.0155184
0.183154 0.816403 0.0155184
0.418402 0.81387 0.0155184
0.559701 0.810727 0.0155184
0.67982 0.807065 0.0155184
0.778103 0.803769 0.0155184
0.85388 0.80174 0.0155184
0.912291 0.801419 0.0155184
0.95581 0.803326 0.0155184
0.987533 0.807782 0.0155184
0.999512 0.814817 0.0155184
0.999512 0.824399 0.0155184
0.999512 0.836393 0.0155184
0.999512 0.850523 0.151751
0.999512 0.866255 0.264469
0.999512 0.882658 0.358846
0.999512 0.899184 0.446525
0.999512 0.915862 0.532799
0.999512 0.931746 0.619928
0.999512 0.945968 0.711345
0.999512 0.958709 0.783139
0.0155184 0.874922 0.0155184
0.0155184 0.874769 0.0155184
0.0155184 0.874632 0.0155184
0.0155184 0.874479 0.0155184
0.0155184 0.874327 0.0155184
0.0155184 0.874159 0.0155184
0.0155184 0.873945 0.0155184
0.0155184 0.873655 0.0155184
0.0155184 0.873259 0.0155184
0.0155184 0.872663 0.0155184
0.0155184 0.871839 0.0155184
0.0155184 0.87071 0.0155184
0.0155184 0.8692 0.0155184
0.148791 0.86717 0.0155184
0.407828 0.864576 0.0155184
0.550347 0.861326 0.0155184
0.668513 0.857572 0.0155184
0.763836 0.854063 0.0155184
0.837888 0.851408 0.0155184
0.897002 0.849836 0.0155184
0.941848 0.849775 0.0155184
0.975296 0.851484 0.0155184
0.999512 0.8551 0.0155184
0.999512 0.860716 0.0155184
0.999512 0.868162 0.0155184
0.999512 0.877256 0.169986
0.999512 0.887678 0.276738
0.999512 0.899382 0.368429
0.999512 0.912184 0.453742
0.999512 0.925505 0.53843
0.999512 0.938537 0.623102
0.999512 0.950652 0.707958
0.999512 0.961883 0.781216
0.0155184 0.914992 0.0155184
0.0155184 0.914809 0.0155184
0.0155184 0.914611 0.0155184
0.0155184 0.914412 0.0155184
0.0155184 0.914214 0.0155184
0.0155184 0.914015 0.0155184
0.0155184 0.913756 0.0155184
0.0155184 0.913405 0.0155184
0.0155184 0.912932 0.0155184
0.0155184 0.912291 0.0155184
0.0155184 0.911421 0.0155184
0.0155184 0.910277 0.0155184
0.0155184 0.908736 0.0155184
0.227192 0.906722 0.0155184
0.426368 0.904143 0.0155184
0.558724 0.900923 0.0155184
0.667918 0.897322 0.0155184
0.756741 0.893858 0.0155184
0.826978 0.890974 0.0155184
0.884459 0.888762 0.0155184
0.929229 0.887541 0.0155184
0.96405 0.887449 0.0155184
0.991135 0.888609 0.0155184
0.999512 0.891218 0.0155184
0.999512 0.895293 0.0155184
0.999512 0.900862 0.200046
0.999512 0.907897 0.295918
0.999512 0.916228 0.382239
0.999512 0.925673 0.463966
0.999512 0.93579 0.546258
0.999512 0.945968 0.629038
0.999512 0.956024 0.708324
0.999512 0.965606 0.778668
0.0155184 0.944045 0.0155184
0.0155184 0.943832 0.0155184
0.0155184 0.943618 0.0155184
0.0155184 0.943404 0.0155184
0.0155184 0.943175 0.0155184
0.0155184 0.942962 0.0155184
0.0155184 0.942687 0.0155184
0.0155184 0.942336 0.0155184
0.0155184 0.941848 0.0155184
0.0155184 0.941207 0.0155184
0.0155184 0.940337 0.0155184
0.0155184 0.939193 0.0155184
0.0155184 0.937697 0.0155184
0.337926 0.93576 0.0155184
0.474159 0.933272 0.0155184
0.585397 0.930251 0.0155184
0.679545 0.926986 0.0155184
0.75816 0.923781 0.0155184
0.822629 0.920958 0.0155184
0.876753 0.918563 0.0155184
0.9196 0.916884 0.0155184
0.954498 0.915938 0.0155184
0.98233 0.915846 0.0155184
0.999512 0.916838 0.0155184
0.999512 0.91899 0.130922
0.999512 0.922332 0.239002
0.999512 0.926848 0.322576
0.999512 0.932433 0.400961
0.999512 0.938964 0.478141
0.999512 0.946227 0.557
0.999512 0.953994 0.63711
0.999512 0.96199 0.713573
0.999512 0.969863 0.777523
0.0155184 0.966079 0.0155184
0.0155184 0.965866 0.0155184
0.0155184 0.965652 0.0155184
0.0155184 0.965438 0.0155184
0.0155184 0.965225 0.0155184
0.0155184 0.965011 0.0155184
0.0155184 0.964752 0.0155184
0.0155184 0.964385 0.0155184
0.0155184 0.963928 0.0155184
0.0155184 0.963302 0.0155184
0.0155184 0.962478 0.0155184
0.180529 0.961395 0.0155184
0.338384 0.959991 0.0155184
0.445136 0.958175 0.0155184
0.539178 0.955886 0.0155184
0.62417 0.953262 0.0155184
0.70042 0.950439 0.0155184
0.766339 0.947662 0.0155184
0.823804 0.945037 0.0155184
0.873075 0.942702 0.0155184
0.913008 0.940887 0.0155184
0.946639 0.939544 0.0155184
0.974273 0.938781 0.0155184
0.995865 0.93872 0.0591897
0.999512 0.939483 0.204761
0.999512 0.941161 0.284764
0.999512 0.94374 0.356451
0.999512 0.947188 0.42591
0.999512 0.951507 0.49723
0.999512 0.956619 0.571496
0.999512 0.96231 0.647974
0.999512 0.968353 0.720562
0.999512 0.974487 0.781613
0.0155184 0.981933 0.0155184
0.0155184 0.981735 0.0155184
0.0155184 0.981537 0.0155184
0.0155184 0.981338 0.0155184
0.0155184 0.98114 0.0155184
0.0155184 0.980926 0.0155184
0.112093 0.980682 0.0155184
0.195285 0.980362 0.0155184
0.256718 0.979919 0.0155184
0.31339 0.979355 0.0155184
0.369757 0.978592 0.0155184
0.42678 0.977615 0.0155184
0.486381 0.976333 0.0155184
0.547585 0.974746 0.0155184
0.609491 0.972854 0.0155184
0.670512 0.970703 0.0155184
0.728313 0.968399 0.0155184
0.78143 0.966064 0.0155184
0.830594 0.963729 0.0155184
0.873686 0.961593 0.0155184
0.909895 0.959777 0.0155184
0.941497 0.958282 0.0155184
0.96788 0.957183 0.0954147
0.989319 0.956558 0.197955
0.999512 0.956481 0.269291
0.999512 0.957076 0.33431
0.999512 0.958389 0.396094
0.999512 0.960449 0.457404
0.999512 0.963211 0.522042
0.999512 0.966628 0.5906
0.999512 0.970535 0.662226
0.999512 0.974823 0.729686
0.999512 0.979324 0.786954
0.416114 0.992935 0.0155184
0.425742 0.992752 0.0155184
0.434989 0.992569 0.0155184
0.44387 0.992386 0.0155184
0.452399 0.992218 0.0155184
0.46067 0.992035 0.0155184
0.470405 0.991821 0.0155184
0.482811 0.991547 0.0155184
0.49839 0.99118 0.0155184
0.517678 0.990692 0.0155184
0.5411 0.990066 0.0155184
0.568963 0.989288 0.0155184
0.601267 0.988296 0.0155184
0.637659 0.987076 0.0155184
0.677241 0.985626 0.0155184
0.718486 0.983993 0.0673228
0.760098 0.982208 0.0903792
0.801923 0.98027 0.11136
0.841917 0.978317 0.132631
0.877867 0.976471 0.155276
0.909987 0.974792 0.17995
0.938811 0.973281 0.207324
0.963363 0.972076 0.23798
0.983871 0.971191 0.2822
0.999512 0.970672 0.333043
0.999512 0.970611 0.385901
0.999512 0.971069 0.439368
0.999512 0.972076 0.494835
0.999512 0.973678 0.552987
0.999512 0.975753 0.615137
0.999512 0.978241 0.680293
0.999512 0.981079 0.741375
0.999512 0.984253 0.793851
0.598978 0.999512 0.263523
0.603052 0.999512 0.263691
0.607034 0.999512 0.263859
0.610941 0.999512 0.264012
0.614771 0.999512 0.264179
0.61854 0.999512 0.264347
0.623087 0.999466 0.264546
0.628977 0.999268 0.264805
0.636576 0.999008 0.265171
0.646265 0.998672 0.26566
0.658457 0.99823 0.2663
0.673487 0.997681 0.26717
0.691615 0.996979 0.268345
0.712825 0.996139 0.269932
0.737118 0.995117 0.272053
0.764599 0.993912 0.274891
0.794553 0.992538 0.278691
0.825711 0.991012 0.283726
0.856443 0.989441 0.290364
0.885374 0.987915 0.299016
0.913054 0.986404 0.31017
0.938506 0.985 0.324331
0.960693 0.983795 0.342077
0.979934 0.982803 0.363943
0.995956 0.982055 0.397833
0.999512 0.981613 0.439734
0.999512 0.981521 0.486397
0.999512 0.981826 0.536614
0.999512 0.982559 0.589563
0.999512 0.983688 0.645457
0.999512 0.985153 0.702388
0.999512 0.986969 0.755917
0.999512 0.98909 0.80267
0.711833 0.999512 0.38407
0.713817 0.999512 0.384176
0.715785 0.999512 0.384268
0.717708 0.999512 0.38436
0.719631 0.999512 0.384466
0.721538 0.999512 0.384558
0.723842 0.999512 0.38468
0.726879 0.999512 0.384848
0.730846 0.999512 0.385061
0.736004 0.999512 0.385351
0.742641 0.999512 0.385733
0.75108 0.999512 0.386252
0.761654 0.999512 0.386938
0.774639 0.999512 0.387869
0.790204 0.999512 0.389105
0.808331 0.999512 0.390784
0.828641 0.999512 0.393042
0.850416 0.998764 0.396048
0.87277 0.997574 0.400076
0.895857 0.996323 0.405417
0.918776 0.995026 0.412421
0.940414 0.99379 0.421607
0.95993 0.99266 0.433463
0.977417 0.991669 0.448615
0.992386 0.99086 0.467735
0.999512 0.99025 0.498482
0.999512 0.989883 0.537743
0.999512 0.989776 0.582086
0.999512 0.98999 0.630182
0.999512 0.990478 0.679957
0.999512 0.991257 0.728054
0.999512 0.992294 0.773236
0.999512 0.993576 0.813764
0.789532 0.999512 0.485939
