BBLuts/BB_102_0360_LUT.cube
TITLE "Generated by Resolve"
LUT_3D_SIZE 5
0 0 0
0.111299 0 0
0.679347 0 0
0.692042 0.609003 0
0.822766 0.916732 0.719905
0 0.155703 0
0 0.16968 0
0.639475 0.0774395 0
0.641993 0.680217 0
0.822492 0.917189 0.719738
0 0.806455 0.159243
0 0.80618 0.159152
0.281666 0.846052 0
0.518883 0.919738 0
0.818555 0.923339 0.717052
0.182956 1 0.233997
0.182956 1 0.233997
0.35433 1 0.16585
0.624659 1 0.265812
0.819883 0.947387 0.75964
0.82388 0.943664 0.873243
0.82388 0.943664 0.873243
0.82388 0.943664 0.873243
0.840131 0.944289 0.869337
0.864591 0.94136 0.891173
0.0215457 0 0.163073
0.173556 0 0.095613
0.773205 0 0
0.783261 0.566094 0.00787366
0.822782 0.916701 0.719921
0 0.0814527 0.196689
0.0830549 0.0902876 0.127352
0.758206 0 0
0.745235 0.636881 0.00291447
0.822492 0.917174 0.719738
0 0.801389 0.157351
0 0.801083 0.157244
0.287694 0.841535 0
0.542016 0.910399 0
0.818555 0.923339 0.717052
0.191073 1 0.228824
0.191073 1 0.228824
0.356115 1 0.164111
0.624613 1 0.265461
0.819883 0.947387 0.75964
0.823911 0.943679 0.873228
0.823911 0.943679 0.873228
0.823911 0.943679 0.873228
0.840146 0.944305 0.869307
0.864591 0.94136 0.891173
0.28748 0 0.856641
0.28751 0 0.856748
1 0 0.500221
1 0.173556 0.535958
0.862577 0.900557 0.819974
0.286992 0 0.855421
0.287022 0 0.855497
1 0 0.494514
1 0.36318 0.585794
0.862333 0.901015 0.819959
0 0.616602 1
0 0.616663 1
0.626886 0.658015 0.740658
0.883787 0.761669 0.660471
0.859236 0.907134 0.819837
0.375998 0.968612 0.733211
0.375998 0.968612 0.733211
0.533303 0.966918 0.659632
0.756878 0.958999 0.625238
0.839185 0.940108 0.808957
0.824338 0.943709 0.872969
0.824338 0.943709 0.872969
0.824338 0.943709 0.872969
0.840299 0.94432 0.869169
0.864576 0.94136 0.891142
0.38291 0 1
0.38291 0 1
0.38291 0 1
1 0 0.665644
0.925856 0.850614 0.938994
0.38291 0 1
0.38291 0 1
0.38291 0 1
1 0 0.665644
0.925292 0.851896 0.939254
0.38291 0 1
0.38291 0 1
0.38291 0 1
1 0 0.665644
0.919188 0.86569 0.941863
0 0.887846 1
0 0.887846 1
0 0.887846 1
0.871778 0.903181 0.957732
0.89662 0.916442 0.950835
0.850095 0.93344 0.949676
0.850095 0.93344 0.949676
0.850095 0.93344 0.949676
0.864591 0.934295 0.944045
0.885145 0.93431 0.944015
0.25069 0.0855879 1
0.25069 0.0855879 1
0.25069 0.0855879 1
0.25066 0.0856641 1
1 0.604105 0.896696
0.25069 0.0855879 1
0.25069 0.0855879 1
0.25069 0.0855879 1
0.25066 0.0856641 1
1 0.604105 0.896696
0.25069 0.0855879 1
0.25069 0.0855879 1
0.25069 0.0855879 1
0.25066 0.0856641 1
1 0.604105 0.896696
0.251286 0.0841688 1
0.251286 0.0841688 1
0.251286 0.0841688 1
0.251255 0.0842451 1
1 0.608454 0.897688
0.811048 0.923858 1
0.811048 0.923858 1
0.811048 0.923858 1
0.811048 0.923858 1
0.899107 0.929961 0.979446
