BBLuts/BB_103_0840_LUT.cube
TITLE "Generated by Resolve"
LUT_3D_SIZE 5
0 0 0
0.174929 0 0
0.762051 0 0.362264
0.981491 0.435966 0.638941
0.959976 0.935485 0.718715
0 0.193851 0
0.144793 0.194568 0
0.767941 0.0111391 0.368185
0.980163 0.546654 0.633051
0.959915 0.936904 0.715282
0 0.775021 0
0 0.774563 0
0.698375 0.757809 0
0.964477 0.806287 0.105562
0.959457 0.946029 0.68658
0 0.99884 0
0 0.997559 0
0.752392 0.983719 0
0.953231 0.974273 0
0.958434 0.980011 0.666163
0.929641 0.993088 0.84654
0.930098 0.993088 0.846647
0.933394 0.993088 0.847425
0.951446 0.993118 0.853819
0.963424 0.993164 0.890959
0.034287 0.0126802 0.233417
0.19324 0.013489 0.236622
0.762051 0 0.412177
0.979629 0.413291 0.642832
0.960311 0.935775 0.749386
0.0255894 0.192462 0.196521
0.186252 0.186786 0.19353
0.762997 0 0.409277
0.981033 0.533379 0.639551
0.96025 0.937209 0.746883
0 0.771267 0
0 0.770764 0
0.703975 0.754055 0
0.963592 0.803571 0.293446
0.959762 0.946334 0.727199
0 0.998596 0
0 0.99733 0
0.754635 0.983581 0
0.953353 0.974227 0
0.958434 0.97998 0.665858
0.929702 0.993088 0.846555
0.930175 0.993088 0.846647
0.933455 0.993088 0.84741
0.951476 0.993118 0.853803
0.963424 0.993164 0.890959
0.587762 0.604639 0.760967
0.587991 0.604837 0.761166
0.765164 0.599802 0.759182
0.970275 0.613642 0.792218
0.962905 0.938308 0.853788
0.585901 0.602899 0.759319
0.58616 0.603143 0.759548
0.772686 0.597803 0.757671
0.970016 0.620325 0.78883
0.962829 0.939742 0.852918
0.528405 0.730068 0.710658
0.528725 0.730434 0.710933
0.701793 0.72253 0.715068
0.964462 0.788907 0.751965
0.962325 0.948913 0.846677
0 0.997467 0
0.239857 0.991135 0
0.753567 0.982712 0
0.949035 0.973724 0
0.960021 0.981476 0.801816
0.930236 0.993088 0.846494
0.930678 0.993088 0.846586
0.933898 0.993088 0.847349
0.951659 0.993118 0.853742
0.963424 0.993164 0.890959
0.829511 0.857527 0.975738
0.829511 0.857527 0.975738
0.829511 0.857527 0.975738
0.974182 0.857099 0.975921
0.971939 0.933242 0.974609
0.829511 0.857527 0.975738
0.829511 0.857527 0.975738
0.829511 0.857527 0.975738
0.974182 0.857099 0.975921
0.971878 0.935424 0.974563
0.829511 0.857527 0.975738
0.829511 0.857527 0.975738
0.830152 0.857527 0.975738
0.974182 0.857099 0.975921
0.971466 0.949172 0.973938
0.786465 0.993133 0.956832
0.786557 0.993133 0.956954
0.800656 0.991592 0.957626
0.946883 0.980591 0.960098
0.970245 0.990631 0.96289
0.935683 0.993149 0.933379
0.93608 0.993149 0.93341
0.938933 0.993164 0.933623
0.954925 0.993179 0.935378
0.968322 0.99321 0.946624
0.82948 0.857954 0.975723
0.82948 0.857954 0.975723
0.82948 0.857954 0.975723
0.82948 0.857954 0.975723
0.973831 0.869047 0.975723
0.82948 0.857954 0.975723
0.82948 0.857954 0.975723
0.82948 0.857954 0.975723
0.82948 0.857954 0.975723
0.973831 0.869062 0.975723
0.82948 0.857954 0.975723
0.82948 0.857954 0.975723
0.82948 0.857954 0.975723
0.830335 0.857908 0.975723
0.973831 0.869169 0.975723
0.82948 0.857954 0.975723
0.82948 0.857954 0.975723
0.82948 0.857954 0.975723
0.974182 0.857099 0.975921
0.973816 0.869535 0.975708
0.900847 0.993164 0.973541
0.902159 0.993164 0.973541
0.91107 0.993179 0.973541
0.949508 0.993225 0.973556
0.970169 0.993255 0.973571
