BBLuts/BB_104_0280_LUT.cube
TITLE "Generated by Resolve"
LUT_3D_SIZE 33
0 0 0
0 0 0
0 0 0
0 0 0
0 0 0
0.0403754 0 0
0.0911269 0 0
0.128069 0 0
0.165805 0 0
0.211887 0 0
0.267903 0 0
0.332067 0 0
0.406485 0 0
0.492378 0 0
0.589837 0 0
0.675898 0 0
0.732921 0 0
0.778622 0 0
0.818723 0 0
0.85037 0 0
0.856443 0 0
0.856443 0 0
0.882551 0.12192 0.0201724
0.898512 0.319463 0.0617075
0.903441 0.466438 0.0928206
0.906249 0.592737 0.12903
0.906813 0.679942 0.176455
0.906828 0.724697 0.254047
0.906783 0.756603 0.35137
0.906615 0.779889 0.451865
0.906249 0.796994 0.548775
0.905821 0.809781 0.618692
0.905577 0.820142 0.656947
0 0 0
0 0 0
0 0 0
0 0 0
0 0 0
0.0506447 0 0
0.094667 0 0
0.131014 0 0
0.17052 0 0
0.217639 0 0
0.273991 0 0
0.337484 0 0
0.409842 0 0
0.494591 0 0
0.591745 0 0
0.67686 0 0
0.733272 0 0
0.778775 0 0
0.818677 0 0
0.850172 0 0
0.856443 0 0
0.856443 0 0
0.886183 0.15729 0.0142977
0.898939 0.335531 0.0578622
0.903639 0.476417 0.0905776
0.906249 0.598672 0.127504
0.906767 0.682734 0.174685
0.906813 0.725933 0.25301
0.906783 0.757275 0.350774
0.906615 0.780285 0.451514
0.906264 0.797208 0.548608
0.905837 0.809918 0.618616
0.905577 0.820218 0.656916
0 0 0
0 0 0
0 0 0
0 0 0
0 0 0
0.056733 0 0
0.0959029 0 0
0.133806 0 0
0.175479 0 0
0.222995 0 0
0.278645 0 0
0.340383 0 0
0.41265 0 0
0.496971 0 0
0.593652 0 0
0.677775 0 0
0.733639 0 0
0.778943 0 0
0.818601 0 0
0.849943 0 0
0.856443 0 0
0.856443 0 0
0.888167 0.186084 4.57771e-05
0.89929 0.350744 0.0535744
0.903807 0.486107 0.0882429
0.906249 0.604364 0.125963
0.906722 0.685222 0.172976
0.906798 0.727138 0.251957
0.906783 0.757931 0.350195
0.906615 0.780667 0.451164
0.906264 0.797421 0.548409
0.905837 0.81004 0.618555
0.905577 0.820294 0.65687
0 0 0
0 0 0
0 0 0
0 0.00120546 0
0.0184939 0.00422675 0
0.061387 0 0
0.0964675 0 0
0.134066 0 0
0.176318 0 0
0.225177 0 0
0.281651 0 0
0.343038 0 0
0.415366 0 0
0.499397 0 0
0.59559 0 0
0.678721 0 0
0.733989 0 0
0.77908 0 0
0.818524 0 0
0.849714 0 0
0.856443 0 0
0.856443 0 0
0.890425 0.212528 0.00196841
0.899565 0.365209 0.0486763
0.903944 0.495537 0.085832
0.906233 0.609857 0.124437
0.906676 0.687434 0.172122
0.906798 0.728313 0.250935
0.906783 0.758572 0.349615
0.90663 0.781048 0.450813
0.906264 0.797635 0.548241
0.905837 0.810178 0.618479
0.905577 0.820371 0.65684
0 0.0381628 0.000656138
0 0.040528 0.000747692
0 0.0428168 0.000839246
6.10361e-05 0.0450294 0.000915541
0.000122072 0.0458839 0.000946059
0.0592966 0.0435798 0
0.0975204 0.0409552 0
0.136538 0.0357824 0
0.179751 0.0247044 0
0.226139 0 0
0.283406 0 0
0.345434 0 0
0.417975 0 0
0.501839 0 0
0.597543 0 0
0.679667 0 0
0.734356 0 0
0.779202 0 0
0.818448 0 0
0.84947 0 0
0.856443 0 0
0.865125 0.00794995 0
0.892195 0.236393 0.00334173
0.899763 0.378973 0.0429694
0.904067 0.504692 0.0833295
0.906218 0.615122 0.122896
0.90663 0.689433 0.171267
0.906783 0.729488 0.249928
0.906783 0.759213 0.34902
0.90663 0.78143 0.450462
0.906264 0.797833 0.548058
0.905837 0.8103 0.618418
0.905577 0.820447 0.656794
0.0012665 0.0644388 0.00148013
0.00137331 0.0663462 0.00154116
0.00148013 0.0682383 0.00158694
0.00155642 0.0697337 0.00161746
0.00158694 0.0704356 0.00163272
0.0436255 0.0691539 0.000228885
0.0926833 0.0675212 0
0.134783 0.0649271 0
0.180529 0.0600137 0
0.232959 0.0507973 0
0.290379 0.0335699 0
0.34757 0 0
0.420645 0 0
0.504433 0 0
0.599603 0 0
0.68069 0 0
0.734707 0 0
0.779339 0 0
0.818357 0 0
0.849195 0 0
0.856443 0 0
0.877272 0.0894026 0
0.893629 0.259052 0.00433356
0.899886 0.392599 0.035584
0.904173 0.514015 0.0806134
0.906203 0.620432 0.121263
0.9066 0.691371 0.170397
0.906767 0.730678 0.248859
0.906783 0.759884 0.348424
0.90663 0.781811 0.450126
0.906264 0.798047 0.54786
0.905837 0.810437 0.618341
0.905577 0.820539 0.656764
0.00259403 0.0925917 0.00201419
0.00265507 0.0942245 0.00202945
0.00271611 0.0958419 0.00205997
0.00274662 0.0967575 0.00205997
0.00277714 0.0973373 0.00207523
0.00277714 0.0975509 0.00207523
0.0801404 0.0955673 7.62951e-05
0.129244 0.0939498 0
0.178332 0.090959 0
0.233707 0.0853742 0
0.293782 0.0755169 0
0.359167 0.0601205 0
0.431769 0.0326848 0
0.507774 0 0
0.602243 0 0
0.681987 0 0
0.735195 0 0
0.779507 0 0
0.818219 0 0
0.848844 0 0
0.856443 0 0
0.883879 0.143709 0
0.895018 0.285496 0.00512703
0.899702 0.408942 0.0198978
0.90428 0.525658 0.0769665
0.906157 0.626963 0.119188
0.906538 0.693706 0.169314
0.906752 0.732174 0.247501
0.906783 0.760723 0.347662
0.90663 0.7823 0.449653
0.906279 0.798321 0.547631
0.905837 0.81062 0.618235
0.905577 0.820645 0.656703
0.00349432 0.125261 0.0021973
0.00350958 0.126726 0.0021973
0.00354009 0.12781 0.0021973
0.00354009 0.128527 0.0021973
0.00354009 0.129046 0.0021973
0.00354009 0.129335 0.0021973
0.0337072 0.128573 0.00123598
0.116014 0.127169 0
0.171695 0.125368 0
0.230335 0.121309 0
0.293782 0.114031 0
0.363851 0.103548 0
0.441154 0.0885786 0
0.525399 0.0651713 0
0.614343 0.0190738 0
0.683726 0 0
0.735836 0 0
0.779736 0 0
0.818036 0 0
0.848341 0 0
0.871519 0.0481575 0
0.889067 0.196307 0.000839246
0.8963 0.316762 0.00561532
0.899474 0.429343 0.00582895
0.904372 0.540795 0.071809
0.906096 0.635142 0.116426
0.906477 0.696635 0.167941
0.906737 0.734096 0.245731
0.906783 0.761807 0.346639
0.906645 0.782956 0.449042
0.906279 0.798688 0.547311
0.905837 0.810834 0.618128
0.905577 0.820783 0.656641
0.00352483 0.16463 0.00180056
0.00350958 0.165774 0.00178531
0.00349432 0.166415 0.00177005
0.00347906 0.167071 0.00175479
0.00347906 0.167529 0.00173953
0.00347906 0.167834 0.00173953
0.00347906 0.168032 0.00173953
0.0811475 0.166888 0.000228885
0.155566 0.165194 0
0.220295 0.162081 0
0.289052 0.156863 0
0.364828 0.148974 0
0.44799 0.138018 0
0.536782 0.123079 0
0.629801 0.103243 0
0.703166 0.0766308 0
0.748425 0.0377661 0
0.780026 0 0
0.817761 0 0
0.863447 0.054078 0
0.884825 0.152285 0
0.893187 0.251789 0.00404364
0.897475 0.353552 0.00582895
0.90013 0.455528 0.00578317
0.904402 0.55967 0.0643015
0.90602 0.645182 0.112749
0.906416 0.700542 0.166171
0.906722 0.736553 0.243427
0.906798 0.763226 0.345296
0.906645 0.78378 0.448234
0.906279 0.799176 0.546899
0.905852 0.811139 0.617945
0.905577 0.820951 0.65655
0.0021973 0.211002 0.00047303
0.00218204 0.211368 0.000457771
0.00216678 0.211734 0.000442512
0.00215152 0.212024 0.000427253
0.00215152 0.212222 0.000427253
0.00213626 0.212268 0.000427253
0.00215152 0.212177 0.000427253
0.00216678 0.211841 0.000442512
0.120516 0.210849 0
0.200961 0.209476 0
0.277272 0.206119 0
0.359945 0.200259 0
0.450401 0.19176 0
0.545785 0.180575 0
0.641413 0.168048 0
0.714702 0.154177 0
0.761059 0.140429 0
0.804166 0.130129 0
0.842924 0.136538 0
0.876753 0.172595 0
0.891966 0.233082 0.00317388
0.896071 0.310536 0.00555428
0.89865 0.39646 0.00585946
0.900908 0.48658 0.00573739
0.90428 0.581399 0.0526894
0.905867 0.657267 0.107866
0.90634 0.70576 0.163973
0.906706 0.739651 0.240436
0.906798 0.765011 0.343542
0.906661 0.784863 0.447196
0.906294 0.799786 0.546334
0.905852 0.811521 0.617731
0.905592 0.82118 0.656443
0 0.263661 0
0 0.264042 0
0 0.264439 0
0 0.264729 0
0 0.264942 0
0 0.265064 0
0 0.26511 0
0 0.265019 0
0 0.264607 0
0.163745 0.265431 0
0.254536 0.264256 0
0.346349 0.260548 0
0.44567 0.254307 0
0.550134 0.246357 0
0.650309 0.23772 0
0.723781 0.22977 0
0.769207 0.224247 0
0.812741 0.223545 0
0.850858 0.234882 0.000610361
0.882246 0.265141 0.00387579
0.896132 0.312383 0.00556954
0.898039 0.373312 0.00587472
0.899886 0.44567 0.00579843
0.901625 0.523842 0.00546273
0.9037 0.605219 0.0300298
0.905669 0.671458 0.10135
0.906249 0.712154 0.161318
0.906676 0.743465 0.236561
0.906813 0.7673 0.341268
0.906676 0.786236 0.445838
0.90631 0.800595 0.545617
0.905852 0.812024 0.617441
0.905592 0.821485 0.656291
0 0.32874 0
0 0.329137 0
0 0.329503 0
0 0.329793 0
0 0.330022 0
0 0.33019 0
0 0.330327 0
0 0.330388 0
0 0.330251 0
0.0462196 0.330388 0
0.211521 0.333654 0
0.319356 0.332601 0
0.430457 0.329091 0
0.545357 0.324193 0
0.652827 0.318456 0
0.729198 0.313741 0
0.774823 0.312413 0
0.8177 0.316411 0.000457771
0.854246 0.329656 0.00300603
0.883574 0.355016 0.00502022
0.898528 0.392172 0.00587472
0.899763 0.441077 0.00579843
0.901198 0.499886 0.00567636
0.902205 0.568154 0.00482185
0.902571 0.631174 0.00335698
0.905379 0.686549 0.0928817
0.906172 0.71986 0.158175
0.906676 0.748104 0.235782
0.906828 0.770169 0.338293
0.906691 0.787976 0.444038
0.90631 0.801617 0.54464
0.905867 0.81268 0.61706
0.905592 0.821881 0.656092
0 0.409323 0
0 0.409705 0
0 0.41004 0
0 0.410315 0
0 0.410529 0
0 0.410727 0
0 0.41091 0
0 0.411048 0
0 0.411185 0
0 0.411276 0
0.105913 0.414801 0
0.269825 0.418967 0
0.400549 0.418021 0
0.528099 0.41503 0
0.645762 0.411109 0
0.72929 0.407752 0
0.777203 0.407248 0
0.819791 0.411795 0.000335698
0.854948 0.423713 0.00276188
0.88304 0.444694 0.00474556
0.900603 0.473838 0.00578317
0.901427 0.511986 0.00556954
0.902144 0.561242 0.00494392
0.902525 0.612055 0.00387579
0.902571 0.660197 0.00247196
0.905028 0.699153 0.0821851
0.906096 0.728847 0.154681
0.906676 0.753582 0.235218
0.906859 0.773693 0.334447
0.906722 0.790143 0.441703
0.90634 0.80293 0.543374
0.905882 0.813504 0.616541
0.905608 0.822385 0.655818
0 0.502205 0
0 0.50251 0
0 0.502785 0
0 0.502998 0
0 0.503197 0
0 0.50338 0
0 0.503563 0
0 0.503731 0
0 0.503868 0
0 0.503899 0
0 0.503731 0
0.17322 0.510277 0
0.350881 0.512276 0
0.49781 0.509941 0
0.627924 0.506844 0
0.722759 0.503929 0
0.776364 0.50338 0
0.82031 0.507103 0
0.854627 0.516869 0.00227359
0.881346 0.533822 0.00404364
0.902098 0.558007 0.00500496
0.902373 0.586435 0.00447089
0.902541 0.619272 0.00369268
0.902571 0.654475 0.00265507
0.90248 0.687602 0.0015259
0.904677 0.714122 0.0686351
0.906065 0.73901 0.151141
0.906706 0.760006 0.234989
0.906889 0.777935 0.330114
0.906752 0.792782 0.438712
0.906355 0.804578 0.541711
0.905882 0.814557 0.615839
0.905608 0.823041 0.655467
0 0.597803 0
0 0.597955 0
0 0.598093 0
0 0.598199 0
0 0.598291 0
0 0.598367 0
0 0.598459 0
0 0.598505 0
0 0.59852 0
0 0.598474 0
0 0.598245 0
0 0.597696 0
0.268833 0.60415 0
0.451194 0.603342 0
0.596902 0.601526 0
0.708598 0.59942 0
0.771038 0.59855 0
0.817227 0.600656 0
0.85185 0.606775 0.000610361
0.877607 0.617227 0.00221256
0.898314 0.631724 0.00317388
0.902586 0.649241 0.00282292
0.902541 0.670176 0.00215152
0.902449 0.690471 0.00141909
0.902419 0.708736 0.000808728
0.904295 0.729946 0.0514382
0.906065 0.750011 0.148135
0.906752 0.767407 0.235309
0.906935 0.782879 0.331563
0.906798 0.795956 0.434836
0.906386 0.806622 0.539513
0.905913 0.815885 0.614908
0.905608 0.823865 0.654994
0 0.67277 0
0 0.672831 0
0 0.672862 0
0 0.672908 0
0 0.672908 0
0 0.672923 0
0 0.672938 0
0 0.672908 0
0 0.672862 0
0 0.67274 0
0 0.67248 0
0 0.671992 0
0.0834669 0.672526 0
0.38584 0.675883 0
0.555581 0.674693 0
0.686885 0.673121 0
0.761303 0.672023 0
0.810071 0.672694 0
0.845808 0.675776 0
0.871778 0.681224 0.000167849
0.891814 0.687892 0.00106813
0.902434 0.695323 0.00123598
0.902419 0.70515 0.000915541
0.902434 0.717083 0.000579843
0.902525 0.73051 0.000274662
0.903838 0.745724 0.0290379
0.906142 0.761532 0.146609
0.906828 0.775677 0.236744
0.906981 0.78851 0.333928
0.906828 0.799619 0.430991
0.906432 0.809125 0.536645
0.905928 0.817533 0.613611
0.905623 0.824887 0.654398
0.00424201 0.72076 0
0.00422675 0.720745 0
0.00422675 0.720745 0
0.00422675 0.720729 0
0.00422675 0.720714 0
0.00421149 0.720684 0
0.00421149 0.720638 0
0.00419623 0.720577 0
0.00416571 0.72047 0
0.0041352 0.720317 0
0.0040589 0.720043 0
0.00393683 0.7196 0
0.00376898 0.718914 0
0.296666 0.721035 0
0.508888 0.719997 0
0.660212 0.718547 0
0.749462 0.717113 0
0.800244 0.71664 0
0.837385 0.717494 0
0.864454 0.719631 0
0.884932 0.72311 0
0.899977 0.72813 0.00030518
0.902556 0.73431 0.000198367
0.902647 0.741894 7.62951e-05
0.90277 0.750637 0
0.902937 0.760311 0
0.906279 0.77351 0.147417
0.906935 0.784543 0.240055
0.907027 0.79469 0.337713
0.906859 0.803769 0.434348
0.906477 0.8121 0.53286
0.905959 0.819516 0.611826
0.905638 0.826169 0.653605
0.0149538 0.758923 0
0.0149538 0.758877 0
0.0149386 0.758831 0
0.0149233 0.758785 0
0.0149081 0.758724 0
0.0148775 0.758663 0
0.0148623 0.758587 0
0.0148165 0.758465 0
0.0147707 0.758297 0
0.0146944 0.758053 0
0.0145876 0.757671 0
0.0144198 0.757107 0
0.0141756 0.756329 0
0.199603 0.757565 0
0.469856 0.756756 0
0.637629 0.75462 0
0.740551 0.752346 0
0.79118 0.750927 0
0.829023 0.750622 0
0.857206 0.751186 0
0.878477 0.752636 0
0.894011 0.755108 0
0.902907 0.758526 0
0.902983 0.763012 0
0.90309 0.768673 0
0.90367 0.775753 0.00852979
0.906477 0.785489 0.152285
0.907042 0.793591 0.246311
0.907088 0.80116 0.343557
0.906889 0.808499 0.439094
0.906493 0.815503 0.532738
0.905989 0.821881 0.609384
0.905653 0.827726 0.652552
0.0239872 0.787793 0
0.0239567 0.787717 0
0.0239414 0.787655 0
0.0239109 0.787579 0
0.0238804 0.787503 0
0.0238499 0.787411 0
0.0238193 0.787289 0
0.0237736 0.787137 0
0.0236973 0.786908 0
0.0236057 0.786587 0
0.0234531 0.786145 0
0.02327 0.785534 0
0.0230106 0.78471 0
0.151659 0.785061 1.5259e-05
0.457115 0.784283 0.000808728
0.628794 0.781552 0
0.735103 0.778759 0
0.785138 0.776761 0
0.822293 0.775814 0
0.850752 0.77554 0
0.872557 0.77586 0
0.88867 0.776928 0
0.901305 0.77879 0
0.903334 0.781369 0
0.90341 0.784878 0
0.905058 0.79057 0.0494087
0.906722 0.796811 0.163226
0.907164 0.80235 0.256794
0.907134 0.807919 0.352178
0.906905 0.813657 0.445792
0.906493 0.819272 0.537285
0.906035 0.824567 0.607187
0.905684 0.829587 0.651179
0.0308232 0.81001 0.0011902
0.0307927 0.809918 0.00117494
0.0307622 0.809827 0.00115969
0.0307317 0.80972 0.00114443
0.0307164 0.809628 0.00114443
0.0306706 0.809522 0.00112917
0.0306401 0.809384 0.00111391
0.0305791 0.809186 0.00108339
0.0305028 0.808927 0.00105287
0.030396 0.808576 0.0010071
0.0302586 0.808103 0.000946059
0.0300755 0.807492 0.000854505
0.0298161 0.806668 0.000747692
0.225299 0.807477 0.0034638
0.47718 0.805219 0.00247196
0.637095 0.802197 0.000686656
0.735256 0.799176 0
0.782208 0.796948 0
0.817594 0.795636 0
0.845365 0.794888 0
0.867079 0.794614 0
0.883665 0.794812 0
0.896834 0.795499 0
0.903624 0.796735 0
0.90367 0.798627 0
0.905928 0.803113 0.0862745
0.906981 0.80705 0.182055
0.907256 0.810864 0.272496
0.907164 0.814847 0.364416
0.906905 0.819074 0.455146
0.906477 0.823316 0.54342
0.90602 0.827497 0.610651
0.905699 0.831769 0.649378
0.0354009 0.826185 0.00294499
0.0353704 0.826078 0.00294499
0.0353399 0.825971 0.00292973
0.0353094 0.825864 0.00291447
0.0352789 0.825742 0.00289921
0.0352483 0.825635 0.00289921
0.0352026 0.825483 0.0028687
0.0351568 0.825284 0.00285344
0.0350805 0.82501 0.00282292
0.0349889 0.824659 0.0027924
0.0348669 0.824201 0.00274662
0.034699 0.823575 0.00268559
0.0344701 0.822782 0.00260929
0.35169 0.823102 0.00521859
0.530556 0.820111 0.00296025
0.662959 0.81706 0.000991836
0.741894 0.81416 0
0.783185 0.811978 0
0.815717 0.810559 0
0.842039 0.809613 0
0.862837 0.809018 0
0.879408 0.808743 0
0.892882 0.80882 0
0.903258 0.809339 0
0.903853 0.810254 0
0.906615 0.814115 0.126329
0.90721 0.816541 0.209644
0.907332 0.818982 0.29453
0.907179 0.821622 0.381369
0.906889 0.824506 0.468147
0.906462 0.827512 0.551553
0.906004 0.830701 0.614893
0.905699 0.83415 0.650965
0.0384527 0.838315 0.00421149
0.0384375 0.838209 0.00419623
0.038407 0.838102 0.00419623
0.0383764 0.83798 0.00418097
0.0383459 0.837873 0.00416571
0.0383307 0.837766 0.00415045
0.0382849 0.837613 0.0041352
0.0382391 0.837415 0.00411994
0.0381781 0.837156 0.00408942
0.0381018 0.83682 0.0040589
0.037995 0.836378 0.00401312
0.0378576 0.835798 0.00395209
0.329793 0.836088 0.00640879
0.482628 0.833555 0.00436408
0.605386 0.830915 0.00239567
0.697353 0.828153 0.000671397
0.751842 0.825666 0
0.787396 0.823774 0
0.816342 0.822431 0
0.840497 0.821439 0
0.859892 0.820737 0
0.875868 0.820264 0
0.88925 0.820005 0
0.899809 0.82005 0
0.906218 0.822309 0.0894484
0.907088 0.823713 0.171527
0.907378 0.824979 0.246693
0.907347 0.826337 0.323964
0.907149 0.827909 0.403769
0.906844 0.829725 0.486076
0.906401 0.831769 0.562081
0.905974 0.834089 0.619577
0.905699 0.836728 0.653605
0.0404517 0.847257 0.005066
0.0404364 0.84715 0.005066
0.0404212 0.847044 0.00505074
0.0403906 0.846952 0.00503548
0.0403754 0.846845 0.00503548
0.0403449 0.846723 0.00502022
0.0403143 0.846586 0.00500496
0.0402838 0.846418 0.0049897
0.0402228 0.846159 0.00497444
0.231998 0.846845 0.00727855
0.339361 0.846067 0.00698863
0.432792 0.844495 0.0056611
0.520912 0.842664 0.00411994
0.605676 0.840696 0.00262455
0.678416 0.838544 0.00115969
0.733166 0.836393 6.10361e-05
0.766155 0.83447 0
0.794553 0.832975 0
0.819455 0.831769 0
0.840818 0.830823 0
0.858396 0.830091 0
0.873487 0.829511 0
0.88629 0.829084 0
0.898802 0.830671 0.0796063
0.907027 0.831266 0.155261
0.907378 0.831678 0.223011
0.907423 0.83212 0.29131
0.907301 0.832746 0.360952
0.907088 0.833616 0.432349
0.906752 0.834684 0.508766
0.906325 0.83595 0.575326
0.905943 0.837507 0.624811
0.905699 0.839414 0.657023
0.363973 0.853605 0.00704967
0.381765 0.8533 0.00679026
0.398459 0.85301 0.0065156
0.414145 0.852705 0.0062562
0.428977 0.852415 0.00598154
0.443656 0.85211 0.00572213
0.461494 0.851728 0.00538643
0.483452 0.851255 0.00497444
0.509957 0.850675 0.00447089
0.540536 0.849973 0.00392157
0.57641 0.849134 0.00323491
0.618357 0.848081 0.0024567
0.659754 0.846845 0.00157168
0.69894 0.845441 0.000701915
0.734462 0.843946 0
0.758862 0.842466 0
0.782238 0.841169 0
0.804349 0.840009 0
0.824781 0.839033 0
0.842863 0.838193 0
0.859861 0.838819 0.0471351
0.874449 0.838819 0.0869306
0.88687 0.838666 0.121233
0.897246 0.83859 0.167468
0.905837 0.838468 0.22153
0.907454 0.83827 0.279759
0.907362 0.838224 0.341054
0.907195 0.838346 0.40383
0.90695 0.838682 0.468193
0.906615 0.83917 0.534676
0.906218 0.839841 0.59144
0.905882 0.840803 0.63154
0.905684 0.842069 0.661387
0.638651 0.856123 0.147662
0.64419 0.855955 0.147662
0.649516 0.855787 0.147646
0.654627 0.855634 0.147631
0.659556 0.855467 0.147631
0.664485 0.855314 0.147646
0.670573 0.8551 0.147662
0.678157 0.854841 0.147707
0.687495 0.854505 0.147768
0.698695 0.854093 0.147921
0.711833 0.853574 0.148135
0.726726 0.852964 0.148531
0.742229 0.852232 0.149233
0.754986 0.851423 0.150332
0.769879 0.850553 0.152102
0.785657 0.849699 0.154803
0.802182 0.848844 0.158679
0.818799 0.84802 0.164111
0.834775 0.847272 0.171435
0.849393 0.846616 0.181094
0.862913 0.845991 0.193637
0.875349 0.845426 0.209659
0.88629 0.844923 0.229679
0.895689 0.844465 0.254322
0.903639 0.844038 0.293339
0.907378 0.84358 0.341619
0.90724 0.843244 0.394965
0.907027 0.84303 0.450584
0.906767 0.842954 0.51046
0.906432 0.84303 0.563531
0.906096 0.84329 0.610025
0.905821 0.843809 0.640391
0.905669 0.844633 0.666835
0.748211 0.854887 0.273472
0.749447 0.854856 0.273503
0.750637 0.85481 0.273564
0.751812 0.85478 0.27361
0.752987 0.854749 0.273655
0.754208 0.854704 0.273701
0.755795 0.854673 0.273793
0.757946 0.854612 0.273899
0.760708 0.854551 0.274052
0.764218 0.854459 0.274281
0.768582 0.854368 0.274601
0.773968 0.854261 0.275074
0.78056 0.854139 0.275731
0.788434 0.854017 0.276677
0.797742 0.853742 0.278355
0.808087 0.853193 0.280339
0.819333 0.852613 0.283055
0.831098 0.852018 0.286809
0.842817 0.851423 0.291844
0.854307 0.850843 0.298512
0.865614 0.850248 0.307195
0.87628 0.849668 0.31841
0.885863 0.849119 0.332723
0.894392 0.848615 0.350759
0.901823 0.848142 0.373144
0.907195 0.847623 0.408286
0.907027 0.84715 0.452201
0.906813 0.846738 0.502953
0.906523 0.846418 0.550668
0.906218 0.84625 0.593332
0.905943 0.846281 0.625803
0.905745 0.84654 0.650797
0.905638 0.847028 0.673365
0.79205 0.853437 0.389288
0.792737 0.853422 0.389349
0.793423 0.853422 0.389425
0.79411 0.853407 0.389502
0.794781 0.853407 0.389563
0.795468 0.853391 0.389654
0.796353 0.853391 0.389746
0.797513 0.853376 0.389868
0.799008 0.853361 0.390021
0.800916 0.85333 0.390265
0.803357 0.853315 0.3906
0.806439 0.853284 0.391012
0.810269 0.853269 0.391608
0.814939 0.853239 0.392401
0.820508 0.853223 0.393484
0.826993 0.853208 0.394919
0.834272 0.853223 0.396872
0.84213 0.853223 0.399451
0.850645 0.853254 0.402869
0.859617 0.8533 0.407446
0.868894 0.85304 0.413779
0.877745 0.852537 0.421637
0.885954 0.852049 0.4318
0.893553 0.85156 0.444862
0.900298 0.851087 0.461509
0.905943 0.850645 0.482933
0.906737 0.850111 0.515908
0.906508 0.849622 0.552392
0.906264 0.84921 0.588464
0.906004 0.84892 0.619791
0.905821 0.848829 0.64155
0.905684 0.848905 0.662364
0.905623 0.849149 0.680888
0.822553 0.852522 0.498024
0.822919 0.852506 0.498085
0.823285 0.852506 0.498161
0.823636 0.852506 0.498222
0.824002 0.852506 0.498268
0.824369 0.852506 0.498329
0.824842 0.852506 0.498436
0.825467 0.852506 0.498527
0.826276 0.852506 0.498695
