BBLuts/BB_104_0080_LUT.cube
TITLE "Generated by Resolve"
LUT_3D_SIZE 33
0.0176242 0.0282902 0.0462654
0.0176242 0.0282902 0.0462654
0.0176242 0.0282902 0.0462654
0.0176242 0.0282902 0.0462654
0.0176242 0.0282902 0.0462654
0.0681621 0.029099 0.0473945
0.124346 0.030457 0.0491035
0.164508 0.0313878 0.050309
0.206043 0.0321508 0.0513161
0.258701 0.0328832 0.0524147
0.322835 0.0335088 0.0536965
0.396735 0.0343481 0.0556954
0.483833 0.0369116 0.0606241
0.573602 0.0457618 0.0749218
0.657664 0.0722515 0.1149
0.746777 0.146929 0.223407
0.838071 0.299886 0.383856
0.919844 0.453178 0.540169
0.986954 0.575387 0.647379
1 0.649851 0.725551
1 0.66302 0.739559
1 0.66302 0.739559
1 0.666987 0.740078
1 0.676356 0.739971
1 0.697154 0.738506
1 0.735866 0.733837
1 0.792065 0.722576
1 0.851102 0.70193
1 0.899962 0.672557
1 0.937957 0.647334
1 0.966293 0.677302
1 0.986816 0.772992
1 1 0.864775
0.0176242 0.0282902 0.0462654
0.0176242 0.0282902 0.0462654
0.0176242 0.0282902 0.0462654
0.0176242 0.0282902 0.0462654
0.0176242 0.0282902 0.0462654
0.0796216 0.0293584 0.0477302
0.128222 0.0305486 0.0492256
0.167697 0.0314488 0.05037
0.211444 0.0322423 0.0514382
0.265293 0.0329595 0.0525521
0.329778 0.0335699 0.0538491
0.403037 0.0344549 0.0559396
0.487648 0.0370947 0.0609751
0.575799 0.0461433 0.0754864
0.659312 0.0730602 0.116106
0.747936 0.14847 0.22533
0.838758 0.301122 0.385138
0.920119 0.453727 0.540658
0.986877 0.57525 0.647272
1 0.649363 0.725048
1 0.66302 0.739559
1 0.66302 0.739559
1 0.667842 0.739696
1 0.677821 0.739712
1 0.699413 0.73817
1 0.738643 0.733303
1 0.794705 0.721691
1 0.852903 0.700694
1 0.901015 0.670924
1 0.938598 0.64535
1 0.966644 0.675944
1 0.98703 0.772442
1 1 0.864576
0.0176242 0.0282902 0.0462654
0.0176242 0.0282902 0.0462654
0.0176242 0.0282902 0.0462654
0.0176242 0.0282902 0.0462654
0.0176242 0.0282902 0.0462654
0.0863966 0.0295262 0.0479438
0.129549 0.0305943 0.0492561
0.170718 0.0315251 0.0504616
0.21709 0.0323339 0.0515602
0.271427 0.0330205 0.0526589
0.335088 0.0336309 0.0539864
0.406424 0.0345159 0.0560769
0.490776 0.0372778 0.0612802
0.578149 0.04654 0.076112
0.660975 0.0738994 0.117357
0.749081 0.149981 0.227222
0.839429 0.302312 0.386389
0.920378 0.454261 0.541131
0.98677 0.575082 0.647105
1 0.648875 0.724514
1 0.66302 0.739559
1 0.66302 0.739559
1 0.668742 0.73904
1 0.679362 0.739452
1 0.701732 0.737835
1 0.741421 0.732769
1 0.797314 0.72079
1 0.854643 0.699443
1 0.902052 0.669276
1 0.939254 0.643305
1 0.96701 0.674571
1 0.987243 0.771908
1 1 0.864378
0.0176242 0.0282902 0.0462654
0.0176242 0.0282902 0.0462654
0.0176242 0.0282902 0.0462654
0.0167544 0.0335088 0.0459144
0.0402991 0.0383764 0.0459297
0.0915694 0.0296483 0.0480964
0.130175 0.0305943 0.0492866
0.170977 0.0315251 0.0504616
0.218067 0.0323644 0.0515755
0.273915 0.033051 0.0527199
0.338552 0.0336614 0.0540475
0.409491 0.0345769 0.056199
0.493797 0.0374456 0.0615549
0.580514 0.046952 0.0767834
0.662669 0.0747845 0.118654
0.750271 0.151553 0.229191
0.840101 0.303502 0.38764
0.920623 0.454734 0.541558
0.986633 0.574884 0.646922
1 0.648341 0.723949
1 0.66302 0.739559
1 0.66302 0.739559
1 0.669764 0.738949
1 0.680995 0.739147
1 0.704097 0.737469
1 0.744228 0.732204
1 0.799878 0.719921
1 0.856382 0.698177
1 0.90309 0.667597
1 0.939879 0.641245
1 0.967376 0.673182
1 0.987472 0.771344
1 1 0.864179
0.00985733 0.0751812 0.0432288
0.00941482 0.0777447 0.043061
0.00900282 0.0802167 0.0429084
0.00860609 0.0825971 0.042771
0.00843824 0.0835279 0.04271
0.0747234 0.0831159 0.0433051
0.116945 0.0818341 0.0443885
0.160006 0.0780346 0.0457465
0.210986 0.0683757 0.0476539
0.275044 0.0330663 0.0527504
0.340551 0.0336767 0.0541085
0.412284 0.0346227 0.0563211
0.496681 0.0375982 0.0618601
0.58291 0.0473945 0.0774548
0.664393 0.0756695 0.120012
0.751446 0.15317 0.231159
0.840757 0.304677 0.388846
0.920836 0.455177 0.541939
0.986496 0.574655 0.646708
1 0.647807 0.723369
1 0.66302 0.739559
1 0.664256 0.739452
1 0.670863 0.738857
1 0.682704 0.738811
1 0.706508 0.737102
1 0.747051 0.73164
1 0.802411 0.71902
1 0.858091 0.69688
1 0.904097 0.665919
1 0.940505 0.639139
1 0.967727 0.671794
1 0.987671 0.770809
1 1 0.863981
0.0049897 0.103243 0.0415198
0.00462348 0.105241 0.0413977
0.00427253 0.107225 0.0412757
0.0039826 0.108782 0.0411841
0.00384527 0.109529 0.0411383
0.0514229 0.109163 0.041062
0.105425 0.10901 0.0420081
0.150988 0.107805 0.043122
0.20293 0.104555 0.044358
0.266575 0.0975509 0.0459907
0.336187 0.0831006 0.0485237
0.414755 0.0346838 0.0564279
0.499611 0.0377813 0.0621653
0.585443 0.0478828 0.0781872
0.666239 0.0766613 0.121477
0.752728 0.154925 0.233295
0.841443 0.305898 0.390127
0.921065 0.455634 0.542351
0.986343 0.574411 0.646494
1 0.647211 0.722744
1 0.66302 0.739559
1 0.666194 0.739269
1 0.672084 0.738735
1 0.68455 0.738415
1 0.709087 0.736675
1 0.749996 0.731014
1 0.805005 0.71809
1 0.859831 0.695521
1 0.90515 0.664118
1 0.941161 0.636927
1 0.968109 0.670298
1 0.9879 0.770214
1 1 0.863767
0.0019379 0.132189 0.0394598
0.00190738 0.133837 0.0393378
0.0018616 0.135485 0.0392157
0.00184634 0.1364 0.0391394
0.00183108 0.13698 0.0391089
0.00181582 0.137194 0.0390936
0.0857557 0.136751 0.0395056
0.138689 0.136522 0.0406043
0.193027 0.135134 0.0417639
0.260624 0.131762 0.043122
0.332387 0.12491 0.0449683
0.410697 0.113878 0.0482948
0.499275 0.0939345 0.0564584
0.588602 0.0485237 0.0791638
0.66862 0.0779889 0.12343
0.75436 0.157229 0.236042
0.842329 0.307515 0.391821
0.92134 0.456199 0.542855
0.98613 0.574044 0.646159
1 0.646403 0.721874
1 0.66302 0.739559
1 0.667445 0.739178
1 0.673777 0.738582
1 0.687022 0.737682
1 0.712474 0.736126
1 0.753796 0.730175
1 0.808316 0.716854
1 0.862058 0.693736
1 0.906493 0.661753
1 0.941985 0.634012
1 0.968566 0.668391
1 0.98819 0.769436
1 1 0.863493
0.000961318 0.164767 0.0370031
0.000915541 0.166186 0.0368811
0.000885023 0.167254 0.0367895
0.000869764 0.167956 0.0367437
0.000839246 0.168444 0.0366979
0.000839246 0.168734 0.0366674
0.0279545 0.168322 0.0364538
0.117983 0.168383 0.0376287
0.177523 0.168063 0.0388952
0.250172 0.166079 0.0403296
0.326299 0.161746 0.0421302
0.409491 0.155749 0.045304
0.501015 0.14873 0.0530556
0.58967 0.141726 0.073228
0.671153 0.132342 0.123262
0.756573 0.160357 0.239734
0.843534 0.309682 0.394095
0.921721 0.456962 0.543542
0.985824 0.573541 0.645701
1 0.645274 0.720684
1 0.665248 0.739361
1 0.669108 0.73901
1 0.676234 0.738354
1 0.690532 0.736828
1 0.717083 0.735332
1 0.758831 0.729061
1 0.812604 0.71519
1 0.864927 0.691325
1 0.908232 0.658564
1 0.943084 0.63003
1 0.969192 0.665782
1 0.988571 0.76846
1 1 0.863142
0 0.20824 0.0330968
0 0.209644 0.0329595
0 0.210422 0.0328679
0 0.2112 0.0327916
0 0.211749 0.0327153
0 0.212131 0.0327001
0 0.21236 0.0326696
0.0723278 0.211612 0.0328832
0.151431 0.210819 0.0346685
0.230503 0.208942 0.0365759
0.314504 0.205509 0.0387427
0.404593 0.200778 0.0423133
0.502373 0.196506 0.0508888
0.593606 0.197467 0.0727092
0.675761 0.214313 0.12488
0.76141 0.260838 0.244678
0.845457 0.34609 0.39678
0.92221 0.457969 0.544427
0.985351 0.572763 0.644968
1 0.646494 0.718746
1 0.667689 0.739147
1 0.671672 0.738781
1 0.67985 0.737987
1 0.695521 0.736248
1 0.723323 0.734203
1 0.765469 0.727459
1 0.818112 0.712901
1 0.868589 0.688075
1 0.910491 0.654185
1 0.944488 0.624613
1 0.970016 0.662257
1 0.989059 0.767102
1 1 0.862654
0 0.264179 0.0251774
0 0.264637 0.0250858
0 0.265064 0.0250095
0 0.265431 0.0249485
0 0.265644 0.0248875
0 0.265705 0.0248875
0 0.265583 0.024918
0 0.265202 0.024979
0.102541 0.263706 0.0264591
0.194034 0.263066 0.0292515
0.292348 0.261036 0.0323796
0.39237 0.257343 0.0367742
0.499336 0.253391 0.0464637
0.596445 0.253544 0.0706951
0.68069 0.267369 0.126345
0.765637 0.306966 0.248844
0.847501 0.38204 0.399359
0.922087 0.487007 0.543786
0.984329 0.582757 0.64329
1 0.647807 0.715969
1 0.67071 0.738872
1 0.6757 0.738399
1 0.685267 0.737408
1 0.702693 0.735363
1 0.731838 0.732525
1 0.774197 0.725216
1 0.825116 0.709773
1 0.873579 0.683604
1 0.913375 0.648188
1 0.946334 0.61709
1 0.971084 0.65745
1 0.9897 0.765332
1 1 0.862028
0 0.326848 0.0102846
0 0.327291 0.0101167
0 0.327764 0.00999466
0 0.328084 0.00988785
0 0.328359 0.00981155
0 0.328511 0.00975052
0 0.328573 0.00975052
0 0.32845 0.00978103
0 0.327977 0.00993362
0.127382 0.326894 0.0140688
0.250065 0.326802 0.0191806
0.367254 0.324498 0.0248722
0.487648 0.320958 0.0357671
0.595575 0.320577 0.062623
0.684077 0.330251 0.122499
0.769558 0.360082 0.250141
0.849561 0.419211 0.401343
0.92221 0.50631 0.543526
0.982956 0.589899 0.641047
1 0.649866 0.71191
1 0.675837 0.738369
1 0.682155 0.737743
1 0.693553 0.736492
1 0.712901 0.733989
1 0.743328 0.729824
1 0.785611 0.72195
1 0.833921 0.705394
1 0.879408 0.677455
1 0.917082 0.639735
1 0.948684 0.60647
1 0.972473 0.650858
1 0.990539 0.762966
1 1 0.861219
0 0.404227 0
0 0.404715 0
0 0.405127 0
0 0.405478 0
0 0.405753 0
0 0.405951 0
0 0.406119 0
0 0.406195 0
0 0.406027 0
0 0.405631 0
0.150759 0.4056 0.000167849
0.316289 0.40621 0.00440986
0.459907 0.404257 0.0107424
0.586069 0.40351 0.0398566
0.681483 0.408881 0.103075
0.770687 0.428885 0.239109
0.850507 0.471717 0.398856
0.921675 0.5355 0.541344
0.980652 0.601816 0.637095
1 0.655375 0.705882
1 0.684657 0.737469
1 0.692668 0.736584
1 0.706127 0.73492
1 0.727443 0.731762
1 0.75877 0.72575
1 0.800076 0.717189
1 0.844755 0.699199
1 0.886519 0.669337
1 0.921752 0.627588
1 0.95172 0.591058
1 0.974273 0.641596
1 0.991623 0.759747
1 1 0.860136
0 0.499504 0
0 0.499916 0
0 0.500298 0
0 0.500603 0
0 0.500847 0
0 0.50106 0
0 0.501274 0
0 0.501427 0
0 0.501595 0
0 0.501686 0
0 0.501686 0
0.179416 0.503838 0
0.400244 0.505333 0.00444038
0.560067 0.504128 0.00500496
0.668757 0.505409 0.0492256
0.764553 0.514855 0.189227
0.848219 0.53817 0.382498
0.91989 0.578286 0.534463
0.977081 0.623499 0.630518
1 0.668025 0.697337
1 0.699611 0.735744
1 0.709453 0.734462
1 0.72488 0.732174
1 0.747646 0.728115
1 0.779095 0.720699
1 0.817716 0.710201
1 0.857786 0.690303
1 0.895064 0.657816
1 0.927581 0.609445
1 0.955612 0.563165
1 0.976593 0.62826
1 0.993011 0.755428
1 1 0.858671
0 0.595148 0
0 0.595407 0
0 0.595636 0
0 0.595819 0
0 0.595987 0
0 0.596139 0
0 0.596292 0
0 0.596445 0
0 0.596551 0
0 0.596597 0
0 0.596445 0
0 0.596048 0
0.237278 0.598657 0.00325017
0.506325 0.598199 0.00672923
0.643992 0.597162 0.00706493
0.749691 0.598764 0.0699931
0.841138 0.608759 0.330602
0.915633 0.629465 0.515679
0.971557 0.659403 0.618738
1 0.692546 0.684596
1 0.723751 0.732357
1 0.735027 0.730465
1 0.751659 0.727291
1 0.774716 0.721889
1 0.804608 0.712566
1 0.838437 0.699641
1 0.873243 0.677165
1 0.905241 0.640696
1 0.934768 0.579812
1 0.960586 0.512215
1 0.979568 0.608362
1 0.994797 0.749554
1 1 0.856748
0 0.679469 0
0 0.679622 0
0 0.679759 0
0 0.679866 0
0 0.679957 0
0 0.680049 0
0 0.680125 0
0 0.680171 0
0 0.680201 0
0 0.68014 0
0 0.679911 0
0 0.679377 0
0 0.67834 0
0.341741 0.680491 0.00784314
0.599863 0.678355 0.00794995
0.724422 0.677546 0.00885023
0.825772 0.681163 0.117037
0.90573 0.692683 0.45568
0.962676 0.710277 0.594629
1 0.732143 0.663874
1 0.755993 0.715419
1 0.770871 0.722866
1 0.787228 0.718349
1 0.808545 0.711086
1 0.833814 0.699565
1 0.861616 0.683162
1 0.890135 0.65716
1 0.917189 0.613367
1 0.943481 0.523033
1 0.967193 0.385519
1 0.983429 0.574228
1 0.997055 0.741436
1 1 0.854185
0 0.764263 0
0 0.764324 0
0 0.764385 0
0 0.764416 0
0 0.764431 0
0 0.764462 0
0 0.764462 0
0 0.764431 0
0 0.764385 0
0 0.764218 0
0 0.763882 0
0 0.763256 0
0 0.762158 0
0 0.760571 0
0.465248 0.761578 0.0115053
0.682048 0.759167 0.0112612
0.801434 0.75903 0.0133669
0.888884 0.763668 0.140871
0.948791 0.772763 0.518166
0.990723 0.785245 0.62359
1 0.800671 0.682231
1 0.815549 0.708278
1 0.828901 0.702129
1 0.845472 0.692699
1 0.864851 0.677989
1 0.886427 0.656199
1 0.908324 0.624689
1 0.93106 0.559609
1 0.954452 0.360906
1 0.975845 0.0352178
1 0.988586 0.496818
1 0.999847 0.730083
1 1 0.850797
0 0.84538 0.00991836
0 0.845365 0.00991836
0 0.84535 0.00991836
0 0.845304 0.0099031
0 0.845289 0.0099031
0 0.845258 0.0099031
0 0.845182 0.00988785
0 0.845075 0.00985733
0 0.844877 0.00982681
0 0.844602 0.00978103
0 0.844114 0.00968948
0 0.843336 0.00953689
0 0.842115 0.009308
0 0.840421 0.00900282
0 0.8383 0.00863661
0.591333 0.837385 0.0187686
0.765408 0.83415 0.0172427
0.865339 0.83447 0.0199435
0.931975 0.8383 0.0240635
0.97583 0.843305 0.496254
1 0.850843 0.61886
1 0.860838 0.672343
1 0.870451 0.672709
1 0.882216 0.659968
1 0.895674 0.640177
1 0.910979 0.607416
1 0.928115 0.555581
1 0.947433 0.375418
1 0.966857 0.0348516
1 0.982681 0.0355077
1 0.996689 0.15758
1 1 0.713802
1 1 0.84625
0 0.912596 0.0259709
0 0.91252 0.0259403
0 0.912444 0.0259251
0 0.912352 0.0258946
0 0.912245 0.025864
0 0.912154 0.0258488
0 0.912016 0.025803
0 0.911803 0.0257572
0 0.911513 0.0256809
0 0.91107 0.0255589
0 0.910414 0.025391
0 0.909438 0.0251316
0 0.90808 0.0247807
0 0.906279 0.0243229
0 0.90396 0.0237125
0 0.901122 0.0229953
0.712932 0.895964 0.0246281
0.838941 0.893156 0.0236362
0.912383 0.893538 0.0258946
0.9626 0.89604 0.0285191
0.997879 0.899367 0.265492
1 0.902327 0.563958
1 0.90811 0.61471
1 0.915358 0.59501
1 0.924758 0.553948
1 0.936507 0.455161
1 0.951034 0.128695
1 0.964569 0.0347601
1 0.977493 0.0352941
1 0.990478 0.0358282
1 1 0.0363317
1 1 0.689403
1 1 0.840116
0 0.962509 0.0396887
0 0.962386 0.0396582
0 0.962249 0.0396277
0 0.962127 0.0395819
0 0.96199 0.0395361
0 0.961837 0.0395056
0 0.961639 0.0394446
0 0.961364 0.0393683
0 0.960983 0.0392615
0 0.960433 0.0391089
0 0.959655 0.03888
0 0.958618 0.0385901
0 0.957183 0.0381933
0 0.955337 0.0376593
0 0.952972 0.0370031
0 0.950057 0.0361791
0.614038 0.943893 0.0351873
0.811185 0.937545 0.0284123
0.893538 0.936019 0.0287633
0.947524 0.936309 0.0303807
0.986389 0.937911 0.0319371
1 0.94078 0.0330663
1 0.944076 0.16199
1 0.948928 0.0851606
1 0.954971 0.0343633
1 0.961929 0.0346532
1 0.970001 0.0349737
1 0.978897 0.0353399
1 0.988647 0.0357519
1 0.998993 0.0361639
1 1 0.0365759
1 1 0.655482
1 1 0.8318
0.00386053 1 0.0504616
0.00383001 1 0.0504158
0.0037995 1 0.05037
0.00376898 1 0.0503243
0.0037232 0.999908 0.0502785
0.00369268 0.999741 0.0502174
0.00363165 0.999496 0.0501564
0.00357061 0.999161 0.0500649
0.0034638 0.998718 0.0499428
0.00334173 0.998108 0.0497597
0.00317388 0.99733 0.049546
0.00294499 0.996262 0.0492561
0.00263981 0.994858 0.0488441
0.00224308 0.993011 0.0483253
0.00175479 0.990723 0.0476844
0.00114443 0.987869 0.0468757
0.00047303 0.98468 0.0459754
0.779461 0.97261 0.0334325
0.875471 0.96965 0.0317235
0.93312 0.968673 0.0323949
0.97377 0.96875 0.0333715
1 0.969757 0.0341955
1 0.971649 0.0348211
1 0.974166 0.0351568
1 0.977234 0.0352789
1 0.981369 0.0354467
1 0.986603 0.0356603
1 0.992889 0.0359197
1 1 0.0362097
1 1 0.0365148
1 1 0.03682
1 1 0.641962
1 1 0.82031
0.00976577 1 0.0579995
0.00972 1 0.0579538
0.00968948 1 0.057908
0.0096437 1 0.057847
0.00959792 1 0.0578012
0.00956741 1 0.0577401
0.00950637 1 0.0576791
0.00943008 1 0.0575875
0.00933852 1 0.0574655
0.00921645 1 0.0573129
0.0090486 1 0.0570993
0.00881971 1 0.0568093
0.00852979 1 0.0564431
0.00816358 1 0.0559854
0.00769055 1 0.055375
0.0071107 1 0.0546426
0.00648508 1 0.0538491
0.748669 0.999176 0.0380102
0.860426 0.995026 0.034165
0.921523 0.993317 0.0340429
0.96286 0.992615 0.0346075
0.99353 0.992599 0.0351873
1 0.993225 0.0356451
1 0.994537 0.0359808
1 0.996139 0.0360418
1 0.998642 0.0361486
1 1 0.036286
1 1 0.0364538
1 1 0.0366522
1 1 0.0368505
1 1 0.0370642
1 1 0.629526
1 1 0.819806
0.0140536 1 0.0632944
0.014023 1 0.0632486
0.0139773 1 0.0632029
0.0139467 1 0.0631571
0.013901 1 0.0630961
0.0138552 1 0.0630503
0.0138094 1 0.0629892
0.0137331 1 0.0629129
0.0136568 1 0.0628061
0.0135348 1 0.0626688
0.0133822 1 0.0624704
0.0131685 1 0.0622263
0.0129244 1 0.0619059
0.0125734 1 0.0614939
0.0121614 1 0.0609751
0.0116579 1 0.0603647
0.0111238 1 0.0597086
0.72433 1 0.0418555
0.849958 1 0.0360876
0.912551 1 0.0353552
0.953704 1 0.0355993
0.984665 1 0.035996
1 1 0.036347
1 1 0.0365911
1 1 0.0366827
1 1 0.0367285
1 1 0.0368048
1 1 0.0368963
1 1 0.0370184
1 1 0.0371405
1 1 0.0372931
1 1 0.624521
1 1 0.82266
0.0171359 1 0.0668956
0.0171054 1 0.066865
0.0170748 1 0.0668193
0.0170291 1 0.0667887
0.0169985 1 0.066743
0.0169528 1 0.0666972
0.016907 1 0.0666361
0.016846 1 0.0665751
0.0167697 1 0.0664836
0.0166476 1 0.0663615
0.0165103 1 0.0661936
0.0163272 1 0.06598
0.0160983 1 0.0657054
0.0157931 1 0.0653697
0.0154421 1 0.0649577
0.0150454 1 0.0644846
0.0146181 1 0.0639658
0.723537 1 0.0436713
0.846906 1 0.0373693
0.907378 1 0.0363317
0.947097 1 0.0363622
0.977661 1 0.0366217
1 1 0.0368658
1 1 0.0370642
1 1 0.037171
1 1 0.0371862
1 1 0.0372168
1 1 0.0372625
1 1 0.0373388
1 1 0.0374151
1 1 0.0375067
1 1 0.635569
1 1 0.828489
0.0193179 1 0.0692302
0.0192874 1 0.0691997
0.0192569 1 0.0691691
0.0192264 1 0.0691386
0.0192111 1 0.0691081
0.0191653 1 0.0690623
0.0191348 1 0.0690166
0.019089 1 0.0689555
0.0190127 1 0.0688792
0.0189212 1 0.0687724
0.0187991 1 0.0686351
0.0186618 1 0.0684672
0.0184634 1 0.0682689
0.0182345 1 0.0680095
0.0179294 1 0.0677043
0.0175937 1 0.0673838
0.0172427 1 0.0670176
0.755444 1 0.04271
0.853223 1 0.037995
0.906813 1 0.0370031
0.943603 1 0.0369116
0.972854 1 0.0370642
0.996384 1 0.0372625
1 1 0.0373999
1 1 0.0375067
1 1 0.0375219
1 1 0.0375219
1 1 0.0375525
1 1 0.037583
1 1 0.0376287
1 1 0.0376898
1 1 0.668162
1 1 0.838331
0.0206149 1 0.0708019
0.0205997 1 0.0707713
0.0205692 1 0.0707408
0.0205539 1 0.0707256
0.0205386 1 0.0706951
0.0205081 1 0.0706645
0.0204776 1 0.070634
0.0204471 1 0.0705882
0.0204013 1 0.0705272
0.0203403 1 0.0704509
0.020264 1 0.0703593
0.0201572 1 0.0702373
0.0200504 1 0.0700999
0.0198978 1 0.0699168
0.0197147 1 0.0697032
0.0195163 1 0.0694591
0.633677 1 0.0525216
0.800824 1 0.0407721
0.867384 1 0.0381323
0.910597 1 0.0374151
0.943404 1 0.0372931
0.970275 1 0.0373846
0.992279 1 0.0375219
1 1 0.037644
1 1 0.0377203
1 1 0.0377508
1 1 0.0377508
1 1 0.0377508
1 1 0.0377661
1 1 0.0377966
1 1 0.0378271
1 1 0.716609
1 1 0.85272
0.0208896 1 0.0711223
0.0208896 1 0.0711223
0.0208896 1 0.0711223
0.0208896 1 0.0711223
0.0208896 1 0.0711223
0.0208896 1 0.0711223
0.0208896 1 0.0711223
0.0208896 1 0.0711376
0.0208896 1 0.0711376
0.0208896 1 0.0711376
0.0208896 1 0.0711376
0.0208896 1 0.0711376
0.0208896 1 0.0711376
0.0209049 1 0.0711376
0.0208743 1 0.071107
0.664424 1 0.0508278
0.784161 1 0.0421454
0.844541 1 0.0392157
0.886519 1 0.0380407
0.919051 1 0.0376287
0.94667 1 0.0375525
0.97023 1 0.0375982
0.990051 1 0.037705
1 1 0.0377966
1 1 0.0378729
1 1 0.0379034
1 1 0.0379034
1 1 0.0379034
1 1 0.0379034
1 1 0.0379187
1 1 0.0379339
1 1 0.769985
1 1 0.871702
0.0209049 1 0.0711528
0.0209049 1 0.0711528
0.0209049 1 0.0711528
0.0209049 1 0.0711528
0.0209049 1 0.0711528
0.0209049 1 0.0711528
0.0209049 1 0.0711528
0.0209049 1 0.0711528
0.0209049 1 0.0711528
0.0209049 1 0.0711528
0.464607 1 0.0640726
0.628855 1 0.0537118
0.698573 1 0.0482338
0.748974 1 0.0445258
0.789776 1 0.0419165
0.824598 1 0.0401465
0.855207 1 0.0389715
0.88275 1 0.0382544
0.90782 1 0.0378729
0.931197 1 0.0377203
0.95285 1 0.037705
0.972442 1 0.0377508
0.989624 1 0.0378271
1 1 0.0379187
1 1 0.0379797
1 1 0.0380102
1 1 0.0380102
1 1 0.037995
1 1 0.037995
1 1 0.0380102
1 1 0.670527
1 1 0.821286
1 1 0.893599
0.80528 1 0.0410773
0.807263 1 0.0409705
0.809216 1 0.0408789
0.811109 1 0.0407874
0.812955 1 0.0406958
0.814847 1 0.040589
0.817227 1 0.0404822
0.820264 1 0.0403449
0.824125 1 0.040177
