BBLuts/BB_102_0110_LUT.cube
TITLE "Generated by Resolve"
LUT_3D_SIZE 9
0 0 0
0.037995 0 0
0.253132 0 0
0.568521 0 0
0.958877 0 0
1 0.0925307 0
1 0.675212 0.0700389
0.985901 0.958129 0.352758
0.976287 1 0.683436
0 0.0487068 0
0 0.0538643 0
0.251835 0.0259556 0
0.575845 0 0
0.95816 0 0
1 0.272877 0
1 0.694575 0.0622873
0.985733 0.960525 0.351781
0.976272 1 0.683284
0 0.278965 0
0 0.28043 0
0.168078 0.274754 0
0.565713 0.250172 0
0.932342 0.23473 0
1 0.439506 0
1 0.736217 0.0412909
0.98526 0.967041 0.349325
0.976211 1 0.682857
0 0.638346 0
0 0.638941 0
0 0.639353 0
0.465629 0.63209 0
0.882765 0.632959 0
0.999222 0.701869 0
0.9906 0.845685 0
0.983566 0.990188 0.349111
0.975967 1 0.680705
0 0.976623 0
0 0.976608 0
0 0.974807 0
0.185306 0.963684 0
0.782254 0.951782 0
0.958267 0.955535 0
0.980529 0.985519 0.00123598
0.979995 1 0.367727
0.975158 1 0.67512
0 1 0
0 1 0
0 1 0
0.345922 1 0
0.754162 1 0
0.914961 1 0
0.976471 1 0.165057
0.976196 1 0.426215
0.973617 1 0.69308
0.61355 1 0.249348
0.61355 1 0.249348
0.613535 1 0.249348
0.619516 1 0.249653
0.797787 1 0.266835
0.905577 1 0.302663
0.970245 1 0.381735
0.973068 1 0.547326
0.971786 1 0.737774
0.843565 1 0.613336
0.843565 1 0.613336
0.843565 1 0.613336
0.843565 1 0.613336
0.854307 1 0.614588
0.915297 1 0.626902
0.959976 1 0.652644
0.97116 1 0.711482
0.97052 1 0.810971
0.926711 1 0.84303
0.926711 1 0.84303
0.926711 1 0.84303
0.926711 1 0.84303
0.926711 1 0.84303
0.931701 1 0.843702
0.956954 1 0.849104
0.970169 1 0.86041
0.969985 1 0.885664
0 0 0.0313115
0.0010071 0 0.0304112
0.255573 0 0.0284733
0.569619 0 0.0288853
0.960861 0 0.0345006
1 0.0758221 0.0527352
1 0.672923 0.108766
0.985901 0.958099 0.352758
0.976287 1 0.683436
0 0.022385 0.0245365
0.00163272 0.0246738 0.0222324
0.252171 0 0.021973
0.571954 0 0.0198672
0.95877 0 0.0167849
1 0.253605 0.0267796
1 0.692592 0.0987869
0.985733 0.96051 0.351797
0.976272 1 0.683284
0 0.266773 0
0 0.268467 0
0.182559 0.262364 0
0.560998 0.237781 0
0.93167 0.216892 0
1 0.431647 0
1 0.734844 0.0722667
0.98526 0.967041 0.349325
0.976211 1 0.682857
0 0.633951 0
0 0.63447 0
0 0.634775 0
0.473045 0.627527 0
0.882673 0.629282 0
0.999405 0.699306 0
0.990784 0.844999 0.00111391
0.983566 0.990112 0.348898
0.975967 1 0.680705
0 0.975555 0
0 0.97554 0
0 0.973816 0
0.205249 0.962753 0
0.783566 0.951019 0
0.958495 0.955032 0
0.980484 0.985214 0.000183108
0.979995 1 0.367727
0.975158 1 0.675105
0 1 0
0 1 0
0 1 0
0.351995 1 0
0.755154 1 0
0.915145 1 0
0.976486 1 0.164889
0.976196 1 0.426215
0.973617 1 0.69308
0.615808 1 0.249226
0.615793 1 0.249226
0.615793 1 0.249226
0.621607 1 0.249516
0.798337 1 0.266697
0.905776 1 0.302556
0.97026 1 0.381704
0.973068 1 0.547326
0.971786 1 0.737774
0.843793 1 0.613306
0.843793 1 0.613306
0.843793 1 0.613306
0.843793 1 0.613306
0.854475 1 0.614557
0.915358 1 0.626871
0.959991 1 0.652613
0.97116 1 0.711482
0.97052 1 0.810971
0.926726 1 0.84303
0.926726 1 0.84303
0.926726 1 0.84303
0.926726 1 0.84303
0.926726 1 0.84303
0.931716 1 0.843702
0.956954 1 0.849104
0.970169 1 0.86041
0.969985 1 0.885664
0 0 0.203662
0 0 0.203769
0.215885 0 0.198184
0.587076 0 0.196048
0.963149 0 0.20734
1 0.04448 0.230961
1 0.659693 0.278843
0.985992 0.956054 0.426474
0.976287 1 0.683436
0 0 0.200855
0 0 0.201068
0.236179 0 0.195377
0.583322 0 0.192889
0.961837 0 0.202747
1 0.163363 0.223056
1 0.680415 0.274434
0.985809 0.958526 0.425635
0.976272 1 0.683284
0 0.224613 0.181964
0 0.22739 0.182269
0.164538 0.220966 0.177111
0.55053 0.193683 0.177661
0.940627 0.121248 0.186297
1 0.402945 0.204791
1 0.724941 0.263737
0.985321 0.965194 0.42327
0.976211 1 0.682857
0 0.621164 0.0718395
0 0.621942 0.0721447
0 0.622446 0.0733806
0.472099 0.615305 0.0761273
0.882643 0.618387 0.0986954
1 0.691371 0.13341
0.99411 0.842527 0.225742
0.983612 0.98883 0.413565
0.975967 1 0.680705
0 0.973159 0
0 0.973159 0
0 0.97145 0
0.21062 0.960403 0
0.784421 0.948623 0
0.958694 0.953384 0
0.982849 0.986633 0.116258
0.980011 1 0.389288
0.975158 1 0.675105
0 1 0
0 1 0
0 1 0
0.371633 1 0
0.757458 1 0
0.915694 1 0
0.976501 1 0.164324
0.976211 1 0.425772
0.973617 1 0.69308
0.620203 1 0.248676
0.620203 1 0.248676
0.620295 1 0.248798
0.625849 1 0.249241
0.799451 1 0.266423
0.906081 1 0.302327
0.97026 1 0.381521
0.973068 1 0.547204
0.971786 1 0.737774
0.844327 1 0.613245
0.844327 1 0.613245
0.844327 1 0.613245
0.844327 1 0.613245
0.854871 1 0.614496
0.915526 1 0.62681
0.960052 1 0.652567
0.97116 1 0.711452
0.97052 1 0.810971
0.926802 1 0.843015
0.926802 1 0.843015
0.926802 1 0.843015
0.926802 1 0.843015
0.926802 1 0.843015
0.931777 1 0.843687
0.95697 1 0.849088
0.970169 1 0.860395
0.969985 1 0.885664
0 0 0.520058
0 0 0.520165
0 0 0.520195
0.55053 0 0.513741
0.979477 0 0.51809
1 0 0.533455
1 0.601678 0.554376
0.986007 0.946426 0.62266
0.975967 1 0.756451
0 0 0.518898
0 0 0.519005
0 0 0.518227
0.562356 0 0.512169
0.978225 0 0.516762
1 0 0.530907
1 0.627726 0.552163
0.985809 0.949172 0.622141
0.975952 1 0.756359
0 0.0138552 0.51368
0 0.0150301 0.513771
0 0.0150149 0.512581
0.567407 0 0.507927
0.969451 0 0.512108
1 0.206394 0.522347
1 0.681025 0.547005
0.98529 0.956451 0.62063
0.975891 1 0.756069
0 0.560388 0.480278
0 0.560693 0.480308
0 0.562768 0.48101
0.445594 0.55584 0.477302
0.872892 0.561547 0.482444
1 0.64564 0.496406
0.995697 0.819364 0.530251
0.983444 0.982177 0.61474
0.975631 1 0.754696
0 0.96846 0.409308
0 0.968505 0.409293
0 0.967544 0.410025
0.0598154 0.957 0.410346
0.778744 0.944183 0.419745
0.957626 0.949828 0.44596
0.983948 0.981781 0.496864
0.979644 1 0.597818
0.974807 1 0.749294
0 1 0.298924
0 1 0.298924
0 1 0.298924
0.322988 1 0.299229
0.754421 1 0.322286
0.915969 1 0.36527
0.976883 1 0.442939
0.975891 1 0.562402
0.973404 1 0.735821
0.634592 1 0.253956
0.634592 1 0.253956
0.634592 1 0.253956
0.638834 1 0.254185
0.802777 1 0.271427
0.907103 1 0.3066
0.970306 1 0.388296
0.973068 1 0.548272
0.971786 1 0.737697
0.846311 1 0.612818
0.846311 1 0.612818
0.846311 1 0.612818
0.846311 1 0.612818
0.856229 1 0.614191
0.916091 1 0.626535
0.96025 1 0.652338
0.97116 1 0.711299
0.97052 1 0.810864
0.927108 1 0.842969
0.927108 1 0.842969
0.927108 1 0.842969
0.927108 1 0.842969
0.927108 1 0.842969
0.932006 1 0.843641
0.957061 1 0.849058
0.970169 1 0.86038
0.969985 1 0.885649
0 0 0.854597
0 0 0.854643
0 0 0.854856
0.2318 0 0.848722
0.946822 0 0.841917
1 0 0.844068
1 0.262623 0.842344
0.987366 0.909606 0.835691
0.975586 1 0.863432
0 0 0.854658
0 0 0.854658
0 0 0.854704
0.24065 0 0.848432
0.949065 0 0.841718
1 0 0.843748
1 0.334035 0.840314
0.987076 0.913649 0.835325
0.97557 1 0.863386
0 0 0.853819
0 0 0.853819
0 0 0.853864
0.319005 0 0.846769
0.954894 0 0.840833
1 0 0.842725
1 0.4654 0.836011
0.986343 0.923674 0.834379
0.975509 1 0.863233
0 0.253178 0.842786
0 0.253178 0.842786
0 0.255314 0.842786
0.302953 0.246128 0.835554
0.925933 0.169406 0.831342
1 0.381018 0.827893
1 0.717266 0.823285
0.983841 0.958236 0.830869
0.975204 1 0.862531
0 0.926329 0.79707
0 0.926329 0.79707
0 0.926329 0.79707
0 0.920592 0.79678
0.749142 0.904219 0.791821
0.945968 0.915801 0.79501
0.984054 0.958083 0.802899
0.979126 1 0.822797
0.974289 1 0.859953
0 1 0.76791
0 1 0.76791
0 1 0.767895
0 1 0.766949
0.712947 1 0.764797
0.898528 1 0.771344
0.97348 1 0.785077
0.974807 1 0.81088
0.972763 1 0.853956
0.586786 1 0.71902
0.586786 1 0.71902
0.586786 1 0.71902
0.58703 1 0.719005
0.775006 1 0.722927
0.88983 1 0.732357
0.958602 1 0.75256
0.971908 1 0.789548
0.971176 1 0.840925
0.849638 1 0.642557
0.849638 1 0.642557
0.849638 1 0.642557
0.849638 1 0.642557
0.857862 1 0.643458
0.915953 1 0.654917
0.959472 1 0.678111
0.971008 1 0.736156
0.970474 1 0.819257
0.928145 1 0.842817
0.928145 1 0.842817
0.928145 1 0.842817
0.928145 1 0.842817
0.928145 1 0.842817
0.932738 1 0.843488
0.957351 1 0.848905
0.970169 1 0.860258
0.969985 1 0.885588
0 0 0.992935
0 0 0.992935
0 0 0.992935
0 0 0.992966
0.778332 0 0.980438
1 0 0.976349
1 0 0.976196
1 0.687999 0.954208
0.976059 1 0.941985
0 0 0.992935
0 0 0.992935
0 0 0.992935
0 0 0.992966
0.778012 0 0.980438
1 0 0.976349
1 0 0.976165
1 0.708949 0.95346
0.976028 1 0.941939
0 0 0.992874
0 0 0.992874
0 0 0.992874
0 0 0.992905
0.786114 0 0.98027
1 0 0.976242
1 0 0.976028
0.998138 0.749493 0.951659
0.975937 1 0.941802
0 0 0.992416
0 0 0.992416
0 0 0.992416
0 0 0.992447
0.837369 0 0.979187
1 0 0.975769
1 0.0642863 0.971542
0.990677 0.852125 0.945815
0.97554 1 0.941253
0 0.691173 0.961074
0 0.691173 0.961074
0 0.691112 0.961074
0 0.694667 0.9608
0.715908 0.684535 0.950927
0.988067 0.723842 0.947173
0.99086 0.85034 0.941009
0.980865 0.987854 0.935988
0.974334 1 0.939452
0 1 0.929335
0 1 0.929335
0 1 0.929335
0 1 0.92929
0.612268 1 0.922271
0.884688 1 0.922896
0.969635 1 0.924269
0.97464 1 0.927657
0.972473 1 0.936187
0.438102 1 0.910185
0.438407 1 0.910185
0.438407 1 0.910185
0.438407 1 0.910185
0.716777 1 0.910338
0.870695 1 0.911528
0.948501 1 0.914275
0.97113 1 0.920165
0.970611 1 0.931228
0.824887 1 0.892561
0.824887 1 0.892561
0.824887 1 0.892561
0.824887 1 0.892561
0.826566 1 0.892576
0.89781 1 0.894316
0.946303 1 0.89807
0.969573 1 0.906523
0.969696 1 0.922255
0.928847 1 0.859678
0.928847 1 0.859678
0.928847 1 0.859678
0.928847 1 0.859678
0.928847 1 0.859678
0.932738 1 0.860136
0.956802 1 0.864881
0.969955 1 0.874952
0.969879 1 0.89926
0 0 1
0 0 1
0 0 1
0 0 1
0 0 1
1 0 1
1 0 1
1 0.0284581 1
0.981903 0.966613 0.994324
0 0 1
0 0 1
0 0 1
0 0 1
0 0 1
1 0 1
1 0 1
1 0.0303502 1
0.98175 0.968688 0.994217
0 0 1
0 0 1
0 0 1
0 0 1
0 0 1
1 0 1
1 0 1
1 0.0334783 1
0.981353 0.974151 0.993957
0 0 1
0 0 1
0 0 1
0 0 1
0 0 1
1 0 1
1 0 1
1 0.0402228 1
0.979873 0.994675 0.992859
0 0 1
0 0 1
0 0 1
0 0 1
0 0 1
1 0 1
1 0 1
1 0.547799 1
0.976547 1 0.989868
0 0.961318 1
0 0.961318 1
0 0.961318 1
0 0.961318 1
0 0.961364 0.999863
0.880888 0.942367 0.992874
0.979599 0.974929 0.991302
0.977157 1 0.988296
0.973129 1 0.985885
0 1 0.986465
0 1 0.986465
0 1 0.986465
0 1 0.986465
0.19765 1 0.981064
0.83537 1 0.979828
0.942367 1 0.980194
0.970977 1 0.980743
0.970489 1 0.982223
0.785092 1 0.97467
0.785092 1 0.97467
0.785092 1 0.97467
0.785092 1 0.97467
0.785092 1 0.97467
0.875395 1 0.974838
0.937728 1 0.975341
0.968078 1 0.976562
0.969238 1 0.979095
0.917891 1 0.966888
0.917891 1 0.966888
0.917891 1 0.966888
0.917891 1 0.966888
0.917891 1 0.966888
0.920043 1 0.966918
0.948348 1 0.967651
0.96698 1 0.96936
0.969299 1 0.973037
0 0.0525521 1
0 0.0525521 1
0 0.0525521 1
0 0.0525521 1
0 0.0525521 1
0.0915541 0.0392767 1
1 0 1
1 0.0943313 1
1 0.653101 1
0 0.0525521 1
0 0.0525521 1
0 0.0525521 1
0 0.0525521 1
0 0.0525521 1
0.0915541 0.0392767 1
1 0 1
1 0.0943313 1
1 0.653086 1
0 0.0525521 1
0 0.0525521 1
0 0.0525521 1
0 0.0525521 1
0 0.0525521 1
0.0915541 0.0392767 1
1 0 1
1 0.0943313 1
1 0.653056 1
0 0.0525521 1
0 0.0525521 1
0 0.0525521 1
0 0.0525521 1
0 0.0525521 1
0.0900587 0.0393835 1
1 0 1
1 0.0943313 1
1 0.652934 1
0 0.0519265 1
0 0.0519265 1
0 0.0519265 1
0 0.0519265 1
0 0.0519265 1
0.167926 0.0270542 1
1 0 1
1 0.101839 1
1 0.652338 1
0 0.0500038 1
0 0.0500038 1
0 0.0500038 1
0 0.0500038 1
0 0.0500038 1
0.383429 0.000213626 1
1 0 1
1 0.274006 1
0.987045 0.894835 1
0 1 1
0 1 1
0 1 1
0 1 1
0 1 1
0.279179 1 1
0.941863 1 1
0.973709 1 1
0.971679 1 1
0.392981 1 1
0.392981 1 1
0.392981 1 1
0.392981 1 1
0.392981 1 1
0.64332 1 1
0.922271 1 1
0.966033 1 1
0.969131 1 1
0.901167 1 1
0.901167 1 1
0.901167 1 1
0.901167 1 1
0.901167 1 1
0.90132 1 1
0.939025 1 1
0.964065 1 1
0.969055 1 1
0 0.268284 1
0 0.268284 1
0 0.268284 1
0 0.268284 1
0 0.268284 1
0 0.268284 1
0.0417639 0.240574 1
1 0.175051 1
1 0.688991 1
0 0.268284 1
0 0.268284 1
0 0.268284 1
0 0.268284 1
0 0.268284 1
0 0.268284 1
0.0417639 0.240574 1
1 0.175051 1
1 0.688991 1
0 0.268284 1
0 0.268284 1
0 0.268284 1
0 0.268284 1
0 0.268284 1
0 0.268284 1
0.0417639 0.240574 1
1 0.175051 1
1 0.688991 1
0 0.268284 1
0 0.268284 1
0 0.268284 1
0 0.268284 1
0 0.268284 1
0 0.268284 1
0.0412146 0.240696 1
1 0.174777 1
1 0.688991 1
0 0.268284 1
0 0.268284 1
0 0.268284 1
0 0.268284 1
0 0.268284 1
0 0.268284 1
0.0397955 0.240986 1
1 0.174701 1
1 0.688975 1
0 0.267811 1
0 0.267811 1
0 0.267811 1
0 0.267811 1
0 0.267811 1
0 0.267796 1
0.111864 0.222446 1
1 0.223468 1
1 0.692378 1
0 0.266392 1
0 0.266392 1
0 0.266392 1
0 0.266392 1
0 0.266392 1
0 0.266392 1
0.646494 0.0718853 1
1 0.312978 1
0.998962 0.731762 1
0 1 1
0 1 1
0 1 1
0 1 1
0 1 1
0 1 1
0.660731 1 1
0.964019 1 1
0.969863 1 1
0.815763 1 1
0.815763 1 1
0.815763 1 1
0.815763 1 1
0.815763 1 1
0.815763 1 1
0.885222 1 1
0.958892 1 1
0.969039 1 1
