BBLuts/BB_103_0590_LUT.cube
TITLE "Generated by Resolve"
LUT_3D_SIZE 9
0 0 0
0 0 0
0.107042 0 0
0.508446 0 0
1 0 0
1 0 0
1 0.542138 0
1 0.873518 0.510094
1 1 0.824552
0 0.0018616 0
0 0.0080415 0
0.145373 0.0195163 0
0.520775 0 0
1 0 0
1 0 0
1 0.573541 0
1 0.87924 0.516152
1 1 0.825422
0 0.254353 0
0 0.255039 0
0.149157 0.233783 0.00103761
0.443091 0.229938 0
0.84358 0.202075 0
1 0.351049 0
1 0.631724 0.0184787
1 0.892103 0.527977
1 1 0.827283
0 0.549294 0
0 0.549813 0
0 0.549813 0
0.438041 0.52517 0.0721599
0.791516 0.544671 0.0149691
1 0.607309 0
1 0.750561 0.14818
1 0.921523 0.552651
1 1 0.832013
0.369299 0.887495 0.206516
0.368292 0.886793 0.206027
0.36524 0.884627 0.204532
0.470375 0.851316 0.21619
0.827619 0.843351 0.290806
1 0.864073 0.254932
1 0.904952 0.283146
1 0.970794 0.607111
1 1 0.842725
0.617853 1 0.481132
0.617853 1 0.481132
0.617853 1 0.481132
0.763531 1 0.452598
0.948623 1 0.50135
1 1 0.537224
1 1 0.404837
1 1 0.728328
1 1 0.84506
0.851316 1 0.470176
0.861524 1 0.47393
0.88333 1 0.487938
0.930968 1 0.526436
0.995926 1 0.62739
1 1 0.700114
1 1 0.723278
1 1 0.792157
1 1 0.853727
1 1 0.770245
1 1 0.770611
1 1 0.771496
1 1 0.774243
1 1 0.787228
1 1 0.811246
1 1 0.828733
1 1 0.846464
1 1 0.867872
1 1 0.864958
1 1 0.864988
1 1 0.86508
1 1 0.865446
1 1 0.866392
1 1 0.868544
1 1 0.872114
1 1 0.8757
1 1 0.881224
0 0 0
0 0 0
0.0663615 0 0
0.455665 0 0.0433814
1 0 0.0297398
1 0 0.0883345
1 0.528878 0.0455177
1 0.87306 0.526696
1 1 0.826978
0 0 0
0 0 0
0.144366 0 0.0117494
0.486336 0 0.0288396
1 0 0.00328069
1 0 0.0113832
1 0.563241 0.0502632
1 0.87866 0.533486
1 1 0.82768
0 0.244709 0
0 0.245655 0
0.153124 0.226017 0.00239567
0.438758 0.220798 0
0.851896 0.181247 0
1 0.332815 0
1 0.628855 0.0830396
1 0.891722 0.546212
1 1 0.829511
0 0.545602 0
0 0.546014 0
0 0.546014 0
0.440772 0.522499 0.0652323
0.791012 0.541421 0.0120089
1 0.604608 0
1 0.749752 0.178546
1 0.922148 0.573175
1 1 0.834089
0.367529 0.886244 0.205646
0.366506 0.885527 0.205158
0.363455 0.883375 0.203677
0.483375 0.848997 0.221744
0.828519 0.84271 0.288121
1 0.863432 0.254429
1 0.904692 0.282383
1 0.970779 0.613291
1 1 0.844694
0.617853 1 0.481132
0.617853 1 0.481132
0.617853 1 0.481132
0.766751 1 0.453178
0.949126 1 0.50106
1 1 0.538659
1 1 0.404379
1 1 0.728252
1 1 0.845151
0.852949 1 0.470451
0.863066 1 0.474174
0.884565 1 0.48864
0.931716 1 0.527489
0.996277 1 0.628275
1 1 0.700023
1 1 0.72311
1 1 0.792157
1 1 0.853727
1 1 0.770306
1 1 0.770657
1 1 0.771542
1 1 0.774319
1 1 0.787305
1 1 0.811215
1 1 0.828687
1 1 0.846464
1 1 0.867872
1 1 0.864958
1 1 0.864988
1 1 0.86508
1 1 0.865446
1 1 0.866423
1 1 0.868544
1 1 0.872114
1 1 0.8757
1 1 0.881224
0 0 0
0 0 0
0.057145 0 0.0690318
0.390387 0 0.17641
0.817014 0 0.223606
0.951446 0 0.253803
1 0.489677 0.21088
1 0.871351 0.559304
1 1 0.832273
0 0 0
0 0 0
0.0684977 0 0.0740978
0.386572 0 0.173785
0.818143 0 0.220172
0.953201 0 0.248417
1 0.530327 0.194675
1 0.877119 0.567361
1 1 0.832959
0 0.213413 0.17525
0 0.214878 0.175433
0.11809 0.202792 0.167605
0.478981 0.172076 0.154345
0.862013 0.0483253 0.175402
1 0.224186 0.150774
1 0.609827 0.186206
1 0.890028 0.582803
1 1 0.834638
0 0.529366 0.111925
0 0.530037 0.112642
0 0.530083 0.114015
0.441886 0.507698 0.174334
0.781155 0.534539 0.11078
1 0.594278 0.0518959
1 0.74995 0.284764
1 0.91986 0.614862
1 1 0.838941
0.361669 0.882124 0.202792
0.360647 0.881407 0.202304
0.357595 0.879255 0.200809
0.48574 0.844694 0.222324
0.82681 0.839353 0.282078
1 0.860487 0.252064
1 0.90219 0.411826
1 0.970397 0.656962
1 1 0.848875
0.617853 1 0.481132
0.617853 1 0.481132
0.617853 1 0.481132
0.775051 1 0.455512
0.95021 1 0.500191
1 1 0.539117
1 1 0.404044
1 1 0.728298
1 1 0.848692
0.85684 1 0.471305
0.86659 1 0.475441
0.887541 1 0.490288
0.933577 1 0.530144
0.997055 1 0.630213
1 1 0.699886
1 1 0.72311
1 1 0.79205
1 1 0.853697
1 1 0.770352
1 1 0.770764
1 1 0.771603
1 1 0.774594
1 1 0.787533
1 1 0.811399
1 1 0.828717
1 1 0.846464
1 1 0.867872
1 1 0.864973
1 1 0.865003
1 1 0.865064
1 1 0.865476
1 1 0.866423
1 1 0.868544
1 1 0.872114
1 1 0.8757
1 1 0.881224
0 0 0.0705882
0 0 0.0707103
0 0 0.127749
0.360906 0.0195315 0.341238
0.782696 0.0192569 0.422004
0.887648 0 0.448692
1 0.464912 0.498024
1 0.862806 0.622599
1 1 0.843961
0 0 0.069688
0 0 0.06981
0.000228885 0 0.154986
0.369619 0.0211185 0.341268
0.780911 0.0194858 0.420432
0.888121 0 0.44686
1 0.497078 0.496666
1 0.869703 0.62974
1 1 0.844526
0 0.0781567 0.311711
0 0.0820172 0.314763
0.00453193 0.0802167 0.335134
0.376043 0.051957 0.340459
0.765484 0.0252537 0.414206
0.942367 0.142321 0.436683
1 0.558312 0.4851
1 0.88484 0.64622
1 1 0.845899
0 0.488746 0.404562
0 0.489799 0.405097
0 0.490318 0.405676
0.396643 0.479286 0.397223
0.831586 0.471809 0.393011
1 0.527016 0.408362
1 0.720134 0.433158
1 0.916686 0.685634
1 1 0.849744
0.365621 0.868376 0.476066
0.364935 0.867857 0.476204
0.362341 0.865919 0.476051
0.399359 0.841215 0.455604
0.821027 0.825177 0.531762
1 0.85301 0.512734
1 0.899413 0.585458
1 0.96846 0.731746
1 1 0.858122
0.631708 1 0.490486
0.631891 1 0.491386
0.632258 1 0.493553
0.75581 1 0.485206
0.936339 1 0.567483
1 1 0.670695
1 1 0.694926
1 1 0.79086
1 1 0.859022
0.867231 1 0.474189
0.876143 1 0.481025
0.896101 1 0.496696
0.938781 1 0.537423
0.999298 1 0.635737
1 1 0.699367
1 1 0.724407
1 1 0.793851
1 1 0.854871
1 1 0.770642
1 1 0.770977
1 1 0.771862
1 1 0.775326
1 1 0.788006
1 1 0.811643
1 1 0.828687
1 1 0.846464
1 1 0.867842
1 1 0.865003
1 1 0.865003
1 1 0.865095
1 1 0.865492
1 1 0.866484
1 1 0.868544
1 1 0.872114
1 1 0.875654
1 1 0.881224
0 0 0.424659
0 0 0.424659
0 0 0.424964
0.16611 0.00210575 0.699794
0.731548 0.0715343 0.720119
0.846571 0.0640879 0.725139
0.882322 0.245136 0.700282
1 0.830259 0.76968
1 1 0.859831
0 0 0.423133
0 0 0.423453
0 0 0.423453
0.193423 0.00578317 0.702708
0.736904 0.0714733 0.719387
0.846571 0.0640726 0.724407
0.904891 0.34197 0.698085
1 0.837751 0.769406
1 1 0.860258
0 0 0.420661
0 0 0.420661
0 0 0.420661
0.235721 0.0106813 0.704906
0.742443 0.0714427 0.717678
0.846555 0.0640421 0.722225
0.937514 0.479683 0.700114
1 0.856291 0.766476
1 1 0.861295
0 0.328176 0.695491
0 0.33048 0.695598
0 0.333547 0.695552
0.240162 0.314458 0.685786
0.712352 0.303227 0.677867
0.93257 0.431998 0.681178
0.996826 0.665553 0.721645
1 0.89868 0.766629
1 1 0.864012
0.320638 0.826352 0.735775
0.320394 0.826185 0.735744
0.318944 0.825132 0.735576
0.320348 0.804242 0.722286
0.769635 0.795148 0.716777
1 0.818601 0.706676
1 0.879637 0.722957
1 0.961746 0.804303
1 1 0.869993
0.681773 1 0.784268
0.681788 1 0.784329
0.681804 1 0.784405
0.726925 1 0.770657
0.90338 1 0.775509
1 0.999268 0.795911
1 1 0.820417
1 1 0.849302
1 1 0.872282
0.858274 1 0.746777
0.865812 1 0.748074
0.882689 1 0.750607
0.920653 1 0.756313
0.978958 1 0.770535
1 1 0.797864
1 1 0.83621
1 1 0.853361
1 1 0.870237
1 1 0.771298
1 1 0.771634
1 1 0.772457
1 1 0.777188
1 1 0.789334
1 1 0.812436
1 1 0.828641
1 1 0.847028
1 1 0.868254
1 1 0.865064
1 1 0.86508
1 1 0.865248
1 1 0.865614
1 1 0.866529
1 1 0.868635
1 1 0.872145
1 1 0.875654
1 1 0.881224
0 0 0.821607
0 0 0.821607
0 0 0.821607
0 0 0.822187
0.576837 0.0757916 0.931624
0.851774 0.0561227 0.916823
0.851743 0.0561227 0.917128
0.986481 0.713298 0.831235
1 1 0.877897
0 0 0.821332
0 0 0.821332
0 0 0.821332
0 0 0.822339
0.585428 0.0761883 0.931411
0.851774 0.0561227 0.916823
0.851743 0.0561227 0.917052
0.991516 0.730602 0.832166
1 1 0.878325
0 0 0.821073
0 0 0.821073
0 0 0.821073
0 0 0.821912
0.605646 0.0770886 0.930922
0.851774 0.0560769 0.916671
0.851759 0.0561227 0.916899
1 0.767956 0.834226
1 1 0.879362
0 0 0.820279
0 0 0.820279
0 0 0.820279
0 0 0.873243
0.640055 0.0777142 0.930037
0.851804 0.0560769 0.91635
0.873198 0.177386 0.877012
1 0.842374 0.84033
1 1 0.881956
0 0.64564 0.858106
0 0.646555 0.858061
0 0.648936 0.857847
0 0.648173 0.856519
0.641505 0.638453 0.83212
0.968566 0.682872 0.824689
1 0.801419 0.831571
1 0.937285 0.851743
1 1 0.887419
0.720882 1 0.876448
0.720882 1 0.876448
0.72079 1 0.876295
0.720211 1 0.875319
0.864103 0.98996 0.853681
1 0.988632 0.858793
1 0.998306 0.868421
1 1 0.878309
1 1 0.891417
0.812665 1 0.857313
0.826185 1 0.857267
0.852155 1 0.857816
0.90074 1 0.859678
0.970855 1 0.864546
1 1 0.871855
1 1 0.87834
1 1 0.883192
1 1 0.889281
1 1 0.859297
1 1 0.859358
1 1 0.859541
1 1 0.859937
1 1 0.861585
1 1 0.865553
1 1 0.872145
1 1 0.878538
1 1 0.885191
1 1 0.86537
1 1 0.865431
1 1 0.865553
1 1 0.865888
1 1 0.866773
1 1 0.868788
1 1 0.872221
1 1 0.875624
1 1 0.881224
0 0 0.827008
0 0 0.827008
0 0 0.827008
0 0 0.827008
0 0 0.902434
0.850202 0.05626 0.934691
0.850217 0.0563058 0.934691
0.85565 0.0942855 0.934432
1 0.955688 0.889204
0 0 0.827008
0 0 0.827008
0 0 0.827008
0 0 0.827008
0 0 0.906157
0.850202 0.05626 0.934691
0.850217 0.0563058 0.934691
0.85565 0.0942855 0.934432
1 0.958129 0.889479
0 0 0.827008
0 0 0.827008
0 0 0.827008
0 0 0.827008
0 0 0.912016
0.850217 0.0563058 0.934691
0.850217 0.0563058 0.934691
0.858122 0.106188 0.93434
1 0.963836 0.890074
0 0 0.827008
0 0 0.827008
0 0 0.827008
0 0 0.827008
0 0 0.922011
0.850217 0.0563058 0.934691
0.850217 0.0563058 0.934691
0.862821 0.137301 0.934127
1 0.977447 0.892256
0 0 0.827008
0 0 0.827008
0 0 0.827008
0 0 0.827008
0.317556 0.0514382 0.940932
0.850217 0.0563058 0.934691
0.8533 0.0777142 0.934539
0.951705 0.610559 0.885176
1 1 0.897398
0.516884 0.947097 0.910857
0.51725 0.94725 0.910857
0.518715 0.94786 0.910918
0.520592 0.948608 0.910857
0.606287 0.906569 0.884993
0.964202 0.911757 0.880278
1 0.938277 0.885008
1 0.987259 0.892607
1 1 0.908385
0.734585 1 0.909422
0.733349 1 0.908248
0.732433 1 0.906371
0.78291 1 0.896971
0.933608 1 0.894804
1 1 0.899321
1 1 0.903899
1 1 0.906508
1 1 0.907195
1 1 0.89482
1 1 0.894987
1 1 0.895384
1 1 0.896345
1 1 0.89688
1 1 0.89987
1 1 0.901961
1 1 0.904952
1 1 0.906096
1 1 0.896803
1 1 0.896819
1 1 0.896864
1 1 0.897002
1 1 0.897246
1 1 0.898116
1 1 0.899687
1 1 0.901686
1 1 0.903548
0 0.0328832 0.907622
0 0.0328832 0.907622
0 0.0328832 0.907622
0 0.0330358 0.907668
0 0.0330358 0.907668
0.194339 0.0572824 0.93904
0.850217 0.0563058 0.934691
0.863447 0.143984 0.934081
0.965011 0.665003 0.888899
0 0.0328832 0.907622
0 0.0328832 0.907622
0 0.0328832 0.907622
0 0.0328832 0.907622
0 0.0330358 0.907668
0.201648 0.0578927 0.939178
0.850217 0.0563058 0.934691
0.863462 0.144228 0.934081
0.964965 0.664866 0.888899
0 0.0327459 0.907576
0 0.0327459 0.907576
0 0.0327459 0.907576
0 0.0328832 0.907622
0 0.0328832 0.907622
0.219211 0.0593576 0.939498
0.850217 0.0563058 0.934691
0.863493 0.144839 0.934081
0.964965 0.664866 0.888899
0 0.0325933 0.90753
0 0.0325933 0.90753
0 0.0325933 0.90753
0 0.0325933 0.90753
0 0.0327459 0.907576
0.261204 0.0580301 0.939803
0.850217 0.0563058 0.934691
0.8636 0.146563 0.934066
0.96492 0.664729 0.888899
0 0.0318608 0.907317
0 0.0318608 0.907317
0 0.0318608 0.907317
0 0.0318608 0.907317
0 0.0320134 0.907362
0.549722 0.0780194 0.943313
0.850217 0.0563058 0.934691
0.863996 0.152926 0.93402
0.964721 0.664195 0.888914
0 0.0296635 0.906661
0 0.0296635 0.906661
0 0.0296635 0.906661
0 0.0296635 0.906661
0 0.0298161 0.906706
0.819928 0.0614633 0.936599
0.850217 0.0563058 0.934691
0.868132 0.1888 0.933776
1 0.909667 0.892897
0.74432 1 0.926604
0.74432 1 0.926604
0.74432 1 0.926604
0.74432 1 0.926604
0.742748 1 0.926177
0.982116 1 0.906783
1 1 0.910689
1 1 0.915114
1 1 0.916106
0.862455 1 0.907958
0.865156 1 0.908171
0.899718 1 0.908019
0.938094 1 0.907271
0.988357 1 0.908721
1 1 0.911528
1 1 0.91252
1 1 0.915465
1 1 0.915633
1 1 0.911757
1 1 0.911742
1 1 0.911742
1 1 0.911727
1 1 0.911681
1 1 0.911604
1 1 0.913191
1 1 0.914717
1 1 0.915038
0 0.284001 0.927321
0 0.284001 0.927321
0 0.284001 0.927321
0 0.284001 0.927321
0 0.284001 0.927321
0 0.284001 0.927321
0.379294 0.130037 0.94136
0.898589 0.347707 0.919356
0.978256 0.712764 0.88719
0 0.284001 0.927321
0 0.284001 0.927321
0 0.284001 0.927321
0 0.284001 0.927321
0 0.284001 0.927321
0 0.284001 0.927321
0.379294 0.130037 0.94136
0.898634 0.348013 0.919341
0.978302 0.712901 0.88719
0 0.284001 0.927321
0 0.284001 0.927321
0 0.284001 0.927321
0 0.284001 0.927321
0 0.284001 0.927321
0 0.284001 0.927321
0.379461 0.129961 0.94136
0.898756 0.348791 0.919326
0.978347 0.713039 0.88719
0 0.283864 0.927321
0 0.283864 0.927321
0 0.283864 0.927321
0 0.283864 0.927321
0 0.284001 0.927321
0 0.284001 0.927321
0.379431 0.129763 0.94136
0.899092 0.350805 0.919127
0.9785 0.713436 0.887175
0 0.283726 0.927321
0 0.283726 0.927321
0 0.283726 0.927321
0 0.283726 0.927321
0 0.283864 0.927321
0 0.283864 0.927321
0.613123 0.133562 0.943694
0.899947 0.356405 0.918853
0.978882 0.714534 0.887144
0 0.283314 0.927337
0 0.283314 0.927337
0 0.283314 0.927337
0 0.283452 0.927321
0 0.283452 0.927321
0 0.283452 0.927321
0.846143 0.0578012 0.934951
0.902159 0.370291 0.917937
0.979065 0.715602 0.887129
0 0.282185 0.927352
0 0.282185 0.927352
0 0.282185 0.927352
0 0.282185 0.927352
0 0.282185 0.927352
0 0.282338 0.927352
0.850217 0.0563058 0.934691
0.906935 0.392279 0.915724
0.980575 0.720867 0.8869
0.74432 1 0.926604
0.74432 1 0.926604
0.74432 1 0.926604
0.74432 1 0.926604
0.74432 1 0.926604
0.746914 1 0.916945
1 1 0.913069
1 1 0.915969
1 1 0.915999
1 1 0.911315
1 1 0.91136
1 1 0.911482
1 1 0.911803
1 1 0.912352
1 1 0.913008
1 1 0.913451
1 1 0.915633
1 1 0.915999
