BBLuts/BB_102_0140_LUT.cube
TITLE "Generated by Resolve"
LUT_3D_SIZE 5
0.00415045 0.00553903 0.00477607
0.117433 0.00903334 0.00621042
0.843793 0 0
0.891432 0.476555 0.00523384
0.929229 0.916655 0.816175
0 0.231357 0.0206302
0.144152 0.219867 0.0531319
0.725277 0.186648 0
0.869917 0.557794 0.0464179
0.930434 0.919234 0.819059
0.266423 0.76762 0.209461
0.263172 0.765057 0.207797
0.686503 0.74789 0.295186
0.899855 0.806699 0.2934
0.935882 0.930358 0.830915
0.709819 0.914473 0.457969
0.738399 0.913161 0.473228
0.838285 0.913878 0.61976
0.928206 0.926955 0.708675
0.936812 0.930373 0.840513
0.910796 0.929702 0.852583
0.911299 0.929747 0.852735
0.91516 0.930114 0.854276
0.930938 0.931991 0.860639
0.937453 0.933379 0.869581
0.00544747 0.00962844 0.0373083
0.0786297 0.0199435 0.100725
0.690028 0 0.216098
0.944411 0.428214 0.219532
0.930068 0.915953 0.82359
0 0.201083 0.189471
0.120821 0.196582 0.186709
0.748058 0.0537118 0.183734
0.909163 0.537743 0.197314
0.93135 0.918425 0.826062
0.26038 0.76289 0.206302
0.25716 0.760418 0.204364
0.685527 0.744152 0.287144
0.898787 0.80737 0.405005
0.937194 0.930571 0.838224
0.714672 0.91426 0.459037
0.741939 0.913008 0.476478
0.839323 0.91397 0.621866
0.928298 0.92697 0.708507
0.936812 0.930373 0.840482
0.910872 0.929702 0.852598
0.911391 0.929747 0.852766
0.91516 0.930114 0.854276
0.930938 0.931991 0.860609
0.937453 0.933379 0.869581
0 0.0233463 0.386648
0 0.0233616 0.387152
0.604379 0.0974594 0.658473
0.761593 0.221271 0.666896
0.929107 0.913985 0.85008
0 0.0233005 0.383597
0 0.0233005 0.383597
0.612894 0.0979629 0.656092
0.80589 0.420966 0.678874
0.930373 0.91664 0.851698
0.230625 0.716274 0.699825
0.229129 0.715068 0.699641
0.641535 0.709072 0.699794
0.911162 0.788251 0.706661
0.938231 0.932616 0.861418
0.715633 0.917433 0.731151
0.737102 0.917998 0.735149
0.823606 0.922469 0.755261
0.929122 0.927321 0.823529
0.937026 0.930846 0.858106
0.911467 0.929763 0.85275
0.912001 0.929808 0.852949
0.915679 0.930159 0.854429
0.931105 0.932006 0.86067
0.937453 0.933379 0.869581
0 0.00839246 0.806287
0 0.00839246 0.806287
0 0.0198672 0.873365
0.738628 0.0825971 0.907912
0.906859 0.860533 0.878828
0 0.00839246 0.806287
0 0.00839246 0.806287
0 0.0241245 0.884535
0.738628 0.0825971 0.907912
0.909575 0.868254 0.879835
0 0.00839246 0.806287
0 0.00839246 0.806287
0.241291 0.0750439 0.915938
0.741253 0.0944839 0.906279
0.925704 0.90602 0.887343
0.612146 0.924758 0.886046
0.610712 0.923705 0.885054
0.782452 0.92256 0.882719
0.924178 0.933867 0.892363
0.940841 0.935546 0.895811
0.91191 0.932403 0.884978
0.912383 0.932464 0.885069
0.915618 0.93283 0.885466
0.929397 0.93341 0.888014
0.939315 0.93463 0.892027
0 0.250553 0.903838
0 0.250553 0.903838
0 0.250553 0.903838
0.303761 0.133135 0.916197
0.835019 0.633127 0.875883
0 0.250553 0.903838
0 0.250553 0.903838
0 0.250553 0.903838
0.303761 0.133135 0.916197
0.835096 0.633371 0.875883
0 0.250446 0.903838
0 0.250446 0.903838
0 0.250446 0.903838
0.508492 0.136843 0.916136
0.835523 0.634684 0.875715
0 0.249149 0.903883
0 0.249149 0.903883
0 0.249256 0.903883
0.738628 0.0825971 0.907912
0.837003 0.640604 0.875624
0.872724 0.929717 0.900114
0.874815 0.929839 0.900328
0.887053 0.930755 0.901289
0.921843 0.933791 0.902495
0.940887 0.93637 0.904982
