BBLuts/BB_106_0180_LUT.cube
TITLE "Generated by Resolve"
LUT_3D_SIZE 9
0.0155184 0.0155184 0.0155184
0.0155184 0.0155184 0.0155184
0.18407 0.0155184 0.0155184
0.400885 0.0155184 0.0155184
0.751705 0.0155184 0.0155184
0.999512 0.0155184 0.0155184
0.999512 0.492699 0.153536
0.999512 0.824613 0.453193
0.999512 0.946685 0.788998
0.0155184 0.0658732 0.0155184
0.0155184 0.0749981 0.0155184
0.193683 0.0585184 0.0155184
0.411109 0.0155184 0.0155184
0.754513 0.0155184 0.0155184
0.999512 0.0155184 0.0155184
0.999512 0.520882 0.144091
0.999512 0.828763 0.451682
0.999512 0.947158 0.7888
0.0155184 0.202518 0.0155184
0.0155184 0.205814 0.0155184
0.162768 0.20502 0.0155184
0.42002 0.185122 0.0155184
0.758831 0.082002 0.0155184
0.999512 0.214984 0.0155184
0.999512 0.559045 0.128099
0.999512 0.834775 0.449393
0.999512 0.94786 0.788495
0.0155184 0.428275 0.0155184
0.0155184 0.429313 0.0155184
0.0155184 0.429816 0.0155184
0.37409 0.427939 0.0155184
0.765713 0.416892 0.0155184
0.999512 0.46714 0.0155184
0.999512 0.653559 0.0155184
0.999512 0.851331 0.442435
0.999512 0.950011 0.787549
0.0155184 0.755001 0.0155184
0.0155184 0.754879 0.0155184
0.0155184 0.754452 0.0155184
0.0155184 0.751598 0.0155184
0.701045 0.741466 0.0155184
0.970504 0.746563 0.0155184
0.999512 0.801648 0.0155184
0.999512 0.88719 0.441489
0.999512 0.9561 0.784573
0.0155184 0.944045 0.0155184
0.0155184 0.943175 0.0155184
0.0155184 0.941848 0.0155184
0.0155184 0.937697 0.0155184
0.679545 0.926986 0.0155184
0.9196 0.916884 0.0155184
0.999512 0.91899 0.130922
0.999512 0.938964 0.478141
0.999512 0.969863 0.777523
0.598978 0.999512 0.263523
0.614771 0.999512 0.264179
0.636576 0.999008 0.265171
0.691615 0.996979 0.268345
0.794553 0.992538 0.278691
0.913054 0.986404 0.31017
0.995956 0.982055 0.397833
0.999512 0.982559 0.589563
0.999512 0.98909 0.80267
0.885054 0.999512 0.673976
0.886427 0.999512 0.674113
0.888457 0.999512 0.674311
0.89453 0.999512 0.674983
0.910964 0.999512 0.677119
0.944411 0.999512 0.683848
0.986831 0.999512 0.704021
0.999512 0.999512 0.75964
0.999512 0.999512 0.859174
0.969146 0.999512 0.89102
0.969299 0.999512 0.891035
0.969528 0.999512 0.891066
0.970245 0.999512 0.891142
0.972412 0.999512 0.891371
0.978286 0.999512 0.892119
0.990188 0.999512 0.894499
0.999512 0.999512 0.901625
0.999512 0.999512 0.921431
0.0155184 0.0155184 0.0647898
0.0155184 0.0155184 0.0650492
0.183825 0.0155184 0.0656901
0.401724 0.0155184 0.0669108
0.751583 0.0155184 0.0707256
0.999512 0.0155184 0.104601
0.999512 0.487419 0.21387
0.999512 0.823697 0.481132
0.999512 0.946563 0.794232
0.0155184 0.0447547 0.0564889
0.0551156 0.0551156 0.0551156
0.200732 0.0155184 0.0577249
0.40679 0.0155184 0.0558785
0.752789 0.0155184 0.0426184
0.999512 0.0155184 0.080354
0.999512 0.516304 0.204303
0.999512 0.827893 0.479744
0.999512 0.947036 0.794034
0.0155184 0.194369 0.0155184
0.0155184 0.197177 0.0155184
0.1794 0.196582 0.0155184
0.418097 0.176455 0.0155184
0.755535 0.0155184 0.0155184
0.999512 0.201633 0.0155184
0.999512 0.555276 0.188632
0.999512 0.833936 0.477653
0.999512 0.947753 0.793744
0.0155184 0.424338 0.0155184
0.0155184 0.425315 0.0155184
0.0155184 0.425696 0.0155184
0.384192 0.423423 0.0155184
0.764904 0.41323 0.0155184
0.999512 0.464149 0.0155184
0.999512 0.651438 0.122606
0.999512 0.85066 0.47129
0.999512 0.949905 0.792844
0.0155184 0.753643 0.0155184
0.0155184 0.753506 0.0155184
0.0155184 0.753063 0.0155184
0.0155184 0.750164 0.0155184
0.704173 0.740093 0.0155184
0.970596 0.745617 0.0155184
0.999512 0.801144 0.0155184
0.999512 0.886931 0.452949
0.999512 0.956008 0.790005
0.0155184 0.943771 0.0155184
0.0155184 0.942901 0.0155184
0.0155184 0.941558 0.0155184
0.0155184 0.937423 0.0155184
0.681605 0.926757 0.0155184
0.919951 0.916732 0.0155184
0.999512 0.918883 0.130327
0.999512 0.938918 0.477974
0.999512 0.969802 0.78117
0.601404 0.999512 0.263401
0.617014 0.999512 0.264042
0.638575 0.998917 0.265034
0.693034 0.996902 0.268223
0.795254 0.992477 0.278584
0.913252 0.986374 0.310079
0.996002 0.98204 0.397818
0.999512 0.982544 0.589487
0.999512 0.98909 0.802655
0.885267 0.999512 0.673945
0.886625 0.999512 0.674083
0.88864 0.999512 0.674296
0.894697 0.999512 0.674968
0.911101 0.999512 0.677089
0.944488 0.999512 0.683833
0.986847 0.999512 0.704005
0.999512 0.999512 0.759625
0.999512 0.999512 0.859159
0.969177 0.999512 0.89102
0.969329 0.999512 0.891035
0.969558 0.999512 0.891066
0.970275 0.999512 0.891127
0.972442 0.999512 0.891371
0.978302 0.999512 0.892119
0.990188 0.999512 0.894499
0.999512 0.999512 0.901625
0.999512 0.999512 0.921431
0.0155184 0.0155184 0.187762
0.0155184 0.0155184 0.187961
0.164508 0.0155184 0.187686
0.411658 0.0155184 0.184787
0.751446 0.0155184 0.190173
0.999512 0.0155184 0.218875
0.999512 0.477897 0.298619
0.999512 0.822278 0.519203
0.999512 0.94638 0.801709
0.0155184 0.0155184 0.183948
0.0155184 0.0155184 0.184298
0.189349 0.0155184 0.183734
0.410346 0.0155184 0.181048
0.754131 0.0155184 0.185977
0.999512 0.0155184 0.212009
0.999512 0.507744 0.292744
0.999512 0.826535 0.517952
0.999512 0.946868 0.801526
0.0155184 0.172244 0.172961
0.0155184 0.174319 0.172641
0.16907 0.16907 0.16907
0.404883 0.153414 0.171618
0.752407 0.0155184 0.17528
0.999512 0.162371 0.199283
0.999512 0.547875 0.283604
0.999512 0.83267 0.516091
0.999512 0.94757 0.801251
0.0155184 0.413382 0.0936141
0.0155184 0.414496 0.0946517
0.0155184 0.415 0.0959945
0.384085 0.412329 0.0989242
0.759197 0.402884 0.104021
0.999512 0.454307 0.136995
0.999512 0.646311 0.253315
0.999512 0.849592 0.51043
0.999512 0.949737 0.800397
0.0155184 0.75111 0.0155184
0.0155184 0.750957 0.0155184
0.0155184 0.7505 0.0155184
0.0155184 0.74757 0.0155184
0.70695 0.737545 0.0155184
0.970428 0.743618 0.0155184
0.999512 0.799802 0.145235
0.999512 0.886305 0.49427
0.999512 0.955856 0.797726
0.0155184 0.943343 0.0155184
0.0155184 0.942473 0.0155184
0.0155184 0.941131 0.0155184
0.129168 0.937011 0.0155184
0.684688 0.926406 0.0155184
0.92047 0.916487 0.0155184
0.999512 0.918715 0.129412
0.999512 0.938827 0.477729
0.999512 0.969711 0.789502
0.605051 0.999512 0.263203
0.620371 0.999512 0.263844
0.641566 0.998795 0.264851
0.695201 0.996796 0.26804
0.796323 0.992401 0.278401
0.913558 0.986328 0.309941
0.996063 0.98201 0.397803
0.999512 0.982528 0.589364
0.999512 0.989075 0.802609
0.885573 0.999512 0.673915
0.886931 0.999512 0.674052
0.888945 0.999512 0.674266
0.894972 0.999512 0.674937
0.911315 0.999512 0.677058
0.94461 0.999512 0.683803
0.986877 0.999512 0.703975
0.999512 0.999512 0.759625
0.999512 0.999512 0.859144
0.969207 0.999512 0.89102
0.96936 0.999512 0.891035
0.969589 0.999512 0.891051
0.970306 0.999512 0.891127
0.972473 0.999512 0.891371
0.978332 0.999512 0.892119
0.990204 0.999512 0.894484
0.999512 0.999512 0.90161
0.999512 0.999512 0.921431
0.0155184 0.0155184 0.398581
0.0155184 0.0155184 0.398718
0.0155184 0.0155184 0.398795
0.390845 0.0155184 0.397452
0.771771 0.0155184 0.400183
0.999512 0.0155184 0.419181
0.999512 0.444999 0.474525
0.999512 0.817685 0.614603
0.999512 0.945815 0.822446
0.0155184 0.0155184 0.396597
0.0155184 0.0155184 0.39678
0.0830243 0.0155184 0.396704
0.404974 0.0155184 0.395315
0.769345 0.0155184 0.397955
0.999512 0.0155184 0.416602
0.999512 0.478477 0.471427
0.999512 0.822141 0.613642
0.999512 0.946303 0.822293
0.0155184 0.0751812 0.393103
0.0155184 0.0805982 0.393271
0.113542 0.0758679 0.393149
0.410468 0.0155184 0.392004
0.762615 0.0155184 0.394598
0.999512 0.0155184 0.412055
0.999512 0.522774 0.466743
0.999512 0.828534 0.612207
0.999512 0.947021 0.822049
0.0155184 0.373938 0.371435
0.0155184 0.375509 0.37174
0.0155184 0.376547 0.37232
0.373678 0.373678 0.373678
0.740764 0.364828 0.377066
0.999512 0.419501 0.393606
0.999512 0.629053 0.452369
0.999512 0.846189 0.607889
0.999512 0.949218 0.821317
0.0155184 0.7393 0.290135
0.0155184 0.739223 0.290791
0.0155184 0.738872 0.291752
0.0155184 0.736187 0.294545
0.702312 0.726268 0.303395
0.967727 0.734203 0.332692
0.999512 0.794186 0.415503
0.999512 0.884291 0.595804
0.999512 0.955413 0.819028
0.0155184 0.942138 0.0155184
0.0155184 0.941253 0.0155184
0.0155184 0.93991 0.0155184
0.154788 0.93579 0.0155184
0.685588 0.925246 0.0155184
0.91986 0.915389 0.157443
0.999512 0.917769 0.339391
0.999512 0.938064 0.564187
0.999512 0.96939 0.812085
0.616129 0.999512 0.262562
0.63061 0.999084 0.263218
0.650721 0.998383 0.264225
0.701808 0.996445 0.267445
0.799634 0.992157 0.277867
0.914519 0.986191 0.309499
0.996262 0.981918 0.397726
0.999512 0.982467 0.588998
0.999512 0.989044 0.802472
0.886549 0.999512 0.673793
0.887892 0.999512 0.67393
0.889876 0.999512 0.674144
0.895842 0.999512 0.674815
0.911986 0.999512 0.676951
0.944976 0.999512 0.683696
0.986999 0.999512 0.703883
0.999512 0.999512 0.759609
0.999512 0.999512 0.859098
0.969314 0.999512 0.891005
0.969467 0.999512 0.89102
0.969696 0.999512 0.891051
0.970413 0.999512 0.891112
0.972564 0.999512 0.891356
0.978408 0.999512 0.892103
0.99025 0.999512 0.894484
0.999512 0.999512 0.90161
0.999512 0.999512 0.921431
0.0155184 0.0155184 0.725078
0.0155184 0.0155184 0.72517
0.0155184 0.0155184 0.725307
0.242054 0.0155184 0.724239
0.758129 0.0155184 0.720134
0.999512 0.0155184 0.724743
0.999512 0.292775 0.742367
0.999512 0.80177 0.782666
0.999512 0.94406 0.868116
0.0155184 0.0155184 0.724346
0.0155184 0.0155184 0.724437
0.0155184 0.0155184 0.724575
0.268818 0.0155184 0.723323
0.764508 0.0155184 0.719371
0.999512 0.0155184 0.723964
0.999512 0.353094 0.740719
0.999512 0.806928 0.782086
0.999512 0.944564 0.868009
0.0155184 0.0155184 0.723232
0.0155184 0.0155184 0.723323
0.0155184 0.0155184 0.723476
0.303227 0.0155184 0.721904
0.768185 0.0155184 0.718151
0.999512 0.0155184 0.722698
0.999512 0.421347 0.738216
0.999512 0.814328 0.781201
0.999512 0.945312 0.867842
0.0155184 0.214664 0.716701
0.0155184 0.217319 0.716716
0.0155184 0.220661 0.716731
0.311238 0.212406 0.715496
0.767346 0.0937667 0.712703
0.999512 0.230594 0.715572
0.999512 0.563622 0.730632
0.999512 0.834592 0.778653
0.999512 0.947585 0.867338
0.0155184 0.694469 0.681834
0.0155184 0.694789 0.681971
0.0155184 0.69485 0.682155
0.0155184 0.693065 0.682521
0.683589 0.683589 0.683589
0.958602 0.698741 0.689158
0.999512 0.773556 0.711498
0.999512 0.877684 0.772015
0.999512 0.954025 0.865797
0.0155184 0.938094 0.632532
0.0155184 0.93724 0.632715
0.0155184 0.935897 0.633005
0.0155184 0.931716 0.633921
0.653742 0.920714 0.637079
0.908827 0.910399 0.64918
0.999512 0.913588 0.683406
0.999512 0.935378 0.757198
0.999512 0.96846 0.861341
0.611032 0.998566 0.528969
0.625513 0.998093 0.529335
0.645594 0.997391 0.52987
0.696605 0.995483 0.531624
0.794446 0.991226 0.537362
0.909361 0.98529 0.555718
0.991073 0.981018 0.608713
0.999512 0.981689 0.720012
0.999512 0.988617 0.848798
0.889601 0.999512 0.673442
0.890883 0.999512 0.673579
0.89279 0.999512 0.673793
0.898528 0.999512 0.674449
0.914092 0.999512 0.6766
0.946105 0.999512 0.68336
0.98735 0.999512 0.703593
0.999512 0.999512 0.759548
0.999512 0.999512 0.858946
0.969665 0.999512 0.890959
0.969818 0.999512 0.890974
0.970047 0.999512 0.891005
0.970748 0.999512 0.891081
0.972885 0.999512 0.89131
0.978653 0.999512 0.892058
0.990372 0.999512 0.894438
0.999512 0.999512 0.901579
0.999512 0.999512 0.921431
0.0155184 0.0155184 0.94345
0.0155184 0.0155184 0.943465
0.0155184 0.0155184 0.943481
0.0155184 0.0155184 0.943526
0.627039 0.0155184 0.937087
0.999512 0.0155184 0.931456
0.999512 0.0155184 0.932509
0.999512 0.729381 0.920455
0.999512 0.938354 0.930037
0.0155184 0.0155184 0.943358
0.0155184 0.0155184 0.943374
0.0155184 0.0155184 0.943389
0.0155184 0.0155184 0.94345
0.636149 0.0155184 0.936873
0.999512 0.0155184 0.931365
0.999512 0.0155184 0.932418
0.999512 0.73901 0.919875
0.999512 0.938933 0.929961
0.0155184 0.0155184 0.943236
0.0155184 0.0155184 0.943252
0.0155184 0.0155184 0.943267
0.0155184 0.0155184 0.943313
0.649607 0.0155184 0.936538
0.999512 0.0155184 0.931228
0.999512 0.0155184 0.932296
0.999512 0.752392 0.91902
0.999512 0.939803 0.92987
0.0155184 0.0155184 0.94284
0.0155184 0.0155184 0.942855
0.0155184 0.0155184 0.94287
0.0155184 0.0155184 0.942626
0.682567 0.0155184 0.935622
0.999512 0.0155184 0.930785
0.999512 0.0155184 0.929808
0.999512 0.78645 0.916762
0.999512 0.942412 0.929564
0.0155184 0.471946 0.928878
0.0155184 0.473289 0.928817
0.0155184 0.475334 0.928725
0.0155184 0.479118 0.928054
0.661967 0.467796 0.924102
0.999512 0.492287 0.919234
0.999512 0.664576 0.913619
0.999512 0.852216 0.911833
0.999512 0.949706 0.928649
0.0155184 0.923827 0.89575
0.0155184 0.923262 0.89572
0.0155184 0.922255 0.895628
0.0155184 0.918227 0.895308
0.565133 0.90602 0.894408
0.894118 0.894118 0.894118
0.999283 0.900435 0.896208
0.999512 0.927459 0.904402
0.999512 0.965805 0.926284
0.493751 0.997848 0.877058
0.517342 0.997269 0.877043
0.548852 0.996429 0.877012
0.624384 0.994125 0.876966
0.752712 0.989166 0.877073
0.888273 0.982589 0.878157
0.978088 0.978271 0.882704
0.999512 0.979629 0.894896
0.999512 0.987503 0.921111
0.881758 0.999512 0.833844
0.88304 0.999512 0.833906
0.884962 0.999512 0.833982
0.89073 0.999512 0.834257
0.906371 0.999512 0.835111
0.938643 0.999512 0.837873
0.980499 0.999512 0.846357
0.999512 0.999512 0.868727
0.999512 0.999512 0.908324
0.970764 0.999512 0.890837
0.970901 0.999512 0.890852
0.97113 0.999512 0.890883
0.971801 0.999512 0.890944
0.973846 0.999512 0.891188
0.979416 0.999512 0.891936
0.990768 0.999512 0.894331
0.999512 0.999512 0.901473
0.999512 0.999512 0.921401
0.0155184 0.0155184 0.999512
0.0155184 0.0155184 0.999512
0.0155184 0.0155184 0.999512
0.0155184 0.0155184 0.999512
0.0155184 0.0155184 0.999512
0.988113 0.0155184 0.999512
0.999512 0.0155184 0.999512
0.999512 0.0155184 0.999512
0.999512 0.912963 0.982284
0.0155184 0.0155184 0.999512
0.0155184 0.0155184 0.999512
0.0155184 0.0155184 0.999512
0.0155184 0.0155184 0.999512
0.0155184 0.0155184 0.999512
0.989624 0.0155184 0.999512
0.999512 0.0155184 0.999512
0.999512 0.0155184 0.999512
0.999512 0.914 0.982208
0.0155184 0.0155184 0.999512
0.0155184 0.0155184 0.999512
0.0155184 0.0155184 0.999512
0.0155184 0.0155184 0.999512
0.0155184 0.0155184 0.999512
0.991913 0.0155184 0.999512
0.999512 0.0155184 0.999512
0.999512 0.0155184 0.999512
0.999512 0.915557 0.982086
0.0155184 0.0155184 0.999512
0.0155184 0.0155184 0.999512
0.0155184 0.0155184 0.999512
0.0155184 0.0155184 0.999512
0.0155184 0.0155184 0.999512
0.99884 0.0155184 0.999512
0.999512 0.0155184 0.999512
0.999512 0.0155184 0.999512
0.999512 0.920165 0.981735
0.0155184 0.0155184 0.999512
0.0155184 0.0155184 0.999512
0.0155184 0.0155184 0.999512
0.0155184 0.0155184 0.999512
0.22092 0.0155184 0.999512
0.999512 0.0155184 0.999512
0.999512 0.0155184 0.999512
0.999512 0.576379 0.996948
0.999512 0.932357 0.980789
0.0155184 0.798215 0.99234
0.0155184 0.79855 0.992309
0.0155184 0.799069 0.992279
0.0155184 0.800717 0.992172
0.0155184 0.795819 0.990723
0.902251 0.782315 0.986984
0.999512 0.815091 0.983795
0.999512 0.889662 0.979812
0.999512 0.956161 0.978821
0.0155184 0.999512 0.973968
0.0155184 0.999512 0.973892
0.0155184 0.999161 0.97377
0.0155184 0.995422 0.973449
0.635126 0.986542 0.972686
0.862135 0.976806 0.971954
0.971847 0.971847 0.971847
0.999512 0.974594 0.972702
0.999512 0.984573 0.975952
0.851286 0.999512 0.96553
0.852995 0.999512 0.965515
0.855543 0.999512 0.965515
0.863096 0.999512 0.965499
0.883299 0.999512 0.965469
0.923064 0.999512 0.965499
0.971222 0.999512 0.965911
0.999512 0.999512 0.967697
0.999512 0.999512 0.972503
0.967346 0.999512 0.949111
0.967498 0.999512 0.949111
0.967712 0.999512 0.949126
0.968383 0.999512 0.949157
0.970428 0.999512 0.949248
0.975998 0.999512 0.949569
0.987396 0.999512 0.950561
0.999512 0.999512 0.953689
0.999512 0.999512 0.962036
0.0155184 0.104646 0.999512
0.0155184 0.104646 0.999512
0.0155184 0.104646 0.999512
0.0155184 0.104662 0.999512
0.0155184 0.104692 0.999512
0.0155184 0.104784 0.999512
0.999512 0.0155184 0.999512
0.999512 0.240116 0.999512
0.999512 0.654612 0.999512
0.0155184 0.104631 0.999512
0.0155184 0.104631 0.999512
0.0155184 0.104631 0.999512
0.0155184 0.104631 0.999512
0.0155184 0.104677 0.999512
0.0155184 0.104768 0.999512
0.999512 0.0155184 0.999512
0.999512 0.240406 0.999512
0.999512 0.654582 0.999512
0.0155184 0.104601 0.999512
0.0155184 0.104601 0.999512
0.0155184 0.104616 0.999512
0.0155184 0.104631 0.999512
0.0155184 0.104646 0.999512
0.0155184 0.104753 0.999512
0.999512 0.0155184 0.999512
0.999512 0.240864 0.999512
0.999512 0.654536 0.999512
0.0155184 0.104524 0.999512
0.0155184 0.104524 0.999512
0.0155184 0.10454 0.999512
0.0155184 0.104555 0.999512
0.0155184 0.104585 0.999512
0.0155184 0.104677 0.999512
0.999512 0.0155184 0.999512
0.999512 0.242283 0.999512
0.999512 0.654414 0.999512
0.0155184 0.104295 0.999512
0.0155184 0.104295 0.999512
0.0155184 0.104295 0.999512
0.0155184 0.104311 0.999512
0.0155184 0.104341 0.999512
0.0155184 0.104433 0.999512
0.999512 0.0155184 0.999512
0.999512 0.244877 0.999512
0.999512 0.654032 0.999512
0.0155184 0.103532 0.999512
0.0155184 0.103548 0.999512
0.0155184 0.103548 0.999512
0.0155184 0.103548 0.999512
0.0155184 0.103578 0.999512
0.709865 0.0155184 0.999512
0.999512 0.0155184 0.999512
0.999512 0.249073 0.999512
0.999512 0.859159 0.999512
0.0155184 0.96144 0.999512
0.0155184 0.961471 0.999512
0.0155184 0.961532 0.999512
0.0155184 0.961715 0.999512
0.0155184 0.962295 0.999512
0.710887 0.938781 0.999512
0.975555 0.930129 0.999512
0.999512 0.942626 0.999512
0.999512 0.970489 0.999512
0.691386 0.999512 0.999512
0.698466 0.999512 0.999512
0.708675 0.999512 0.999512
0.736873 0.999512 0.999512
0.798932 0.999512 0.999512
0.886366 0.999512 0.999512
0.961578 0.999512 0.999512
0.999512 0.999512 0.999512
0.999512 0.999512 0.999512
0.95668 0.999512 0.997833
0.956878 0.999512 0.997833
0.957168 0.999512 0.997833
0.958053 0.999512 0.997818
0.960708 0.999512 0.997818
0.967803 0.999512 0.997803
0.981842 0.999512 0.997787
0.997879 0.999512 0.997909
0.999512 0.999512 0.998413
0.0155184 0.315267 0.999512
0.0155184 0.315267 0.999512
0.0155184 0.315267 0.999512
0.0155184 0.315282 0.999512
0.0155184 0.315282 0.999512
0.0155184 0.315312 0.999512
0.0155184 0.315419 0.999512
0.999512 0.350439 0.999512
0.999512 0.703502 0.999512
0.0155184 0.315267 0.999512
0.0155184 0.315267 0.999512
0.0155184 0.315267 0.999512
0.0155184 0.315267 0.999512
0.0155184 0.315282 0.999512
0.0155184 0.315312 0.999512
0.0155184 0.315419 0.999512
0.999512 0.350607 0.999512
0.999512 0.703532 0.999512
0.0155184 0.315251 0.999512
0.0155184 0.315251 0.999512
0.0155184 0.315251 0.999512
0.0155184 0.315267 0.999512
0.0155184 0.315267 0.999512
0.0155184 0.315297 0.999512
0.0155184 0.315404 0.999512
0.999512 0.350851 0.999512
0.999512 0.703593 0.999512
0.0155184 0.315236 0.999512
0.0155184 0.315236 0.999512
0.0155184 0.315236 0.999512
0.0155184 0.315236 0.999512
0.0155184 0.315251 0.999512
0.0155184 0.315282 0.999512
0.0155184 0.315389 0.999512
0.999512 0.351629 0.999512
0.999512 0.703777 0.999512
0.0155184 0.31516 0.999512
0.0155184 0.31516 0.999512
0.0155184 0.31516 0.999512
0.0155184 0.31516 0.999512
0.0155184 0.315175 0.999512
0.0155184 0.315206 0.999512
0.0155184 0.315297 0.999512
0.999512 0.354131 0.999512
0.999512 0.704341 0.999512
0.0155184 0.3149 0.999512
0.0155184 0.3149 0.999512
0.0155184 0.3149 0.999512
0.0155184 0.3149 0.999512
0.0155184 0.314916 0.999512
0.0155184 0.314946 0.999512
0.0155184 0.312963 0.999512
0.999512 0.361944 0.999512
0.999512 0.705379 0.999512
0.0155184 0.314076 0.999512
0.0155184 0.314076 0.999512
0.0155184 0.314076 0.999512
0.0155184 0.314092 0.999512
0.0155184 0.314092 0.999512
0.0155184 0.314122 0.999512
0.999512 0.0155184 0.999512
0.999512 0.380163 0.999512
0.999512 0.707103 0.999512
0.0155184 0.999512 0.999512
0.0155184 0.999512 0.999512
0.0155184 0.999512 0.999512
0.0155184 0.999512 0.999512
0.0155184 0.999512 0.999512
0.0155184 0.999512 0.999512
0.907485 0.989166 0.999512
0.999512 0.985611 0.999512
0.999512 0.990036 0.999512
0.90367 0.999512 0.999512
0.904341 0.999512 0.999512
0.905364 0.999512 0.999512
0.908446 0.999512 0.999512
0.917281 0.999512 0.999512
0.938018 0.999512 0.999512
0.969177 0.999512 0.999512
0.994568 0.999512 0.999512
0.999512 0.999512 0.999512
