BBLuts/BB_106_0290_LUT.cube
TITLE "Generated by Resolve"
LUT_3D_SIZE 9
0.00842298 0.0103456 0.0121157
0.00842298 0.0103456 0.0121157
0.212329 0.0133822 0.0151522
0.483406 0.0156558 0.0179446
0.756817 0.0175479 0.020325
0.929183 0.0180667 0.0211948
0.912917 0.601404 0.201694
0.901778 0.838193 0.580133
0.897841 0.925475 0.820447
0.00509651 0.0757305 0.00981155
0.00451667 0.0875868 0.00941482
0.221881 0.0693065 0.0129854
0.495811 0.0157473 0.0180362
0.758755 0.0175479 0.020325
0.929183 0.0180667 0.0211948
0.912047 0.621561 0.18735
0.90164 0.841154 0.578805
0.897826 0.925811 0.820294
0 0.252964 0.00416571
0 0.257221 0.00404364
0.173144 0.259037 0.0069276
0.496605 0.235935 0.0109255
0.759441 0.103914 0.01738
0.922591 0.276905 0.0128176
0.910903 0.648859 0.163394
0.901457 0.845441 0.576669
0.897795 0.926329 0.820066
0 0.543099 0
0 0.544182 0
0 0.544717 0
0.422217 0.546715 0.00132753
0.753506 0.536751 0.00415045
0.914534 0.584588 0.00300603
0.908598 0.716915 0
0.900954 0.857267 0.569589
0.897734 0.927855 0.819348
0 0.785382 0
0 0.78529 0
0 0.784985 0
0 0.782696 0
0.698451 0.779293 0
0.885481 0.78352 0
0.90396 0.822858 0
0.89984 0.882856 0.567727
0.897551 0.932189 0.81709
0 0.920241 0
0 0.919615 0
0 0.918669 0
0 0.915709 0
0.677836 0.911879 0
0.844785 0.905028 0
0.899611 0.906004 0.153674
0.898207 0.919799 0.595453
0.897124 0.942 0.81178
0.618906 0.962539 0.33283
0.629786 0.96257 0.333822
0.644831 0.962264 0.335332
0.682887 0.960937 0.340108
0.754223 0.957931 0.355047
0.836851 0.953674 0.399268
0.894499 0.950561 0.517906
0.896773 0.950912 0.675792
0.896529 0.955749 0.829404
0.816617 0.962966 0.736339
0.817563 0.962966 0.736446
0.818967 0.962966 0.736599
0.823194 0.962982 0.737087
0.834607 0.962997 0.738659
0.857862 0.963027 0.743557
0.887373 0.963073 0.758129
0.896208 0.963134 0.798367
0.896239 0.963256 0.869566
0.875105 0.963287 0.892241
0.875212 0.963287 0.892256
0.87538 0.963287 0.892271
0.875868 0.963287 0.892317
0.877379 0.963287 0.8925
0.881468 0.963287 0.893034
0.889754 0.963302 0.894743
0.896254 0.963317 0.899825
0.896254 0.963348 0.913924
0.00767529 0.00965896 0.0861372
0.00767529 0.00965896 0.0864881
0.210864 0.0127871 0.0879072
0.483726 0.0149844 0.0950027
0.756298 0.0168154 0.102831
0.928588 0.0170596 0.152285
0.912886 0.597498 0.285557
0.901762 0.837537 0.599908
0.897841 0.925399 0.824186
0.00581369 0.0477302 0.0726024
0.0515602 0.0622263 0.0711833
0.232303 0.0130617 0.0758831
0.490074 0.0151369 0.0789349
0.757321 0.0171359 0.0616159
0.92871 0.017258 0.117556
0.911986 0.618143 0.271244
0.90164 0.840528 0.59881
0.897826 0.925734 0.824048
0 0.24239 0.00450141
0 0.246052 0.00437934
0.197559 0.248035 0.00616464
0.494804 0.224674 0.0112612
0.759457 0.0175631 0.0203403
0.923003 0.259602 0.0133516
0.910796 0.646006 0.248051
0.901457 0.844846 0.597162
0.89781 0.926253 0.823819
0 0.538949 0
0 0.539971 0
0 0.540383 0
0.435508 0.542077 0.00132753
0.753063 0.532784 0.00428778
0.914626 0.582513 0.00311284
0.908003 0.714839 0.152071
0.900938 0.856764 0.592233
0.897734 0.927779 0.823133
0 0.784421 0
0 0.784314 0
0 0.783993 0
0 0.781674 0
0.700664 0.778317 0
0.885573 0.782605 0
0.903975 0.822492 0
0.89984 0.882658 0.578561
0.897551 0.932128 0.820981
0 0.920043 0
0 0.919417 0
0 0.918456 0
0 0.915511 0
0.679255 0.911711 0
0.845029 0.904921 0
0.899626 0.905928 0.15285
0.898207 0.919753 0.595331
0.897124 0.94197 0.814374
0.620569 0.962539 0.332662
0.631327 0.962585 0.333654
0.646204 0.962203 0.335164
0.683879 0.960891 0.33994
0.754711 0.9579 0.354894
0.836988 0.953658 0.39913
0.89453 0.950545 0.517891
0.896773 0.950896 0.675731
0.896529 0.955749 0.829389
0.816754 0.962966 0.736324
0.8177 0.962966 0.736431
0.819104 0.962966 0.736584
0.823316 0.962982 0.737072
0.834714 0.962997 0.738628
0.857923 0.963027 0.743542
0.887388 0.963073 0.758114
0.896208 0.963134 0.798367
0.896239 0.963256 0.869566
0.87512 0.963287 0.892241
0.875227 0.963287 0.892256
0.875395 0.963287 0.892271
0.875883 0.963287 0.892317
0.877394 0.963287 0.892485
0.881483 0.963287 0.893034
0.889754 0.963302 0.894743
0.896254 0.963317 0.899825
0.896254 0.963348 0.913924
0.00665293 0.00880446 0.26009
0.00663767 0.00880446 0.260365
0.184878 0.0116884 0.263035
0.494865 0.0142519 0.261799
0.755688 0.016022 0.271473
0.928161 0.016434 0.311894
0.912963 0.590723 0.403067
0.901778 0.836515 0.627756
0.897856 0.925277 0.829541
0.00666819 0.00883497 0.254795
0.00666819 0.00881971 0.255283
0.215167 0.0120394 0.257893
0.493309 0.0142519 0.256596
0.757565 0.0160525 0.265675
0.928176 0.0164645 0.302419
0.912032 0.611872 0.393729
0.90164 0.839551 0.626764
0.897841 0.925612 0.829404
0 0.212284 0.232639
0 0.214969 0.232105
0.180743 0.211154 0.230488
0.478248 0.193286 0.237369
0.756405 0.0160983 0.250797
0.923293 0.207141 0.278462
0.910765 0.640543 0.379492
0.901457 0.843931 0.625284
0.89781 0.926131 0.829206
0 0.526299 0.111208
0 0.52752 0.112627
0 0.528069 0.114549
0.434958 0.529381 0.124559
0.748837 0.52047 0.134707
0.914214 0.573617 0.180026
0.907729 0.710857 0.333761
0.900938 0.856016 0.620829
0.897749 0.927672 0.82855
0 0.782345 0
0 0.782238 0
0 0.781903 0
0 0.779828 0
0.702647 0.776501 0
0.885527 0.78117 0
0.903258 0.820905 0.178225
0.899809 0.882216 0.608286
0.897551 0.932036 0.826505
0 0.919738 0
0 0.919112 0
0 0.918151 0
0.0877394 0.916579 0
0.681407 0.911482 0
0.845396 0.904753 0
0.899626 0.905821 0.151553
0.898207 0.919692 0.595163
0.897124 0.941909 0.820356
0.623087 0.962554 0.332403
0.633646 0.962585 0.333394
0.64828 0.962127 0.33492
0.685359 0.960815 0.339696
0.755459 0.957855 0.354665
0.837201 0.953628 0.398947
0.894575 0.95053 0.517861
0.896773 0.950896 0.675654
0.896529 0.955734 0.829358
0.816968 0.962966 0.736294
0.817914 0.962966 0.7364
0.819318 0.962966 0.736553
0.823499 0.962982 0.737057
0.834852 0.962997 0.738613
0.858 0.963027 0.743511
0.887419 0.963073 0.758099
0.896208 0.963134 0.798352
0.896239 0.963256 0.869551
0.875151 0.963287 0.892241
0.875257 0.963287 0.892256
0.87541 0.963287 0.892271
0.875914 0.963287 0.892317
0.877424 0.963287 0.892485
0.881498 0.963287 0.893034
0.889769 0.963302 0.894743
0.896254 0.963317 0.899825
0.896254 0.963348 0.913924
0.00576791 0.00822461 0.542519
0.00576791 0.00822461 0.542657
0.00576791 0.00822461 0.542748
0.467613 0.0135042 0.545586
0.769284 0.0155337 0.550332
0.927733 0.0159762 0.570092
0.913741 0.564187 0.602747
0.901854 0.83328 0.697185
0.897871 0.924895 0.844388
0.00576791 0.00822461 0.540352
0.00576791 0.00822461 0.540551
0.0854658 0.00981155 0.541756
0.485924 0.013611 0.543389
0.767605 0.0155337 0.547967
0.927733 0.0159762 0.567559
0.912673 0.590997 0.599786
0.901717 0.836454 0.696391
0.897856 0.925246 0.844266
0.00187686 0.0857252 0.534325
0.00154116 0.0927443 0.53431
0.118196 0.0887312 0.536095
0.492592 0.0136568 0.539803
0.762951 0.0155184 0.544335
0.927733 0.0159915 0.563027
0.911254 0.622477 0.595438
0.901518 0.841016 0.695232
0.897841 0.925765 0.844083
0 0.477653 0.498451
0 0.479728 0.498756
0 0.481086 0.499443
0.422431 0.482444 0.506142
0.736522 0.472831 0.512612
0.914672 0.538354 0.530755
0.907897 0.69836 0.58352
0.900969 0.85362 0.691752
0.897765 0.927321 0.843519
0 0.772961 0.371908
0 0.7729 0.372824
0 0.772656 0.374151
0 0.770733 0.378134
0.698573 0.767483 0.398932
0.882658 0.773465 0.440253
0.90277 0.81648 0.543557
0.899794 0.880796 0.682246
0.897581 0.931746 0.841764
0 0.918868 0
0 0.918242 0
0 0.917281 0
0.118837 0.915908 0
0.682063 0.910643 0
0.844205 0.903288 0.190738
0.899062 0.904738 0.442649
0.898161 0.919158 0.658244
0.897139 0.941711 0.83653
0.630716 0.962585 0.331594
0.640726 0.96231 0.332601
0.654612 0.961852 0.334127
0.689952 0.960586 0.338918
0.757778 0.957687 0.353933
0.837873 0.953521 0.398337
0.894728 0.950469 0.517769
0.896773 0.950851 0.67538
0.896544 0.955718 0.829252
0.817655 0.962966 0.736217
0.81857 0.962966 0.736324
0.819959 0.962966 0.736477
0.824094 0.962982 0.736965
0.835325 0.962997 0.738537
0.858259 0.963027 0.743435
0.887495 0.963073 0.758038
0.896208 0.963134 0.798337
0.896239 0.963256 0.86952
0.875227 0.963287 0.892226
0.875334 0.963287 0.892241
0.875486 0.963287 0.892256
0.87599 0.963287 0.892317
0.877485 0.963287 0.892485
0.881559 0.963287 0.893019
0.889799 0.963302 0.894728
0.896254 0.963317 0.899809
0.896254 0.963348 0.913924
0.00541695 0.00834669 0.789441
0.00541695 0.00834669 0.789517
0.00541695 0.00834669 0.789609
0.278355 0.0122225 0.790967
0.759594 0.0156405 0.790066
0.92752 0.0161593 0.793759
0.918471 0.376989 0.80032
0.902327 0.822065 0.818769
0.897948 0.923705 0.877028
0.00541695 0.00834669 0.788922
0.00541695 0.00834669 0.788983
0.00541695 0.00834669 0.78909
0.311604 0.0125124 0.790463
0.764019 0.0156558 0.789532
0.92752 0.0161593 0.79321
0.916564 0.457588 0.797879
0.902159 0.825742 0.81825
0.897932 0.924071 0.876951
0.00541695 0.00834669 0.788113
0.00541695 0.00834669 0.78819
0.00541695 0.00834669 0.788296
0.354711 0.0128481 0.789654
0.766567 0.015671 0.788647
0.92752 0.0161593 0.792294
0.914366 0.540444 0.794644
0.90193 0.831022 0.817472
0.897902 0.924605 0.876814
0 0.266682 0.778653
0 0.270146 0.778607
0 0.274479 0.778531
0.3523 0.268437 0.780392
0.763302 0.117296 0.78262
0.920439 0.295293 0.782101
0.909804 0.651759 0.786252
0.901305 0.845472 0.815244
0.897826 0.926223 0.876417
0 0.740887 0.743481
0 0.741115 0.743572
0 0.741161 0.743694
0 0.739895 0.743999
0.68658 0.73695 0.749111
0.877058 0.74815 0.753353
0.903212 0.801846 0.767987
0.899962 0.876219 0.809644
0.897627 0.930816 0.875196
0 0.914931 0.702983
0 0.914321 0.703136
0 0.913359 0.703365
0 0.910384 0.704112
0.65861 0.906325 0.710735
0.835874 0.899382 0.720241
0.898863 0.901762 0.744976
0.898192 0.917372 0.797879
0.897185 0.941115 0.871717
0.626825 0.96173 0.630625
0.63682 0.961425 0.63093
0.65069 0.960983 0.631403
0.685969 0.959731 0.632868
0.753811 0.956863 0.637354
0.833982 0.952773 0.651026
0.890929 0.949813 0.689693
0.896757 0.950378 0.770001
0.896559 0.955474 0.862379
0.81976 0.962966 0.735958
0.820661 0.962966 0.736065
0.821988 0.962966 0.736217
0.825971 0.962982 0.736721
0.836789 0.962997 0.738277
0.859052 0.963027 0.743206
0.887739 0.963073 0.757824
0.896208 0.963134 0.798306
0.896239 0.963256 0.869398
0.875471 0.963287 0.892195
0.875578 0.963287 0.89221
0.875731 0.963287 0.892226
0.876219 0.963287 0.892287
0.877699 0.963287 0.892454
0.881727 0.963287 0.892989
0.889876 0.963302 0.894697
0.896254 0.963317 0.899794
0.896254 0.963348 0.913924
0.00561532 0.00885023 0.94551
0.00561532 0.00885023 0.945525
0.00561532 0.00885023 0.945525
0.00561532 0.00885023 0.945571
0.669047 0.0156405 0.944823
0.927581 0.0166476 0.941558
0.927581 0.0166476 0.94229
0.904631 0.770336 0.918578
0.898146 0.919722 0.921233
0.00561532 0.00885023 0.945449
0.00561532 0.00885023 0.945464
0.00561532 0.00885023 0.945464
0.00561532 0.00885023 0.94551
0.675334 0.0156863 0.944701
0.927581 0.0166476 0.941482
0.927581 0.0166476 0.942229
0.904326 0.777188 0.917967
0.898131 0.920134 0.921187
0.00561532 0.00885023 0.945357
0.00561532 0.00885023 0.945373
0.00561532 0.00885023 0.945388
0.00561532 0.00885023 0.945418
0.684627 0.0157473 0.944503
0.927581 0.0166476 0.94139
0.927581 0.0166476 0.942138
0.903914 0.786999 0.917098
0.8981 0.92076 0.921096
0.00561532 0.00885023 0.945083
0.00561532 0.00885023 0.945083
0.00561532 0.00885023 0.945098
0.00561532 0.00885023 0.94493
0.707393 0.0158694 0.943938
0.927581 0.0166476 0.94107
0.927581 0.0166476 0.940368
0.902846 0.811307 0.914809
0.898024 0.922621 0.920821
0 0.583169 0.925155
0 0.5841 0.925078
0 0.585473 0.924987
0 0.587945 0.924422
0.678538 0.583917 0.925887
0.912139 0.601053 0.922545
0.906661 0.724056 0.915022
0.900801 0.858228 0.910002
0.897795 0.927825 0.920027
0 0.905028 0.892348
0 0.904616 0.892332
0 0.903899 0.892287
0 0.901015 0.892134
0.598032 0.895888 0.895582
0.826185 0.888014 0.896406
0.899138 0.892622 0.897917
0.898466 0.911925 0.903212
0.897307 0.939315 0.918044
0.534432 0.961151 0.881148
0.557916 0.960815 0.881239
0.584787 0.960327 0.881361
0.636118 0.958877 0.881621
0.724926 0.955612 0.882124
0.819394 0.951125 0.883284
0.881987 0.948119 0.886732
0.896864 0.949126 0.89543
0.896635 0.954787 0.913939
0.814328 0.963119 0.851331
0.815229 0.963119 0.851362
0.816556 0.963134 0.851423
0.820554 0.963134 0.851621
0.831434 0.963149 0.852262
0.853864 0.96318 0.854276
0.882994 0.963226 0.860395
0.896239 0.963272 0.876387
0.896254 0.963333 0.904601
0.876234 0.963287 0.892119
0.876326 0.963287 0.892119
0.876478 0.963287 0.892134
0.876951 0.963287 0.892195
0.87837 0.963287 0.892363
0.882261 0.963287 0.892912
0.890166 0.963302 0.894621
0.896254 0.963317 0.899718
0.896254 0.963348 0.913909
0.00570687 0.00901808 0.985306
0.00570687 0.00901808 0.985306
0.00570687 0.00901808 0.985306
0.00570687 0.00901808 0.985306
0.00570687 0.00901808 0.985306
0.919676 0.016846 0.989853
0.927626 0.0168612 0.989868
0.927626 0.0168612 0.989868
0.89897 0.901686 0.958846
0.00570687 0.00901808 0.985306
0.00570687 0.00901808 0.985306
0.00570687 0.00901808 0.985306
0.00570687 0.00901808 0.985306
0.00570687 0.00901808 0.985306
0.920745 0.016846 0.989853
0.927626 0.0168612 0.989868
0.927626 0.0168612 0.989868
0.898939 0.902434 0.95877
0.00570687 0.00901808 0.985306
0.00570687 0.00901808 0.985306
0.00570687 0.00901808 0.985306
0.00570687 0.00901808 0.985306
0.00570687 0.00901808 0.985306
0.922332 0.016846 0.989853
0.927626 0.0168612 0.989868
0.927626 0.0168612 0.989868
0.898878 0.903548 0.958648
0.00570687 0.00901808 0.985306
0.00570687 0.00901808 0.985306
0.00570687 0.00901808 0.985306
0.00570687 0.00901808 0.985306
0.00570687 0.00901808 0.985306
0.927153 0.0168612 0.989868
0.927626 0.0168612 0.989868
0.927626 0.0168612 0.989868
0.898741 0.906828 0.958312
0.00570687 0.00901808 0.985306
0.00570687 0.00901808 0.985306
0.00570687 0.00901808 0.985306
0.00570687 0.00901808 0.985306
0.252567 0.0126802 0.987305
0.927626 0.0168612 0.989868
0.927626 0.0168612 0.989868
0.909499 0.661219 0.976013
0.89836 0.915526 0.957412
0 0.815549 0.963485
0 0.815793 0.96347
0 0.816159 0.963424
0 0.817334 0.963317
0 0.81384 0.962402
0.835355 0.808377 0.964645
0.902007 0.831846 0.961852
0.899687 0.885054 0.957549
0.897627 0.932509 0.95555
0 0.959121 0.946441
0 0.959121 0.946395
0 0.958877 0.946319
0 0.956207 0.946151
0.643809 0.953643 0.949874
0.801465 0.947097 0.950072
0.877882 0.943664 0.950256
0.897063 0.945647 0.950835
0.896757 0.952789 0.952941
0.79324 0.963287 0.945037
0.794415 0.963287 0.945037
0.796185 0.963287 0.945037
0.801434 0.963302 0.945052
0.815457 0.963317 0.945068
0.843091 0.963363 0.945144
0.876585 0.963409 0.945495
0.896284 0.963424 0.946807
0.896284 0.963439 0.95021
0.873884 0.963378 0.933562
0.873991 0.963378 0.933562
0.874144 0.963378 0.933577
0.874601 0.963378 0.933593
0.876036 0.963378 0.933669
0.879911 0.963378 0.933898
0.887846 0.963394 0.934615
0.896284 0.963394 0.936858
0.896284 0.963409 0.942779
0.000457771 0.124743 0.983169
0.000457771 0.124743 0.983169
0.000457771 0.124758 0.983169
0.000457771 0.124758 0.983169
0.000457771 0.124804 0.983169
0.000457771 0.124926 0.983169
0.927626 0.0168612 0.989868
0.920226 0.308446 0.984848
0.907027 0.717083 0.976226
0.000457771 0.124727 0.983169
0.000457771 0.124727 0.983169
0.000457771 0.124727 0.983169
0.000457771 0.124743 0.983169
0.000457771 0.124773 0.983169
0.000457771 0.12491 0.983169
0.927626 0.0168612 0.989868
0.920226 0.308827 0.984833
0.907027 0.717067 0.976226
0.000457771 0.124681 0.983185
0.000457771 0.124697 0.983185
0.000457771 0.124697 0.983185
0.000457771 0.124712 0.983169
0.000457771 0.124743 0.983169
0.000457771 0.12488 0.983169
0.927626 0.0168612 0.989868
0.920211 0.309422 0.984833
0.907027 0.717037 0.976226
0.00047303 0.12459 0.983185
0.00047303 0.12459 0.983185
0.00047303 0.12459 0.983185
0.00047303 0.12462 0.983185
0.00047303 0.124651 0.983185
0.000457771 0.124773 0.983169
0.927626 0.0168612 0.989868
0.920165 0.311284 0.984802
0.907042 0.716945 0.976226
0.000488289 0.124285 0.983185
0.000488289 0.124285 0.983185
0.000488289 0.1243 0.983185
0.000488289 0.1243 0.983185
0.000488289 0.124346 0.983185
0.00047303 0.124468 0.983185
0.927626 0.0168612 0.989868
0.920089 0.314672 0.984741
0.907057 0.71667 0.976242
0.000534066 0.123308 0.9832
0.000534066 0.123308 0.9832
0.000534066 0.123308 0.9832
0.000534066 0.123323 0.9832
0.000534066 0.123354 0.9832
0.726314 0.0161898 0.989364
0.927626 0.0168612 0.989868
0.919951 0.320165 0.984665
0.900649 0.863325 0.972122
0 0.932006 0.965316
0 0.932036 0.965316
0 0.932082 0.965316
0 0.932204 0.965301
0 0.932616 0.965301
0.697612 0.919783 0.970047
0.881773 0.913954 0.970703
0.898054 0.922896 0.970474
0.8972 0.942763 0.96994
0.682261 0.963073 0.968795
0.68716 0.963088 0.968826
0.694224 0.963104 0.968841
0.71371 0.963165 0.968917
0.756695 0.963272 0.969055
0.817624 0.963378 0.969207
0.869902 0.963455 0.969314
0.896315 0.96347 0.96936
0.896315 0.96347 0.96936
0.866499 0.963439 0.968124
0.866636 0.963439 0.968124
0.866835 0.963439 0.968124
0.867445 0.963439 0.968124
0.869307 0.963455 0.968124
0.874235 0.963455 0.968109
0.884001 0.96347 0.968124
0.895171 0.96347 0.968231
0.896315 0.96347 0.968582
0 0.399481 0.978637
0 0.399481 0.978637
0 0.399481 0.978637
0 0.399481 0.978637
0 0.399496 0.978637
0 0.399542 0.978637
0 0.39968 0.978637
0.916747 0.454643 0.982544
0.905501 0.75198 0.975235
0 0.399466 0.978637
0 0.399481 0.978637
0 0.399481 0.978637
0 0.399481 0.978637
0 0.399496 0.978637
0 0.399542 0.978637
0 0.39968 0.978637
0.916732 0.454856 0.982544
0.905501 0.75201 0.975235
0 0.399466 0.978637
0 0.399466 0.978637
0 0.399466 0.978637
0 0.399466 0.978637
0 0.399481 0.978637
0 0.399527 0.978637
0 0.399664 0.978637
0.916732 0.455207 0.982528
0.905486 0.752041 0.975235
0 0.399435 0.978637
0 0.399435 0.978637
0 0.399435 0.978637
0 0.399435 0.978637
0 0.399451 0.978637
0 0.399496 0.978637
0 0.399634 0.978637
0.916701 0.456291 0.982513
0.905486 0.752178 0.975235
0 0.399329 0.978637
0 0.399329 0.978637
0 0.399329 0.978637
0 0.399329 0.978637
0 0.399344 0.978637
0 0.39939 0.978637
0 0.399527 0.978637
0.916625 0.459709 0.982467
0.90547 0.75259 0.975219
0 0.398993 0.978653
0 0.398993 0.978653
0 0.398993 0.978653
0 0.398993 0.978653
0 0.399008 0.978653
0 0.399054 0.978653
0 0.396414 0.978683
0.916381 0.47039 0.9823
0.90544 0.753323 0.975204
0 0.397894 0.978668
0 0.397894 0.978668
0 0.39791 0.978668
0 0.39791 0.978668
0 0.397925 0.978668
0 0.397955 0.978668
0.927626 0.0168612 0.989868
0.915801 0.493767 0.981918
0.905379 0.754543 0.975158
0 0.959167 0.964553
0 0.959167 0.964553
0 0.959167 0.964553
0 0.959167 0.964553
0 0.959167 0.964553
0 0.959167 0.964553
0.832609 0.956024 0.969451
0.896742 0.953567 0.969635
0.896605 0.95671 0.969543
0.829633 0.963394 0.969238
0.830106 0.963394 0.969238
0.830808 0.963394 0.969238
0.832959 0.963409 0.969238
0.839109 0.963409 0.969253
0.853513 0.963424 0.969284
0.875181 0.963455 0.969329
0.892866 0.96347 0.96936
0.896315 0.96347 0.96936
