BBLuts/BB_103_0325_LUT.cube
TITLE "Generated by Resolve"
LUT_3D_SIZE 5
0 0 0
0.141375 0 0
0.710887 0 0
0.933227 0.54873 0.0382696
0.894652 0.995712 0.666499
0 0.161715 0
0.0919203 0.165576 0
0.719722 0.037232 0
0.92639 0.612467 0.00833143
0.894636 0.99617 0.666224
0 0.786252 0
0 0.785946 0
0.6206 0.790295 0
0.903899 0.855039 0
0.89424 1 0.662165
0.489479 1 0.121126
0.489479 1 0.121126
0.670665 1 0.127596
0.888014 1 0.26363
0.891524 1 0.694957
0.857191 1 0.788922
0.857191 1 0.788922
0.857191 1 0.788922
0.87425 1 0.791775
0.889387 1 0.819165
0 0 0.112169
0.114809 0 0.108797
0.713939 0 0.0749676
0.938293 0.537987 0.175586
0.894667 0.995697 0.666499
0 0.128161 0.099382
0.0992752 0.126757 0.0956436
0.714458 0 0.0656901
0.932662 0.606958 0.159304
0.894636 0.996155 0.666224
0 0.780774 0
0 0.780453 0
0.625589 0.785183 0
0.90573 0.855131 0.00468452
0.89424 1 0.662165
0.498619 1 0.120348
0.498619 1 0.120348
0.672923 1 0.127077
0.888075 1 0.263401
0.891524 1 0.694957
0.857221 1 0.788922
0.857221 1 0.788922
0.857221 1 0.788922
0.874266 1 0.791775
0.889387 1 0.819165
0 0 0.665156
0 0 0.665248
0.69633 0 0.629725
0.953338 0.234211 0.687037
0.893919 0.992599 0.763256
0 0 0.664012
0 0 0.664073
0.705913 0 0.627848
0.946532 0.415991 0.68893
0.893889 0.993072 0.763119
0 0.722194 0.619135
0 0.722255 0.619165
0.597787 0.729183 0.631647
0.90869 0.826017 0.65301
0.893446 0.999451 0.761379
0.488258 1 0.512947
0.488258 1 0.512947
0.658015 1 0.51223
0.879088 1 0.564553
0.891142 1 0.742519
0.85774 1 0.788861
0.85774 1 0.788861
0.85774 1 0.788861
0.874449 1 0.791699
0.889387 1 0.819135
0 0 0.900694
0 0 0.900694
0 0 0.900694
0.934051 0 0.875731
0.895598 0.956176 0.889723
0 0 0.900694
0 0 0.900694
0 0 0.900694
0.934051 0 0.875731
0.895506 0.957534 0.889632
0 0 0.900694
0 0 0.900694
0 0 0.900694
0.934051 0 0.875731
0.894438 0.97229 0.888395
0 1 0.896208
0 1 0.896208
0 1 0.896208
0.85922 1 0.880598
0.890578 1 0.883284
0.853376 1 0.863172
0.853376 1 0.863172
0.853376 1 0.863172
0.869398 1 0.863966
0.889067 1 0.871778
0 0.237186 0.905104
0 0.237186 0.905104
0 0.237186 0.905104
0 0.237263 0.905104
0.922942 0.69482 0.919005
0 0.237186 0.905104
0 0.237186 0.905104
0 0.237186 0.905104
0 0.237263 0.905104
0.922942 0.69482 0.919005
0 0.237186 0.905104
0 0.237186 0.905104
0 0.237186 0.905104
0 0.237263 0.905104
0.922942 0.69482 0.919005
0 0.235935 0.905119
0 0.235935 0.905119
0 0.235935 0.905119
0 0.235981 0.905119
0.922347 0.699443 0.918685
0.789822 1 0.906142
0.789822 1 0.906142
0.789822 1 0.906142
0.789822 1 0.906142
0.889158 1 0.907179
