BBLuts/BB_103_0150_LUT.cube
TITLE "Generated by Resolve"
LUT_3D_SIZE 9
0 0 0
0 0 0
0.0375525 0 0.00614939
0.379507 0 0.0622263
0.717342 0 0.117601
1 0 0.167468
1 0 0.54818
1 0.453925 0.922896
1 0.917449 1
0 0 0
0 0 0
0.0148623 0 0.00244144
0.366186 0 0.060029
0.713619 0 0.116991
1 0 0.167285
1 0 0.550286
1 0.489158 0.922988
1 0.926574 1
0.00234989 0.013489 0
0.00187686 0.0107881 0
0.00172427 0.00985733 0
0.352071 0 0.0577249
0.717144 0 0.117571
1 0 0.167117
1 0 0.56379
1 0.53994 0.923125
1 0.941497 1
0.0585489 0.335622 0
0.0581979 0.333593 0
0.0578775 0.331716 0
0.36347 0.330922 0.00411994
0.78912 0.295277 0.0776989
1 0.196475 0.142962
1 0.34789 0.542107
1 0.658549 0.923018
1 0.981231 1
0.119707 0.686122 0
0.119585 0.685481 0
0.119417 0.684443 0
0.120165 0.688792 0
0.835126 0.68809 0.02121
1 0.66215 0.0878614
1 0.7178 0.473579
1 0.870161 0.918868
1 1 1
0.176761 1 0
0.17673 1 0
0.176684 1 0
0.176547 1 0
0.394247 1 0
1 1 0.0529183
1 1 0.0953536
1 1 0.886915
1 1 1
0.207904 1 0
0.207904 1 0
0.207904 1 0
0.207889 1 0
0.207843 1 0
0.950118 1 0
1 1 0.0923171
1 1 0.616251
1 1 1
0.216754 1 0
0.216754 1 0
0.216754 1 0
0.216754 1 0
0.216754 1 0
0.216739 1 0
1 1 0.054551
1 1 0.105089
1 1 0.947341
0.218524 1 0
0.218524 1 0
0.218524 1 0
0.218524 1 0
0.218524 1 0
0.218524 1 0
0.218524 1 0
1 1 0.0939803
1 1 0.10782
0 0 0
0 0 0
0.034638 0 0.00567636
0.377737 0 0.0619211
0.717708 0 0.117662
1 0 0.167742
1 0 0.573632
1 0.447578 0.928359
1 0.915877 1
0 0 0
0 0 0
0.011429 0 0.00187686
0.364401 0 0.0597391
0.713787 0 0.117021
1 0 0.167544
1 0 0.574365
1 0.483635 0.928481
1 0.925048 1
0.000564584 0.00326543 0
3.0518e-05 0.000167849 0
0 0 0
0.349203 0 0.0572519
0.715801 0 0.117357
1 0 0.167224
1 0 0.589212
1 0.535332 0.928649
1 0.940047 1
0.0572671 0.328267 0
0.0569162 0.326207 0
0.0565347 0.324041 0
0.357305 0.322988 0.00442512
0.785519 0.286091 0.0786297
1 0.183642 0.144579
1 0.341924 0.570642
1 0.655558 0.928679
1 0.979995 1
0.119295 0.683757 0
0.119173 0.683116 0
0.11899 0.682078 0
0.119661 0.685893 0
0.833097 0.685573 0.0213016
1 0.659419 0.0881361
1 0.719097 0.51252
1 0.868986 0.924941
1 1 1
0.176654 1 0
0.176623 1 0
0.176577 1 0
0.17644 1 0
0.386297 1 0
1 1 0.0528573
1 1 0.106416
1 1 0.894591
1 1 1
0.207904 1 0
0.207889 1 0
0.207889 1 0
0.207874 1 0
0.207828 1 0
0.948516 1 0
1 1 0.0923018
1 1 0.641627
1 1 1
0.216754 1 0
0.216754 1 0
0.216754 1 0
0.216754 1 0
0.216754 1 0
0.216739 1 0
1 1 0.0544747
1 1 0.105089
1 1 0.953567
0.218524 1 0
0.218524 1 0
0.218524 1 0
0.218524 1 0
0.218524 1 0
0.218524 1 0
0.218524 1 0
1 1 0.0939803
1 1 0.10782
0 0.00328069 0.0496529
0 0.00349432 0.0529335
0.0181735 0.00299077 0.0634012
0.364736 0 0.111955
0.710079 0 0.161257
1 0 0.234424
1 0 0.609827
1 0.436896 0.93695
1 0.913298 1
0 0.00318914 0.0483711
0 0.00326543 0.0495003
0 0.0031281 0.0508125
0.352956 0 0.104005
0.707301 0 0.155016
1 0 0.227893
1 0 0.608515
1 0.47425 0.937118
1 0.922545 1
0 0.0024567 0.037171
0 0.00242618 0.0368353
0 0.00254826 0.0386816
0.337758 0 0.0963455
0.708385 0 0.150607
1 0 0.217212
1 0 0.623407
1 0.527459 0.937377
1 0.937636 1
0.0517281 0.320333 0
0.0514687 0.31812 0
0.0510414 0.315404 0
0.345785 0.314961 0.0335851
0.778561 0.276219 0.108354
1 0.167468 0.194888
1 0.33109 0.610864
1 0.650507 0.937652
1 0.977951 1
0.118608 0.67985 0
0.118502 0.67921 0
0.118318 0.678172 0
0.118822 0.681056 0
0.829755 0.681407 0.0214389
1 0.654871 0.0885786
1 0.720058 0.565042
1 0.867002 0.934539
1 1 1
0.176486 1 0
0.176455 1 0
0.17641 1 0
0.176272 1 0
0.372641 1 0
1 1 0.0527504
1 1 0.232425
1 1 0.906477
1 1 1
0.207874 1 0
0.207874 1 0
0.207874 1 0
0.207858 1 0
0.207813 1 0
0.945861 1 0
1 1 0.0922866
1 1 0.678019
1 1 1
0.216754 1 0
0.216754 1 0
0.216754 1 0
0.216754 1 0
0.216754 1 0
0.216739 1 0
1 1 0.0543526
1 1 0.105089
1 1 0.963363
0.218524 1 0
0.218524 1 0
0.218524 1 0
0.218524 1 0
0.218524 1 0
0.218524 1 0
0.218524 1 0
1 1 0.0939651
1 1 0.10782
0 0.0207523 0.314519
0 0.0208896 0.316686
0 0.0209812 0.322789
0.30103 0.0102083 0.373983
0.656947 0 0.427253
0.964004 0 0.492927
1 0 0.694163
1 0.401205 0.960769
1 0.905119 1
0 0.0204776 0.310399
0 0.0205234 0.31107
0 0.0210269 0.318761
0.288579 0.0103304 0.367834
0.653895 0 0.422446
0.963806 0 0.488548
1 0 0.692103
1 0.443091 0.961013
1 0.914626 1
0 0.0200504 0.30396
0 0.0200504 0.303883
0 0.0201267 0.305028
0.267948 0.010605 0.359121
0.64976 0 0.415869
0.963531 0 0.481132
1 0 0.697856
1 0.501564 0.96144
1 0.92961 1
0 0.302647 0.261326
0 0.300084 0.261189
0 0.295857 0.261006
0.263188 0.295155 0.322072
0.709789 0.249409 0.404227
1 0.106386 0.484291
1 0.289708 0.702586
1 0.633951 0.962341
1 0.971572 1
0.0655375 0.695171 0.168704
0.0655222 0.694469 0.168322
0.0654765 0.693309 0.167712
0.0651865 0.693217 0.169009
0.774014 0.698054 0.312398
1 0.671916 0.401328
1 0.7178 0.676875
1 0.860502 0.961181
1 1 1
0.175967 1 0
0.175937 1 0
0.175891 1 0
0.175753 1 0
0.324544 1 0
1 1 0.0523995
1 1 0.523842
1 1 0.939116
1 1 1
0.207828 1 0
0.207813 1 0
0.207813 1 0
0.207797 1 0
0.207752 1 0
0.937652 1 0
1 1 0.0922408
1 1 0.763394
1 1 1
0.216754 1 0
0.216754 1 0
0.216754 1 0
0.216754 1 0
0.216754 1 0
0.216739 1 0
1 1 0.0540017
1 1 0.105089
1 1 0.990677
0.218524 1 0
0.218524 1 0
0.218524 1 0
0.218524 1 0
0.218524 1 0
0.218524 1 0
0.218524 1 0
1 1 0.0939193
1 1 0.10782
0 0.0383459 0.581262
0 0.0383459 0.581186
0 0.0385138 0.583719
0.206668 0.0288396 0.631952
0.595254 0.0175631 0.694575
0.914931 0.00859083 0.751232
1 0.00866712 0.844419
1 0.245701 1
1 0.878325 1
0 0.0382696 0.580056
0 0.0382544 0.57998
0 0.0385138 0.583764
0.191211 0.029221 0.62826
0.591363 0.0176089 0.692668
0.914199 0.00852979 0.749783
1 0.00860609 0.843381
1 0.31487 1
1 0.88867 1
0 0.0381323 0.578058
0 0.0381323 0.577996
0 0.0382544 0.579965
0.163439 0.0299077 0.621805
0.584924 0.0176699 0.689525
0.912978 0.00843824 0.747402
1 0.00851453 0.841703
1 0.4009 1
1 0.904952 1
0 0.129397 0.563409
0 0.126223 0.563531
0 0.121035 0.563729
0.0812238 0.112016 0.606394
0.589624 0.0564431 0.700084
0.917433 0.00848402 0.75108
1 0.0761425 0.864759
1 0.573404 1
1 0.950683 1
0 0.6878 0.519112
0 0.687007 0.519051
0 0.68571 0.518929
0 0.681712 0.518563
0.68397 0.688258 0.663462
1 0.656291 0.744549
1 0.689632 0.854154
1 0.836774 1
1 1 1
0.0597391 1 0.445624
0.0597391 1 0.445487
0.0597391 1 0.445289
0.0597391 1 0.444663
0.12076 1 0.464454
1 1 0.669306
1 1 0.810285
1 1 1
1 1 1
0.142931 1 0.167178
0.143023 1 0.16669
0.143175 1 0.165911
0.143664 1 0.163424
0.14519 1 0.155505
0.861128 1 0.286229
1 1 0.326711
1 1 0.915999
1 1 1
0.216739 1 0
0.216739 1 0
0.216739 1 0
0.216739 1 0
0.216739 1 0
0.216739 1 0
1 1 0.0528573
1 1 0.105074
1 1 1
0.218524 1 0
0.218524 1 0
0.218524 1 0
0.218524 1 0
0.218524 1 0
0.218524 1 0
0.218524 1 0
1 1 0.0937819
1 1 0.10782
0 0.0545052 0.826123
0 0.0545052 0.826108
0 0.05449 0.826078
0.0547799 0.0477607 0.857084
0.52137 0.0343633 0.934646
0.862013 0.0247196 0.993469
1 0.0211032 1
1 0.0232242 1
1 0.773938 1
0 0.0544747 0.825772
0 0.0544747 0.825757
0 0.0544747 0.825727
0.0296178 0.0484932 0.853086
0.516945 0.0344701 0.933532
0.861082 0.0247196 0.992935
1 0.021088 1
1 0.023209 1
1 0.78854 1
0 0.0544442 0.825208
0 0.0544442 0.825177
0 0.0544289 0.825147
0 0.0499275 0.844266
0.509529 0.0346532 0.931685
0.859541 0.0247196 0.99202
1 0.0210575 1
1 0.0231937 1
1 0.811139 1
0 0.0543221 0.823423
0 0.0543221 0.823407
0 0.0543221 0.823377
0 0.0531777 0.824155
0.485695 0.0352178 0.925811
0.854734 0.0247501 0.989227
1 0.0209812 1
1 0.1729 1
1 0.871717 1
0 0.567987 0.78764
0 0.566766 0.78764
0 0.564752 0.787655
0 0.558495 0.787671
0.549355 0.555154 0.920897
0.986236 0.494408 1
1 0.503716 1
1 0.728359 1
1 1 1
0 1 0.767987
0 1 0.767971
0 1 0.76791
0 1 0.767773
0 1 0.76733
1 1 0.996017
1 1 1
1 1 1
1 1 1
0.0321965 1 0.725612
0.0322118 1 0.725567
0.0322118 1 0.725505
0.0322423 1 0.725307
0.0323186 1 0.724666
0.669047 1 0.861402
1 1 1
1 1 1
1 1 1
0.0704662 1 0.573022
0.0704814 1 0.572931
0.0705119 1 0.572793
0.0706035 1 0.572366
0.0708629 1 0.571054
0.0716716 1 0.566888
1 1 0.795316
1 1 0.807401
1 1 1
0.218524 1 0
0.218524 1 0
0.218524 1 0
0.218524 1 0
0.218524 1 0
0.218524 1 0
0.218524 1 0
1 1 0.0933547
1 1 0.10782
0.013138 0.0572671 0.992996
0.082002 0.0552987 1
0.164294 0.0529335 1
0.325917 0.0483101 1
0.571725 0.0413214 1
0.842924 0.0336156 1
0.994095 0.0294347 1
1 0.71751 1
1 1 1
0 0.0580453 0.988449
0.0632486 0.0558328 1
0.150805 0.053315 1
0.318212 0.0485237 1
0.568429 0.0413977 1
0.842023 0.0336461 1
0.993988 0.0294347 1
1 0.733272 1
1 1 1
0 0.0594644 0.980224
0.0284886 0.0568246 0.995407
0.127245 0.0539864 1
0.305196 0.0488899 1
0.562982 0.0415503 1
0.840497 0.0336767 1
0.993835 0.0294347 1
1 0.757641 1
1 1 1
0 0.0625467 0.963165
0 0.0606394 0.973861
0.0368505 0.0565652 0.996567
0.26154 0.0501259 1
0.545693 0.0420386 1
0.835813 0.0337987 1
0.993317 0.0294347 1
1 0.821851 1
1 1 1
0 0.374258 0.940261
0 0.371954 0.940352
0 0.37055 0.942321
0.155444 0.36994 1
0.57528 0.331167 1
0.872129 0.149874 1
1 0.0301976 1
1 0.962814 1
1 1 1
0 1 0.931136
0 1 0.931121
0 1 0.931121
0 1 0.93109
0.405081 1 1
1 1 1
1 1 1
1 1 1
1 1 1
0 1 0.927337
0 1 0.927337
0 1 0.927321
0 1 0.927306
0 1 0.92723
0.63859 1 1
1 1 1
1 1 1
1 1 1
0.00144961 1 0.922499
0.00144961 1 0.922499
0.00144961 1 0.922484
0.00146487 1 0.922454
0.00146487 1 0.922377
0.00151064 1 0.922118
1 1 1
1 1 1
1 1 1
0.0213169 1 0.830228
0.0213169 1 0.830213
0.0213169 1 0.830182
0.0213474 1 0.830091
0.0213931 1 0.829801
0.0215763 1 0.828901
0.0221256 1 0.826154
1 1 1
1 1 1
0.658473 0.0413977 1
0.66569 0.0411994 1
0.677165 0.0408789 1
0.709072 0.0399634 1
0.785168 0.0378119 1
0.900236 0.0345464 1
0.993301 0.0319219 1
1 0.0309453 1
1 1 1
0.656245 0.0414588 1
0.663523 0.0412604 1
0.675074 0.0409247 1
0.707301 0.0400244 1
0.784054 0.0378424 1
0.899825 0.0345617 1
0.99321 0.0319219 1
1 0.0309453 1
1 1 1
0.652567 0.0415656 1
0.659922 0.0413672 1
0.671626 0.0410315 1
0.704387 0.0401007 1
0.782238 0.0379034 1
0.899077 0.0345922 1
0.993057 0.0319219 1
1 0.0309453 1
1 1 1
0.64097 0.0419013 1
0.64863 0.0416724 1
0.660777 0.0413367 1
0.695079 0.0403601 1
0.776074 0.0380713 1
0.896513 0.0346532 1
0.992599 0.0319371 1
1 0.0309453 1
1 1 1
0.679866 0.273136 1
0.688106 0.26978 1
0.70074 0.264164 1
0.735332 0.246143 1
0.810864 0.177966 1
0.905806 0.0355993 1
0.99115 0.0319829 1
1 0.0309453 1
1 1 1
0.720562 1 1
0.737026 1 1
0.762127 1 1
0.828199 1 1
0.967849 1 1
1 1 1
1 0.959731 1
1 0.973419 1
1 1 1
0 1 0.978805
0 1 0.978805
0 1 0.978805
0 1 0.978805
0 1 0.97879
1 1 1
1 1 1
1 1 1
1 1 1
0 1 0.97937
0 1 0.97937
0 1 0.97937
0 1 0.97937
0 1 0.97937
0 1 0.979355
1 1 1
1 1 1
1 1 1
0 1 0.981155
0 1 0.981155
0 1 0.981155
0 1 0.98114
0 1 0.98114
0 1 0.981125
0 1 0.981079
1 1 1
1 1 1
0.932692 0.034165 1
0.933715 0.0341344 1
0.935363 0.0340887 1
0.940169 0.0339513 1
0.950835 0.0336461 1
0.976303 0.032929 1
1 0.0319829 1
1 0.0314641 1
1 0.0312505 1
0.932387 0.034165 1
0.93341 0.0341497 1
0.935058 0.0340887 1
0.939941 0.0339513 1
0.950637 0.0336614 1
0.976196 0.032929 1
1 0.0319829 1
1 0.0314641 1
1 0.0312505 1
0.931884 0.0341802 1
0.932906 0.0341497 1
0.934554 0.0341039 1
0.939513 0.0339666 1
0.950301 0.0336614 1
0.976013 0.0329442 1
1 0.0319829 1
1 0.0314641 1
1 0.0312505 1
0.930312 0.034226 1
0.93135 0.0341955 1
0.933028 0.0341497 1
0.938033 0.0340124 1
0.949279 0.0336919 1
0.975448 0.0329595 1
1 0.0319982 1
1 0.0314641 1
1 0.0312505 1
0.925399 0.0343633 1
0.926467 0.0343328 1
0.928206 0.034287 1
0.933379 0.0341497 1
0.946136 0.0337835 1
0.973693 0.0330053 1
1 0.0320134 1
1 0.0314641 1
1 0.0312505 1
1 0.926116 1
1 0.925719 1
1 0.925078 1
1 0.923095 1
1 0.916915 1
1 0.896986 1
1 0.825071 1
1 0.334112 1
1 0.770794 1
1 1 1
1 1 1
1 1 1
1 1 1
1 1 1
1 1 1
1 1 1
1 1 1
1 1 1
0 1 0.98999
0 1 0.98999
0 1 0.98999
0 1 0.98999
0 1 0.98999
0.669535 1 1
1 1 1
1 1 1
1 1 1
0 1 0.990341
0 1 0.990341
0 1 0.990341
0 1 0.990341
0 1 0.990341
0 1 0.990341
0 1 0.990341
1 1 1
1 1 1
