BBLuts/BB_102_0570_LUT.cube
TITLE "Generated by Resolve"
LUT_3D_SIZE 33
0.00306706 0.0041352 0.00108339
0.00306706 0.0041352 0.00108339
0.00306706 0.0041352 0.00108339
0.00306706 0.0041352 0.00108339
0.00306706 0.0041352 0.00108339
0.0587625 0.00315862 0
0.121859 0.00280766 0
0.166766 0.00265507 0
0.211582 0.00271611 0
0.263539 0.00291447 0
0.322255 0.00300603 0
0.384909 0.00350958 0
0.453285 0.00392157 0
0.528099 0.00454719 0
0.603281 0.0052491 0
0.67921 0.00604257 0
0.756786 0.0068513 0
0.834546 0.00775158 7.62951e-05
0.90547 0.00860609 0.000488289
0.960983 0.00949111 0.00102235
0.971237 0.00961318 0.00108339
0.971237 0.00961318 0.00108339
0.956802 0.20293 0.0339055
0.94229 0.406149 0.0668956
0.932662 0.54107 0.103532
0.925338 0.644541 0.148608
0.919249 0.733028 0.206104
0.914 0.808743 0.288228
0.909773 0.86659 0.37966
0.906294 0.911009 0.467796
0.903441 0.945388 0.545602
0.901137 0.971237 0.620386
0.899428 0.991714 0.686717
0.00306706 0.0041352 0.00108339
0.00306706 0.0041352 0.00108339
0.00306706 0.0041352 0.00108339
0.00306706 0.0041352 0.00108339
0.00306706 0.0041352 0.00108339
0.0716259 0.00314336 0
0.12604 0.00273136 0
0.170413 0.00265507 0
0.217212 0.00274662 0
0.269764 0.00299077 0
0.328374 0.00309758 0
0.389624 0.00334173 0
0.456306 0.0039826 0
0.530037 0.00457771 0
0.60473 0.00526436 0
0.680064 0.00602731 0
0.757366 0.00682078 0
0.834836 0.00775158 7.62951e-05
0.905394 0.00860609 0.000488289
0.960601 0.00949111 0.00102235
0.971237 0.00961318 0.00108339
0.971237 0.00961318 0.00108339
0.953689 0.242145 0.0206149
0.940887 0.421088 0.0615091
0.932082 0.549844 0.100847
0.925017 0.649836 0.146914
0.918975 0.736706 0.204273
0.913588 0.810712 0.287068
0.909712 0.867857 0.37911
0.906249 0.911757 0.467506
0.903349 0.945739 0.545373
0.901061 0.97145 0.620233
0.899413 0.991867 0.686656
0.00306706 0.0041352 0.00108339
0.00306706 0.0041352 0.00108339
0.00306706 0.0041352 0.00108339
0.00306706 0.0041352 0.00108339
0.00306706 0.0041352 0.00108339
0.0792554 0.00314336 0
0.127581 0.00271611 0
0.173678 0.00270085 0
0.222889 0.00280766 0
0.27541 0.00277714 0
0.332982 0.00315862 0
0.39237 0.00337224 0
0.458961 0.00399786 0
0.532082 0.00459297 0
0.606165 0.00527962 0
0.680919 0.00601205 0
0.757961 0.00679026 0
0.835126 0.00775158 9.15541e-05
0.905272 0.00860609 0.000488289
0.960204 0.00949111 0.00102235
0.971237 0.00961318 0.00108339
0.971237 0.00961318 0.00108339
0.950515 0.273289 0
0.939971 0.435386 0.0560616
0.931365 0.558221 0.0977798
0.92462 0.654688 0.145129
0.918624 0.740017 0.202426
0.913466 0.812863 0.286091
0.909712 0.869062 0.378653
0.906188 0.912505 0.467216
0.903243 0.94609 0.545144
0.900999 0.971664 0.620096
0.899413 0.99202 0.686595
0.00306706 0.0041352 0.00108339
0.00306706 0.0041352 0.00108339
0.00306706 0.0041352 0.00108339
0.00233463 0.0107576 0.0009308
0.0285191 0.0163577 0.000381476
0.0848707 0.00299077 0
0.128298 0.00271611 0
0.173983 0.00270085 0
0.223896 0.00280766 0
0.277668 0.00280766 0
0.33608 0.00318914 0
0.394888 0.0033875 0
0.461402 0.00402838 0
0.533959 0.00456245 0
0.607477 0.00535592 0
0.681895 0.00596628 0
0.758526 0.00675975 0
0.83537 0.00776684 9.15541e-05
0.905135 0.00860609 0.000488289
0.959777 0.00949111 0.00102235
0.971237 0.00961318 0.00108339
0.971237 0.00961318 0.00108339
0.948135 0.300618 0
0.938903 0.448981 0.0499886
0.930632 0.566262 0.0946517
0.924453 0.659709 0.143618
0.918364 0.743542 0.201587
0.913436 0.814954 0.285237
0.909621 0.870161 0.378103
0.906142 0.913237 0.466926
0.903227 0.946502 0.544976
0.900938 0.971893 0.619944
0.899397 0.992172 0.686534
0 0.0658274 0.000579843
0 0.0693217 0.000747692
0 0.0727703 0.000732433
0 0.0758526 0.000457771
0 0.0770733 0.000640879
0.0700236 0.0754253 0
0.117494 0.0725414 0
0.165728 0.0663157 0
0.218875 0.0520485 0
0.278737 0.00280766 0
0.337865 0.00318914 0
0.396994 0.00344854 0
0.463615 0.00393683 0
0.535882 0.00447089 0
0.608957 0.0053254 0
0.682857 0.0059205 0
0.759136 0.00675975 0
0.835599 0.00776684 9.15541e-05
0.904982 0.00860609 0.000488289
0.95935 0.00947585 0.00102235
0.971237 0.00961318 0.00108339
0.966125 0.0704967 0.000396735
0.946426 0.324895 0
0.937667 0.461982 0.042771
0.930159 0.574228 0.0919356
0.923873 0.664546 0.141985
0.918105 0.747005 0.200763
0.913283 0.817075 0.284245
0.909361 0.871199 0.377432
0.906081 0.91397 0.466621
0.903197 0.946899 0.544808
0.900908 0.972107 0.619806
0.899382 0.992325 0.686458
0 0.104051 0.000564584
0 0.106889 0.000549325
0 0.109407 0.000518807
0 0.111574 0.000457771
0 0.112627 0.000457771
0.0455787 0.111803 0
0.106493 0.110307 0
0.157809 0.107637 0
0.212177 0.102281 0
0.271473 0.0919966 0
0.332906 0.0714427 0
0.398962 0.0034638 0
0.466011 0.00386053 0
0.538064 0.00444038 0
0.610483 0.0052491 0
0.68394 0.00590524 0
0.759762 0.00677501 0
0.835843 0.00776684 9.15541e-05
0.904814 0.00860609 0.000488289
0.958877 0.00946059 0.0010071
0.971237 0.00961318 0.00108339
0.958663 0.167163 0
0.944717 0.347555 0
0.936553 0.474937 0.0336461
0.929442 0.58201 0.0884718
0.923583 0.66952 0.140291
0.917922 0.750362 0.200092
0.91313 0.819242 0.283192
0.90927 0.87245 0.377005
0.90602 0.914717 0.466377
0.903166 0.947341 0.54464
0.900893 0.972381 0.619684
0.899367 0.992493 0.686397
0 0.144167 0.000411994
0 0.146426 0.000289921
0 0.148745 0.000335698
0 0.150011 0.000442512
0 0.150866 0.000442512
0 0.151171 0.000442512
0.0860456 0.149401 0
0.146151 0.148058 0
0.204059 0.145357 0
0.265827 0.13991 0
0.328023 0.129839 0
0.391943 0.113451 0
0.462562 0.0815442 0
0.540917 0.00447089 0
0.612467 0.00515755 0
0.685359 0.0059205 0
0.760464 0.00680552 0
0.836149 0.00776684 9.15541e-05
0.904585 0.00859083 0.000488289
0.958236 0.00946059 0.0010071
0.971237 0.00961318 0.00108339
0.954025 0.228046 0
0.942794 0.373877 0
0.934905 0.490608 0.0144808
0.928557 0.591699 0.0841077
0.923156 0.675807 0.138079
0.917479 0.754635 0.198962
0.912932 0.821744 0.281895
0.909148 0.874037 0.376349
0.905943 0.915663 0.466072
0.90312 0.947875 0.544427
0.900862 0.972732 0.619547
0.899367 0.992691 0.686305
0 0.189685 0.000442512
0 0.191501 0.000183108
0 0.193042 0.000183108
0 0.194049 0.000183108
0 0.194781 0.000183108
0 0.195178 0.000183108
0.0237583 0.19443 0
0.124941 0.193256 0
0.190845 0.191562 0
0.256123 0.187976 0
0.321386 0.181216 0
0.388342 0.171557 0
0.459678 0.156878 0
0.534035 0.131609 0
0.609354 0.0766155 0
0.687282 0.00593576 0
0.761501 0.0068513 0
0.836545 0.00776684 9.15541e-05
0.904234 0.00859083 0.000488289
0.957336 0.00944533 0.0010071
0.962417 0.119219 0
0.949599 0.283986 0
0.940291 0.404257 0
0.932448 0.509285 0
0.927642 0.603922 0.0779126
0.922545 0.683894 0.135149
0.917311 0.760266 0.197742
0.912581 0.825147 0.280217
0.908995 0.876112 0.375402
0.905852 0.916915 0.46566
0.903075 0.948592 0.544137
0.900832 0.973159 0.619348
0.899351 0.992966 0.686198
0 0.24242 7.62951e-05
0 0.243961 7.62951e-05
0 0.2448 7.62951e-05
0 0.24567 0.000122072
0 0.24622 0.000228885
0 0.246632 0.000244144
0 0.246891 0.000259403
0.0777295 0.245106 0
0.166705 0.243076 0
0.239216 0.240009 0
0.309957 0.235676 0
0.381445 0.229297 0
0.456519 0.219623 0
0.53228 0.205478 0
0.604318 0.185489 0
0.677836 0.156313 0
0.754726 0.11017 0
0.837079 0.0077821 9.15541e-05
0.903731 0.00859083 0.000488289
0.946914 0.12668 0
0.953307 0.237308 0
0.945357 0.340383 0
0.937957 0.438636 0
0.930694 0.532464 0
0.926436 0.618982 0.0692607
0.921645 0.694163 0.131106
0.916747 0.767208 0.195895
0.912413 0.829572 0.278202
0.90898 0.878721 0.374304
0.905852 0.91841 0.465095
0.903044 0.949508 0.543786
0.900862 0.973724 0.619196
0.899321 0.993317 0.68603
0 0.300633 0
0 0.301106 0
0 0.301549 0
0 0.30193 0
0 0.302159 0
0 0.302205 0
0 0.302098 0
0 0.301686 0
0.121004 0.298741 0
0.212985 0.296834 0
0.291966 0.293889 0
0.370001 0.289616 0
0.45034 0.282826 0
0.529702 0.273198 0
0.602136 0.26183 0
0.673701 0.248142 0
0.747295 0.233036 0
0.821073 0.219409 0
0.886183 0.223514 0
0.934554 0.259724 0
0.946853 0.321675 0
0.940948 0.398566 0
0.934997 0.478981 0
0.928954 0.55964 0
0.925002 0.63592 0.0553292
0.920684 0.707164 0.125917
0.915984 0.776013 0.193606
0.911833 0.835081 0.275074
0.908614 0.882033 0.372549
0.905501 0.920302 0.464012
0.903105 0.950668 0.543404
0.900923 0.974426 0.619058
0.89929 0.993774 0.685817
0 0.361959 0.000122072
0 0.362356 7.62951e-05
0 0.362722 0
0 0.362997 0
0 0.36321 0
0 0.363333 0
0 0.363394 0
0 0.363287 0
0 0.36289 0
0.167208 0.359869 0
0.263783 0.35787 0
0.35111 0.355047 0
0.438239 0.350347 0
0.524285 0.343984 0
0.598917 0.336492 0
0.670741 0.329061 0
0.742733 0.32253 0
0.81413 0.318959 0
0.876997 0.327153 0
0.924758 0.354559 0
0.940871 0.40032 0
0.936645 0.457237 0
0.931441 0.523812 0
0.92639 0.590936 0
0.92285 0.656428 0.0278782
0.919417 0.723491 0.118624
0.915068 0.786984 0.190921
0.911376 0.841962 0.271504
0.908339 0.886183 0.370443
0.905318 0.922988 0.462852
0.902983 0.952239 0.542748
0.900862 0.975402 0.618708
0.899245 0.994369 0.685573
0 0.431098 7.62951e-05
0 0.431495 0.000122072
0 0.431846 0.000183108
0 0.43212 0.000244144
0 0.432319 0.000213626
0 0.432471 0.000183108
0 0.432593 0.00015259
0 0.432639 0.00015259
0 0.432517 0.000167849
0.026566 0.430808 0
0.214588 0.428733 0
0.320287 0.427253 0
0.41767 0.424552 0
0.512093 0.420829 0
0.591959 0.416342 0
0.666178 0.411917 0
0.737881 0.409293 0
0.807462 0.410315 0
0.867857 0.419867 0
0.914672 0.441245 0
0.935134 0.474876 0
0.931716 0.519646 0
0.928084 0.570962 0
0.923888 0.625589 0
0.919799 0.680812 0
0.917739 0.742977 0.109178
0.914137 0.80029 0.187854
0.910674 0.850248 0.270756
0.907927 0.891646 0.367864
0.905257 0.926299 0.461494
0.902846 0.954253 0.541863
0.900786 0.976684 0.618112
0.899184 0.995148 0.685222
0 0.510887 4.57771e-05
0 0.511238 4.57771e-05
0 0.511559 4.57771e-05
0 0.511803 9.15541e-05
0 0.512001 0.000137331
0 0.512169 0.000167849
0 0.512337 0.000198367
0 0.512459 0.000213626
0 0.512596 0.000213626
0 0.512688 0.000213626
0.0919203 0.510445 0
0.266804 0.509544 0
0.384192 0.508431 0
0.490425 0.506081 0
0.577523 0.503014 0
0.656214 0.500023 0
0.731014 0.498451 0
0.800137 0.500191 0
0.858183 0.507912 0
0.903746 0.524254 0
0.929732 0.548684 0
0.92723 0.581125 0
0.924361 0.620569 0
0.921202 0.66273 0
0.917556 0.711482 0
0.916075 0.765713 0.0965591
0.913039 0.816083 0.184268
0.909911 0.860197 0.270207
0.907362 0.898085 0.364126
0.90483 0.930404 0.459388
0.902617 0.956771 0.540658
0.900694 0.978317 0.617334
0.899123 0.996139 0.684749
0 0.592813 0
0 0.593057 0
0 0.59324 0
0 0.593378 0
0 0.5935 0
0 0.593622 0
0 0.593744 0
0 0.593881 0
0 0.593973 0
0 0.594003 0
0 0.593881 0
0.15996 0.591028 0
0.333883 0.590127 0
0.458549 0.588739 0
0.556039 0.586465 0
0.640574 0.5841 0
0.719844 0.582437 0
0.791089 0.583139 0
0.848081 0.588571 0
0.891829 0.60029 0
0.924544 0.618067 0
0.922881 0.640177 0
0.920623 0.669337 0
0.918044 0.704967 0
0.915053 0.746319 0
0.913924 0.791409 0.0803845
0.911498 0.833951 0.180545
0.90927 0.8719 0.270146
0.906737 0.905989 0.36025
0.904494 0.935332 0.457084
0.902358 0.959731 0.539132
0.900587 0.980392 0.616312
0.899168 0.997375 0.684276
0 0.667475 0
0 0.667628 0
0 0.66775 0
0 0.667842 0
0 0.667933 0
0 0.667994 0
0 0.66807 0
0 0.668132 0
0 0.668132 0
0 0.668086 0
0 0.667887 0
0 0.667399 0
0.251942 0.664088 0
0.41387 0.662837 0
0.528344 0.661509 0
0.618708 0.659586 0
0.703624 0.657908 0
0.777966 0.657664 0
0.835904 0.660929 0
0.879026 0.66894 0
0.913161 0.681682 0
0.918547 0.699474 0
0.916793 0.722896 0
0.914458 0.751339 0
0.912291 0.783413 0
0.911513 0.819181 0.0595254
0.910262 0.853895 0.177584
0.908278 0.885634 0.270634
0.906157 0.91548 0.361685
0.903975 0.941878 0.453696
0.902052 0.963729 0.537392
0.900618 0.982925 0.615137
0.899092 0.998978 0.683589
0 0.742123 0
0 0.742199 0
0 0.742229 0
0 0.742275 0
0 0.74229 0
0 0.742306 0
0 0.742321 0
0 0.74229 0
0 0.742229 0
0 0.742077 0
0 0.741772 0
0 0.741207 0
0.0438544 0.738399 0
0.350072 0.736324 0
0.490715 0.735073 0
0.590677 0.73341 0
0.681102 0.731594 0
0.759335 0.730678 0
0.819379 0.732418 0
0.86363 0.737881 0
0.897169 0.747127 0
0.913848 0.760327 0
0.912718 0.777264 0
0.911162 0.797574 0
0.909422 0.82089 0
0.908949 0.847486 0.0317693
0.908721 0.874846 0.175769
0.907179 0.901152 0.272251
0.90544 0.926131 0.363943
0.903426 0.948775 0.450309
0.901839 0.968521 0.534951
0.900175 0.985901 0.613108
0.89868 1 0.682429
0 0.814969 0
0 0.814954 0
0 0.814939 0
0 0.814908 0
0 0.814878 0
0 0.814847 0
0 0.814771 0
0 0.814679 0
0 0.814496 0
0 0.814237 0
0 0.813794 0
0 0.813199 0
0 0.812146 0
0.259251 0.807996 0
0.444068 0.806592 0
0.559442 0.804791 0
0.655024 0.802747 0
0.736034 0.80116 0
0.798672 0.801022 0
0.845426 0.803449 0
0.880415 0.808545 0
0.905837 0.816831 0
0.909102 0.827665 0
0.907866 0.841031 0
0.906722 0.856672 0
0.90573 0.874296 0
0.907103 0.897002 0.176852
0.905806 0.917708 0.275334
0.904479 0.938338 0.367544
0.902739 0.95671 0.453193
0.901289 0.974136 0.531456
0.900023 0.989761 0.610925
0.898192 1 0.68072
0 0.877012 0
0 0.876936 0
0 0.87686 0
0 0.876768 0
0 0.876677 0
0 0.876585 0
0 0.876448 0
0 0.876265 0
0 0.87599 0
0 0.875608 0
0 0.874968 0
0 0.874022 0
0 0.872709 0
0.147906 0.868574 0
0.402106 0.866667 0
0.53344 0.864485 0
0.632349 0.862196 0
0.714305 0.859922 0
0.778012 0.858518 0
0.827359 0.858747 0
0.864561 0.860731 0
0.891112 0.864912 0
0.905898 0.870954 0
0.905211 0.879103 0
0.904356 0.889494 0
0.904158 0.902525 0.00645457
0.90547 0.919402 0.18262
0.904753 0.935027 0.281773
0.903517 0.950607 0.3729
0.902174 0.96582 0.45745
0.900832 0.980621 0.531304
0.899748 0.994339 0.60824
0.898024 1 0.678965
0 0.924651 0
0 0.924529 0
0 0.924407 0
0 0.9243 0
0 0.924163 0
0 0.924025 0
0 0.923842 0
0 0.923583 0
0 0.923217 0
0 0.922667 0
0 0.921889 0
0 0.920851 0
0 0.919432 0
0.0822919 0.915587 0
0.38262 0.913039 0
0.520455 0.910964 0
0.618769 0.908232 0
0.698787 0.905699 0
0.761318 0.904036 0
0.811444 0.90309 0
0.84979 0.903212 0
0.878111 0.905013 0
0.899977 0.908293 0
0.902602 0.9131 0
0.902281 0.919783 0
0.903288 0.929717 0.0571908
0.903792 0.941268 0.19469
0.903349 0.952087 0.292103
0.902373 0.963668 0.380758
0.901549 0.975891 0.463096
0.900465 0.988006 0.535439
0.899306 0.999313 0.605539
0.897841 1 0.676631
0 0.962371 0
0 0.962203 0
0 0.962051 0
0 0.961883 0
0 0.961715 0
0 0.961532 0
0 0.961273 0
0 0.960952 0
0 0.960494 0
0 0.959884 0
0 0.959075 0
0 0.957992 0
0 0.956573 0
0.155413 0.952346 0
0.39382 0.950057 0
0.521798 0.947936 0
0.614496 0.945388 0
0.68954 0.942885 0
0.74934 0.940871 0
0.798321 0.939345 0
0.836683 0.938598 0
0.86595 0.938796 0
0.88922 0.93991 0
0.900603 0.942535 0
0.900084 0.945983 0
0.902296 0.953658 0.103426
0.902495 0.960723 0.215564
0.902281 0.968658 0.30721
0.901518 0.977142 0.392218
0.900816 0.986389 0.470726
0.899794 0.99585 0.540703
0.898558 1 0.609522
0.897368 1 0.673548
0 0.989654 0
0 0.989456 0
0 0.989273 0
0 0.989075 0
0 0.988891 0
0 0.988693 0
0 0.988449 0
0 0.988113 0
0 0.987655 0
0 0.987106 0
0 0.986435 0
0 0.985382 0
0 0.983978 0
0.277058 0.979492 0
0.435416 0.977722 0
0.539406 0.975555 0
0.620615 0.973114 0
0.688273 0.970871 0
0.743236 0.968841 0
0.789105 0.966918 0
0.826535 0.96585 0
0.856138 0.965179 0
0.879927 0.965209 0
0.898146 0.966384 0
0.898573 0.96817 0
0.901045 0.974227 0.152239
0.901213 0.978958 0.244572
0.901137 0.984283 0.327657
0.900725 0.990402 0.40737
0.900023 0.997147 0.481422
0.898787 1 0.547677
0.897963 1 0.614832
0.897108 1 0.676295
0 1 0
0 1 0
0 1 0
0 1 0
0 1 0
0 1 0
0 1 0
0 1 0
0 1 0
0 1 0
0 1 0
0 1 0
0.251759 1 0
0.390784 1 0
0.491844 0.999329 0
0.568109 0.997574 0
0.635431 0.995178 0
0.692988 0.99321 0
0.742107 0.991196 0
0.784558 0.989456 0
0.819287 0.988083 0
0.847883 0.98703 0
0.871717 0.986679 0
0.890211 0.98674 0
0.899901 0.990295 0.107652
0.900175 0.992523 0.203998
0.90016 0.995315 0.281987
0.900114 0.998672 0.354696
0.899458 1 0.426703
0.898878 1 0.495125
0.898192 1 0.557671
0.897322 1 0.621973
0.896712 1 0.681071
0 1 0
0 1 0
0 1 0
0 1 0
0 1 0
0 1 0
0 1 0
0 1 0
0 1 0
0.14844 1 0
0.258534 1 0
0.343999 1 0
0.421607 1 0
0.49012 1 0
0.548577 1 0
0.604166 1 0
0.656092 1 0
0.702876 1 0
0.745418 1 0
0.783047 1 0
0.814633 1 0
0.841718 1 0
0.864591 1 0
0.88542 1 0.0948959
0.898634 1 0.185565
0.898955 1 0.258076
0.898924 1 0.324315
0.898695 1 0.388678
0.898329 1 0.451255
0.897993 1 0.511742
0.897551 1 0.570672
0.89691 1 0.631601
0.896239 1 0.686992
0.280079 1 0
0.296712 1 0
0.31162 1 0
0.325658 1 0
0.338903 1 0
0.351888 1 0
0.368002 1 0
0.387594 1 0
0.410651 1 0
0.436591 1 0
0.465995 1 0
0.498314 1 0
0.530846 1 0
0.566445 1 0
0.604486 1 0
0.643168 1 0
0.68101 1 0
0.718181 1 0
0.753353 1 0
0.785428 1 0
0.815137 1 0.0541238
0.84065 1 0.10396
0.862318 1 0.145953
0.880385 1 0.199252
0.895521 1 0.256596
0.898009 1 0.313588
0.897841 1 0.370214
0.897841 1 0.426764
0.897475 1 0.481056
0.897215 1 0.532891
0.896834 1 0.587549
0.896269 1 0.643442
0.89575 1 0.694652
0.512657 1 0.16878
0.517067 1 0.168994
0.521233 1 0.169253
0.525582 1 0.169467
0.529625 1 0.169741
0.533944 1 0.169986
0.539178 1 0.170336
0.545663 1 0.170535
0.554253 1 0.171099
0.565042 1 0.171862
0.57818 1 0.172885
0.593896 1 0.173785
0.612802 1 0.175479
0.634104 1 0.177554
0.658106 1 0.180591
0.683757 1 0.1841
0.711345 1 0.189044
0.739864 1 0.195575
0.767773 1 0.203738
0.793973 1 0.214298
0.818158 1 0.227695
0.840314 1 0.24445
0.859846 1 0.264668
0.876753 1 0.289433
0.890761 1 0.326223
0.897078 1 0.370855
0.897063 1 0.41886
0.897047 1 0.466728
0.896696 1 0.513054
0.896574 1 0.559274
0.896132 1 0.608881
0.895811 1 0.658595
0.895369 1 0.704479
0.62182 1 0.30518
0.624048 1 0.305303
0.626078 1 0.30547
0.628153 1 0.305608
0.630274 1 0.30573
0.632456 1 0.305852
0.634852 1 0.305943
0.63827 1 0.30605
0.642618 1 0.306401
0.648371 1 0.306798
0.655375 1 0.307362
0.664149 1 0.30811
0.674556 1 0.308873
0.687709 1 0.310155
0.703044 1 0.311666
0.720455 1 0.313603
0.739818 1 0.316548
0.760357 1 0.319875
0.781109 1 0.324895
0.801938 1 0.330892
0.822217 1 0.339071
0.841306 1 0.34931
0.858671 1 0.362615
0.873808 1 0.379294
0.887114 1 0.399908
0.89633 1 0.430823
0.896345 1 0.468086
0.896315 1 0.507485
0.895994 1 0.547021
0.895872 1 0.589792
0.89546 1 0.633631
0.895277 1 0.676341
0.89482 1 0.715984
0.69395 1 0.413367
0.69514 1 0.413443
0.69633 1 0.413535
0.69749 1 0.413626
0.698543 1 0.413733
0.699657 1 0.413855
0.701167 1 0.413962
0.703166 1 0.414115
0.705638 1 0.414176
0.708629 1 0.414374
0.712886 1 0.414725
0.718074 1 0.415229
0.72459 1 0.415839
0.732677 1 0.416526
0.742397 1 0.417639
0.753567 1 0.418845
0.766323 1 0.420798
0.780056 1 0.423117
0.795636 1 0.426139
0.811719 1 0.430274
0.827939 1 0.435447
0.844007 1 0.442283
0.858579 1 0.450813
0.872236 1 0.461982
0.884428 1 0.47567
0.894286 1 0.492607
0.895689 1 0.517357
0.895659 1 0.548836
0.895323 1 0.584482
0.895216 1 0.622843
0.895094 1 0.66067
0.894682 1 0.69659
0.894514 1 0.729976
0.746487 1 0.503838
0.747112 1 0.503899
0.747646 1 0.50399
0.748241 1 0.504051
0.748898 1 0.504097
0.749569 1 0.504143
0.750378 1 0.504189
0.751415 1 0.504204
0.752789 1 0.50425
