BBLuts/BB_103_0910_LUT.cube
TITLE "Generated by Resolve"
LUT_3D_SIZE 5
0.0221714 0.0127108 0.0162051
0.218875 0.0145724 0.017731
0.795727 0.0218051 0.0237736
1 0.533227 0.113375
0.951446 1 0.665675
0.00077821 0.245411 0
0.17145 0.248905 0
0.794171 0.12311 0.0157931
1 0.618891 0.0650339
0.951217 1 0.664744
0 0.855497 0
0 0.854978 0
0.655009 0.845182 0
0.967773 0.912642 0
0.949691 1 0.658
0.462501 1 0.119478
0.515679 1 0.122133
0.710857 1 0.141329
0.935149 1 0.281193
0.944533 1 0.680415
0.903044 1 0.777356
0.903624 1 0.777401
0.907774 1 0.777859
0.930495 1 0.781949
0.94342 1 0.812055
0.0231022 0.0137942 0.208667
0.197421 0.0153201 0.209812
0.796185 0.0225986 0.217792
1 0.514382 0.276738
0.951614 1 0.684245
0.00512703 0.209064 0.178027
0.183291 0.206027 0.174975
0.797223 0.0241703 0.201785
1 0.605585 0.251133
0.951385 1 0.683391
0 0.850721 0
0 0.850126 0
0.661768 0.840421 0
0.968215 0.910445 0.0415045
0.949859 1 0.677287
0.471321 1 0.119066
0.522545 1 0.121736
0.713039 1 0.140978
0.935286 1 0.281163
0.944533 1 0.680308
0.90312 1 0.777356
0.903716 1 0.777401
0.907851 1 0.777859
0.930526 1 0.781949
0.94342 1 0.812055
0.0271 0.0183413 0.726879
0.0271 0.0183413 0.727108
0.805844 0.0263828 0.72871
1 0.237873 0.734585
0.95256 1 0.767849
0.0270848 0.0183261 0.724956
0.0270848 0.0183261 0.725216
0.816556 0.0265049 0.726757
1 0.44889 0.710567
0.9523 1 0.767269
0 0.789822 0.617105
0 0.790356 0.61738
0.648173 0.78201 0.623072
0.974838 0.881148 0.640848
0.950698 1 0.763348
0.47567 1 0.442832
0.525475 1 0.444129
0.711284 1 0.453025
0.931151 1 0.518914
0.944961 1 0.739391
0.903792 1 0.777279
0.904356 1 0.77734
0.908431 1 0.777783
0.930755 1 0.781888
0.94342 1 0.812055
0.0295872 0.0211643 1
0.0295872 0.0211643 1
0.033051 0.0211795 1
1 0.032166 1
0.959121 1 0.898116
0.0295872 0.0211643 1
0.0295872 0.0211643 1
0.0373541 0.0211948 1
1 0.032166 1
0.958556 1 0.897337
0.0295872 0.0211643 1
0.0295872 0.0211643 1
0.357809 0.0237583 1
1 0.032166 1
0.9552 1 0.892729
0 1 0.87129
0 1 0.871351
0.541176 1 0.873854
0.914763 1 0.877012
0.946471 1 0.879683
0.900557 1 0.851362
0.901106 1 0.851377
0.905074 1 0.85153
0.927047 1 0.852964
0.94374 1 0.863706
0 0.334859 0.979248
0 0.334859 0.979248
0 0.334874 0.979248
0.0391394 0.326879 0.980056
0.99202 0.753933 0.945846
0 0.334829 0.979248
0 0.334829 0.979248
0 0.334859 0.979248
0.0392767 0.326863 0.980056
0.992004 0.75407 0.94583
0 0.334707 0.979263
0 0.334707 0.979263
0 0.334722 0.979263
0.383276 0.309087 0.983581
0.991882 0.755199 0.945724
0 0.333455 0.97937
0 0.333455 0.97937
0 0.333471 0.97937
1 0.0378576 1
0.991424 0.758984 0.945342
0.819532 1 0.904082
0.822446 1 0.904097
0.840726 1 0.904204
0.906844 1 0.904631
0.943999 1 0.90486
