BBLuts/BB_103_0820_LUT.cube
TITLE "Generated by Resolve"
LUT_3D_SIZE 5
0.0204776 0.0107881 0.0142061
0.205447 0.0141604 0.0172274
0.718486 0.0287327 0.0301518
0.870619 0.498695 0.109941
0.825772 0.921218 0.601511
0.00427253 0.226917 0
0.16379 0.228779 0
0.713634 0.11986 0.0192111
0.862623 0.571298 0.0670634
0.825605 0.922637 0.600809
0 0.761288 0
0 0.760845 0
0.601068 0.748882 0
0.838087 0.79939 0
0.824567 0.931823 0.595651
0.454902 0.972442 0.128862
0.496269 0.970855 0.131167
0.645228 0.965347 0.148775
0.814084 0.957458 0.277256
0.821027 0.964767 0.612818
0.789502 0.977111 0.687251
0.789944 0.977111 0.687297
0.793088 0.977142 0.687648
0.810162 0.977279 0.69073
0.820233 0.977493 0.713603
0.0220798 0.0125582 0.195651
0.186435 0.014847 0.197574
0.718608 0.0289616 0.211734
0.872847 0.481086 0.26041
0.825879 0.920928 0.615671
0.00737011 0.193637 0.167956
0.173251 0.1897 0.164248
0.719448 0.0289158 0.197299
0.864042 0.559884 0.236576
0.825727 0.922377 0.61503
0 0.757671 0
0 0.757183 0
0.60618 0.745327 0
0.837888 0.797116 0.0484321
0.824674 0.93164 0.610376
0.461738 0.972213 0.128435
0.501427 0.970642 0.130755
0.646876 0.965225 0.14844
0.814191 0.957412 0.277211
0.821027 0.964752 0.612757
0.789563 0.977111 0.687251
0.790021 0.977111 0.687297
0.793149 0.977142 0.687633
0.810193 0.977279 0.69073
0.820233 0.977493 0.713603
0.0294652 0.0206912 0.659556
0.0294652 0.0207065 0.659739
0.727718 0.0335546 0.665644
0.90483 0.221912 0.664424
0.826535 0.918578 0.679957
0.0294347 0.0206607 0.658076
0.0294499 0.020676 0.658289
0.735927 0.0337682 0.664225
0.88191 0.420035 0.640223
0.826352 0.920119 0.67953
0 0.709804 0.566949
0 0.71017 0.567163
0.594018 0.699351 0.568597
0.841917 0.773968 0.582742
0.825254 0.930007 0.676555
0.464851 0.971084 0.430488
0.50312 0.970001 0.431373
0.644892 0.964675 0.438117
0.810681 0.956985 0.489967
0.821332 0.964508 0.658457
0.790082 0.977111 0.68719
0.790509 0.977111 0.687236
0.793576 0.977142 0.687572
0.810361 0.977279 0.690684
0.820233 0.977493 0.713603
0.0336461 0.02533 0.872435
0.0336461 0.02533 0.872435
0.0336461 0.02533 0.872435
0.930526 0.0423133 0.885069
0.830991 0.884352 0.778515
0.0336461 0.02533 0.872435
0.0336461 0.02533 0.872435
0.0336461 0.02533 0.872435
0.930526 0.0423133 0.885069
0.83061 0.887724 0.777951
0.0336461 0.02533 0.872435
0.0336461 0.02533 0.872435
0.356115 0.0282139 0.874846
0.930526 0.0423133 0.885069
0.828351 0.907897 0.774563
0 0.978531 0.763073
0 0.97673 0.763088
0.517266 0.961349 0.7608
0.798001 0.949996 0.762768
0.82237 0.961242 0.764843
0.78764 0.977432 0.743404
0.788037 0.977432 0.74342
0.791028 0.977462 0.743542
0.807538 0.977584 0.74461
0.820462 0.977737 0.752728
0.00437934 0.311559 0.846662
0.00437934 0.311559 0.846662
0.00437934 0.311574 0.846662
0.00436408 0.311711 0.846647
0.854444 0.676661 0.815351
0.0043946 0.311528 0.846662
0.0043946 0.311528 0.846662
0.00437934 0.311559 0.846662
0.00436408 0.311696 0.846662
0.854444 0.676783 0.815351
0.0043946 0.311421 0.846677
0.0043946 0.311421 0.846677
0.0043946 0.311437 0.846677
0.357687 0.290806 0.848768
0.854337 0.677653 0.815259
0.00451667 0.310262 0.846784
0.00451667 0.310262 0.846784
0.00451667 0.310277 0.846784
0.930526 0.0423133 0.885069
0.854017 0.680476 0.814954
0.729366 0.977325 0.783734
0.731319 0.97734 0.783749
0.74406 0.977417 0.78381
0.792355 0.977737 0.784115
0.82031 0.977493 0.783948
