BBLuts/BB_102_0280_LUT.cube
TITLE "Generated by Resolve"
LUT_3D_SIZE 9
0 0 0
0.00148013 0 0
0.150729 0 0
0.402106 0 0
0.97113 0 0
1 0 0
1 0.685771 0.181231
1 1 0.659083
1 1 0.960983
0 0.0374914 0
0 0.0493935 0
0.137697 0.0400397 0
0.411109 0 0
0.975662 0 0
1 0 0
1 0.718166 0.155718
1 1 0.657511
1 1 0.960937
0 0.222477 0
0 0.226658 0
0.0590372 0.240177 0
0.366812 0.21973 0
0.950484 0.101671 0
1 0.280186 0
1 0.760342 0.0992905
1 1 0.655131
1 1 0.960845
0 0.539239 0
0 0.540459 0
0 0.541802 0
0.244633 0.576089 0
0.898955 0.569421 0
1 0.643549 0
1 0.877348 0
1 1 0.653086
1 1 0.960418
0 0.962264 0
0 0.962249 0
0 0.961913 0
0 0.958968 0
0.715984 0.986282 0
1 0.992035 0
1 1 0.00175479
1 1 0.66833
1 1 0.95874
0 1 0.0106508
0 1 0.0106508
0 1 0.0106508
0 1 0.00894179
0.631495 1 0.0229038
1 1 0.0118563
1 1 0.0243992
1 1 0.732708
1 1 0.960678
0.463569 1 0.384955
0.463569 1 0.384955
0.463569 1 0.384955
0.463523 1 0.384955
0.790204 1 0.393957
1 1 0.453437
1 1 0.609781
1 1 0.84303
1 1 0.97995
0.987686 1 0.901686
0.987671 1 0.901701
0.987671 1 0.901701
0.987671 1 0.901701
0.987655 1 0.901701
1 1 0.90576
1 1 0.919219
1 1 0.95494
1 1 1
1 1 1
1 1 1
1 1 1
1 1 1
1 1 1
1 1 1
1 1 1
1 1 1
1 1 1
0 0 0.09514
0 0 0.0960861
0.142794 0 0.110567
0.395605 0 0.102968
0.96434 0 0.0713207
1 0 0.0817121
1 0.68249 0.226047
1 1 0.659113
1 1 0.960998
0 0 0.0745251
0.00155642 0.0189212 0.0720836
0.156008 0 0.0973373
0.399237 0 0.0803845
0.969909 0 0
1 0 0
1 0.715404 0.193866
1 1 0.657542
1 1 0.960937
0 0.209628 0
0 0.213367 0
0.0751659 0.228077 0
0.36527 0.206088 0
0.949722 0.062562 0
1 0.261921 0
1 0.75787 0.135531
1 1 0.655131
1 1 0.960845
0 0.532906 0
0 0.534035 0
0 0.535225 0
0.256764 0.569253 0
0.898314 0.56347 0
1 0.639567 0
1 0.876158 0
1 1 0.653086
1 1 0.960418
0 0.960052 0
0 0.960037 0
0 0.959655 0
0 0.956252 0
0.720851 0.984527 0
1 0.990936 0
1 1 0.00172427
1 1 0.66833
1 1 0.95874
0 1 0.0104829
0 1 0.0105135
0 1 0.0105135
0 1 0.00883497
0.635477 1 0.0226749
1 1 0.011841
1 1 0.0243992
1 1 0.732708
1 1 0.960678
0.47013 1 0.384344
0.47013 1 0.384344
0.470115 1 0.384344
0.470085 1 0.384344
0.791974 1 0.39353
1 1 0.453132
1 1 0.609751
1 1 0.84303
1 1 0.97995
0.988067 1 0.901671
0.988067 1 0.901671
0.988067 1 0.901671
0.988067 1 0.901671
0.988037 1 0.901671
1 1 0.905745
1 1 0.919203
1 1 0.95494
1 1 1
1 1 1
1 1 1
1 1 1
1 1 1
1 1 1
1 1 1
1 1 1
1 1 1
1 1 1
0 0 0.335683
0 0 0.336141
0.111116 0 0.347494
0.40058 0 0.338064
0.957961 0 0.323842
1 0 0.357397
1 0.66804 0.451316
1 1 0.705684
1 1 0.960998
0 0 0.331548
0 0 0.332235
0.130663 0 0.343679
0.399496 0 0.332753
0.960418 0 0.317189
1 0 0.344961
1 0.702022 0.440558
1 1 0.70425
1 1 0.960937
0 0.16643 0.284871
0 0.169589 0.284581
0.0585184 0.17789 0.292882
0.343206 0.160357 0.29778
0.953658 0 0.298207
1 0.187625 0.329397
1 0.745449 0.424277
1 1 0.701778
1 1 0.960845
0 0.508461 0.130159
0 0.510155 0.130663
0 0.511238 0.132906
0.24976 0.545617 0.182132
0.884398 0.541024 0.194247
1 0.62179 0.235981
1 0.86508 0.359976
1 1 0.691951
1 1 0.960418
0 0.955398 0
0 0.955398 0
0 0.955032 0
0 0.952056 0
0.725277 0.979797 0
1 0.98764 0
1 1 0.0978866
1 1 0.670481
1 1 0.95874
0 1 0.0102846
0 1 0.0102846
0 1 0.0102846
0 1 0.00895705
0.64242 1 0.0222629
1 1 0.0118105
1 1 0.0243534
1 1 0.732448
1 1 0.960678
0.478904 1 0.383459
0.478904 1 0.383459
0.478904 1 0.383459
0.478889 1 0.383474
0.794385 1 0.392966
1 1 0.452781
1 1 0.609415
1 1 0.842985
1 1 0.97995
0.988617 1 0.90164
0.988617 1 0.90164
0.988617 1 0.90164
0.988617 1 0.90164
0.988617 1 0.90164
1 1 0.905699
1 1 0.919188
1 1 0.95494
1 1 1
1 1 1
1 1 1
1 1 1
1 1 1
1 1 1
1 1 1
1 1 1
1 1 1
1 1 1
0 0 0.710353
0 0 0.710491
0 0 0.710826
0.349493 0 0.721584
0.988327 0 0.708064
1 0 0.732784
1 0.616739 0.776822
1 1 0.850935
1 1 0.968704
0 0 0.708202
0 0 0.708385
0 0 0.710567
0.365972 0 0.718029
0.985321 0 0.705013
1 0 0.728969
1 0.656168 0.774151
1 1 0.850599
1 1 0.968658
0 0.0109712 0.690913
0 0.0138705 0.690517
0 0.0171206 0.692775
0.373556 0 0.712581
0.974853 0 0.699306
1 0 0.72221
1 0.705608 0.769741
1 1 0.85005
1 1 0.968582
0 0.439963 0.618173
0 0.441077 0.61825
0 0.44358 0.619074
0.228809 0.477424 0.658808
0.856611 0.472709 0.670909
1 0.563165 0.702037
1 0.837812 0.752392
1 1 0.848035
1 1 0.968231
0 0.931868 0.507103
0 0.931868 0.507103
0 0.932143 0.508354
0 0.929229 0.512749
0.702144 0.957626 0.567422
1 0.967391 0.60737
1 1 0.701839
1 1 0.840894
1 1 0.966796
0 1 0.180697
0 1 0.180697
0 1 0.180697
0 1 0.182391
0.628885 1 0.202518
1 1 0.376181
1 1 0.585901
1 1 0.821302
1 1 0.962646
0.50547 1 0.379858
0.50547 1 0.379858
0.50547 1 0.379858
0.50547 1 0.379858
0.801709 1 0.39115
1 1 0.451545
1 1 0.608911
1 1 0.84268
1 1 0.979889
0.990539 1 0.901549
0.990539 1 0.901549
0.990539 1 0.901549
0.990539 1 0.901549
0.990539 1 0.901549
1 1 0.905608
1 1 0.919112
1 1 0.954864
1 1 1
1 1 1
1 1 1
1 1 1
1 1 1
1 1 1
1 1 1
1 1 1
1 1 1
1 1 1
0 0 0.959472
0 0 0.959472
0 0 0.959533
0.0496834 0 0.968093
0.923079 0 0.973129
1 0 0.971679
1 0.324483 0.960861
1 1 0.975708
1 1 1
0 0 0.959426
0 0 0.959426
0 0 0.959457
0.0549935 0 0.968246
0.930449 0 0.972793
1 0 0.97142
1 0.425574 0.95967
1 1 0.975586
1 1 1
0 0 0.95877
0 0 0.95877
0 0 0.958816
0.131533 0 0.972122
0.941436 0 0.971969
1 0 0.970718
1 0.532113 0.958206
1 1 0.975387
1 1 1
0 0.1664 0.926085
0 0.1664 0.926085
0 0.170993 0.925795
0.0889296 0.180819 0.941939
0.917357 0.0710307 0.952483
1 0.18587 0.949447
1 0.738079 0.95491
1 1 0.97467
1 1 1
0 0.866667 0.897047
0 0.866667 0.897047
0 0.866743 0.897063
0 0.866453 0.897322
0.649042 0.896345 0.933455
1 0.91519 0.935409
1 1 0.944991
1 1 0.972381
1 1 1
0 1 0.894804
0 1 0.894804
0 1 0.894774
0 1 0.894835
0.519707 1 0.92105
1 1 0.92079
1 1 0.934462
1 1 0.966415
1 1 1
0.453513 1 0.873243
0.453513 1 0.873243
0.453513 1 0.873243
0.453513 1 0.873243
0.758648 1 0.872328
1 1 0.878096
1 1 0.900633
1 1 0.948226
1 1 1
0.996689 1 0.900969
0.996689 1 0.900969
0.996689 1 0.900969
0.996689 1 0.900969
0.996689 1 0.900969
1 1 0.905241
1 1 0.918807
1 1 0.954726
1 1 1
1 1 1
1 1 1
1 1 1
1 1 1
1 1 1
1 1 1
1 1 1
1 1 1
1 1 1
0 0 1
0 0 1
0 0 1
0 0 1
0.522087 0 1
1 0 1
1 0 1
1 0.947677 1
1 1 1
0 0 1
0 0 1
0 0 1
0 0 1
0.520851 0 1
1 0 1
1 0 1
1 0.955581 1
1 1 1
0 0 1
0 0 1
0 0 1
0 0 1
0.540169 0 1
1 0 1
1 0 1
1 0.967575 1
1 1 1
0 0 1
0 0 1
0 0 1
0 0 1
0.651682 0 1
1 0 1
1 0 1
1 1 1
1 1 1
0 0.510323 1
0 0.510323 1
0 0.510323 1
0 0.51545 1
0.550454 0.550484 1
1 0.58819 1
1 0.839872 1
1 1 1
1 1 1
0 1 1
0 1 1
0 1 1
0 1 1
0.184848 1 1
1 1 1
1 1 1
1 1 1
1 1 1
0.201602 1 1
0.201602 1 1
0.202716 1 1
0.202716 1 1
0.594705 1 1
0.980056 1 1
1 1 1
1 1 1
1 1 1
0.971038 1 1
0.971038 1 1
0.971038 1 1
0.971038 1 1
0.971038 1 1
1 1 1
1 1 1
1 1 1
1 1 1
1 1 1
1 1 1
1 1 1
1 1 1
1 1 1
1 1 1
1 1 1
1 1 1
1 1 1
0 0 1
0 0 1
0 0 1
0 0 1
0 0 1
1 0 1
1 0 1
1 0 1
1 1 1
0 0 1
0 0 1
0 0 1
0 0 1
0 0 1
1 0 1
1 0 1
1 0 1
1 1 1
0 0 1
0 0 1
0 0 1
0 0 1
0 0 1
1 0 1
1 0 1
1 0 1
1 1 1
0 0 1
0 0 1
0 0 1
0 0 1
0 0 1
1 0 1
1 0 1
1 0 1
1 1 1
0 0 1
0 0 1
0 0 1
0 0 1
0 0 1
1 0 1
1 0 1
1 0.501015 1
1 1 1
0 0.917556 1
0 0.917556 1
0 0.917556 1
0 0.917556 1
0 0.922377 1
1 0.942946 1
1 1 1
1 1 1
1 1 1
0 1 1
0 1 1
0 1 1
0 1 1
0 1 1
0.890013 1 1
1 1 1
1 1 1
1 1 1
0.913314 1 1
0.913314 1 1
0.913314 1 1
0.913314 1 1
0.913314 1 1
1 1 1
1 1 1
1 1 1
1 1 1
1 1 1
1 1 1
1 1 1
1 1 1
1 1 1
1 1 1
1 1 1
1 1 1
1 1 1
0 0.0397345 1
0 0.0397345 1
0 0.0397345 1
0 0.0397345 1
0 0.0397345 1
0 0.0398413 1
1 0 1
1 0 1
1 0.803174 1
0 0.0397345 1
0 0.0397345 1
0 0.0397345 1
0 0.0397345 1
0 0.0397345 1
0 0.0398413 1
1 0 1
1 0 1
1 0.803174 1
0 0.0397345 1
0 0.0397345 1
0 0.0397345 1
0 0.0397345 1
0 0.0397345 1
0 0.0398413 1
1 0 1
1 0 1
1 0.803128 1
0 0.0397345 1
0 0.0397345 1
0 0.0397345 1
0 0.0397345 1
0 0.0397345 1
0 0.0398413 1
1 0 1
1 0 1
1 0.802976 1
0 0.0396124 1
0 0.0396124 1
0 0.0396124 1
0 0.0396124 1
0 0.0396124 1
0 0.039704 1
1 0 1
1 0 1
1 0.802533 1
0 0.0377966 1
0 0.0377966 1
0 0.0377966 1
0 0.0377966 1
0 0.0377966 1
0 0.0378882 1
1 0 1
1 0.0405127 1
1 1 1
0 1 1
0 1 1
0 1 1
0 1 1
0 1 1
0 1 1
1 1 1
1 1 1
1 1 1
0.320577 1 1
0.320577 1 1
0.320577 1 1
0.320577 1 1
0.320577 1 1
0.320577 1 1
1 1 1
1 1 1
1 1 1
1 1 1
1 1 1
1 1 1
1 1 1
1 1 1
1 1 1
1 1 1
1 1 1
1 1 1
0 0.308354 1
0 0.308354 1
0 0.308354 1
0 0.308354 1
0 0.308354 1
0 0.308354 1
0 0.308461 1
1 0.11928 1
1 0.851041 1
0 0.308354 1
0 0.308354 1
0 0.308354 1
0 0.308354 1
0 0.308354 1
0 0.308354 1
0 0.308461 1
1 0.11928 1
1 0.851041 1
0 0.308354 1
0 0.308354 1
0 0.308354 1
0 0.308354 1
0 0.308354 1
0 0.308354 1
0 0.308461 1
1 0.11928 1
1 0.851041 1
0 0.308354 1
0 0.308354 1
0 0.308354 1
0 0.308354 1
0 0.308354 1
0 0.308354 1
0 0.308461 1
1 0.11928 1
1 0.851041 1
0 0.308354 1
0 0.308354 1
0 0.308354 1
0 0.308354 1
0 0.308354 1
0 0.308354 1
0 0.308461 1
1 0.11928 1
1 0.851041 1
0 0.308278 1
0 0.308278 1
0 0.308278 1
0 0.308278 1
0 0.308278 1
0 0.308278 1
0 0.308339 1
1 0.120516 1
1 0.85301 1
0 0.306859 1
0 0.306859 1
0 0.306859 1
0 0.306859 1
0 0.306859 1
0 0.306859 1
0 0.30692 1
1 0.27866 1
1 0.856535 1
0 1 1
0 1 1
0 1 1
0 1 1
0 1 1
0 1 1
0 1 1
1 1 1
1 1 1
1 1 1
1 1 1
1 1 1
1 1 1
1 1 1
1 1 1
1 1 1
1 1 1
1 1 1
