BBLuts/BB_102_0410_LUT.cube
TITLE "Generated by Resolve"
LUT_3D_SIZE 9
0 0 0
0.0286564 0 0
0.200992 0 0
0.47248 0 0
0.820035 0 0
1 0 0
0.995666 0.645762 0.0577401
0.968444 0.967147 0.35465
0.954971 1 0.730388
0 0.0522774 0
0.00459297 0.0574197 0
0.200336 0.0345159 0
0.481132 0 0
0.821454 0 0
1 0.0378424 0
0.99324 0.669337 0.0472114
0.968307 0.969162 0.353521
0.954955 1 0.730297
0 0.222477 0
0 0.224338 0
0.132387 0.222965 0
0.48098 0.19498 0
0.823529 0.119631 0
1 0.311986 0
0.988602 0.707927 0.019791
0.968002 0.97351 0.351232
0.95494 1 0.730068
0 0.536583 0
0 0.537636 0
0 0.538689 0
0.376211 0.547951 0
0.802258 0.545144 0
0.990845 0.623987 0
0.977844 0.808148 0
0.966964 0.987961 0.350103
0.954833 1 0.729015
0 0.897459 0
0 0.897414 0
0 0.896727 0
0 0.89688 0
0.710857 0.890257 0
0.937591 0.901213 0
0.966674 0.947738 0
0.964446 1 0.362249
0.954482 1 0.725185
0 1 0
0 1 0
0 1 0
0 1 0
0.675883 1 0
0.888914 1 0
0.961593 1 0.0314031
0.960433 1 0.415702
0.953445 1 0.729946
0.571603 1 0.17322
0.571603 1 0.17322
0.571588 1 0.17322
0.571557 1 0.17322
0.753902 1 0.181674
0.879545 1 0.222232
0.950515 1 0.330129
0.955459 1 0.544167
0.951644 1 0.763073
0.843565 1 0.629328
0.843565 1 0.629328
0.843565 1 0.629328
0.843565 1 0.629328
0.843549 1 0.629328
0.891661 1 0.638773
0.9364 1 0.663584
0.950942 1 0.723644
0.949874 1 0.825147
0.916808 1 0.857984
0.916808 1 0.857984
0.916808 1 0.857984
0.916808 1 0.857984
0.916808 1 0.857984
0.916808 1 0.857984
0.935225 1 0.86125
0.949538 1 0.869383
0.949401 1 0.889174
0 0 0.0329595
0.00927749 0 0.0323491
0.20061 0 0.0293736
0.472648 0 0.0202792
0.821485 0 0.0105287
1 0 0.0211337
0.99707 0.643626 0.0964065
0.968444 0.967132 0.354665
0.954971 1 0.730388
0 0.0294347 0.0278477
0.0146639 0.0332647 0.0261387
0.20238 0.00526436 0.024445
0.475761 0 0.0132601
0.820966 0 0
1 0.0181888 0.00656138
0.994644 0.667613 0.0836805
0.968307 0.969162 0.353536
0.954955 1 0.730297
0 0.211337 0
0 0.213291 0
0.144076 0.211765 0
0.477378 0.183169 0
0.820127 0.0974289 0
1 0.297353 0
0.990219 0.707149 0.0568551
0.968002 0.97351 0.351232
0.95494 1 0.730068
0 0.530526 0
0 0.531548 0
0 0.532326 0
0.38706 0.541588 0
0.802075 0.539651 0
0.991058 0.620401 0
0.978088 0.80705 0
0.966964 0.987945 0.350103
0.954833 1 0.729015
0 0.895735 0
0 0.89572 0
0 0.895048 0
0 0.895415 0
0.713207 0.888945 0
0.937819 0.900404 0
0.966659 0.947372 0
0.964446 1 0.362249
0.954482 1 0.725185
0 1 0
0 1 0
0 1 0
0 1 0
0.677729 1 0
0.889113 1 0
0.961608 1 0.0313268
0.960433 1 0.415702
0.953445 1 0.729946
0.574853 1 0.172885
0.574853 1 0.172885
0.574853 1 0.1729
0.574823 1 0.1729
0.754742 1 0.181476
0.879759 1 0.22208
0.950545 1 0.330098
0.955459 1 0.544167
0.951644 1 0.763073
0.843748 1 0.629313
0.843748 1 0.629313
0.843748 1 0.629313
0.843748 1 0.629313
0.843732 1 0.629313
0.891722 1 0.638727
0.936416 1 0.663554
0.950942 1 0.723644
0.949874 1 0.825147
0.916823 1 0.857984
0.916823 1 0.857984
0.916823 1 0.857984
0.916823 1 0.857984
0.916823 1 0.857984
0.916823 1 0.857984
0.935241 1 0.86125
0.949538 1 0.869383
0.949401 1 0.889174
0 0 0.159594
0 0 0.159808
0.166705 0 0.155001
0.487511 0 0.139437
0.823758 0 0.131746
1 0 0.156024
1 0.632853 0.239445
0.96788 0.965286 0.413687
0.954971 1 0.730388
0 0 0.15761
0 0 0.157916
0.186282 0 0.152087
0.485267 0 0.136584
0.823896 0 0.127947
1 0 0.153582
0.998016 0.657832 0.233021
0.967727 0.967361 0.412665
0.954955 1 0.730297
0 0.178775 0.141878
0 0.181338 0.141955
0.131762 0.177203 0.138613
0.464668 0.149004 0.132464
0.82092 0.0447089 0.124086
1 0.250385 0.165942
0.994034 0.699718 0.220874
0.967422 0.971756 0.410376
0.95494 1 0.730068
0 0.516869 0.0601663
0 0.518288 0.0604715
0 0.519295 0.061387
0.387762 0.528588 0.0702678
0.802045 0.527321 0.0768597
0.997116 0.611917 0.107271
0.983154 0.805875 0.178622
0.96643 0.986511 0.401999
0.954833 1 0.729015
0 0.891844 0
0 0.891829 0
0 0.891157 0
0 0.891493 0
0.71429 0.885252 0
0.937972 0.897688 0
0.96965 0.948562 0.0611124
0.964233 1 0.381659
0.954482 1 0.7252
0 1 0
0 1 0
0 1 0
0 1 0
0.681361 1 0
0.889662 1 0
0.961624 1 0.0310979
0.960449 1 0.415351
0.953445 1 0.729946
0.580056 1 0.17203
0.580056 1 0.17203
0.580056 1 0.17203
0.580301 1 0.172305
0.756069 1 0.181125
0.880095 1 0.221805
0.950591 1 0.3299
0.955474 1 0.544045
0.951644 1 0.763073
0.844083 1 0.629267
0.844083 1 0.629267
0.844083 1 0.629267
0.844083 1 0.629267
0.844083 1 0.629267
0.891844 1 0.638682
0.936461 1 0.663523
0.950942 1 0.723629
0.949874 1 0.825147
0.916854 1 0.857984
0.916854 1 0.857984
0.916854 1 0.857984
0.916854 1 0.857984
0.916854 1 0.857984
0.916854 1 0.857984
0.935241 1 0.861234
0.949538 1 0.869383
0.949401 1 0.889174
0 0 0.435843
0 0 0.435996
0 0 0.435996
0.439643 0 0.420462
0.841154 0 0.409201
1 0 0.432227
1 0.580713 0.504601
0.965774 0.956924 0.586007
0.954665 1 0.757641
0 0 0.434241
0 0 0.434424
0.0240787 0 0.433265
0.45481 0 0.417746
0.840055 0 0.407324
1 0 0.429404
1 0.614221 0.501472
0.965606 0.959136 0.585397
0.95465 1 0.757549
0 0.0420233 0.429419
0 0.0441596 0.429587
0.0210727 0.0433509 0.428534
0.461097 0 0.413947
0.834424 0 0.402899
1 0.0452583 0.434546
0.997284 0.663127 0.495155
0.965255 0.963821 0.584039
0.954635 1 0.757366
0 0.454276 0.390906
0 0.455329 0.390997
0 0.457877 0.391806
0.36228 0.467079 0.402045
0.793667 0.463981 0.408988
1 0.562112 0.43653
0.984649 0.782971 0.473289
0.964111 0.979355 0.579126
0.954528 1 0.756542
0 0.886076 0.31223
0 0.886137 0.312215
0 0.885878 0.313298
0 0.885328 0.319615
0.710948 0.878584 0.32871
0.939147 0.891463 0.361288
0.969543 0.941878 0.428229
0.961654 1 0.564813
0.954162 1 0.753429
0 1 0.154101
0 1 0.154101
0 1 0.154101
0 1 0.157931
0.678187 1 0.153872
0.891112 1 0.216587
0.961791 1 0.347555
0.95874 1 0.528893
0.953262 1 0.744839
0.596109 1 0.170016
0.596109 1 0.170016
0.596109 1 0.170016
0.596109 1 0.170016
0.759823 1 0.179843
0.881117 1 0.220981
0.950759 1 0.331044
0.955489 1 0.543557
0.951644 1 0.762905
0.845289 1 0.629099
0.845289 1 0.629099
0.845289 1 0.629099
0.845289 1 0.629099
0.845289 1 0.629099
0.892287 1 0.638498
0.936599 1 0.663355
0.950942 1 0.723507
0.949874 1 0.825086
0.916991 1 0.857969
0.916991 1 0.857969
0.916991 1 0.857969
0.916991 1 0.857969
0.916991 1 0.857969
0.916991 1 0.857969
0.935302 1 0.861219
0.949538 1 0.869383
0.949401 1 0.889174
0 0 0.765255
0 0 0.765255
0 0 0.765591
0.137179 0 0.761563
0.804715 0 0.73695
1 0 0.746288
1 0.282887 0.787533
0.964813 0.934493 0.788067
0.954009 1 0.840589
0 0 0.765133
0 0 0.765133
0 0 0.765225
0.154589 0 0.760739
0.808881 0 0.736492
1 0 0.745876
1 0.359442 0.788128
0.964553 0.937316 0.787671
0.953994 1 0.840543
0 0 0.764004
0 0 0.764004
0 0 0.764111
0.203204 0 0.758206
0.815061 0 0.735439
1 0 0.74461
1 0.486152 0.785687
0.96405 0.942992 0.786892
0.953979 1 0.840452
0 0.190524 0.757382
0 0.190524 0.757382
0 0.194293 0.757412
0.183124 0.186908 0.756863
0.814694 0.112779 0.745998
1 0.242283 0.76759
0.992508 0.694423 0.77322
0.962386 0.962295 0.784146
0.953857 1 0.840009
0 0.830533 0.72076
0 0.830533 0.72076
0 0.830686 0.720836
0 0.829709 0.721462
0.678157 0.826535 0.724559
0.932067 0.846632 0.732341
0.967208 0.914107 0.743954
0.959075 1 0.777218
0.953445 1 0.838407
0 1 0.702052
0 1 0.702052
0 1 0.702037
0 1 0.702449
0.623194 1 0.690425
0.873625 1 0.695476
0.954955 1 0.718654
0.955261 1 0.763516
0.952468 1 0.833448
0.558312 1 0.615381
0.558312 1 0.615381
0.558312 1 0.615381
0.558312 1 0.615381
0.735348 1 0.613794
0.866697 1 0.627268
0.939696 1 0.663508
0.952544 1 0.732235
0.951125 1 0.819837
0.848859 1 0.628214
0.848859 1 0.628214
0.848859 1 0.628214
0.848859 1 0.628214
0.848859 1 0.628214
0.893507 1 0.637766
0.937011 1 0.662837
0.950927 1 0.725017
0.949874 1 0.824872
0.917464 1 0.857908
0.917464 1 0.857908
0.917464 1 0.857908
0.917464 1 0.857908
0.917464 1 0.857908
0.917449 1 0.857908
0.93547 1 0.861158
0.949538 1 0.869322
0.949401 1 0.889143
0 0 0.936172
0 0 0.936187
0 0 0.936187
0 0 0.936217
0.578302 0 0.913893
1 0 0.911208
1 0 0.911727
0.975433 0.83093 0.919646
0.953964 1 0.912917
0 0 0.936187
0 0 0.936187
0 0 0.936187
0 0 0.936217
0.577829 0 0.913893
1 0 0.911208
1 0 0.911635
0.974441 0.839017 0.918761
0.953948 1 0.912902
0 0 0.936095
0 0 0.936095
0 0 0.936095
0 0 0.936126
0.591852 0 0.91313
1 0 0.911086
1 0 0.911376
0.972656 0.853651 0.917144
0.953902 1 0.91284
0 0 0.935653
0 0 0.935653
0 0 0.935653
0 0 0.935683
0.658244 0 0.909743
1 0 0.910689
1 0.0537118 0.922026
0.967727 0.89662 0.912428
0.953765 1 0.912596
0 0.512306 0.920607
0 0.512306 0.920607
0 0.512306 0.920607
0 0.516945 0.92047
0.617044 0.521218 0.924392
0.989975 0.57084 0.933883
0.982605 0.774945 0.919127
0.960464 0.973037 0.904814
0.953277 1 0.911711
0 1 0.911925
0 1 0.911925
0 1 0.911925
0 1 0.911864
0.397345 1 0.904204
0.857008 1 0.890913
0.94995 1 0.892546
0.954696 1 0.897002
0.952117 1 0.909346
0.343145 1 0.893446
0.343191 1 0.893446
0.343816 1 0.8934
0.343816 1 0.8934
0.649973 1 0.880064
0.843931 1 0.877577
0.927459 1 0.881102
0.951232 1 0.88896
0.950591 1 0.90454
0.83212 1 0.849867
0.83212 1 0.849867
0.83212 1 0.849867
0.83212 1 0.849867
0.83212 1 0.849867
0.87863 1 0.851789
0.926024 1 0.857343
0.949142 1 0.870405
0.949371 1 0.893721
0.918883 1 0.85774
0.918883 1 0.85774
0.918883 1 0.85774
0.918883 1 0.85774
0.918883 1 0.85774
0.918883 1 0.85774
0.935958 1 0.860945
0.949538 1 0.869169
0.949401 1 0.889693
0 0 0.980163
0 0 0.980163
0 0 0.980163
0 0 0.980163
0 0 0.980163
0.926894 0 0.962814
1 0 0.967086
1 0 0.970977
0.956085 1 0.9635
0 0 0.980163
0 0 0.980163
0 0 0.980163
0 0 0.980163
0 0 0.980163
0.926879 0 0.962798
1 0 0.967086
1 0 0.971527
0.956039 1 0.963439
0 0 0.980163
0 0 0.980163
0 0 0.980163
0 0 0.980163
0 0 0.980163
0.926863 0 0.962814
1 0 0.967086
1 0 0.971832
0.955947 1 0.963348
0 0 0.980163
0 0 0.980163
0 0 0.980163
0 0 0.980163
0 0 0.980163
0.933791 0 0.963134
1 0 0.967086
1 0.00404364 0.973205
0.955596 1 0.962966
0 0 0.980163
0 0 0.980163
0 0 0.980163
0 0 0.980163
0 0 0.980163
0.967346 0 0.964767
1 0 0.967086
1 0.47863 0.998199
0.954543 1 0.961776
0 0.836759 0.972824
0 0.836759 0.972824
0 0.836759 0.972824
0 0.836759 0.972824
0 0.84007 0.972824
0.858824 0.835508 0.972747
0.966766 0.89247 0.969635
0.957794 0.999832 0.962249
0.952575 1 0.959411
0 1 0.980529
0 1 0.980529
0 1 0.980529
0 1 0.980529
0 1 0.980362
0.796902 1 0.95375
0.920806 1 0.953872
0.95082 1 0.954498
0.950454 1 0.956344
0.799527 1 0.947707
0.799527 1 0.947707
0.799527 1 0.947707
0.799527 1 0.947707
0.799527 1 0.947707
0.853498 1 0.947646
0.916732 1 0.948302
0.947753 1 0.949752
0.948959 1 0.952911
0.912337 1 0.937621
0.912337 1 0.937621
0.912337 1 0.937621
0.912337 1 0.937621
0.912337 1 0.937621
0.912337 1 0.937621
0.92987 1 0.938415
0.94696 1 0.940581
0.949004 1 0.945541
0 0.0445563 0.980697
0 0.0445563 0.980697
0 0.0445563 0.980697
0 0.0445563 0.980697
0 0.0445563 0.980697
0 0.0446784 0.980697
1 0 0.967117
1 0.0215763 0.976074
0.989944 0.718853 0.995346
0 0.0445563 0.980697
0 0.0445563 0.980697
0 0.0445563 0.980697
0 0.0445563 0.980697
0 0.0445563 0.980697
0 0.0446784 0.980697
1 0 0.967117
1 0.0215763 0.976074
0.989944 0.718837 0.995346
0 0.0445563 0.980697
0 0.0445563 0.980697
0 0.0445563 0.980697
0 0.0445563 0.980697
0 0.0445563 0.980697
0 0.0446784 0.980697
1 0 0.967117
1 0.0215763 0.976074
0.989944 0.718791 0.995346
0 0.0445563 0.980697
0 0.0445563 0.980697
0 0.0445563 0.980697
0 0.0445563 0.980697
0 0.0445563 0.980697
0 0.0446784 0.980697
1 0 0.967117
1 0.0215763 0.976074
0.98996 0.718654 0.995361
0 0.0443427 0.980697
0 0.0443427 0.980697
0 0.0443427 0.980697
0 0.0443427 0.980697
0 0.0443427 0.980697
0 0.0444495 0.980697
1 0 0.967132
1 0.024506 0.97644
0.990036 0.718135 0.995407
0 0.0428168 0.980682
0 0.0428168 0.980682
0 0.0428168 0.980682
0 0.0428168 0.980682
0 0.0428168 0.980682
0 0.0361028 0.980377
1 0 0.967086
1 0.0648051 0.981445
0.967132 0.897536 0.982971
0 1 0.997681
0 1 0.997681
0 1 0.997681
0 1 0.997681
0 1 0.997681
0 1 0.998535
0.924208 0.995621 0.979858
0.954498 1 0.979385
0.951568 1 0.97911
0.434211 1 0.990463
0.434211 1 0.990463
0.434211 1 0.990463
0.434211 1 0.990463
0.434211 1 0.990463
0.515953 1 0.986618
0.899413 1 0.977401
0.945983 1 0.977691
0.949126 1 0.977768
0.900481 1 0.975631
0.900481 1 0.975631
0.900481 1 0.975631
0.900481 1 0.975631
0.900481 1 0.975631
0.900481 1 0.975631
0.920501 1 0.975769
0.943664 1 0.975967
0.948775 1 0.976242
0 0.27248 0.981857
0 0.27248 0.981857
0 0.27248 0.981857
0 0.27248 0.981857
0 0.27248 0.981857
0 0.27248 0.981857
0 0.272572 0.981857
1 0.122164 0.988327
0.98468 0.758602 0.992386
0 0.27248 0.981857
0 0.27248 0.981857
0 0.27248 0.981857
0 0.27248 0.981857
0 0.27248 0.981857
0 0.27248 0.981857
0 0.272572 0.981857
1 0.122164 0.988327
0.98468 0.758602 0.992386
0 0.27248 0.981857
0 0.27248 0.981857
0 0.27248 0.981857
0 0.27248 0.981857
0 0.27248 0.981857
0 0.27248 0.981857
0 0.272572 0.981857
1 0.122164 0.988327
0.98468 0.758602 0.992386
0 0.27248 0.981857
0 0.27248 0.981857
0 0.27248 0.981857
0 0.27248 0.981857
0 0.27248 0.981857
0 0.27248 0.981857
0 0.272572 0.981857
1 0.122164 0.988327
0.98468 0.758602 0.992386
0 0.27248 0.981857
0 0.27248 0.981857
0 0.27248 0.981857
0 0.27248 0.981857
0 0.27248 0.981857
0 0.27248 0.981857
0 0.272572 0.981857
1 0.122103 0.988312
0.98468 0.758602 0.992386
0 0.272312 0.981857
0 0.272312 0.981857
0 0.272312 0.981857
0 0.272312 0.981857
0 0.272312 0.981857
0 0.272297 0.981857
0 0.272389 0.981857
1 0.143038 0.990646
0.984421 0.760647 0.992233
0 0.270985 0.981872
0 0.270985 0.981872
0 0.270985 0.981872
0 0.270985 0.981872
0 0.270985 0.981872
0 0.270985 0.981872
0.0454719 0.253361 0.983261
1 0.252277 0.999634
0.984009 0.763607 0.992004
0 1 1
0 1 1
0 1 1
0 1 1
0 1 1
0 1 1
0.088426 1 1
0.944244 1 0.979065
0.949889 1 0.978973
0.848615 1 0.977981
0.848615 1 0.977981
0.848615 1 0.977981
0.848615 1 0.977981
0.848615 1 0.977981
0.848615 1 0.977981
0.857114 1 0.978027
0.938582 1 0.978592
0.949096 1 0.979004
