BBLuts/BB_103_0360_LUT.cube
TITLE "Generated by Resolve"
LUT_3D_SIZE 9
0 0 0
0 0 0
0.157595 0 0
0.433387 0 0
0.773968 0 0
0.979095 0 0
0.965545 0.555093 0.0706188
0.935622 0.910155 0.375799
0.92163 1 0.723751
0 0.00822461 0
0 0.0190127 0
0.165957 0 0
0.445838 0 0
0.776379 0 0
0.979095 0 0
0.962478 0.594095 0.0595102
0.935271 0.914824 0.373159
0.921584 1 0.723491
0 0.180819 0
0 0.184695 0
0.112139 0.183185 0
0.447028 0.150256 0
0.777539 0.020676 0
0.980194 0.176745 0
0.957885 0.642741 0.0377508
0.934722 0.922332 0.368963
0.921538 1 0.723064
0 0.485634 0
0 0.487053 0
0 0.487831 0
0.360586 0.497108 0
0.764111 0.487205 0
0.960266 0.561639 0
0.944869 0.747173 0
0.93341 0.941009 0.356802
0.92137 1 0.721782
0 0.84332 0
0 0.843229 0
0 0.842802 0
0 0.839948 0
0.68368 0.839475 0
0.907149 0.850767 0
0.932448 0.900053 0
0.930663 0.978363 0.360739
0.920928 1 0.717937
0 1 0
0 1 0
0 1 0
0 1 0
0.655665 1 0
0.858412 1 0
0.925719 1 0
0.92668 1 0.409445
0.919951 1 0.713451
0.539361 1 0.141878
0.558541 1 0.141665
0.586191 1 0.141588
0.650217 1 0.142916
0.751583 1 0.154025
0.852216 1 0.195666
0.918563 1 0.312078
0.921889 1 0.531868
0.918181 1 0.742123
0.815473 1 0.610315
0.8168 1 0.610483
0.818936 1 0.610742
0.825025 1 0.611582
0.840543 1 0.614115
0.870069 1 0.621851
0.905501 1 0.643915
0.917494 1 0.701488
0.916487 1 0.798871
0.886061 1 0.829068
0.886213 1 0.829099
0.886488 1 0.829129
0.887297 1 0.829221
0.889586 1 0.829511
0.895354 1 0.830381
0.906432 1 0.832975
0.916182 1 0.839963
0.91606 1 0.858534
0 0 0.00445563
0 0 0.00462348
0.159213 0 0.00135805
0.435309 0 0
0.775036 0 0
0.981689 0 0.0083772
0.967453 0.549523 0.132876
0.935302 0.908797 0.415885
0.921553 1 0.73048
0 0 0
0 0 0
0.178088 0 0
0.441321 0 0
0.775433 0 0
0.980667 0 0
0.964431 0.590036 0.121584
0.934936 0.913497 0.413703
0.921523 1 0.730236
0 0.170993 0
0 0.174258 0
0.132967 0.17293 0
0.445258 0.139254 0
0.775631 0 0
0.980224 0.155581 0
0.960006 0.640711 0.101244
0.934371 0.92105 0.410178
0.921462 1 0.729839
0 0.480247 0
0 0.481575 0
0 0.482124 0
0.373968 0.490959 0
0.76405 0.481941 0
0.960525 0.557931 0
0.946975 0.747173 0.00511177
0.933028 0.939895 0.399863
0.921294 1 0.728618
0 0.841917 0
0 0.841794 0
0 0.841352 0
0 0.838437 0
0.686595 0.838132 0
0.907317 0.849851 0
0.932479 0.899565 0
0.930571 0.978042 0.370581
0.920851 1 0.724971
0 1 0
0 1 0
0 1 0
0 1 0
0.657618 1 0
0.858717 1 0
0.925719 1 0
0.92668 1 0.409201
0.919936 1 0.714076
0.542306 1 0.141497
0.561212 1 0.141329
0.58851 1 0.141283
0.651759 1 0.142657
0.752239 1 0.153857
0.852399 1 0.195544
0.918593 1 0.312062
0.921889 1 0.531792
0.918196 1 0.742077
0.815671 1 0.610285
0.817014 1 0.610452
0.81912 1 0.610727
0.825193 1 0.611551
0.840681 1 0.614084
0.870146 1 0.62182
0.905516 1 0.643885
0.917494 1 0.701473
0.916472 1 0.798856
0.886091 1 0.829068
0.886244 1 0.829099
0.886519 1 0.829129
0.887312 1 0.829221
0.889601 1 0.829511
0.895369 1 0.830381
0.906447 1 0.832975
0.916182 1 0.839963
0.91606 1 0.858534
0 0 0.116899
0 0 0.117098
0.137316 0 0.113283
0.450782 0 0.0982528
0.777798 0 0.0877699
0.984192 0 0.119234
0.969726 0.536171 0.238422
0.934844 0.906554 0.468421
0.921447 1 0.740581
0 0 0.113161
0 0 0.113497
0.166125 0 0.108812
0.448981 0 0.094728
0.780041 0 0.0837873
0.984115 0 0.112322
0.96669 0.579416 0.230945
0.934462 0.91133 0.466636
0.921416 1 0.740353
0 0.146365 0.0995956
0 0.148821 0.0992294
0.127062 0.141192 0.0935988
0.432776 0.114183 0.0888685
0.778561 0 0.073167
0.985443 0.0929732 0.116213
0.962371 0.633936 0.217975
0.933867 0.919005 0.463767
0.921355 1 0.739986
0 0.468086 0.01561
0 0.469688 0.0163272
0 0.470481 0.0173648
0.379202 0.47892 0.0254673
0.763821 0.470848 0.0327153
0.965896 0.550347 0.0713664
0.951446 0.746075 0.175113
0.932464 0.938094 0.455497
0.921187 1 0.738857
0 0.839002 0
0 0.838865 0
0 0.838422 0
0 0.835462 0
0.689204 0.835386 0
0.907347 0.8477 0
0.935317 0.901305 0.0355993
0.929885 0.976684 0.433143
0.920729 1 0.735515
0 1 0
0 1 0
0 1 0
0 1 0
0.660761 1 0
0.85919 1 0
0.925734 1 0
0.926696 1 0.40885
0.919799 1 0.725582
0.547066 1 0.140917
0.565545 1 0.14078
0.592233 1 0.140764
0.654246 1 0.14226
0.753292 1 0.153582
0.852689 1 0.195331
0.918669 1 0.312032
0.921889 1 0.531655
0.918196 1 0.742031
0.815991 1 0.610239
0.817334 1 0.610422
0.81944 1 0.610681
0.825483 1 0.611505
0.840894 1 0.614054
0.870253 1 0.62179
0.905562 1 0.64387
0.917494 1 0.701473
0.916472 1 0.79884
0.886122 1 0.829068
0.88629 1 0.829084
0.886564 1 0.829129
0.887358 1 0.829221
0.889632 1 0.829496
0.895384 1 0.830365
0.906462 1 0.832959
0.916182 1 0.839963
0.91606 1 0.858534
0 0 0.367453
0 0 0.36762
0 0 0.367712
0.421912 0 0.352041
0.795926 0 0.339254
0.984375 0 0.367056
0.973922 0.481559 0.46392
0.9337 0.899733 0.576181
0.921233 1 0.765789
0 0 0.364965
0 0 0.365194
0.0402838 0 0.36318
0.439643 0 0.348531
0.794003 0 0.336507
0.98439 0 0.363867
0.96997 0.536324 0.460029
0.933272 0.904753 0.57496
0.921187 1 0.765606
0 0.0277256 0.35993
0 0.0337072 0.360067
0.068925 0.0268559 0.357687
0.446998 0 0.343771
0.788083 0 0.332052
0.984421 0 0.357885
0.965133 0.603449 0.453788
0.932631 0.912398 0.572992
0.921126 1 0.765316
0 0.418204 0.320806
0 0.42031 0.32108
0 0.421759 0.321798
0.374624 0.428855 0.330617
0.754971 0.421515 0.337316
0.972198 0.506752 0.370886
0.953384 0.727733 0.431907
0.931029 0.932692 0.567514
0.920943 1 0.764431
0 0.835309 0.224063
0 0.835279 0.224826
0 0.834958 0.225971
0 0.832273 0.229084
0.691768 0.831342 0.24538
0.910979 0.844602 0.285054
0.936675 0.897444 0.376699
0.928176 0.972763 0.553506
0.92047 1 0.761791
0 1 0
0 1 0
0 1 0
0 1 0
0.66067 1 0
0.86215 1 0.0996262
0.929244 1 0.279728
0.925093 1 0.520455
0.919493 1 0.754162
0.560906 1 0.139193
0.578149 1 0.139132
0.603143 1 0.139269
0.66157 1 0.14107
0.756451 1 0.152758
0.853544 1 0.194705
0.918868 1 0.31191
0.921904 1 0.531273
0.918196 1 0.741848
0.816999 1 0.610117
0.818296 1 0.610269
0.820386 1 0.610544
0.826337 1 0.611368
0.84155 1 0.613916
0.870604 1 0.621653
0.905669 1 0.643748
0.917494 1 0.701442
0.916487 1 0.798779
0.886244 1 0.829053
0.886412 1 0.829068
0.886671 1 0.829099
0.88748 1 0.829206
0.889738 1 0.82948
0.895476 1 0.830365
0.906508 1 0.832944
0.916182 1 0.839963
0.91606 1 0.858534
0 0 0.700038
0 0 0.700114
0 0 0.700252
0.232273 0 0.693782
0.779873 0 0.673671
0.982177 0 0.683589
0.986694 0.170565 0.721584
0.933272 0.879499 0.74725
0.920928 1 0.814725
0 0 0.699351
0 0 0.699443
0 0 0.69958
0.264271 0 0.692073
0.785275 0 0.672984
0.982193 0 0.682857
0.983627 0.313252 0.726864
0.932647 0.885634 0.746365
0.920897 1 0.814603
0 0 0.698238
0 0 0.698344
0 0 0.698497
0.307485 0 0.689433
0.788571 0 0.671763
0.982193 0 0.68162
0.975555 0.449989 0.725383
0.931762 0.894728 0.745037
0.920821 1 0.814404
0 0.204669 0.690654
0 0.208057 0.690639
0 0.212421 0.690578
0.306386 0.206119 0.689204
0.787518 0.0756237 0.677928
0.986221 0.232471 0.700832
0.959228 0.656229 0.715068
0.929625 0.918151 0.741573
0.920623 1 0.813809
0 0.789715 0.652934
0 0.790066 0.653086
0 0.790158 0.653269
0 0.788312 0.653574
0.675746 0.787579 0.658381
0.903227 0.807401 0.668116
0.934554 0.873747 0.685359
0.925948 0.963409 0.733852
0.920119 1 0.812116
0 1 0.626612
0 1 0.626749
0 1 0.626932
0 1 0.627527
0.631525 1 0.617472
0.849561 0.998184 0.625711
0.924254 1 0.656123
0.922057 1 0.71902
0.919081 1 0.807492
0.546639 1 0.5243
0.564431 1 0.523857
0.590173 1 0.523323
0.650202 1 0.522728
0.747066 1 0.525795
0.845121 1 0.542016
0.910597 1 0.588495
0.919417 1 0.684382
0.917708 1 0.795316
0.819959 1 0.609689
0.82121 1 0.609857
0.823194 1 0.610132
0.828901 1 0.610956
0.843519 1 0.613519
0.871626 1 0.621256
0.906004 1 0.643412
0.917494 1 0.701381
0.916487 1 0.798611
0.886625 1 0.829007
0.886793 1 0.829023
0.887053 1 0.829068
0.887831 1 0.82916
0.890074 1 0.829435
0.89572 1 0.83032
0.90663 1 0.832914
0.916182 1 0.839918
0.91606 1 0.858534
0 0 0.888258
0 0 0.888273
0 0 0.888289
0 0 0.888334
0.668559 0 0.86363
0.982467 0 0.864988
0.982483 0 0.865919
0.942916 0.791501 0.876951
0.920943 1 0.874083
0 0 0.888182
0 0 0.888197
0 0 0.888212
0 0 0.888258
0.676783 0 0.863233
0.982467 0 0.864912
0.982483 0 0.865827
0.941299 0.804211 0.875486
0.920897 1 0.874006
0 0 0.88806
0 0 0.888075
0 0 0.88809
0 0 0.888121
0.689708 0 0.862638
0.982467 0 0.864759
0.982467 0 0.865705
0.93901 0.822705 0.87335
0.920821 1 0.873869
0 0 0.887678
0 0 0.887678
0 0 0.887694
0 0 0.887373
0.717617 0 0.861372
0.982467 0 0.864347
0.982467 0 0.863737
0.933898 0.866209 0.868391
0.920592 1 0.873503
0 0.568872 0.871977
0 0.570474 0.871931
0 0.573068 0.871839
0 0.577066 0.871229
0.672541 0.576837 0.875227
0.960601 0.615732 0.883925
0.945678 0.770062 0.871107
0.926909 0.937545 0.860975
0.919982 1 0.872465
0 1 0.863767
0 1 0.863691
0 1 0.863554
0 1 0.863005
0.548028 0.996414 0.851331
0.836637 0.981613 0.844892
0.919371 0.987594 0.847013
0.921309 1 0.853162
0.918807 1 0.870054
0.380362 1 0.843534
0.423011 1 0.841978
0.475334 1 0.839918
0.571664 1 0.835416
0.706996 1 0.830594
0.825208 1 0.83061
0.89781 1 0.834791
0.917937 1 0.844633
0.917281 1 0.865141
0.808774 1 0.794919
0.810056 1 0.794965
0.812116 1 0.795041
0.818006 1 0.795285
0.833051 1 0.796063
0.861997 1 0.798489
0.897551 1 0.805417
0.916304 1 0.822797
0.916091 1 0.853819
0.887755 1 0.82887
0.887892 1 0.828901
0.888151 1 0.828931
0.888899 1 0.829023
0.891035 1 0.829313
0.896452 1 0.830182
0.907027 1 0.832776
0.916182 1 0.839811
0.91606 1 0.858518
0 0 0.941787
0 0 0.941787
0 0 0.941787
0 0 0.941787
0 0 0.941787
0.965637 0 0.92845
0.982712 0 0.929213
0.982712 0 0.929213
0.922683 0.983734 0.921996
0 0 0.941787
0 0 0.941787
0 0 0.941787
0 0 0.941787
0 0 0.941787
0.966918 0 0.928512
0.982712 0 0.929213
0.982712 0 0.929213
0.922576 0.985031 0.921874
0 0 0.941787
0 0 0.941787
0 0 0.941787
0 0 0.941787
0 0 0.941787
0.968963 0 0.928618
0.982712 0 0.929213
0.982712 0 0.929213
0.922423 0.987091 0.921706
0 0 0.941787
0 0 0.941787
0 0 0.941787
0 0 0.941787
0 0 0.941787
0.97496 0 0.928923
0.982712 0 0.929213
0.982712 0 0.929213
0.921996 0.992905 0.921233
0 0 0.941787
0 0 0.941787
0 0 0.941787
0 0 0.941787
0.322988 0 0.934051
0.982712 0 0.929213
0.982712 0 0.929213
0.959518 0.661662 0.951644
0.920943 1 0.920027
0 0.906371 0.937224
0 0.906691 0.93724
0 0.907225 0.93727
0 0.908858 0.937316
0 0.902953 0.9355
0.847852 0.889723 0.925978
0.928405 0.915923 0.923476
0.923293 0.976074 0.919112
0.919127 1 0.917784
0 1 0.935897
0 1 0.935805
0 1 0.935683
0 1 0.935286
0.599405 1 0.916426
0.804685 1 0.911101
0.892714 1 0.911421
0.917784 1 0.912154
0.917128 1 0.914809
0.780926 1 0.904875
0.782666 1 0.90486
0.785428 1 0.904845
0.793271 1 0.904814
0.812833 1 0.904814
0.848737 1 0.904982
0.889479 1 0.905623
0.915724 1 0.90724
0.915694 1 0.911269
0.883452 1 0.892164
0.883619 1 0.89218
0.883864 1 0.89218
0.884627 1 0.892226
0.886809 1 0.892317
0.892332 1 0.892622
0.90312 1 0.893507
0.915465 1 0.896086
0.915755 1 0.902571
0 0.00251774 0.942016
0 0.00251774 0.942016
0 0.00251774 0.942016
0 0.002533 0.942016
0 0.00260929 0.942016
0 0.00280766 0.942016
0.982712 0 0.929213
0.982712 0 0.929213
0.952987 0.714427 0.95378
0 0.00247196 0.942016
0 0.00247196 0.942016
0 0.00248722 0.942016
0 0.00251774 0.942016
0 0.00259403 0.942016
0 0.00277714 0.942016
0.982712 0 0.929213
0.982712 0 0.929213
0.953002 0.714397 0.95378
0 0.00241093 0.942016
0 0.00241093 0.942016
0 0.00244144 0.942016
0 0.0024567 0.942016
0 0.00251774 0.942016
0 0.00273136 0.942016
0.982712 0 0.929213
0.982712 0 0.929213
0.953002 0.714351 0.953796
0 0.00225834 0.942016
0 0.00224308 0.942016
0 0.00225834 0.942016
0 0.00228885 0.942016
0 0.00236515 0.942016
0 0 0.942092
0.982712 0 0.929213
0.982712 0 0.929213
0.953017 0.714199 0.953796
0 0.00172427 0.942031
0 0.00172427 0.942031
0 0.00173953 0.942031
0 0.00177005 0.942031
0 0.00181582 0.942016
0.365164 0 0.932708
0.982712 0 0.929213
0.982712 0 0.929213
0.953079 0.71371 0.953841
0 7.62951e-05 0.942031
0 7.62951e-05 0.942031
0 7.62951e-05 0.942031
0 9.15541e-05 0.942031
0 0.000167849 0.942031
0.796841 0 0.921935
0.982712 0 0.929213
0.984817 0.000427253 0.936889
0.925963 0.940932 0.940307
0 1 0.960464
0 1 0.960479
0 1 0.960479
0 1 0.960479
0 1 0.96051
0.698756 1 0.94023
0.897093 1 0.939315
0.919478 1 0.939223
0.917861 1 0.939101
0.619547 1 0.941421
0.628321 1 0.941024
0.641428 1 0.940475
0.674937 1 0.939223
0.740261 1 0.937514
0.818998 1 0.936873
0.8813 1 0.93698
0.914488 1 0.937438
0.915816 1 0.937575
0.873335 1 0.934722
0.873549 1 0.934722
0.873884 1 0.934737
0.874907 1 0.934737
0.877791 1 0.934752
0.884947 1 0.934783
0.8981 1 0.934859
0.912291 1 0.935058
0.915526 1 0.9355
0 0.276539 0.942657
0 0.276539 0.942657
0 0.276539 0.942657
0 0.276555 0.942657
0 0.276555 0.942657
0 0.276631 0.942657
0 0.276753 0.942657
0.985992 0.291554 0.959564
0.946197 0.76556 0.949966
0 0.276539 0.942657
0 0.276539 0.942657
0 0.276539 0.942657
0 0.276539 0.942657
0 0.276555 0.942657
0 0.2766 0.942657
0 0.276753 0.942657
0.985977 0.29192 0.959564
0.946181 0.765621 0.949966
0 0.276509 0.942657
0 0.276509 0.942657
0 0.276509 0.942657
0 0.276539 0.942657
0 0.276539 0.942657
0 0.2766 0.942657
0 0.276738 0.942657
0.985946 0.2925 0.959594
0.946181 0.765698 0.94995
0 0.276493 0.942657
0 0.276493 0.942657
0 0.276493 0.942657
0 0.276493 0.942657
0 0.276509 0.942657
0 0.276555 0.942657
0 0.276692 0.942657
0.985885 0.294286 0.95964
0.946136 0.765957 0.949935
0 0.276356 0.942657
0 0.276356 0.942657
0 0.276356 0.942657
0 0.276356 0.942657
0 0.276387 0.942657
0 0.276432 0.942657
0.361654 0.259266 0.945586
0.985687 0.299733 0.959823
0.946044 0.76669 0.949874
0 0.27599 0.942657
0 0.27599 0.942657
0 0.27599 0.942657
0 0.276005 0.942657
0 0.276005 0.942657
0 0.276051 0.942657
0.822034 0.0235599 0.931716
0.985061 0.315831 0.960296
0.945891 0.767788 0.949798
0 0.27483 0.942672
0 0.27483 0.942672
0 0.27483 0.942672
0 0.274861 0.942672
0 0.274861 0.942672
0 0.274907 0.942672
0.982712 0 0.929213
0.983612 0.347082 0.960983
0.945617 0.769863 0.949645
0 1 0.961669
0 1 0.961669
0 1 0.961669
0 1 0.961669
0 1 0.961669
0 1 0.961669
0.845045 1 0.938628
0.916426 1 0.939086
0.916487 1 0.938979
0.825574 1 0.938109
0.826322 1 0.938109
0.827497 1 0.938125
0.83093 1 0.938125
0.840024 1 0.938186
0.859571 1 0.938308
0.88748 1 0.938521
0.909728 1 0.938659
0.915801 1 0.93901
