BBLuts/BB_104_0180_LUT.cube
TITLE "Generated by Resolve"
LUT_3D_SIZE 5
0.0100099 0.0194705 0.0323644
0.167712 0.0213779 0.0347906
0.698634 0.260639 0.319005
0.832227 0.623621 0.629587
0.810788 0.834363 0.711147
0 0.174929 0.0192569
0.115373 0.179736 0.0222171
0.703151 0.304692 0.33109
0.83061 0.641413 0.626856
0.810697 0.835264 0.709773
0 0.715679 0
0 0.715328 0
0.640391 0.714855 0.0034638
0.819944 0.759136 0.563851
0.810086 0.841093 0.699046
0 0.878294 0.0325933
0 0.877424 0.0323949
0.536538 0.871748 0.0275273
0.808148 0.861936 0.0167544
0.807126 0.861891 0.703166
0.783703 0.869215 0.789364
0.784024 0.86923 0.789425
0.786404 0.869245 0.789899
0.799161 0.869459 0.793729
0.806699 0.870024 0.815473
0.0276493 0.0320592 0.175814
0.166262 0.0336156 0.177691
0.698497 0.267704 0.367132
0.832441 0.620935 0.633036
0.810727 0.834119 0.727153
0.0012665 0.157275 0.151369
0.143893 0.156832 0.1514
0.699184 0.268711 0.364477
0.830915 0.638102 0.630442
0.81062 0.835019 0.726055
0 0.71284 0
0 0.712459 0
0.645457 0.712184 0.00329595
0.819974 0.758007 0.569558
0.809964 0.840848 0.717723
0 0.878126 0.0325628
0 0.877256 0.0323644
0.557778 0.871122 0.0263218
0.808225 0.861906 0.0167544
0.807126 0.861875 0.703059
0.783734 0.869215 0.789364
0.784085 0.869215 0.789425
0.78645 0.869245 0.789883
0.799176 0.869459 0.793713
0.806699 0.870024 0.815473
0.512261 0.508476 0.710384
0.51252 0.508751 0.710552
0.701213 0.529686 0.710842
0.831571 0.63151 0.74345
0.811154 0.83328 0.78883
0.510185 0.506065 0.709102
0.510475 0.506416 0.709285
0.706737 0.530205 0.709865
0.831006 0.636805 0.740948
0.811032 0.834226 0.788388
0 0.681712 0.669337
0 0.682002 0.669566
0.643122 0.683101 0.679103
0.819623 0.744091 0.715297
0.810269 0.840208 0.785306
0 0.877256 0.0323644
0 0.876417 0.032166
0.547387 0.87071 0.0268559
0.805295 0.861341 0.0167239
0.807034 0.861479 0.762966
0.784131 0.86923 0.789334
0.784451 0.86923 0.789395
0.78677 0.869261 0.789853
0.799298 0.869459 0.793683
0.806699 0.870024 0.815473
0.701961 0.725841 0.878202
0.701961 0.725841 0.878202
0.701961 0.725841 0.878202
0.8262 0.736553 0.880812
0.816373 0.81976 0.865827
0.701961 0.725841 0.878202
0.701961 0.725841 0.878202
0.701961 0.725841 0.878202
0.8262 0.736553 0.880812
0.816175 0.821469 0.865568
0.701961 0.725841 0.878202
0.701961 0.725841 0.878202
0.702785 0.725856 0.878218
0.8262 0.736553 0.880812
0.814893 0.832074 0.864042
0 0.881193 0.867338
0 0.880034 0.867277
0.530846 0.867918 0.86128
0.794568 0.855161 0.856291
0.810544 0.862119 0.858534
0.784909 0.870619 0.84065
0.785199 0.870619 0.840665
0.78735 0.870649 0.840818
0.799115 0.870848 0.841978
0.808301 0.87129 0.848936
0.701839 0.726604 0.878187
0.701839 0.726604 0.878187
0.701839 0.726604 0.878187
0.701839 0.726604 0.878187
0.824353 0.752926 0.879927
0.701839 0.726604 0.878187
0.701839 0.726604 0.878187
0.701839 0.726604 0.878187
0.701839 0.726604 0.878187
0.824353 0.752956 0.879927
0.701839 0.726604 0.878187
0.701839 0.726604 0.878187
0.701839 0.726604 0.878187
0.702937 0.726528 0.878202
0.824323 0.753094 0.879911
0.701839 0.726604 0.878187
0.701839 0.726604 0.878187
0.701839 0.726604 0.878187
0.8262 0.736553 0.880812
0.824277 0.753552 0.879896
0.749615 0.872236 0.873426
0.750912 0.872236 0.873442
0.759396 0.872297 0.873503
0.791684 0.872633 0.873945
0.810315 0.872892 0.874311
