BBLuts/BB_102_0280_LUT.cube
TITLE "Generated by Resolve"
LUT_3D_SIZE 5
0 0 0
0.150729 0 0
0.97113 0 0
1 0.685771 0.181231
1 1 0.960983
0 0.222477 0
0.0590372 0.240177 0
0.950484 0.101671 0
1 0.760342 0.0992905
1 1 0.960845
0 0.962264 0
0 0.961913 0
0.715984 0.986282 0
1 1 0.00175479
1 1 0.95874
0.463569 1 0.384955
0.463569 1 0.384955
0.790204 1 0.393957
1 1 0.609781
1 1 0.97995
1 1 1
1 1 1
1 1 1
1 1 1
1 1 1
0 0 0.335683
0.111116 0 0.347494
0.957961 0 0.323842
1 0.66804 0.451316
1 1 0.960998
0 0.16643 0.284871
0.0585184 0.17789 0.292882
0.953658 0 0.298207
1 0.745449 0.424277
1 1 0.960845
0 0.955398 0
0 0.955032 0
0.725277 0.979797 0
1 1 0.0978866
1 1 0.95874
0.478904 1 0.383459
0.478904 1 0.383459
0.794385 1 0.392966
1 1 0.609415
1 1 0.97995
1 1 1
1 1 1
1 1 1
1 1 1
1 1 1
0 0 0.959472
0 0 0.959533
0.923079 0 0.973129
1 0.324483 0.960861
1 1 1
0 0 0.95877
0 0 0.958816
0.941436 0 0.971969
1 0.532113 0.958206
1 1 1
0 0.866667 0.897047
0 0.866743 0.897063
0.649042 0.896345 0.933455
1 1 0.944991
1 1 1
0.453513 1 0.873243
0.453513 1 0.873243
0.758648 1 0.872328
1 1 0.900633
1 1 1
1 1 1
1 1 1
1 1 1
1 1 1
1 1 1
0 0 1
0 0 1
0 0 1
1 0 1
1 1 1
0 0 1
0 0 1
0 0 1
1 0 1
1 1 1
0 0 1
0 0 1
0 0 1
1 0 1
1 1 1
0 1 1
0 1 1
0 1 1
1 1 1
1 1 1
1 1 1
1 1 1
1 1 1
1 1 1
1 1 1
0 0.308354 1
0 0.308354 1
0 0.308354 1
0 0.308461 1
1 0.851041 1
0 0.308354 1
0 0.308354 1
0 0.308354 1
0 0.308461 1
1 0.851041 1
0 0.308354 1
0 0.308354 1
0 0.308354 1
0 0.308461 1
1 0.851041 1
0 0.306859 1
0 0.306859 1
0 0.306859 1
0 0.30692 1
1 0.856535 1
1 1 1
1 1 1
1 1 1
1 1 1
1 1 1
