BBLuts/BB_103_0800_LUT.cube
TITLE "Generated by Resolve"
LUT_3D_SIZE 33
0.037583 0.0376135 0.0376745
0.037583 0.0376135 0.0376745
0.037583 0.0376135 0.0376745
0.037583 0.0376135 0.0376745
0.037583 0.0376135 0.0376745
0.0843824 0.0376745 0.037705
0.139147 0.0377356 0.0377508
0.17995 0.0377813 0.0377813
0.220203 0.0378729 0.0378119
0.268284 0.0380865 0.0378424
0.324895 0.0383459 0.0378882
0.388128 0.0386358 0.0379339
0.46099 0.0389563 0.037995
0.54345 0.0393378 0.038056
0.628153 0.0397955 0.0381323
0.715389 0.0402838 0.0382086
0.805341 0.0407721 0.0383001
0.89546 0.0412757 0.0383764
0.975402 0.0417182 0.0384527
1 0.0420691 0.0385138
1 0.0420691 0.0385138
1 0.0420691 0.0385138
1 0.29752 0.103059
1 0.474037 0.146578
0.997559 0.604013 0.195285
0.98851 0.708965 0.253269
0.980179 0.80528 0.331914
0.973404 0.8822 0.435523
0.968246 0.940078 0.543008
0.964172 0.984527 0.637736
0.961074 1 0.727611
0.958572 1 0.81091
0.956634 1 0.876951
0.037583 0.0376135 0.0376745
0.037583 0.0376135 0.0376745
0.037583 0.0376135 0.0376745
0.037583 0.0376135 0.0376745
0.037583 0.0376135 0.0376745
0.0965591 0.0376898 0.0377203
0.143542 0.0377356 0.0377508
0.183185 0.0377813 0.0377813
0.22536 0.0378882 0.0378119
0.274403 0.038117 0.0378424
0.331106 0.0383764 0.0378882
0.393652 0.0386511 0.0379339
0.464668 0.0389715 0.037995
0.545525 0.039353 0.038056
0.62977 0.0398108 0.0381323
0.716518 0.0402838 0.0382086
0.806012 0.0407874 0.0383001
0.895735 0.0412757 0.0383764
0.97525 0.0417182 0.0384527
1 0.0420691 0.0385138
1 0.0420691 0.0385138
1 0.0420691 0.0385138
1 0.324483 0.0919509
1 0.487831 0.141665
0.996933 0.6112 0.19263
0.988083 0.714061 0.251835
0.979904 0.808591 0.330404
0.973236 0.884062 0.434699
0.968154 0.941131 0.54258
0.964126 0.985138 0.637507
0.961044 1 0.727474
0.958556 1 0.810819
0.956619 1 0.876905
0.037583 0.0376135 0.0376745
0.037583 0.0376135 0.0376745
0.037583 0.0376135 0.0376745
0.037583 0.0376135 0.0376745
0.037583 0.0376135 0.0376745
0.103807 0.0376898 0.0377203
0.145449 0.0377356 0.0377508
0.186297 0.0377813 0.0377813
0.230747 0.0379187 0.0378119
0.280278 0.0381476 0.0378576
0.336065 0.0383917 0.0378882
0.396719 0.0386664 0.0379492
0.467506 0.0389868 0.037995
0.547799 0.0393683 0.038056
0.631403 0.0398108 0.0381323
0.717617 0.0402991 0.0382086
0.806668 0.0407874 0.0383001
0.895979 0.0412757 0.0383764
0.975052 0.0417182 0.0384527
1 0.0420691 0.0385138
1 0.0420691 0.0385138
1 0.0420691 0.0385138
1 0.34844 0.0759289
1 0.500694 0.1364
0.996338 0.61828 0.189944
0.987671 0.719097 0.250416
0.979629 0.81181 0.328862
0.973098 0.885893 0.433906
0.968063 0.942184 0.542153
0.964065 0.985748 0.637263
0.961013 1 0.727306
0.958541 1 0.810742
0.956603 1 0.87686
0.037583 0.0376135 0.0376745
0.037583 0.0376135 0.0376745
0.037583 0.0376135 0.0376745
0.0374914 0.0449989 0.0376593
0.0601205 0.0506142 0.0376745
0.109194 0.0376898 0.0377203
0.146395 0.0377356 0.0377508
0.18674 0.0377813 0.0377813
0.231754 0.0379187 0.0378119
0.28249 0.0381476 0.0378576
0.339101 0.038407 0.0379034
0.399374 0.0386816 0.0379492
0.470237 0.0390021 0.037995
0.550072 0.0393683 0.038056
0.633066 0.039826 0.0381323
0.718746 0.0402991 0.0382239
0.807309 0.0407874 0.0383001
0.896208 0.0412757 0.0383764
0.974838 0.0417182 0.0384527
1 0.0420539 0.0385138
1 0.0420691 0.0385138
1 0.150256 0.0384222
1 0.370108 0.0382391
1 0.512856 0.130739
0.995758 0.625299 0.187213
0.987259 0.724025 0.248981
0.97937 0.814954 0.327337
0.972946 0.887694 0.433082
0.967971 0.943236 0.541726
0.964019 0.986328 0.637034
0.960983 1 0.727169
0.958526 1 0.810651
0.956603 1 0.876799
0.0331731 0.0963455 0.0376135
0.0328985 0.0996414 0.0376135
0.0326238 0.102846 0.0376135
0.0323644 0.105913 0.0376135
0.0322728 0.107118 0.0376135
0.0949569 0.106783 0.0376593
0.136019 0.104799 0.0376898
0.178637 0.0998703 0.0377203
0.226383 0.0885634 0.0377661
0.283345 0.0381628 0.0378576
0.340948 0.0384222 0.0379034
0.401709 0.0386816 0.0379492
0.472877 0.0390021 0.037995
0.552392 0.0393835 0.038056
0.634745 0.039826 0.0381323
0.719875 0.0403143 0.0382239
0.807965 0.0408026 0.0383001
0.896391 0.0412909 0.0383764
0.974609 0.0417182 0.0384527
1 0.0420539 0.0385138
1 0.0420691 0.0385138
1 0.211704 0.0383764
1 0.390036 0.0382239
1 0.524376 0.124575
0.995178 0.632151 0.184436
0.986847 0.728878 0.247578
0.97911 0.818051 0.325811
0.972793 0.889464 0.432273
0.967895 0.944274 0.541299
0.963973 0.986923 0.63682
0.960952 1 0.727016
0.958495 1 0.810559
0.956588 1 0.876753
0.0301976 0.131762 0.037583
0.0299687 0.134401 0.037583
0.0297551 0.136995 0.037583
0.029572 0.139071 0.037583
0.0294957 0.140047 0.037583
0.0728008 0.140307 0.0376135
0.125475 0.139773 0.0376593
0.171054 0.13785 0.0376898
0.220233 0.13344 0.0377356
0.275669 0.124529 0.0377813
0.335836 0.106752 0.0378424
0.403693 0.0386969 0.0379492
0.475425 0.0390173 0.037995
0.554757 0.0393988 0.0380713
0.636484 0.0398413 0.0381323
0.72105 0.0403143 0.0382239
0.808606 0.0408026 0.0383001
0.896605 0.0412909 0.0383764
0.974365 0.0417182 0.0384527
1 0.0420539 0.0385138
1 0.0420691 0.0385138
1 0.252644 0.0383459
1 0.408682 0.0382086
1 0.535424 0.117723
0.994629 0.63888 0.181567
0.98645 0.733669 0.246159
0.978866 0.821103 0.324285
0.972656 0.891218 0.431464
0.967803 0.945296 0.540871
0.963928 0.987503 0.636591
0.960922 1 0.726879
0.95848 1 0.810452
0.956588 1 0.876722
0.0271916 0.167452 0.0375677
0.0270085 0.169696 0.0375525
0.0268101 0.171923 0.0375525
0.0267033 0.17322 0.0375525
0.0266423 0.174044 0.0375525
0.0266117 0.174304 0.0375525
0.107332 0.174456 0.0376135
0.160296 0.173678 0.0376593
0.212634 0.171435 0.037705
0.270161 0.166705 0.0377508
0.331075 0.157473 0.0377966
0.396658 0.141955 0.0378576
0.47216 0.111345 0.0379492
0.557595 0.0394141 0.0380713
0.638605 0.0398566 0.0381476
0.722469 0.0403143 0.0382239
0.8094 0.0408026 0.0383001
0.896819 0.0412909 0.0383764
0.974029 0.0417182 0.0384527
1 0.0420539 0.0385138
1 0.0420691 0.0385138
1 0.292058 0.0383154
1 0.429938 0.0381933
1 0.548257 0.108019
0.993957 0.646922 0.177996
0.985962 0.739437 0.244388
0.978561 0.824781 0.322393
0.972473 0.893309 0.430488
0.967697 0.946548 0.540368
0.963867 0.98822 0.636316
0.960891 1 0.726711
0.958465 1 0.810361
0.956573 1 0.876646
0.0237278 0.208621 0.0375219
0.0235599 0.21059 0.0375219
0.0234226 0.212161 0.0375219
0.0233463 0.213107 0.0375219
0.0232853 0.213794 0.0375219
0.0232547 0.214145 0.0375219
0.0529793 0.214359 0.0375372
0.141161 0.214359 0.0376135
0.200366 0.213336 0.0376593
0.261067 0.2103 0.037705
0.324331 0.204074 0.0377661
0.392767 0.194827 0.0378119
0.469322 0.180514 0.0378882
0.552407 0.155093 0.0379797
0.637766 0.0935378 0.0381018
0.724407 0.0403296 0.0382239
0.810498 0.0408026 0.0383001
0.897139 0.0412909 0.0383764
0.973556 0.0417182 0.0384527
1 0.0420539 0.0385138
1 0.190997 0.0383917
1 0.335271 0.0382696
1 0.456199 0.0381781
1 0.564385 0.0911269
0.993088 0.657343 0.173053
0.985336 0.746975 0.242054
0.978164 0.829541 0.321004
0.972244 0.896071 0.42916
0.967559 0.94818 0.539681
0.96379 0.989151 0.635935
0.960845 1 0.726452
0.958434 1 0.810224
0.956558 1 0.87657
0.0196231 0.257282 0.0375067
0.0194858 0.2589 0.0375067
0.0194247 0.259724 0.0375067
0.0193484 0.260578 0.0375067
0.0193027 0.261143 0.0375067
0.0192721 0.26154 0.0375067
0.0192569 0.261769 0.0375067
0.098436 0.262089 0.0375372
0.178286 0.260929 0.0375982
0.245258 0.258457 0.0376593
0.313237 0.254368 0.0377203
0.385931 0.248127 0.0377661
0.4663 0.238804 0.0378424
0.551141 0.224521 0.0379187
0.633844 0.204028 0.0380102
0.717952 0.173297 0.038117
0.806653 0.119112 0.0382391
0.897536 0.0412909 0.0383764
0.972869 0.0417182 0.0384527
1 0.167681 0.038407
1 0.276967 0.0383154
1 0.382895 0.0382391
1 0.487861 0.0381476
0.999603 0.584405 0.038056
0.991989 0.67071 0.166125
0.984527 0.756741 0.238941
0.977646 0.835645 0.319936
0.971954 0.899641 0.42742
0.967391 0.950347 0.538766
0.963684 0.990372 0.635447
0.960784 1 0.726146
0.958404 1 0.810025
0.956527 1 0.876463
0.0149233 0.313176 0.0375067
0.0148928 0.313619 0.0375067
0.0148623 0.314046 0.0375067
0.0148165 0.314443 0.0375067
0.0148013 0.314641 0.0375067
0.0148013 0.314687 0.0375067
0.0148165 0.31458 0.0375067
0.014847 0.314214 0.0375067
0.135866 0.313863 0.0375372
0.220233 0.312505 0.0375982
0.295689 0.309941 0.0376593
0.37406 0.305638 0.0377203
0.4598 0.29897 0.0377966
0.549371 0.289006 0.0378729
0.632975 0.277256 0.0379492
0.71519 0.262928 0.0380407
0.799939 0.246754 0.0381323
0.884916 0.233265 0.0382239
0.958175 0.241337 0.0382849
1 0.284001 0.0383154
1 0.35198 0.0382544
1 0.435386 0.0381933
1 0.523873 0.038117
0.997681 0.607782 0.0380407
0.990585 0.687648 0.156161
0.983505 0.769116 0.234852
0.977005 0.843473 0.318624
0.971572 0.904204 0.425147
0.967147 0.953124 0.53756
0.963546 0.991974 0.634791
0.960708 1 0.725719
0.958358 1 0.809766
0.956497 1 0.876326
0.00987259 0.373297 0.0375067
0.00984207 0.373754 0.0375067
0.00979629 0.374212 0.0375067
0.00976577 0.374548 0.0375067
0.00975052 0.374792 0.0375067
0.00973526 0.374914 0.0375067
0.00973526 0.374975 0.0375067
0.00975052 0.374868 0.0375067
0.00978103 0.374426 0.0375067
0.176623 0.374182 0.0375219
0.267872 0.372778 0.037583
0.354482 0.370031 0.0376593
0.447013 0.365301 0.0377356
0.544182 0.35845 0.0378119
0.631174 0.350637 0.0379034
0.713375 0.342626 0.0379797
0.796292 0.335515 0.0380713
0.878599 0.332311 0.0381476
0.949599 0.342855 0.0382086
1 0.375082 0.0382391
1 0.426856 0.0381933
1 0.493233 0.0381476
1 0.564508 0.0380865
0.995346 0.63537 0.0380102
0.988846 0.708843 0.141176
0.982223 0.784482 0.229603
0.976181 0.853269 0.317037
0.971099 0.910018 0.42211
0.966857 0.956741 0.535943
0.963378 0.994064 0.633921
0.960601 1 0.725155
0.958297 1 0.809415
0.956466 1 0.876112
0.00387579 0.444938 0.0375067
0.00383001 0.445396 0.0375067
0.0037995 0.445808 0.0375067
0.00376898 0.446128 0.0375067
0.00375372 0.446372 0.0375067
0.00373846 0.446555 0.0375067
0.0037232 0.446693 0.0375067
0.0037232 0.446769 0.0375067
0.00373846 0.446616 0.0375067
0.00376898 0.446143 0.0375067
0.219425 0.446113 0.0375067
0.322469 0.444633 0.037583
0.424842 0.441901 0.0376593
0.531502 0.437659 0.0377356
0.624659 0.432334 0.0378271
0.709682 0.427344 0.0379187
0.792355 0.42446 0.037995
0.87219 0.425986 0.0380713
0.940459 0.437812 0.0381323
0.992508 0.463966 0.0381476
1 0.503136 0.0381323
1 0.552728 0.0380865
0.997604 0.608804 0.0380407
0.992523 0.668742 0.0379797
0.986725 0.73492 0.11574
0.980667 0.803204 0.222934
0.975174 0.865354 0.315206
0.970489 0.917754 0.418128
0.966476 0.961334 0.533806
0.963165 0.996735 0.632761
0.960464 1 0.724392
0.958206 1 0.808972
0.95642 1 0.875868
0 0.528374 0.0375067
0 0.528756 0.0375067
0 0.529076 0.0375067
0 0.529351 0.0375067
0 0.529564 0.0375067
0 0.529747 0.0375067
0 0.529915 0.0375067
0 0.530053 0.0375067
0 0.530159 0.0375067
0 0.530266 0.0375067
0.0961013 0.530556 0.0375067
0.267506 0.530648 0.0375067
0.388434 0.529625 0.0375525
0.507195 0.527169 0.037644
0.61004 0.523796 0.0377508
0.700053 0.52047 0.0378271
0.785763 0.5187 0.0379187
0.86453 0.520714 0.0379797
0.930251 0.529946 0.0380407
0.980697 0.548623 0.0380713
1 0.57673 0.0380713
0.997253 0.612818 0.0380407
0.993561 0.656458 0.037995
0.989212 0.708049 0.0379339
0.984314 0.766232 0.0378729
0.978821 0.825376 0.214755
0.973953 0.87982 0.313283
0.969726 0.926848 0.41619
0.966003 0.967102 0.531014
0.962875 1 0.631235
0.960281 1 0.723384
0.958099 1 0.808362
0.956344 1 0.875532
0 0.61387 0.0375067
0 0.614115 0.0375067
0 0.614328 0.0375067
0 0.614542 0.0375067
0 0.614694 0.0375067
0 0.614847 0.0375067
0 0.614984 0.0375067
0 0.615122 0.0375067
0 0.615228 0.0375067
0 0.615244 0.0375067
0 0.615137 0.0375067
0.157763 0.615274 0.0375067
0.332464 0.614816 0.0375067
0.469123 0.613306 0.0375525
0.585809 0.611048 0.037644
0.682841 0.608469 0.0377356
0.774044 0.606592 0.0378271
0.854475 0.60737 0.0379034
0.91841 0.613443 0.0379644
0.967071 0.626352 0.037995
0.994415 0.646357 0.037995
0.992065 0.67425 0.0379797
0.989044 0.709987 0.0379339
0.985412 0.753307 0.0378882
0.981323 0.801755 0.0378424
0.976715 0.850752 0.205249
0.972549 0.896635 0.31162
0.968795 0.937835 0.416876
0.965423 0.974197 0.527321
0.962524 1 0.629236
0.960067 1 0.722042
0.957961 1 0.807553
0.956268 1 0.875074
0 0.697169 0.0375067
0 0.697307 0.0375067
0 0.697444 0.0375067
0 0.697566 0.0375067
0 0.697658 0.0375067
0 0.697734 0.0375067
0 0.697795 0.0375067
0 0.697841 0.0375067
0 0.697871 0.0375067
0 0.69781 0.0375067
0 0.697597 0.0375067
0 0.697093 0.0375067
0.244511 0.696986 0.0375067
0.415656 0.695827 0.0375067
0.550103 0.693935 0.0375372
0.65745 0.691539 0.037644
0.755077 0.689235 0.0377356
0.839094 0.688914 0.0378119
0.903227 0.692973 0.0378729
0.951263 0.702663 0.0379034
0.988357 0.718166 0.0379339
0.986511 0.740093 0.0379034
0.984115 0.768643 0.0378729
0.981247 0.802579 0.0378424
0.978119 0.839963 0.0378119
0.974395 0.878553 0.195377
0.970962 0.915862 0.310735
0.967697 0.950851 0.41825
0.964706 0.982666 0.523476
0.962097 1 0.626581
0.959777 1 0.720272
0.957794 1 0.80647
0.956161 1 0.874479
0 0.782101 0.0375067
0 0.782177 0.0375067
0 0.782223 0.0375067
0 0.782269 0.0375067
0 0.782284 0.0375067
0 0.7823 0.0375067
0 0.7823 0.0375067
0 0.782269 0.0375067
0 0.782193 0.0375067
0 0.78204 0.0375067
0 0.78172 0.0375067
0 0.781094 0.0375067
0 0.77998 0.0375067
0.343252 0.77969 0.0375067
0.503456 0.778042 0.0375067
0.624796 0.775876 0.0375372
0.728496 0.773449 0.0376287
0.816709 0.772274 0.0377203
0.883192 0.774395 0.0377813
0.932357 0.78088 0.0378119
0.969085 0.791989 0.0378424
0.980819 0.807752 0.0378424
0.979126 0.827817 0.0378119
0.977111 0.851865 0.0377966
0.974823 0.87892 0.0377661
0.972 0.907393 0.187686
0.969192 0.936828 0.311284
0.966445 0.965682 0.420798
0.963882 0.992462 0.526055
0.961563 1 0.623117
0.959426 1 0.717937
0.957565 1 0.805035
0.956024 1 0.873671
0 0.864836 0.0375067
0 0.86482 0.0375067
0 0.86479 0.0375067
0 0.864759 0.0375067
0 0.864713 0.0375067
0 0.864652 0.0375067
0 0.864576 0.0375067
0 0.864454 0.0375067
0 0.864271 0.0375067
0 0.863966 0.0375067
0 0.863462 0.0375067
0 0.862669 0.0375067
0 0.861387 0.0375067
0.244892 0.860655 0.0375067
0.445945 0.859068 0.0375067
0.588617 0.856733 0.0375067
0.697734 0.853941 0.0375219
0.789303 0.851759 0.0376135
0.858824 0.851606 0.0376898
0.910658 0.854261 0.0377203
0.94931 0.860227 0.0377661
0.975601 0.869795 0.0377813
0.974533 0.882445 0.0377661
0.97322 0.898054 0.0377508
0.971695 0.916503 0.0377203
0.969543 0.937041 0.185489
0.9673 0.959274 0.314488
0.965072 0.981888 0.425254
0.962951 1 0.529931
0.960922 1 0.621378
0.959014 1 0.71487
0.957305 1 0.803159
0.95584 1 0.872587
0 0.934188 0.0374304
0 0.934081 0.0374304
0 0.933989 0.0374304
0 0.933883 0.0374304
0 0.933776 0.0374304
0 0.933654 0.0374304
0 0.933516 0.0374304
0 0.933288 0.0374304
0 0.932967 0.0374304
0 0.932509 0.0374304
0 0.931823 0.0374304
0 0.930785 0.0374304
0 0.92932 0.0374304
0.136904 0.928023 0.0375067
0.398749 0.926421 0.0375067
0.557214 0.923842 0.0375067
0.672358 0.920623 0.0375067
0.764385 0.917708 0.0375372
0.835309 0.915984 0.0375982
0.889891 0.915892 0.0376593
0.930755 0.918013 0.0376898
0.959991 0.922652 0.0377203
0.970581 0.929824 0.0377203
0.969757 0.939529 0.037705
0.968734 0.951659 0.0376898
0.967071 0.966049 0.192859
0.965347 0.982055 0.322118
0.963623 0.998718 0.432593
0.961898 1 0.535515
0.960174 1 0.625315
0.958511 1 0.710826
0.95697 1 0.800641
0.955627 1 0.871168
0 0.986572 0.0373846
0 0.986435 0.0373846
0 0.986282 0.0373846
0 0.98613 0.0373846
0 0.985977 0.0373846
0 0.985809 0.0373846
0 0.985595 0.0373846
0 0.985306 0.0373846
0 0.984878 0.0373846
0 0.984298 0.0373846
0 0.983474 0.0373846
0 0.982315 0.0373846
0 0.980789 0.0373846
0.0942245 0.979263 0.0374914
0.38117 0.977691 0.0375067
0.542672 0.97499 0.0375067
0.657496 0.97171 0.0375067
0.746761 0.968536 0.0375067
0.816159 0.966186 0.0375372
0.871473 0.964828 0.037583
0.913756 0.96495 0.0376287
0.944854 0.966842 0.0376593
0.967147 0.970596 0.0376745
0.966659 0.976272 0.0376745
0.966033 0.98381 0.0376593
0.964736 0.993133 0.213687
0.963485 1 0.336324
0.962173 1 0.443931
0.960769 1 0.543526
0.959335 1 0.630823
0.957916 1 0.713924
0.956588 1 0.797314
0.955367 1 0.869291
0 1 0.0373388
0 1 0.0373388
0 1 0.0373388
0 1 0.0373388
0 1 0.0373388
0 1 0.0373388
0 1 0.0373388
0 1 0.0373388
0 1 0.0373388
0 1 0.0373388
0 1 0.0373388
0 1 0.0373388
0 1 0.0373388
0.175204 1 0.0375067
0.398428 1 0.0375067
0.547662 1 0.0375067
0.653574 1 0.0375067
0.736751 1 0.0375067
0.802579 1 0.0375067
0.856443 1 0.0375372
0.898344 1 0.037583
0.931289 1 0.0376135
0.956466 1 0.0376287
0.964065 1 0.037644
0.963714 1 0.0376287
0.962615 1 0.248035
0.9617 1 0.358633
0.960693 1 0.460441
0.959594 1 0.554711
0.958434 1 0.638498
0.957259 1 0.719753
0.95613 1 0.797665
0.955047 1 0.866789
0 1 0.0373083
0 1 0.0373083
0 1 0.0373083
0 1 0.0373083
0 1 0.0373083
0 1 0.0373083
0 1 0.0373083
0 1 0.0373083
0 1 0.0373083
0 1 0.0373083
0 1 0.0373083
0 1 0.0373083
0 1 0.0373083
0.294362 1 0.0375067
0.450675 1 0.0375067
0.572427 1 0.0375067
0.661891 1 0.0375067
0.735515 1 0.0375067
0.795972 1 0.0375067
0.846723 1 0.0375067
0.88687 1 0.0375372
0.919921 1 0.0375677
0.945922 1 0.0375982
0.961883 1 0.0376135
0.961318 1 0.168963
0.960662 1 0.292653
0.959991 1 0.389807
0.959243 1 0.483207
0.958404 1 0.570062
0.957504 1 0.649042
0.956558 1 0.727687
0.955596 1 0.802838
0.954681 1 0.865675
0 1 0.0372931
0 1 0.0372931
0 1 0.0372931
0 1 0.0372931
0 1 0.0372931
0 1 0.0372931
0 1 0.0372931
0 1 0.0372931
0 1 0.0372931
0 1 0.0372931
0 1 0.0372931
0.118807 1 0.0374304
0.292317 1 0.0375067
0.41442 1 0.0375067
0.521645 1 0.0375067
0.60824 1 0.0375067
0.679347 1 0.0375067
0.741131 1 0.0375067
0.795026 1 0.0375067
0.84123 1 0.0375067
0.87866 1 0.0375067
0.910185 1 0.0375372
0.936446 1 0.0375677
0.956466 1 0.0869306
0.959319 1 0.253376
0.958892 1 0.345617
0.958434 1 0.429709
0.9579 1 0.512261
0.957275 1 0.590494
0.956573 1 0.663249
0.95581 1 0.738354
0.955016 1 0.809689
0.954284 1 0.869673
0 1 0.0372778
0 1 0.0372778
0 1 0.0372778
0 1 0.0372778
0 1 0.0372778
0 1 0.0372778
0.0423743 1 0.0373541
0.13283 1 0.0374304
0.199817 1 0.0374762
0.262425 1 0.0375067
0.32549 1 0.0375067
0.391135 1 0.0375067
0.460349 1 0.0375067
0.528801 1 0.0375067
0.592889 1 0.0375067
0.649744 1 0.0375067
0.703868 1 0.0375067
0.753658 1 0.0375067
0.799756 1 0.0375067
0.840192 1 0.0375067
0.874159 1 0.0375067
0.903792 1 0.0375219
0.928649 1 0.128298
0.948363 1 0.245579
0.957641 1 0.327611
0.957382 1 0.403571
0.957046 1 0.477333
0.956649 1 0.547478
0.956176 1 0.614771
0.955627 1 0.682002
0.955047 1 0.752361
0.954437 1 0.818647
0.953841 1 0.874922
0.377188 1 0.0375067
0.388342 1 0.0375067
0.399054 1 0.0375067
0.409339 1 0.0375067
0.419211 1 0.0375067
0.428809 1 0.0375067
0.440101 1 0.0375067
0.454551 1 0.0375067
0.47274 1 0.0375067
0.494667 1 0.0375067
0.520363 1 0.0375067
0.549905 1 0.0375067
0.583185 1 0.0375067
0.617731 1 0.0375067
0.654749 1 0.0375067
0.693172 1 0.0959335
0.732097 1 0.122347
0.771237 1 0.146365
0.808682 1 0.170748
0.842344 1 0.196674
0.872404 1 0.224918
0.899336 1 0.256214
0.922667 1 0.291371
0.941741 1 0.34258
0.956207 1 0.402075
0.956024 1 0.464851
0.955795 1 0.527474
0.95552 1 0.587915
0.955169 1 0.645075
0.954772 1 0.706081
0.954314 1 0.770123
0.953857 1 0.830137
0.953399 1 0.881682
0.578897 1 0.320546
0.583032 1 0.320745
0.587091 1 0.320928
0.591028 1 0.321126
0.594781 1 0.321309
0.598383 1 0.321508
0.602579 1 0.321752
0.607965 1 0.322057
0.614893 1 0.322469
0.623926 1 0.323049
0.635309 1 0.323812
0.649363 1 0.324834
0.666331 1 0.326207
0.686152 1 0.328069
0.708919 1 0.330541
0.734691 1 0.333883
0.762753 1 0.338323
0.791959 1 0.344198
0.820768 1 0.351949
0.847883 1 0.362066
0.873823 1 0.375143
0.897658 1 0.39176
0.918822 1 0.41265
0.936782 1 0.438514
0.95169 1 0.479423
0.954894 1 0.527886
0.954742 1 0.578897
0.954528 1 0.629023
0.954284 1 0.680964
0.953979 1 0.735866
0.953658 1 0.791821
0.953307 1 0.844419
0.952956 1 0.890364
0.68455 1 0.462333
0.686412 1 0.46244
0.688243 1 0.462562
0.690059 1 0.462684
0.691844 1 0.462806
0.693614 1 0.462928
0.695766 1 0.463081
0.698604 1 0.463279
0.702296 1 0.463539
0.707103 1 0.463905
0.713298 1 0.464378
0.721187 1 0.465049
0.73106 1 0.465904
0.743175 1 0.467048
0.757717 1 0.468589
0.774624 1 0.470665
0.793591 1 0.473426
0.813977 1 0.477119
0.834943 1 0.481971
0.856596 1 0.48835
0.878065 1 0.49659
0.898344 1 0.50724
0.917006 1 0.520775
0.933379 1 0.537758
0.947356 1 0.558755
0.953948 1 0.59176
0.953841 1 0.630121
0.953689 1 0.67364
0.953506 1 0.720851
0.953277 1 0.769772
0.953048 1 0.817029
0.952789 1 0.861433
0.952544 1 0.901244
0.756741 1 0.578241
0.757763 1 0.578302
0.758785 1 0.578378
0.759777 1 0.57847
0.760784 1 0.578531
0.761776 1 0.578607
0.762982 1 0.578698
0.764584 1 0.578836
0.766674 1 0.578988
0.769421 1 0.579217
0.772961 1 0.579492
0.777523 1 0.579904
0.783307 1 0.580438
0.790524 1 0.581155
0.799313 1 0.582101
0.809766 1 0.583383
0.821805 1 0.585092
0.83563 1 0.587366
0.851041 1 0.590387
0.867567 1 0.594308
0.884474 1 0.599313
0.900877 1 0.605692
0.916884 1 0.613931
0.931334 1 0.624826
0.943954 1 0.638895
0.95314 1 0.656687
0.953079 1 0.685435
0.952972 1 0.722332
0.952834 1 0.763378
0.952667 1 0.804791
0.952514 1 0.844312
0.952331 1 0.880583
0.952148 1 0.914809
0.808225 1 0.673701
0.808774 1 0.673762
0.809308 1 0.673808
0.809842 1 0.673854
0.810361 1 0.673899
0.810895 1 0.673961
0.811551 1 0.674022
0.812406 1 0.674098
0.813535 1 0.67422
