BBLuts/BB_104_0330_LUT.cube
TITLE "Generated by Resolve"
LUT_3D_SIZE 33
0.0384375 0.0384375 0.0384375
0.0384375 0.0384375 0.0384375
0.0384375 0.0384375 0.0384375
0.0384375 0.0384375 0.0384375
0.0384375 0.0384375 0.0384375
0.0726024 0.038117 0.0380713
0.118654 0.0382696 0.0381323
0.152346 0.0382849 0.038117
0.18819 0.0381323 0.0379339
0.240055 0.0374304 0.0372473
0.301396 0.0358129 0.0356603
0.370626 0.033051 0.0329595
0.439002 0.0302129 0.0323491
0.523674 0.0257725 0.0462654
0.594965 0.0209506 0.0861524
0.655528 0.0165713 0.193149
0.714549 0.0134279 0.324941
0.769848 0.0128786 0.449638
0.818112 0.0148318 0.547036
0.855772 0.0172732 0.601129
0.862791 0.017792 0.609659
0.862791 0.017792 0.609659
0.862776 0.017792 0.610056
0.862776 0.017792 0.609964
0.866941 0.508995 0.627131
0.859632 0.630076 0.621805
0.852049 0.705333 0.607614
0.846525 0.762646 0.577447
0.843931 0.804425 0.459312
0.842969 0.83537 0.0377661
0.841779 0.858289 0.0379797
0.838193 0.873335 0.586267
0.836316 0.886275 0.687602
0.0384375 0.0384375 0.0384375
0.0384375 0.0384375 0.0384375
0.0384375 0.0384375 0.0384375
0.0384375 0.0384375 0.0384375
0.0384375 0.0384375 0.0384375
0.0818494 0.0381476 0.0380865
0.121904 0.0382696 0.0381476
0.155032 0.0382849 0.0381018
0.193393 0.0380865 0.0379034
0.246418 0.0373083 0.0371252
0.307958 0.035584 0.0354467
0.376486 0.0327916 0.0327001
0.442496 0.0300298 0.0326696
0.525628 0.0256657 0.0468452
0.596063 0.0208591 0.0873732
0.656291 0.0165255 0.194919
0.714977 0.0133974 0.325948
0.770031 0.0128786 0.45008
0.818051 0.0148165 0.546944
0.855512 0.017258 0.600839
0.862791 0.017792 0.609659
0.862791 0.017792 0.609659
0.862791 0.017792 0.609766
0.863935 0.0570077 0.611994
0.866316 0.523705 0.626795
0.859205 0.634806 0.621195
0.851743 0.708186 0.606531
0.846387 0.764218 0.575051
0.843946 0.805341 0.448035
0.842939 0.835859 0.0377661
0.841764 0.858549 0.037995
0.838193 0.873518 0.584985
0.836316 0.886366 0.687373
0.0384375 0.0384375 0.0384375
0.0384375 0.0384375 0.0384375
0.0384375 0.0384375 0.0384375
0.0384375 0.0384375 0.0384375
0.0384375 0.0384375 0.0384375
0.0873732 0.0381628 0.0380865
0.123003 0.0382696 0.0381476
0.157595 0.0382696 0.0381018
0.199039 0.0380255 0.0378424
0.252354 0.037171 0.0370031
0.312947 0.0354162 0.0352789
0.379629 0.032639 0.0325628
0.445426 0.0298772 0.0329442
0.527703 0.0255436 0.0474708
0.597192 0.0207675 0.0886244
0.657053 0.0164645 0.196628
0.715419 0.0133822 0.326925
0.77023 0.0128939 0.450507
0.817975 0.0148165 0.546807
0.855253 0.0172427 0.600519
0.862791 0.017792 0.609659
0.862791 0.017792 0.609659
0.862791 0.017792 0.609262
0.867063 0.140841 0.617166
0.865736 0.536797 0.626444
0.858778 0.639399 0.620569
0.851453 0.710964 0.605447
0.846265 0.765759 0.57258
0.843961 0.806241 0.43592
0.842908 0.836332 0.0377661
0.841749 0.858808 0.037995
0.838193 0.873686 0.583688
0.836316 0.886458 0.687144
0.0384375 0.0384375 0.0384375
0.0384375 0.0384375 0.0384375
0.0384375 0.0384375 0.0384375
0.0384375 0.0384375 0.0384375
0.0514839 0.038056 0.0380407
0.0915999 0.0381933 0.0381018
0.123522 0.0382696 0.0381476
0.157824 0.0382696 0.0381018
0.2 0.0380255 0.0378424
0.254749 0.0371252 0.0369421
0.316213 0.0352941 0.0351568
0.382483 0.0325017 0.0324254
0.44828 0.0297398 0.0332341
0.529793 0.0254215 0.048127
0.598352 0.020676 0.0899214
0.657832 0.0164187 0.198428
0.715862 0.0133669 0.327886
0.770397 0.0128939 0.450889
0.817899 0.0148165 0.546654
0.854978 0.0172274 0.600168
0.862791 0.017792 0.609659
0.862791 0.017792 0.609659
0.862791 0.017792 0.609201
0.870329 0.230976 0.622614
0.865187 0.548577 0.626093
0.858351 0.64387 0.619928
0.851179 0.713649 0.604379
0.846159 0.767285 0.569986
0.843992 0.807141 0.422599
0.842878 0.836805 0.0377661
0.841733 0.859068 0.037995
0.838209 0.873869 0.582254
0.836316 0.886549 0.686931
0.0363317 0.0691844 0.0381018
0.0361639 0.0720226 0.0380865
0.0359808 0.0747539 0.0380713
0.0358129 0.0773785 0.0380713
0.0357519 0.0784161 0.038056
0.0808118 0.0779431 0.0380713
0.11841 0.074876 0.0383154
0.154437 0.06981 0.0382849
0.198322 0.0580758 0.038056
0.255833 0.0370947 0.0369268
0.318105 0.0352178 0.0350958
0.385031 0.0323796 0.0323033
0.451041 0.0296025 0.0335088
0.531899 0.0252995 0.0487831
0.599557 0.0205692 0.0912642
0.65861 0.0163729 0.200198
0.716289 0.0133516 0.328878
0.77055 0.0128939 0.451255
0.817792 0.0148013 0.546487
0.854688 0.0171969 0.599817
0.862791 0.017792 0.609659
0.862791 0.017792 0.609583
0.862791 0.017792 0.60911
0.871519 0.297307 0.625422
0.864698 0.559228 0.625757
0.857939 0.648219 0.619257
0.850904 0.716289 0.603281
0.846052 0.76878 0.567269
0.844038 0.808026 0.407889
0.842847 0.837293 0.0377813
0.841718 0.859312 0.037995
0.838224 0.874037 0.580774
0.836301 0.886641 0.686702
0.0343633 0.100298 0.0379187
0.0342107 0.102541 0.0379187
0.0340734 0.104738 0.0378882
0.0339513 0.106477 0.0378882
0.0339055 0.107332 0.0378729
0.0631571 0.107439 0.0378882
0.106523 0.106737 0.0378424
0.143954 0.104677 0.0377508
0.195148 0.0980392 0.0380102
0.2551 0.0885176 0.0370947
0.31902 0.0698558 0.0352331
0.387289 0.0322728 0.0321965
0.453864 0.0294652 0.0337987
0.534127 0.0251774 0.0495155
0.600809 0.0204776 0.0927443
0.659449 0.0163119 0.202106
0.716731 0.0133364 0.329854
0.770703 0.0128939 0.451621
0.817685 0.0148013 0.546288
0.854368 0.0171817 0.599435
0.862791 0.017792 0.609659
0.862791 0.017792 0.609445
0.862791 0.017792 0.609033
0.871443 0.346349 0.626459
0.864195 0.56939 0.625376
0.857511 0.652628 0.61854
0.850629 0.718975 0.602106
0.84593 0.770291 0.56434
0.844083 0.808972 0.390311
0.842832 0.837766 0.0377813
0.841688 0.859586 0.037995
0.838224 0.87422 0.579065
0.836301 0.886748 0.686458
0.0321965 0.132982 0.037644
0.0320745 0.134859 0.0376287
0.0319371 0.136721 0.0376135
0.0318761 0.137774 0.0375982
0.0318151 0.13843 0.037583
0.0317998 0.138689 0.037583
0.0914321 0.138598 0.037583
0.134813 0.137713 0.0375372
0.180194 0.135286 0.0373388
0.252842 0.126711 0.0372931
0.319081 0.116304 0.035523
0.390051 0.0995651 0.0326085
0.454719 0.0713054 0.0284886
0.53695 0.0250095 0.0504768
0.602457 0.0203403 0.0946975
0.660533 0.0162509 0.204562
0.717311 0.0133211 0.331167
0.770901 0.0128939 0.452079
0.817533 0.014786 0.546014
0.853941 0.0171511 0.598917
0.862791 0.017792 0.609659
0.862791 0.017792 0.609354
0.862791 0.017792 0.608896
0.870619 0.393561 0.626505
0.863584 0.581003 0.624857
0.856962 0.658122 0.617578
0.850294 0.722332 0.600549
0.845792 0.772213 0.560357
0.84419 0.810193 0.36321
0.842802 0.838392 0.0377813
0.841672 0.859922 0.037995
0.838239 0.874464 0.576638
0.836286 0.886854 0.686152
0.0294957 0.170199 0.0371099
0.0293736 0.171847 0.0370794
0.0292668 0.173083 0.0370489
0.0292058 0.173892 0.0370336
0.02916 0.174487 0.0370184
0.0291447 0.174807 0.0370184
0.0465553 0.174945 0.0370794
0.118685 0.174807 0.0371405
0.168338 0.173678 0.0370947
0.232532 0.170077 0.0365148
0.312993 0.158938 0.035874
0.391531 0.146639 0.0333562
0.455192 0.134188 0.0289921
0.537591 0.106477 0.0386053
0.603967 0.0501411 0.0899519
0.661982 0.0161593 0.207858
0.718105 0.0132906 0.332937
0.771176 0.0129091 0.452705
0.817304 0.014786 0.545617
0.853361 0.0171054 0.598184
0.862791 0.017792 0.609506
0.862791 0.017792 0.609247
0.862791 0.0178073 0.608713
0.869276 0.442405 0.626017
0.862776 0.592126 0.624063
0.85626 0.66511 0.616251
0.849867 0.726619 0.598413
0.845609 0.774685 0.554742
0.844343 0.81178 0.315709
0.842741 0.8392 0.0377966
0.841657 0.86038 0.0380102
0.83827 0.874769 0.573312
0.836271 0.887022 0.685725
0.0252689 0.219883 0.0357824
0.0251316 0.221408 0.0357214
0.0250401 0.222278 0.0356909
0.0249638 0.223133 0.0356603
0.0249027 0.223743 0.0356451
0.0248569 0.22414 0.0356298
0.0248417 0.224399 0.0356146
0.0824903 0.22475 0.0359197
0.147753 0.223529 0.0363012
0.215625 0.220523 0.0362707
0.289448 0.214603 0.0352636
0.381018 0.201221 0.0339208
0.455329 0.190188 0.0300603
0.540124 0.170108 0.0337224
0.605615 0.143175 0.084596
0.663355 0.101503 0.203449
0.719265 0.0258335 0.332937
0.771527 0.0129091 0.453513
0.816968 0.0147555 0.545022
0.852506 0.0170443 0.596948
0.862791 0.017792 0.609339
0.862791 0.017792 0.609064
0.867613 0.154437 0.616953
0.867521 0.49427 0.625452
0.861708 0.605859 0.622873
0.85536 0.673884 0.614374
0.849332 0.732021 0.595483
0.845411 0.777844 0.546548
0.844495 0.813748 0.203326
0.84268 0.840238 0.0378119
0.841611 0.86096 0.0380102
0.838285 0.875181 0.568551
0.836271 0.887236 0.685176
0.0189212 0.278996 0.0329747
0.0188754 0.279454 0.0329442
0.0188144 0.279896 0.0329137
0.0187686 0.280262 0.0328985
0.0187381 0.280491 0.0328832
0.0187381 0.280568 0.0328832
0.0187533 0.280446 0.0328832
0.0187991 0.280049 0.0329137
0.110063 0.280629 0.0341039
0.186847 0.279927 0.0349737
0.270237 0.276844 0.0349279
0.357259 0.27039 0.0336156
0.459968 0.257176 0.0319677
0.541619 0.244678 0.0289158
0.608469 0.225055 0.0823377
0.666545 0.194217 0.207172
0.721706 0.1393 0.340124
0.77232 0.0438239 0.454124
0.816449 0.0147402 0.543175
0.851286 0.016968 0.595239
0.862791 0.017792 0.609125
0.862791 0.0178073 0.608759
0.871275 0.359426 0.62591
0.865568 0.540261 0.624506
0.860304 0.622553 0.621042
0.854215 0.684764 0.611704
0.848676 0.73875 0.591577
0.845167 0.781826 0.534096
0.844038 0.815442 0.0375982
0.842603 0.841581 0.0378271
0.841566 0.861723 0.0380102
0.838331 0.875731 0.561852
0.836255 0.88751 0.684443
0.0110018 0.342 0.0289006
0.0109407 0.342458 0.0288701
0.0108797 0.342901 0.0288396
0.0108492 0.343236 0.0288243
0.0108034 0.343496 0.028809
0.0107881 0.343648 0.0287938
0.0107729 0.343709 0.0287938
0.0107881 0.343587 0.0287938
0.0108644 0.343114 0.0288396
0.138491 0.345678 0.0317845
0.237644 0.345602 0.0332647
0.335363 0.342184 0.0330968
0.438392 0.335149 0.0318151
0.539132 0.32517 0.030518
0.609766 0.313344 0.0703441
0.669459 0.299199 0.205646
0.725612 0.273289 0.349966
0.776745 0.207126 0.468742
0.816739 0.0684062 0.544533
0.849515 0.016846 0.592813
0.862791 0.0178073 0.608743
0.871244 0.27274 0.623621
0.868177 0.476432 0.625696
0.863554 0.581552 0.623163
0.858518 0.642115 0.618082
0.852827 0.69807 0.607782
0.847929 0.74699 0.585992
0.844907 0.786786 0.513848
0.84387 0.818341 0.0376135
0.842512 0.843305 0.0378424
0.841505 0.862715 0.0380255
0.838392 0.876432 0.551995
0.836225 0.887877 0.683497
0.00105287 0.416434 0.0236362
0.000991836 0.416876 0.0236057
0.000946059 0.417304 0.0235752
0.000900282 0.417624 0.0235599
0.000854505 0.417884 0.0235294
0.000839246 0.418067 0.0235142
0.000823987 0.418219 0.0235142
0.000808728 0.41828 0.0235142
0.000823987 0.418128 0.0235142
0.0230411 0.418524 0.0243229
0.17702 0.423438 0.0294347
0.297047 0.423697 0.0313115
0.41413 0.420371 0.0311284
0.528237 0.41474 0.0307164
0.606088 0.407233 0.0324559
0.668833 0.401541 0.177691
0.725994 0.392859 0.347356
0.777783 0.375082 0.475196
0.8215 0.343694 0.55938
0.855375 0.301701 0.604868
0.871458 0.345922 0.625727
0.868482 0.467308 0.625803
0.86482 0.55642 0.624063
0.861036 0.613886 0.620706
0.856306 0.664714 0.61355
0.851179 0.713756 0.601953
0.847059 0.756878 0.575906
0.844663 0.792844 0.47776
0.843671 0.821973 0.037644
0.842374 0.845457 0.0378576
0.841428 0.863966 0.0380255
0.838499 0.877379 0.536507
0.83621 0.88835 0.682216
0 0.504448 0.0189517
0 0.504814 0.0189364
0 0.505165 0.0189212
0 0.505409 0.0189059
0 0.505623 0.0189059
0 0.505821 0.0188907
0 0.505974 0.0188907
0 0.506111 0.0188754
0 0.506279 0.0188754
0 0.506355 0.0188754
0.0532845 0.509117 0.0217746
0.227207 0.51519 0.0284886
0.371893 0.515419 0.0299382
0.504494 0.512718 0.0299077
0.595743 0.508659 0.0298466
0.661707 0.505135 0.0857557
0.721843 0.504143 0.319188
0.773114 0.50071 0.463798
0.815076 0.498207 0.552865
0.847608 0.501137 0.600763
0.866331 0.523018 0.624918
0.864179 0.569802 0.623636
0.861463 0.608743 0.621195
0.857893 0.648722 0.616373
0.853635 0.690379 0.607401
0.849393 0.731548 0.593133
0.846159 0.768414 0.556893
0.844663 0.800534 0.39295
0.843412 0.826413 0.0376745
0.842222 0.848173 0.0378882
0.841321 0.865568 0.038056
0.838682 0.87863 0.510262
0.836164 0.88896 0.680461
0 0.583917 0.0171664
0 0.584115 0.0171511
0 0.584283 0.0171511
0 0.584405 0.0171511
0 0.584543 0.0171511
0 0.584649 0.0171359
0 0.584756 0.0171359
0 0.584863 0.0171359
0 0.584939 0.0171359
0 0.584955 0.0171359
0 0.584863 0.0171359
0.0737774 0.587427 0.021973
0.299855 0.591043 0.0292515
0.463035 0.590021 0.0292821
0.578882 0.588174 0.0289921
0.649332 0.586069 0.0291905
0.713893 0.586725 0.207416
0.767147 0.587549 0.432776
0.807904 0.589792 0.53814
0.838712 0.5953 0.591272
0.861662 0.606363 0.621393
0.859815 0.628092 0.619181
0.857313 0.654688 0.615381
0.8542 0.685161 0.60885
0.850721 0.718334 0.597162
0.847593 0.751064 0.578531
0.845289 0.781506 0.519722
0.844419 0.808591 0.0375677
0.843107 0.831785 0.0377203
0.842023 0.851453 0.0379187
0.841199 0.867582 0.038056
0.839078 0.880369 0.454368
0.836133 0.889738 0.678126
0 0.643427 0.0164034
0 0.643534 0.0163882
0 0.643641 0.0163882
0 0.643717 0.0163882
0 0.643778 0.0163882
0 0.643839 0.0163882
0 0.6439 0.0163882
0 0.643946 0.0163882
0 0.643961 0.0163882
0 0.6439 0.0163882
0 0.643748 0.0163882
0 0.643366 0.0163882
0.13492 0.647578 0.0243381
0.394659 0.649195 0.0282444
0.546288 0.647807 0.0281834
0.631525 0.64596 0.0282597
0.699855 0.644785 0.0299229
0.757382 0.647852 0.317739
0.798505 0.650736 0.49984
0.828214 0.656519 0.571099
0.851438 0.665751 0.606531
0.854688 0.680461 0.610056
0.852659 0.699702 0.604501
0.850324 0.722332 0.59527
0.848005 0.746761 0.579721
0.845975 0.77171 0.541848
0.844877 0.796048 0.408484
0.84387 0.818021 0.0376135
0.842756 0.838041 0.0377813
0.841794 0.85539 0.0379644
0.841031 0.8701 0.0380713
0.840253 0.883238 0.269734
0.836088 0.89073 0.674968
0 0.703716 0.017319
0 0.703761 0.017319
0 0.703807 0.017319
0 0.703838 0.017319
0 0.703838 0.017319
0 0.703853 0.017319
0 0.703868 0.017319
0 0.703838 0.017319
0 0.703807 0.017319
0 0.703685 0.0173037
0 0.703441 0.0173037
0 0.702998 0.0172732
0 0.70219 0.0172274
0.257115 0.708553 0.0289311
0.494682 0.707866 0.0292973
0.608057 0.706065 0.0287633
0.682643 0.704601 0.0293584
0.741711 0.704662 0.0318151
0.785779 0.708797 0.297017
0.815915 0.712871 0.506722
0.838499 0.71957 0.573175
0.849638 0.72932 0.59176
0.848417 0.742168 0.583749
0.847089 0.757397 0.566262
0.845823 0.774517 0.528862
0.84506 0.792874 0.415732
0.844266 0.81088 0.0375677
0.843275 0.828519 0.037705
0.842344 0.845151 0.0378576
0.84152 0.859937 0.037995
0.840833 0.873152 0.0380865
0.840345 0.885191 0.0381323
0.836027 0.891981 0.670649
0 0.76199 0.0233463
0 0.761975 0.0233463
0 0.761975 0.0233463
0 0.761944 0.0233463
0 0.761929 0.0233463
0 0.761898 0.023331
0 0.761837 0.0233158
0 0.761761 0.0233158
0 0.761624 0.0233005
0 0.761425 0.02327
0 0.761074 0.023209
0 0.76051 0.0231327
0 0.75964 0.0230106
0 0.758419 0.0228275
0.39205 0.764614 0.0341955
0.579934 0.76231 0.0323949
0.662562 0.759915 0.0312047
0.725383 0.758862 0.0320745
0.770184 0.759457 0.0339361
0.802579 0.761669 0.0356451
0.826947 0.766461 0.393439
0.843366 0.771588 0.52314
0.845533 0.779355 0.511116
0.845151 0.789212 0.447089
0.845151 0.801007 0.127184
0.844144 0.812802 0.037583
0.843397 0.826078 0.0376745
0.842634 0.839719 0.0377966
0.841886 0.852949 0.0379339
0.841215 0.865187 0.0380407
0.840589 0.876783 0.038117
0.840162 0.887572 0.038117
0.835966 0.893538 0.664591
0 0.810651 0.0321355
0 0.810605 0.0321355
0 0.810529 0.0321202
0 0.810468 0.032105
0 0.810391 0.0320897
0 0.81033 0.0320745
0 0.810224 0.0320592
0 0.810071 0.0320287
0 0.809857 0.0319829
0 0.809552 0.0319066
0 0.809079 0.0318151
0 0.808362 0.0316625
0 0.807385 0.0314641
0 0.806073 0.0311894
0 0.804715 0.0314336
0.537453 0.808087 0.0379797
0.644129 0.80444 0.034699
0.710246 0.802213 0.0338903
0.756725 0.80148 0.0346532
0.790585 0.801907 0.0357671
0.816114 0.803449 0.0366827
0.834287 0.806332 0.0372931
0.844282 0.810544 0.0375677
0.843961 0.81622 0.0375982
0.843549 0.823331 0.0376593
0.843061 0.831724 0.0377203
0.842542 0.841154 0.0378119
0.841978 0.851148 0.0379187
0.841413 0.861112 0.0380102
0.840833 0.871138 0.0380865
0.840314 0.88101 0.0381323
0.839948 0.890394 0.038117
0.835904 0.89546 0.655909
0 0.846937 0.040116
0 0.846845 0.0400854
0 0.846754 0.0400702
0 0.846662 0.0400549
0 0.846555 0.0400244
0 0.846448 0.0400092
0 0.846311 0.0399786
0 0.846098 0.0399329
0 0.845823 0.0398566
0 0.845426 0.0397803
0 0.844862 0.0396429
0 0.844099 0.0394751
0 0.843061 0.0392462
0 0.841703 0.038941
0 0.839979 0.0385443
0.486229 0.842313 0.0435798
0.630426 0.837583 0.0382544
0.698878 0.834546 0.0361486
0.745647 0.833036 0.035996
0.780377 0.832441 0.0365301
0.80679 0.832654 0.0370794
0.825879 0.833829 0.0374762
0.840696 0.836011 0.0377356
0.842634 0.839292 0.0377966
0.84239 0.843671 0.0378424
0.842084 0.849058 0.0378882
0.841718 0.855314 0.0379492
0.841321 0.862165 0.0380102
0.840894 0.869657 0.0380713
0.840421 0.877638 0.038117
0.840009 0.88574 0.0381323
0.839704 0.893645 0.0381018
0.835874 0.89781 0.642878
0 0.874708 0.0462959
0 0.874601 0.0462654
0 0.874479 0.0462348
0 0.874342 0.0462196
0 0.874235 0.0461891
0 0.874113 0.0461585
0 0.87393 0.046128
0 0.873686 0.046067
0 0.87335 0.0459907
0 0.872923 0.0458991
0 0.872343 0.0457771
0 0.871565 0.0456092
0 0.870527 0.0453803
0 0.8692 0.0450904
0 0.867506 0.0447089
0.431464 0.868971 0.0484474
0.6224 0.863203 0.0409857
0.691218 0.859739 0.0379797
0.737209 0.857755 0.037171
0.771695 0.856611 0.037232
0.798306 0.856077 0.0375219
0.818173 0.856199 0.0377661
0.833783 0.856947 0.0379187
0.84152 0.858488 0.037995
0.841382 0.860853 0.0380102
0.841184 0.864027 0.0380255
0.840955 0.868055 0.038056
0.84065 0.872862 0.0380865
0.84033 0.878401 0.038117
0.839979 0.884474 0.0381323
0.839658 0.890852 0.038117
0.83946 0.897307 0.0380865
0.835935 0.900633 0.621836
0 0.894865 0.0504616
0 0.894728 0.0504311
0 0.894591 0.0504158
0 0.894453 0.0503853
0 0.894316 0.0503548
0 0.894179 0.0503243
0 0.89398 0.0502937
0 0.893736 0.0502327
0 0.8934 0.0501717
0 0.892958 0.0500801
0 0.892393 0.0499733
0 0.891615 0.0498207
0 0.890623 0.0496223
0 0.889342 0.0493629
0 0.887724 0.0490272
0.442039 0.888029 0.0505684
0.62417 0.881956 0.0423438
0.688945 0.878447 0.0390478
0.732494 0.876326 0.0379339
0.765789 0.874922 0.0377356
0.791348 0.874022 0.0378271
0.811643 0.873564 0.0379644
0.827771 0.873564 0.0380713
0.84007 0.874113 0.0381018
0.840482 0.875303 0.0381018
0.84036 0.877226 0.038117
0.840192 0.879835 0.038117
0.839994 0.883085 0.0381323
0.839765 0.886961 0.0381323
0.839506 0.891356 0.038117
0.839292 0.896162 0.0380865
0.83917 0.90135 0.038056
0.835813 0.90367 0.615732
0 0.909941 0.0532845
0 0.909819 0.053254
0 0.909682 0.0532235
0 0.909545 0.0532082
0 0.909392 0.0531777
0 0.909255 0.0531624
0 0.909072 0.0531319
0 0.908827 0.0530861
0 0.908507 0.0530251
0 0.90808 0.0529488
0 0.90753 0.052842
0 0.906813 0.0527199
0 0.905882 0.0525521
0 0.904692 0.0523384
0 0.903181 0.0520485
0.51722 0.901473 0.0494545
0.635538 0.896193 0.0424506
0.691493 0.89308 0.0395056
0.731197 0.891051 0.0383459
0.762264 0.889586 0.0380255
0.786374 0.888579 0.0380102
0.806149 0.887861 0.0380713
0.822263 0.887465 0.038117
0.834897 0.887434 0.0381323
0.839643 0.887877 0.0381323
0.839582 0.888838 0.0381323
0.839475 0.890364 0.038117
0.839353 0.892409 0.038117
0.8392 0.894957 0.0381018
0.839033 0.898024 0.0380865
0.838911 0.901595 0.038056
0.83888 0.905608 0.037995
0.835615 0.906874 0.614893
0 0.921065 0.0551308
0 0.920943 0.0551156
0 0.920806 0.0551003
0 0.920684 0.0550851
0 0.920546 0.0550546
0 0.920409 0.0550393
0 0.920241 0.0550088
0 0.920012 0.0549783
0 0.919707 0.0549172
0 0.919326 0.0548562
0 0.918822 0.0547799
0 0.918151 0.0546731
0 0.917296 0.0545357
0 0.916213 0.0543526
0.209369 0.918212 0.0588235
0.588312 0.910674 0.0462959
0.654582 0.906889 0.0416571
0.698894 0.904402 0.0394598
0.733455 0.902571 0.038468
0.761257 0.901198 0.0381323
0.783352 0.90016 0.038056
0.802197 0.899336 0.0380713
0.817746 0.898711 0.0381018
0.83032 0.898375 0.0381018
0.83888 0.898314 0.0380865
0.838865 0.898634 0.0380713
0.838819 0.899397 0.0380713
0.838743 0.900618 0.038056
0.838651 0.902266 0.0380407
0.838575 0.904387 0.0380255
0.838529 0.90695 0.0379797
0.83859 0.909957 0.0379339
0.835325 0.91017 0.61944
0 0.928847 0.0563058
0 0.928725 0.0562905
0 0.928618 0.0562905
0 0.928496 0.05626
0 0.928374 0.0562448
0 0.928267 0.0562295
0 0.9281 0.0562142
0 0.927901 0.0561685
0 0.927626 0.0561379
0 0.927275 0.0560922
0 0.926833 0.0560159
0 0.926268 0.0559396
0 0.925566 0.0558328
0.367391 0.926146 0.0565194
0.577783 0.920516 0.047364
0.635981 0.91722 0.0429999
0.677287 0.914855 0.0405127
0.71075 0.912993 0.0390936
0.739025 0.911513 0.0383764
0.762692 0.910307 0.0381018
0.782345 0.909331 0.0380102
0.799817 0.908492 0.0380102
0.81445 0.907805 0.0380255
0.82652 0.907317 0.0380102
0.836545 0.907012 0.037995
0.838224 0.906966 0.037995
0.838224 0.907256 0.0379797
0.838193 0.907866 0.0379797
0.838163 0.908888 0.0379492
0.838132 0.910262 0.0379339
0.838178 0.912016 0.0379034
0.838331 0.914183 0.0378576
0.834974 0.913375 0.631235
0 0.934173 0.0570535
0 0.934081 0.0570382
0 0.933989 0.057023
0 0.933898 0.0570077
0 0.933806 0.0570077
0 0.9337 0.0569924
0 0.933593 0.0569772
0 0.93344 0.0569467
0 0.933242 0.0569314
0 0.932982 0.0568856
0.38172 0.93341 0.0564584
0.514092 0.930266 0.0510872
0.578943 0.927886 0.047425
0.615457 0.925826 0.0445411
0.647044 0.92398 0.042298
0.675196 0.922362 0.0406043
0.701274 0.920913 0.0393988
0.725338 0.919615 0.0386053
0.747051 0.918471 0.0381781
0.766094 0.917479 0.037995
0.7832 0.916594 0.0379187
0.798871 0.915785 0.0379034
0.812268 0.915099 0.0379187
0.823651 0.914534 0.0379034
0.83328 0.914122 0.0378882
0.837659 0.913863 0.0378729
0.837674 0.913832 0.0378729
0.837705 0.914061 0.0378729
0.837736 0.91458 0.0378576
0.837766 0.915434 0.0378424
0.837873 0.916594 0.0378119
0.838117 0.91812 0.0377661
0.834562 0.916411 0.64976
0.591836 0.930678 0.0464179
0.595407 0.93051 0.0461128
0.599023 0.930358 0.0458228
0.602502 0.93022 0.0455482
0.605859 0.930083 0.0452888
0.609216 0.929946 0.0450294
0.613306 0.929778 0.0447089
0.618433 0.929564 0.0443122
0.624735 0.929335 0.0438392
0.632334 0.929046 0.0432898
0.641321 0.92871 0.042649
0.65182 0.928344 0.0419471
0.663874 0.927977 0.0411841
0.677394 0.927596 0.0404212
0.69221 0.927108 0.0396887
0.70811 0.926238 0.0390478
0.724498 0.925338 0.038529
0.740841 0.924483 0.0381781
0.756527 0.923659 0.0379644
0.77145 0.922866 0.0378424
0.785824 0.922103 0.0377966
0.79942 0.921386 0.0377966
0.811276 0.920729 0.0377813
0.821744 0.920165 0.0377813
0.830793 0.919692 0.0377661
0.837201 0.919341 0.0377508
0.837263 0.919158 0.0377508
0.837308 0.919142 0.0377508
0.837385 0.919387 0.0377508
0.837491 0.919875 0.0377356
0.837674 0.920653 0.037705
0.837964 0.921752 0.0376745
0.834211 0.91928 0.672175
0.684199 0.927459 0.0400702
0.685328 0.927443 0.0400244
0.686412 0.927413 0.0399634
0.687495 0.927382 0.0399176
0.688563 0.927367 0.0398566
0.689662 0.927337 0.0398108
0.691051 0.927306 0.0397498
0.692836 0.92726 0.0396582
0.695155 0.927214 0.0395666
0.6981 0.927153 0.0394293
0.701793 0.927077 0.0392767
0.706416 0.926986 0.0390936
0.712032 0.926894 0.0388952
0.718776 0.926802 0.0386664
0.72665 0.926711 0.0384375
0.735622 0.926635 0.0382239
0.745449 0.926558 0.0380407
0.755856 0.926528 0.0379034
0.766903 0.926513 0.0377966
0.778363 0.926513 0.0377203
0.789853 0.926268 0.0376745
0.80119 0.925658 0.0376745
0.811368 0.925063 0.0376745
0.820722 0.924529 0.0376745
0.828992 0.924071 0.0376593
0.835935 0.92369 0.037644
0.836927 0.92343 0.037644
0.837018 0.923323 0.037644
0.83714 0.923384 0.037644
0.837308 0.923674 0.0376287
0.837568 0.924208 0.0376135
0.835294 0.922637 0.55729
0.833967 0.921935 0.695613
0.730648 0.926772 0.0383459
0.731151 0.926757 0.0383307
0.731655 0.926757 0.0383154
0.732128 0.926757 0.0383001
0.732631 0.926741 0.0382849
0.733135 0.926741 0.0382849
0.733791 0.926741 0.0382696
0.73463 0.926726 0.0382544
0.735729 0.926726 0.0382239
