BBLuts/BB_106_0200_LUT.cube
TITLE "Generated by Resolve"
LUT_3D_SIZE 9
0 0 0
0 0 0
0.204334 0 0
0.514107 0 0
0.796185 0.300877 0.346517
0.961715 0.660975 0.661204
0.959579 0.688411 0.659983
0.944671 0.852903 0.610132
0.935225 0.938689 0.742351
0 0.0325017 0
0 0.041886 0
0.211612 0.0248875 0
0.526223 0 0
0.798321 0.306737 0.351843
0.961715 0.660975 0.661204
0.958953 0.695949 0.658854
0.944442 0.856275 0.605417
0.935164 0.939101 0.741772
0 0.187869 0
0 0.192111 0
0.139803 0.194537 0
0.535058 0.175784 0
0.802029 0.357259 0.360235
0.961456 0.664729 0.660853
0.957763 0.709499 0.656565
0.944076 0.861463 0.597116
0.935103 0.939757 0.740826
0 0.519631 0
0 0.520958 0
0 0.521691 0
0.422889 0.532616 0
0.802991 0.564645 0.342657
0.959426 0.690394 0.658015
0.953506 0.754604 0.646159
0.943297 0.875288 0.562737
0.93489 0.941649 0.737957
0 0.79733 0
0 0.797253 0
0 0.796918 0
0 0.794705 0
0.729229 0.796582 0
0.925307 0.812863 0.574121
0.945251 0.849271 0.58793
0.942977 0.904814 0
0.934325 0.94667 0.729046
0 0.945937 0
0 0.945327 0
0 0.944289 0
0 0.941176 0
0 0.933318 0
0.88188 0.925963 0
0.940871 0.928908 0
0.939635 0.941436 0
0.933059 0.957382 0.710094
0 0.990112 0
0 0.9897 0
0 0.989075 0
0 0.987396 0
0.618906 0.982574 0
0.8645 0.97293 0
0.930388 0.970932 0
0.93576 0.971405 0
0.9308 0.971374 0.732845
0.82179 0.983993 0
0.823713 0.983993 0
0.826734 0.983978 0
0.835081 0.983963 0
0.854612 0.983993 0
0.887282 0.984222 0
0.922194 0.98468 0
0.930739 0.981888 0.5991
0.929473 0.980285 0.796826
0.903243 0.980346 0.825696
0.903395 0.980362 0.825727
0.903639 0.980362 0.825757
0.904372 0.980377 0.825895
0.906477 0.980392 0.826276
0.911757 0.980484 0.827375
0.921782 0.980652 0.830365
0.930343 0.980911 0.8374
0.930953 0.981384 0.853773
0 0 0.0381628
0 0 0.038407
0.211017 0 0.0422065
0.515557 0 0.0478523
0.79617 0.303578 0.365255
0.9617 0.661128 0.662348
0.959686 0.687282 0.661036
0.94464 0.85214 0.618708
0.93521 0.938598 0.749401
0 0.0140078 0.0278172
0.0373083 0.0256352 0.0265202
0.230854 0 0.0341955
0.521599 0 0.0369726
0.79707 0.30457 0.357519
0.961715 0.661082 0.662013
0.95906 0.694728 0.659922
0.944396 0.855528 0.614389
0.935164 0.938994 0.748898
0 0.177157 0
0 0.180682 0
0.163165 0.183978 0
0.533059 0.164935 0
0.799573 0.338552 0.354376
0.961471 0.664393 0.660883
0.957885 0.708232 0.65771
0.94403 0.860731 0.606867
0.935088 0.939666 0.748028
0 0.51458 0
0 0.515846 0
0 0.516365 0
0.443748 0.527108 0
0.802716 0.56144 0.342748
0.959487 0.689708 0.658106
0.953613 0.753506 0.647211
0.943191 0.874632 0.579858
0.934874 0.941558 0.745418
0 0.796231 0
0 0.796139 0
0 0.795789 0
0 0.793515 0
0.732357 0.79556 0
0.925429 0.812222 0.575235
0.945266 0.84892 0.588388
0.942992 0.904662 0
0.934279 0.946563 0.737377
0 0.945724 0
0 0.945098 0
0 0.944076 0
0 0.940948 0
0 0.933135 0
0.88217 0.925856 0
0.940887 0.928832 0
0.939635 0.94139 0
0.933043 0.957366 0.711055
0 0.990021 0
0 0.989624 0
0 0.988998 0
0 0.98732 0
0.625849 0.982269 0
0.864683 0.972915 0
0.930419 0.970901 0
0.935775 0.971405 0
0.9308 0.971374 0.732815
0.822095 0.983993 0
0.824002 0.983993 0
0.827008 0.983978 0
0.835309 0.983963 0
0.854765 0.983993 0
0.887343 0.984222 0
0.922225 0.98468 0
0.930755 0.981888 0.599023
0.929473 0.980285 0.796811
0.903258 0.980346 0.825696
0.90341 0.980362 0.825711
0.903655 0.980362 0.825757
0.904402 0.980377 0.825879
0.906493 0.980392 0.826276
0.911772 0.980484 0.827375
0.921798 0.980652 0.830365
0.930343 0.980911 0.8374
0.930953 0.981384 0.853773
0.016144 0 0.171862
0.0161898 0 0.172107
0.203387 0 0.174289
0.529824 0.00143435 0.175814
0.796216 0.310063 0.402075
0.9617 0.661387 0.664134
0.959838 0.685237 0.663798
0.944579 0.850874 0.633753
0.935225 0.93846 0.759655
0.0155489 0 0.167422
0.0155947 0 0.167834
0.230915 0 0.169909
0.528145 0.000961318 0.171817
0.798199 0.315084 0.404395
0.9617 0.661357 0.663996
0.959258 0.692424 0.662684
0.94432 0.854292 0.630045
0.93518 0.938857 0.759197
0 0.164141 0.141222
0 0.166369 0.140688
0.177829 0.163775 0.141314
0.518761 0.153399 0.155001
0.797024 0.31136 0.3991
0.961517 0.663737 0.663539
0.958114 0.705592 0.660533
0.943938 0.859571 0.623636
0.935088 0.939529 0.75845
0 0.500359 0
0 0.501854 0
0 0.502602 0
0.45156 0.51339 0.000381476
0.798993 0.551064 0.368292
0.959655 0.687633 0.66009
0.953872 0.750652 0.651041
0.943008 0.873564 0.600824
0.934874 0.941421 0.756161
0 0.793957 0
0 0.793866 0
0 0.793515 0
0 0.791211 0
0.735302 0.793423 0
0.925444 0.810742 0.576822
0.945312 0.847944 0.59234
0.942779 0.904082 0.264256
0.934264 0.946426 0.749249
0 0.945373 0
0 0.944747 0
0 0.943725 0
0 0.940612 0
0 0.932845 0
0.882612 0.925689 0
0.940887 0.928695 0
0.939651 0.941314 0
0.932952 0.957153 0.727367
0 0.989914 0
0 0.989502 0
0 0.988876 0
0 0.987228 0
0.636057 0.981826 0
0.865019 0.972885 0
0.930495 0.970886 0
0.935775 0.971389 0
0.930816 0.971359 0.732738
0.822553 0.983993 0
0.82446 0.983993 0
0.827436 0.983978 0
0.835676 0.983963 0
0.855024 0.983993 0
0.887465 0.984222 0
0.92224 0.98468 0
0.930755 0.981888 0.599023
0.929473 0.980285 0.796796
0.903288 0.980346 0.825696
0.903441 0.980362 0.825711
0.9037 0.980362 0.825772
0.904433 0.980377 0.825895
0.906538 0.980392 0.826261
0.911788 0.980484 0.827359
0.921798 0.980652 0.830365
0.930343 0.980911 0.8374
0.930953 0.981384 0.853773
0.126024 0.0704814 0.468711
0.126192 0.0705882 0.468925
0.126284 0.070634 0.469047
0.515633 0.0740826 0.461891
0.812207 0.382971 0.542489
0.961578 0.663111 0.675761
0.96022 0.680919 0.681697
0.944427 0.847166 0.682139
0.935347 0.938155 0.784009
0.123613 0.0688792 0.465705
0.123842 0.0690166 0.46598
0.213306 0.0699168 0.465843
0.530785 0.0734112 0.458412
0.810575 0.3785 0.539727
0.961578 0.663066 0.675456
0.959701 0.687037 0.680522
0.944137 0.85069 0.679805
0.935302 0.938567 0.783673
0.108217 0.134524 0.459495
0.107515 0.140002 0.459678
0.229969 0.137163 0.46006
0.536553 0.0710613 0.452888
0.805554 0.365789 0.533394
0.961593 0.662974 0.674922
0.958709 0.698802 0.678309
0.943679 0.856092 0.675883
0.935225 0.939223 0.783139
0 0.456062 0.401205
0 0.458305 0.401312
0 0.459937 0.40206
0.468482 0.472694 0.420386
0.786679 0.517968 0.501335
0.960113 0.682155 0.671061
0.95465 0.742199 0.6692
0.942535 0.870436 0.663111
0.934981 0.941146 0.781521
0 0.78407 0
0 0.784054 0
0 0.78378 0
0 0.781689 0
0.733211 0.784314 0
0.924041 0.803967 0.595682
0.945357 0.843839 0.620005
0.940536 0.900252 0.612528
0.93434 0.946151 0.776684
0 0.944396 0
0 0.943771 0
0 0.942733 0
0 0.93962 0
0 0.931868 0
0.882185 0.924834 0
0.940978 0.928023 0
0.939757 0.940826 0
0.932906 0.956832 0.762219
0 0.989517 0
0 0.989151 0
0 0.98854 0
0 0.986923 0
0.660853 0.980713 0
0.86598 0.972793 0
0.930663 0.97081 0
0.935775 0.971344 0
0.930816 0.971344 0.732494
0.823972 0.983993 0
0.825833 0.983978 0
0.828763 0.983978 0
0.836805 0.983963 0
0.855802 0.983993 0
0.887816 0.984222 0
0.922332 0.98468 0
0.930755 0.981888 0.598871
0.929473 0.980285 0.796719
0.90341 0.980346 0.825681
0.903563 0.980362 0.825711
0.903807 0.980362 0.825742
0.90454 0.980377 0.825879
0.90663 0.980392 0.826261
0.911879 0.980484 0.827344
0.921843 0.980652 0.83035
0.930343 0.980911 0.8374
0.930953 0.981384 0.853773
0.600946 0.579416 0.750011
0.601007 0.579492 0.750072
0.601129 0.579614 0.750179
0.609751 0.578851 0.749401
0.802701 0.593774 0.750057
0.959945 0.691447 0.774441
0.959487 0.698085 0.783291
0.945205 0.838499 0.789868
0.936095 0.937652 0.82623
0.600381 0.578759 0.749493
0.600443 0.578836 0.749554
0.600565 0.578973 0.74966
0.611032 0.578042 0.748775
0.806836 0.594354 0.749767
0.95996 0.691249 0.774029
0.959304 0.699886 0.782254
0.944808 0.842374 0.788891
0.936049 0.938079 0.826032
0.599466 0.57763 0.748653
0.599542 0.577722 0.74873
0.599664 0.57789 0.748837
0.613336 0.576715 0.747738
0.809323 0.594156 0.749004
0.959976 0.690929 0.773342
0.958846 0.704356 0.780453
0.944213 0.848264 0.787366
0.935958 0.938766 0.825727
0.592554 0.583001 0.743496
0.592538 0.583185 0.743511
0.592493 0.583429 0.743511
0.608331 0.582376 0.742733
0.808011 0.59501 0.74493
0.959777 0.69247 0.769345
0.956176 0.730236 0.773907
0.942718 0.863584 0.782956
0.935714 0.940719 0.824826
0 0.757183 0.701915
0 0.757458 0.702007
0 0.757534 0.702159
0 0.756222 0.702586
0.733867 0.759121 0.712322
0.919173 0.784054 0.735317
0.945602 0.831785 0.749554
0.939696 0.895171 0.770962
0.935027 0.945861 0.822217
0 0.941466 0
0 0.940856 0
0 0.939834 0
0 0.936721 0
0 0.928679 0
0.873457 0.919539 0.58294
0.937514 0.921813 0.685115
0.935668 0.934936 0.740139
0.933455 0.956649 0.815167
0 0.988861 0
0 0.988464 0
0 0.987884 0
0 0.986267 0
0.627482 0.981338 0
0.861402 0.972183 0
0.92697 0.97023 0
0.932754 0.967666 0.620584
0.931044 0.971069 0.797711
0.828122 0.983978 0
0.829862 0.983963 0
0.832578 0.983963 0
0.840131 0.983963 0
0.858091 0.984009 0
0.888853 0.984237 0
0.922652 0.98468 0
0.930755 0.981888 0.598489
0.929473 0.980285 0.796551
0.903761 0.980362 0.82565
0.903899 0.980362 0.825681
0.904143 0.980362 0.825727
0.90486 0.980377 0.825849
0.90692 0.980392 0.826215
0.912093 0.980484 0.827329
0.92195 0.980652 0.83032
0.930343 0.980911 0.837354
0.930953 0.981384 0.853773
0.763912 0.761776 0.889128
0.763928 0.761776 0.889128
0.763943 0.761807 0.889143
0.763989 0.761852 0.889189
0.787381 0.757717 0.88571
0.955154 0.77882 0.887358
0.955123 0.779431 0.887953
0.950454 0.817212 0.879179
0.938308 0.935775 0.873213
0.763851 0.7617 0.889067
0.763867 0.761715 0.889082
0.763867 0.76173 0.889097
0.763912 0.761776 0.889128
0.789258 0.757626 0.885603
0.955154 0.778759 0.887312
0.955123 0.779385 0.887892
0.949981 0.821302 0.878401
0.938262 0.936248 0.873106
0.763745 0.761578 0.888991
0.76376 0.761593 0.889006
0.763775 0.761608 0.889006
0.763806 0.761639 0.889036
0.792462 0.757488 0.885435
0.955154 0.778668 0.887205
0.955123 0.779293 0.887816
0.949203 0.827878 0.877211
0.938155 0.937026 0.872923
0.763439 0.761212 0.888716
0.763439 0.761227 0.888731
0.763455 0.761242 0.888731
0.763195 0.760937 0.888518
0.800534 0.757153 0.885008
0.955154 0.778378 0.886946
0.955169 0.777966 0.886564
0.947112 0.846433 0.873976
0.937865 0.939239 0.872404
0.751431 0.761807 0.879713
0.751369 0.761913 0.879683
0.751278 0.762066 0.879622
0.750729 0.761959 0.879194
0.787457 0.759441 0.877379
0.95201 0.781811 0.879591
0.951156 0.807874 0.874784
0.943023 0.885267 0.86743
0.937118 0.944991 0.870985
0 0.936492 0.857527
0 0.936141 0.857511
0 0.935454 0.857496
0 0.932769 0.857359
0.600275 0.92401 0.855589
0.869657 0.911376 0.851179
0.936645 0.916823 0.854444
0.937804 0.932601 0.857572
0.935439 0.956664 0.867582
0 0.989639 0.835904
0 0.989197 0.836027
0 0.98854 0.83621
0 0.986755 0.836744
0.580316 0.979492 0.834195
0.847333 0.966857 0.82948
0.915679 0.964767 0.83592
0.933013 0.96614 0.845136
0.932906 0.971801 0.861158
0.818677 0.97969 0.785733
0.820356 0.979675 0.785824
0.823041 0.97966 0.785962
0.830472 0.979614 0.786419
0.848234 0.979583 0.787839
0.878889 0.979736 0.792035
0.912902 0.980133 0.802167
0.9299 0.980591 0.821332
0.930785 0.981262 0.849699
0.904784 0.980362 0.825574
0.904921 0.980362 0.825605
0.905135 0.980377 0.825635
0.905837 0.980392 0.825757
0.90779 0.980407 0.826139
0.912749 0.980484 0.827237
0.922301 0.980652 0.830228
0.930343 0.980911 0.837263
0.930953 0.981384 0.853758
0.80589 0.810666 0.92578
0.80589 0.810666 0.92578
0.80589 0.810666 0.92578
0.80589 0.810666 0.92578
0.80589 0.810666 0.92578
0.942885 0.821469 0.927947
0.954421 0.823377 0.92813
0.954421 0.823377 0.92813
0.942779 0.921843 0.909545
0.80589 0.810666 0.92578
0.80589 0.810666 0.92578
0.80589 0.810666 0.92578
0.80589 0.810666 0.92578
0.80589 0.810666 0.92578
0.943755 0.821607 0.927962
0.954421 0.823377 0.92813
0.954421 0.823377 0.92813
0.942687 0.922621 0.909407
0.80589 0.810666 0.92578
0.80589 0.810666 0.92578
0.80589 0.810666 0.92578
0.80589 0.810666 0.92578
0.80589 0.810666 0.92578
0.945159 0.821836 0.927993
0.954421 0.823377 0.92813
0.954421 0.823377 0.92813
0.94255 0.923873 0.909224
0.80589 0.810666 0.92578
0.80589 0.810666 0.92578
0.80589 0.810666 0.92578
0.80589 0.810666 0.92578
0.80589 0.810666 0.92578
0.949264 0.822492 0.928054
0.954421 0.823377 0.92813
0.954421 0.823377 0.92813
0.942123 0.927443 0.908675
0.80589 0.810666 0.92578
0.80589 0.810666 0.92578
0.80589 0.810666 0.92578
0.80589 0.810666 0.92578
0.806882 0.810697 0.925795
0.954421 0.823377 0.92813
0.954421 0.823377 0.92813
0.95346 0.82797 0.924239
0.941024 0.936461 0.907256
0.780957 0.876463 0.915831
0.780896 0.8766 0.915816
0.780774 0.876829 0.915785
0.780423 0.877531 0.915709
0.780133 0.874556 0.914885
0.889876 0.869932 0.913359
0.946609 0.884215 0.91194
0.943099 0.916732 0.907713
0.938796 0.953094 0.904387
0 0.994644 0.909545
0 0.994125 0.909545
0 0.993271 0.909529
0 0.990768 0.909468
0.617136 0.979065 0.90341
0.844236 0.966232 0.897215
0.916655 0.963867 0.898207
0.936568 0.96585 0.899016
0.93579 0.972122 0.900374
0.811826 0.982528 0.890791
0.813626 0.982513 0.890776
0.816434 0.982483 0.890761
0.824308 0.982422 0.8907
0.843244 0.982361 0.890654
0.876036 0.982483 0.890867
0.911406 0.982864 0.891691
0.933349 0.98323 0.8934
0.933608 0.983429 0.896529
0.904997 0.982193 0.880888
0.905135 0.982193 0.880919
0.905348 0.982193 0.880919
0.90602 0.982208 0.880964
0.907912 0.982223 0.881056
0.912703 0.9823 0.881392
0.922011 0.982467 0.882292
0.932647 0.982712 0.884581
0.933059 0.983017 0.889769
0.805875 0.810819 0.92578
0.805875 0.810819 0.92578
0.805875 0.810819 0.92578
0.805875 0.810819 0.92578
0.805875 0.810819 0.92578
0.805875 0.810819 0.92578
0.954421 0.823377 0.92813
0.954421 0.823377 0.92813
0.953033 0.835813 0.927214
0.805875 0.810819 0.92578
0.805875 0.810819 0.92578
0.805875 0.810819 0.92578
0.805875 0.810819 0.92578
0.805875 0.810819 0.92578
0.805875 0.810819 0.92578
0.954421 0.823377 0.92813
0.954421 0.823377 0.92813
0.953033 0.835813 0.927214
0.805875 0.810819 0.92578
0.805875 0.810819 0.92578
0.805875 0.810819 0.92578
0.805875 0.810819 0.92578
0.805875 0.810819 0.92578
0.805875 0.810819 0.92578
0.954421 0.823377 0.92813
0.954421 0.823377 0.92813
0.953033 0.835813 0.927214
0.805875 0.810819 0.92578
0.805875 0.810819 0.92578
0.805875 0.810819 0.92578
0.805875 0.810819 0.92578
0.805875 0.810819 0.92578
0.805875 0.810742 0.92578
0.954421 0.823377 0.92813
0.954421 0.823377 0.92813
0.953033 0.835798 0.927214
0.805875 0.810803 0.92578
0.805875 0.810803 0.92578
0.805875 0.810803 0.92578
0.805875 0.810803 0.92578
0.805875 0.810803 0.92578
0.807172 0.810697 0.925795
0.954421 0.823377 0.92813
0.954421 0.823377 0.92813
0.953033 0.835737 0.927214
0.805875 0.810803 0.92578
0.805875 0.810803 0.92578
0.805875 0.810803 0.92578
0.805875 0.810803 0.92578
0.805875 0.810803 0.92578
0.850523 0.812436 0.926253
0.954421 0.823377 0.92813
0.954421 0.823499 0.92813
0.94638 0.900679 0.923125
0.716396 0.962402 0.920836
0.71632 0.962432 0.920836
0.716228 0.962463 0.920836
0.715923 0.9626 0.920836
0.714992 0.962982 0.920851
0.800656 0.947112 0.919661
0.924498 0.943389 0.920241
0.940963 0.949905 0.920073
0.938918 0.964889 0.918914
0.69482 0.987579 0.91931
0.701946 0.987289 0.919005
0.712596 0.986862 0.918563
0.73994 0.98587 0.917571
0.793591 0.984543 0.916121
0.857603 0.984146 0.91548
0.908141 0.984543 0.915709
0.934813 0.984085 0.916182
0.935637 0.984497 0.91632
0.901381 0.984329 0.91397
0.901549 0.984329 0.91397
0.901823 0.984329 0.91397
0.902647 0.984344 0.913985
0.904997 0.984375 0.914015
0.910811 0.984436 0.914076
0.921477 0.984573 0.914244
0.932982 0.984756 0.914519
0.935409 0.984817 0.914946
0.805753 0.811582 0.92575
0.805753 0.811582 0.92575
0.805753 0.811582 0.92575
0.805753 0.811582 0.92575
0.805753 0.811582 0.92575
0.805753 0.811582 0.92575
0.805753 0.811582 0.92575
0.954345 0.824048 0.928084
0.95227 0.842802 0.926711
0.805753 0.811582 0.92575
0.805753 0.811582 0.92575
0.805753 0.811582 0.92575
0.805753 0.811582 0.92575
0.805753 0.811582 0.92575
0.805753 0.811582 0.92575
0.805753 0.811582 0.92575
0.954345 0.824063 0.928084
0.95227 0.842817 0.926711
0.805753 0.811582 0.92575
0.805753 0.811582 0.92575
0.805753 0.811582 0.92575
0.805753 0.811582 0.92575
0.805753 0.811582 0.92575
0.805753 0.811582 0.92575
0.805753 0.811582 0.92575
0.954345 0.824063 0.928084
0.95227 0.842832 0.926711
0.805753 0.811582 0.92575
0.805753 0.811582 0.92575
0.805753 0.811582 0.92575
0.805753 0.811582 0.92575
0.805753 0.811582 0.92575
0.805753 0.811582 0.92575
0.805753 0.811582 0.92575
0.954345 0.824063 0.928084
0.952255 0.842878 0.926711
0.805753 0.811582 0.92575
0.805753 0.811582 0.92575
0.805753 0.811582 0.92575
0.805753 0.811582 0.92575
0.805753 0.811582 0.92575
0.805753 0.811582 0.92575
0.80705 0.81149 0.925765
0.954345 0.824094 0.928084
0.952239 0.843 0.926696
0.805753 0.811582 0.92575
0.805753 0.811582 0.92575
0.805753 0.811582 0.92575
0.805753 0.811582 0.92575
0.805753 0.811582 0.92575
0.805753 0.811582 0.92575
0.859937 0.813184 0.92639
0.95433 0.824155 0.928084
0.952224 0.843183 0.92668
0.805753 0.811582 0.92575
0.805753 0.811582 0.92575
0.805753 0.811582 0.92575
0.805753 0.811582 0.92575
0.805753 0.811582 0.92575
0.805753 0.811582 0.92575
0.954421 0.823377 0.92813
0.954314 0.824308 0.928069
0.952193 0.843549 0.92665
0 0.997787 0.929397
0 0.997787 0.929397
0 0.997787 0.929397
0 0.997787 0.929397
0 0.997787 0.929397
0 0.997787 0.929397
0.88072 0.976638 0.917052
0.93727 0.975341 0.917967
0.936889 0.977829 0.917723
0.863218 0.984222 0.916136
0.863813 0.984222 0.916136
0.864775 0.984222 0.916152
0.867552 0.984253 0.916167
0.874937 0.984283 0.916213
0.890761 0.984421 0.91635
0.913314 0.98468 0.916625
0.931258 0.984924 0.916915
0.935637 0.985 0.916991
