BBLuts/BB_106_0360_LUT.cube
TITLE "Generated by Resolve"
LUT_3D_SIZE 33
0 0 0
0 0 0
0 0 0
0 0 0
0 0 0
0.0425574 0 0
0.0917525 0 0
0.12842 0 0
0.164584 0 0
0.205951 0.000106813 0.000274662
0.256306 0.000137331 0.000335698
0.312474 0.000167849 0.000411994
0.376959 0.000198367 0.000503548
0.453605 0.000228885 0.000610361
0.542153 0.000274662 0.000717174
0.638117 0.000335698 0.000854505
0.736965 0.000381476 0.000991836
0.835996 0.000427253 0.00111391
0.9234 0.00047303 0.00123598
0.990723 0.000518807 0.00132753
0.991226 0.000518807 0.00132753
0.991226 0.000518807 0.00132753
0.988708 0.212451 0.0611887
0.986969 0.358282 0.101183
0.985534 0.476326 0.145678
0.984192 0.584192 0.198459
0.982895 0.682734 0.269734
0.981781 0.761334 0.363119
0.98088 0.82002 0.463172
0.980117 0.8654 0.563973
0.979492 0.89897 0.664042
0.978958 0.925551 0.756664
0.978546 0.946166 0.830106
0 0 0
0 0 0
0 0 0
0 0 0
0 0 0
0.0534829 0 0
0.0957046 0 0
0.131319 0 0
0.167742 9.15541e-05 0.000228885
0.211383 0.000106813 0.000289921
0.261814 0.000137331 0.000350958
0.317372 0.000167849 0.000427253
0.380209 0.000198367 0.000503548
0.45565 0.000228885 0.000610361
0.543923 0.000274662 0.000732433
0.639353 0.000335698 0.000854505
0.737697 0.000381476 0.000991836
0.836301 0.000427253 0.00111391
0.923232 0.00047303 0.00123598
0.990219 0.000518807 0.00132753
0.991226 0.000518807 0.00132753
0.991226 0.000518807 0.00132753
0.988479 0.234806 0.0513161
0.986847 0.369848 0.0968185
0.985443 0.483909 0.143343
0.984131 0.589426 0.197223
0.982864 0.686107 0.268376
0.981765 0.763256 0.362402
0.980865 0.821118 0.46276
0.980117 0.866011 0.563714
0.979492 0.899336 0.663874
0.978958 0.925765 0.756573
0.978546 0.946288 0.830045
0 0 0
0 0 0
0 0 0
0 0 0
0 0 0
0.0599985 0 0
0.0974136 0 0
0.134112 0 0
0.172534 9.15541e-05 0.000228885
0.216617 0.000106813 0.000289921
0.266224 0.000137331 0.000350958
0.320089 0.000167849 0.000427253
0.382696 0.000198367 0.000518807
0.457877 0.000244144 0.000610361
0.545724 0.000289921 0.000732433
0.640574 0.000335698 0.000854505
0.738415 0.000381476 0.000991836
0.836561 0.000427253 0.00111391
0.923018 0.00047303 0.00123598
0.98967 0.000518807 0.00132753
0.991226 0.000518807 0.00132753
0.991226 0.000518807 0.00132753
0.988281 0.254673 0.0370184
0.98674 0.380941 0.0921645
0.985367 0.49131 0.140978
0.98407 0.594583 0.195972
0.982834 0.689403 0.267033
0.98175 0.765133 0.361685
0.98085 0.822202 0.462348
0.980102 0.866621 0.56347
0.979492 0.899687 0.663722
0.978958 0.925978 0.756466
0.978546 0.94641 0.829999
0 0 0
0 0 0
0 0 0
0 0.00660716 3.0518e-05
0.0217594 0.0111543 0
0.0648356 0 0
0.0982681 0 0
0.134524 0 0
0.173419 9.15541e-05 0.000228885
0.218601 0.000106813 0.000289921
0.268925 0.000137331 0.000366217
0.322454 0.000167849 0.000427253
0.385122 0.000198367 0.000518807
0.460136 0.000244144 0.000610361
0.547555 0.000289921 0.000732433
0.64181 0.000335698 0.000854505
0.739132 0.000381476 0.000991836
0.836805 0.000427253 0.00111391
0.922789 0.00047303 0.00123598
0.98909 0.000518807 0.00132753
0.991226 0.000518807 0.00132753
0.990219 0.0903334 0.00177005
0.988174 0.272679 0.00265507
0.986633 0.391577 0.087129
0.98529 0.498512 0.138552
0.984024 0.599634 0.19472
0.982803 0.692638 0.265675
0.981735 0.766979 0.360967
0.98085 0.823285 0.461936
0.980102 0.867231 0.563226
0.979477 0.900038 0.663569
0.978958 0.926192 0.756374
0.978546 0.946532 0.829938
0 0.0492256 0.000244144
0 0.0519722 0.000259403
0 0.0546273 0.000259403
0 0.0571756 0.000274662
0 0.0581674 0.000289921
0.0572976 0.0575875 0
0.0940261 0.055787 0
0.13193 0.051545 0
0.173968 0.0419928 0
0.219348 0.000106813 0.000289921
0.270558 0.000137331 0.000366217
0.324529 0.000167849 0.000427253
0.387457 0.000198367 0.000518807
0.462409 0.000244144 0.000610361
0.549401 0.000289921 0.000732433
0.643061 0.000335698 0.000854505
0.739834 0.000381476 0.000991836
0.837018 0.000427253 0.00111391
0.92253 0.00047303 0.00123598
0.988495 0.000518807 0.00132753
0.991226 0.000518807 0.00132753
0.989654 0.141329 0.00201419
0.987991 0.289189 0.00273136
0.986526 0.401816 0.0816358
0.985229 0.505547 0.136095
0.983963 0.604608 0.193484
0.982773 0.695811 0.264317
0.981704 0.768795 0.36025
0.980835 0.824338 0.461524
0.980087 0.867842 0.562982
0.979477 0.900389 0.663401
0.978958 0.926406 0.756283
0.978546 0.946654 0.829892
0 0.0786145 0.000381476
0 0.080827 0.000396735
0 0.0829786 0.000411994
0 0.0847028 0.000411994
0 0.0855268 0.000411994
0.0386206 0.0855726 0.00047303
0.0872053 0.0848096 0
0.127993 0.0830396 0
0.171847 0.0792096 0
0.218204 0.071809 0.000640879
0.270512 0.0568704 0.000640879
0.326284 0.000167849 0.000442512
0.389715 0.000198367 0.000518807
0.464729 0.000244144 0.00062562
0.551308 0.000289921 0.000732433
0.644327 0.000335698 0.000854505
0.740551 0.000381476 0.000991836
0.837232 0.000427253 0.00111391
0.922255 0.00047303 0.00123598
0.987884 0.000518807 0.00132753
0.991226 0.000518807 0.00132753
0.989273 0.175326 0.00218204
0.987808 0.304601 0.00280766
0.986435 0.411734 0.0755169
0.985153 0.512459 0.133562
0.983917 0.609522 0.192233
0.982742 0.698955 0.262959
0.981689 0.770581 0.359533
0.980819 0.825391 0.461112
0.980087 0.868437 0.562722
0.979477 0.90074 0.663233
0.978958 0.926604 0.756191
0.978546 0.946777 0.829831
0 0.108263 0.000534066
0 0.110124 0.000534066
0 0.111971 0.000549325
0 0.113054 0.000549325
0 0.113725 0.000549325
0 0.113954 0.000549325
0.0716106 0.113802 0.000656138
0.12105 0.112779 0
0.16788 0.110719 0
0.216068 0.106844 0.000808728
0.269596 0.09897 0.000839246
0.326818 0.085893 0.000854505
0.391562 0.0602274 0.000823987
0.467552 0.000244144 0.00062562
0.553658 0.000289921 0.000732433
0.645899 0.000335698 0.000869764
0.741421 0.000381476 0.000991836
0.837491 0.000427253 0.00111391
0.921889 0.00047303 0.00123598
0.987076 0.000518807 0.00131228
0.991226 0.000518807 0.00132753
0.988891 0.208011 0.00233463
0.98761 0.322164 0.00289921
0.986313 0.423438 0.0668498
0.985061 0.520714 0.130388
0.983856 0.615427 0.190692
0.982696 0.702708 0.261295
0.981674 0.772747 0.358663
0.980804 0.826673 0.460624
0.980087 0.869154 0.562417
0.979477 0.901167 0.66305
0.978958 0.926863 0.756069
0.978546 0.946929 0.82977
0 0.142443 0.000701915
0 0.144076 0.000701915
0 0.145373 0.000717174
0 0.146166 0.000717174
0 0.146731 0.000717174
0 0.147036 0.000717174
0.0258183 0.147112 0.000747692
0.104341 0.146822 0.000854505
0.160037 0.145495 0
0.210819 0.143069 0.000976577
0.266667 0.137682 0.00103761
0.326833 0.129778 0.00106813
0.393576 0.117647 0.00109865
0.470008 0.0962692 0.00109865
0.556252 0.0448463 0.000961318
0.648035 0.000335698 0.000869764
0.742611 0.000381476 0.000991836
0.837827 0.000427253 0.00111391
0.92137 0.00047303 0.00123598
0.985946 0.000518807 0.00131228
0.989837 0.124147 0.00192264
0.988495 0.243824 0.00251774
0.987366 0.343786 0.00300603
0.986191 0.438361 0.0517433
0.984955 0.531411 0.125994
0.983764 0.623163 0.188632
0.982651 0.707591 0.26006
0.981643 0.775555 0.357504
0.980789 0.828351 0.459953
0.980072 0.870115 0.56202
0.979461 0.901732 0.662776
0.978943 0.927199 0.755901
0.978546 0.947127 0.829679
0 0.182834 0.000900282
0 0.184161 0.000900282
0 0.184848 0.000900282
0 0.185565 0.000900282
0 0.186038 0.000915541
0 0.186358 0.000915541
0 0.186542 0.000915541
0.0694285 0.186557 0.0010071
0.140917 0.18529 0.000946059
0.199924 0.183047 0.00115969
0.260105 0.179446 0.00122072
0.324269 0.174044 0.00128176
0.394751 0.166049 0.00134279
0.473304 0.153903 0.00138857
0.559182 0.136568 0.00141909
0.649653 0.110719 0.00140383
0.743526 0.0653849 0.00131228
0.83827 0.000442512 0.00111391
0.920607 0.00047303 0.00123598
0.983154 0.104829 0.00183108
0.989044 0.195499 0.00227359
0.988052 0.283268 0.00270085
0.987076 0.370047 0.0031281
0.986099 0.457206 0.00355535
0.984817 0.545129 0.119829
0.983673 0.633158 0.185885
0.982574 0.713863 0.259144
0.981598 0.779217 0.355962
0.980774 0.830564 0.459068
0.980056 0.871382 0.561471
0.979461 0.90248 0.662425
0.978943 0.927657 0.755703
0.978546 0.947387 0.829557
0 0.229175 0.00111391
0 0.229541 0.00111391
0 0.229908 0.00112917
0 0.230228 0.00112917
0 0.230396 0.00112917
0 0.230442 0.00112917
0 0.23035 0.00112917
0 0.23003 0.00112917
0.106142 0.229343 0.0012665
0.181186 0.227955 0.00135805
0.248157 0.225559 0.00143435
0.317494 0.221759 0.00151064
0.392981 0.215946 0.00158694
0.475807 0.207385 0.00164797
0.563027 0.197314 0.00172427
0.652491 0.185092 0.00177005
0.744533 0.171344 0.00183108
0.836988 0.159808 0.00189212
0.917571 0.166201 0.00204471
0.979736 0.201373 0.00228885
0.988342 0.257664 0.00257877
0.987564 0.32668 0.00291447
0.986725 0.40148 0.00328069
0.98584 0.480552 0.00366217
0.984649 0.562509 0.110979
0.983536 0.645838 0.182284
0.982483 0.721859 0.258015
0.981552 0.783886 0.353948
0.980743 0.833432 0.457893
0.980041 0.87303 0.560754
0.979446 0.903471 0.661967
0.978943 0.928252 0.755413
0.978531 0.947738 0.829404
0 0.278981 0.00135805
0 0.279347 0.00135805
0 0.279728 0.00137331
0 0.280018 0.00137331
0 0.280217 0.00137331
0 0.280324 0.00137331
0 0.280369 0.00137331
0 0.280262 0.00137331
0 0.279896 0.00137331
0.146395 0.279164 0.00155642
0.227527 0.277684 0.00166323
0.304326 0.275135 0.00175479
0.386084 0.270909 0.00184634
0.475242 0.264912 0.0019379
0.565866 0.258122 0.00201419
0.655726 0.251148 0.00210575
0.746349 0.244938 0.0021973
0.83653 0.241932 0.00230411
0.914794 0.25037 0.00244144
0.975479 0.276844 0.00265507
0.98764 0.3196 0.00288396
0.98703 0.37467 0.00315862
0.986297 0.438575 0.0034638
0.985504 0.509087 0.00381476
0.984436 0.584268 0.097612
0.983368 0.661585 0.17763
0.982376 0.731899 0.256641
0.981491 0.789853 0.351263
0.980697 0.837125 0.456321
0.980026 0.875166 0.559792
0.979431 0.904768 0.661341
0.978927 0.92903 0.755032
0.978531 0.948211 0.82919
0 0.338216 0.00164797
0 0.338582 0.00164797
0 0.338903 0.00164797
0 0.339178 0.00166323
0 0.339391 0.00166323
0 0.339544 0.00166323
0 0.339651 0.00166323
0 0.339696 0.00166323
0 0.33959 0.00166323
0 0.339193 0.00166323
0.189212 0.33846 0.00190738
0.280751 0.336904 0.00202945
0.37145 0.334325 0.00213626
0.468101 0.330465 0.00224308
0.564019 0.325704 0.00234989
0.657221 0.321248 0.0024567
0.747829 0.318532 0.00256352
0.83563 0.319448 0.00268559
0.910979 0.328954 0.00282292
0.969833 0.35021 0.00300603
0.986923 0.383215 0.00318914
0.986435 0.427665 0.00341802
0.985824 0.481636 0.00367742
0.985122 0.543328 0.0039826
0.984192 0.611017 0.0748913
0.983169 0.680781 0.17174
0.982238 0.744274 0.25507
0.981414 0.797391 0.347738
0.980652 0.84184 0.454261
0.979995 0.877897 0.558526
0.979416 0.906462 0.660502
0.978927 0.930053 0.754543
0.978531 0.948821 0.828916
0 0.409186 0.00199893
0 0.409522 0.00199893
0 0.409812 0.00199893
0 0.410056 0.00199893
0 0.410254 0.00199893
0 0.410422 0.00199893
0 0.410574 0.00199893
0 0.410697 0.00199893
0 0.410788 0.00199893
0 0.41088 0.00201419
0.0850843 0.410803 0.002121
0.23769 0.41033 0.00233463
0.345068 0.409018 0.0024567
0.450965 0.406424 0.00259403
0.553857 0.403037 0.00271611
0.652811 0.39971 0.00282292
0.746853 0.397787 0.00294499
0.833509 0.399237 0.00306706
0.905943 0.407233 0.00320439
0.962692 0.423987 0.00335698
0.986175 0.449989 0.00352483
0.985779 0.485863 0.00369268
0.985275 0.530709 0.00392157
0.98468 0.583612 0.00416571
0.984009 0.643229 0.00447089
0.982925 0.703502 0.164508
0.982086 0.759106 0.253437
0.981323 0.806699 0.346059
0.980591 0.847745 0.45156
0.97995 0.881346 0.556863
0.9794 0.908644 0.659403
0.978912 0.93138 0.753872
0.978515 0.949615 0.82855
0 0.490608 0.00239567
0 0.490883 0.00239567
0 0.491112 0.00239567
0 0.49131 0.00239567
0 0.491493 0.00239567
0 0.49163 0.00239567
0 0.491783 0.00239567
0 0.49192 0.00239567
0 0.492042 0.00241093
0 0.492073 0.00241093
0 0.491951 0.00239567
0.14638 0.491539 0.00260929
0.301793 0.490486 0.00280766
0.422736 0.488457 0.00296025
0.534218 0.485664 0.00309758
0.640452 0.482551 0.00321965
0.74049 0.480201 0.00334173
0.828916 0.48069 0.0034638
0.899229 0.486839 0.00358587
0.953735 0.499947 0.0037232
0.985382 0.520363 0.00386053
0.985061 0.548974 0.00399786
0.984649 0.585611 0.00418097
0.984146 0.629969 0.0043946
0.983597 0.679606 0.00463874
0.982651 0.729503 0.156115
0.981888 0.776318 0.252033
0.981186 0.81796 0.346746
0.980529 0.855009 0.448005
0.979919 0.885695 0.55465
0.97937 0.911452 0.657938
0.978897 0.933104 0.752972
0.9785 0.950668 0.828046
0 0.57612 0.00280766
0 0.576272 0.00280766
0 0.57641 0.00282292
0 0.576516 0.00282292
0 0.576623 0.00282292
0 0.576684 0.00282292
0 0.576761 0.00282292
0 0.576806 0.00282292
0 0.576837 0.00282292
0 0.576776 0.00282292
0 0.576562 0.00282292
0 0.576028 0.00280766
0.230259 0.575067 0.0031281
0.382208 0.573327 0.00331121
0.505272 0.570932 0.0034638
0.619272 0.568048 0.00361639
0.72639 0.565286 0.00373846
0.818647 0.564614 0.00386053
0.889433 0.568536 0.00396735
0.94255 0.578271 0.00408942
0.984558 0.593988 0.00422675
0.984298 0.616434 0.00433356
0.983978 0.645685 0.00447089
0.983581 0.680446 0.00463874
0.983154 0.71873 0.00483711
0.982361 0.757992 0.147402
0.981674 0.795621 0.251347
0.981033 0.831281 0.348058
0.980438 0.863706 0.444312
0.979858 0.891112 0.551736
0.979339 0.914977 0.656001
0.978866 0.935286 0.751797
0.9785 0.952026 0.82739
0 0.663127 0.00323491
0 0.663188 0.00323491
0 0.663249 0.00323491
0 0.663279 0.00323491
0 0.663294 0.00323491
0 0.66331 0.00323491
0 0.66331 0.00323491
0 0.663279 0.00323491
0 0.663218 0.00323491
0 0.66305 0.00323491
0 0.662715 0.00323491
0 0.662089 0.00323491
0 0.660945 0.00323491
0.324727 0.659419 0.00366217
0.467277 0.657221 0.00384527
0.590173 0.654536 0.00399786
0.70399 0.651637 0.0041352
0.800809 0.65008 0.00425727
0.874006 0.651972 0.00436408
0.9281 0.658427 0.00447089
0.96936 0.669642 0.00457771
0.98352 0.68574 0.00466926
0.983291 0.706294 0.00477607
0.983017 0.730922 0.00489815
0.982696 0.758633 0.00502022
0.98204 0.787549 0.140658
0.98143 0.817105 0.251972
0.980865 0.846464 0.350423
0.980316 0.873732 0.446876
0.979797 0.897719 0.547906
0.979294 0.919341 0.653422
0.978836 0.938033 0.750225
0.978469 0.95375 0.826505
0 0.74786 0.00364691
0 0.747845 0.00364691
0 0.747814 0.00364691
0 0.747768 0.00364691
0 0.747723 0.00364691
0 0.747677 0.00364691
0 0.7476 0.00364691
0 0.747478 0.00364691
0 0.74728 0.00364691
0 0.746975 0.00364691
0 0.746471 0.00364691
0 0.745632 0.00364691
0 0.744335 0.00363165
0.24387 0.742641 0.00396735
0.422263 0.740353 0.00419623
0.556985 0.737469 0.00434882
0.676722 0.734188 0.00450141
0.777127 0.731579 0.00462348
0.853498 0.731136 0.00471504
0.910628 0.733639 0.00480659
0.953155 0.739605 0.00489815
0.982803 0.749294 0.0049897
0.982666 0.762249 0.00505074
0.982483 0.778241 0.00512703
0.982269 0.796719 0.00521859
0.981704 0.817502 0.138842
0.98117 0.840085 0.254978
0.980667 0.863081 0.354513
0.980179 0.884901 0.450706
0.979706 0.905547 0.546014
0.979232 0.924636 0.65005
0.978805 0.941421 0.748135
0.978454 0.955932 0.82533
0 0.818479 0.00399786
0 0.818387 0.00399786
0 0.81828 0.00399786
0 0.818189 0.00399786
0 0.818067 0.00399786
0 0.817945 0.00399786
0 0.817792 0.00399786
0 0.817578 0.00399786
0 0.817258 0.00399786
0 0.81677 0.0039826
0 0.816068 0.0039826
0 0.815 0.0039826
0 0.813504 0.00396735
0.153124 0.811582 0.00418097
0.385855 0.809079 0.00448615
0.530861 0.80589 0.004654
0.654169 0.802167 0.00480659
0.755062 0.798795 0.00491341
0.832837 0.796735 0.00502022
0.892775 0.796445 0.00509651
0.937423 0.798428 0.00515755
0.969909 0.803082 0.00523384
0.982116 0.810361 0.00527962
0.98201 0.82031 0.0053254
0.981872 0.832731 0.00538643
0.981353 0.847227 0.145647
0.980896 0.863401 0.261967
0.980453 0.880308 0.361181
0.980026 0.897337 0.45626
0.979599 0.914519 0.550454
0.979187 0.930877 0.645594
0.978775 0.94551 0.745388
0.978424 0.958633 0.823758
0 0.872145 0.00425727
0 0.872007 0.00425727
0 0.871855 0.00425727
0 0.871687 0.00425727
0 0.871534 0.00425727
0 0.871366 0.00425727
0 0.871153 0.00425727
0 0.870848 0.00425727
0 0.87042 0.00425727
0 0.869825 0.00424201
0 0.868971 0.00424201
0 0.867796 0.00424201
0 0.866224 0.00422675
0.11928 0.864195 0.0043946
0.374411 0.861631 0.00471504
0.520684 0.858335 0.00489815
0.641978 0.85452 0.00503548
0.739834 0.850919 0.00515755
0.815854 0.848219 0.0052491
0.876524 0.846601 0.00531014
0.922545 0.846571 0.00537118
0.956847 0.848371 0.00543221
0.981659 0.852125 0.00547799
0.981582 0.857954 0.00550851
0.981506 0.86566 0.00555428
0.981003 0.874922 0.164553
0.980606 0.885603 0.274861
0.98024 0.897627 0.37142
0.979858 0.910796 0.46421
0.979477 0.924514 0.556649
0.979095 0.937911 0.649073
0.978729 0.950378 0.741711
0.978393 0.961913 0.821683
0 0.913695 0.00445563
0 0.913497 0.00445563
0 0.913298 0.00445563
0 0.9131 0.00445563
0 0.912886 0.00445563
0 0.912673 0.00445563
0 0.912413 0.00445563
0 0.912047 0.00445563
0 0.911559 0.00445563
0 0.910887 0.00445563
0 0.910002 0.00444038
0 0.908797 0.00444038
0 0.907195 0.00442512
0.194659 0.905226 0.00469978
0.392966 0.902647 0.00494392
0.528817 0.899382 0.00511177
0.640909 0.89572 0.0052491
0.732082 0.892164 0.00534066
0.804181 0.88922 0.00543221
0.863203 0.886961 0.00549325
0.909148 0.885725 0.00555428
0.9449 0.885634 0.00560006
0.972656 0.886854 0.00564584
0.981231 0.889555 0.0056611
0.981186 0.893797 0.00569161
0.980652 0.899351 0.19559
0.980316 0.906523 0.295018
0.979995 0.915084 0.386206
0.979675 0.924758 0.475425
0.979324 0.935149 0.56524
0.978988 0.945617 0.655604
0.978653 0.955947 0.742138
0.978363 0.965789 0.818936
0 0.943816 0.00460822
0 0.943587 0.00460822
0 0.943358 0.00460822
0 0.94313 0.00460822
0 0.942916 0.00460822
0 0.942687 0.00460822
0 0.942397 0.00460822
0 0.942031 0.00460822
0 0.941527 0.00459297
0 0.940856 0.00459297
0 0.939956 0.00459297
0 0.938781 0.00459297
0 0.937224 0.00457771
0.303105 0.935378 0.0049897
0.441657 0.932876 0.00515755
0.55584 0.929808 0.00529488
0.652491 0.926467 0.00541695
0.733196 0.923186 0.00550851
0.799374 0.920287 0.00556954
0.854948 0.917845 0.00563058
0.898939 0.916121 0.00569161
0.934752 0.91516 0.00573739
0.963302 0.915084 0.00576791
0.980926 0.916121 0.00579843
0.980621 0.918212 0.124559
0.980301 0.921569 0.235813
0.980026 0.926146 0.32311
0.979767 0.931853 0.406714
0.979477 0.938537 0.490959
0.979187 0.945953 0.57702
0.978882 0.953918 0.664439
0.978576 0.962112 0.747906
0.978317 0.970199 0.817716
0 0.966644 0.00471504
0 0.96643 0.00471504
0 0.966201 0.00471504
0 0.965972 0.00471504
0 0.965759 0.00471504
0 0.96553 0.00471504
0 0.965255 0.00471504
0 0.964889 0.00471504
0 0.964416 0.00471504
0 0.96376 0.00471504
0 0.962921 0.00469978
0.148913 0.961883 0.00491341
0.303288 0.960494 0.00511177
0.411597 0.958663 0.0052491
0.50811 0.956359 0.00535592
0.595361 0.953674 0.00546273
0.67364 0.95079 0.00555428
0.741299 0.947951 0.00563058
0.800305 0.945266 0.00569161
0.850889 0.94287 0.00575265
0.89189 0.941009 0.00579843
0.926421 0.93962 0.00584421
0.954772 0.938842 0.00587472
0.976822 0.93875 0.0508431
0.980194 0.939376 0.200626
0.979965 0.941024 0.283513
0.979751 0.943633 0.358953
0.979522 0.947112 0.434028
0.979278 0.951507 0.511849
0.979019 0.956725 0.592874
0.978744 0.962524 0.676341
0.978485 0.968688 0.75555
0.978241 0.97499 0.822187
0 0.983078 0.00480659
0 0.982879 0.00480659
0 0.982666 0.00480659
0 0.982452 0.00479133
0 0.982254 0.00479133
0 0.98204 0.00479133
0.0824292 0.981826 0.00491341
0.162951 0.981537 0.00502022
0.222583 0.981125 0.00509651
0.278294 0.98056 0.00517281
0.33431 0.979797 0.0052491
0.392523 0.978805 0.0053254
0.453696 0.977508 0.00540169
0.516533 0.975906 0.00547799
0.580072 0.973983 0.00553903
0.64271 0.971771 0.00561532
0.702052 0.969421 0.00569161
0.756588 0.967025 0.00575265
0.80705 0.96463 0.00579843
0.851301 0.962432 0.00584421
0.888472 0.960586 0.00588998
0.920913 0.959045 0.0059205
0.947814 0.957824 0.0881819
0.969543 0.957076 0.193713
0.979828 0.956924 0.267445
0.979644 0.957458 0.335622
0.979477 0.95877 0.401541
0.979278 0.960815 0.468437
0.97908 0.963607 0.538979
0.978851 0.967056 0.613779
0.978622 0.971023 0.69192
0.978378 0.975402 0.765545
0.97818 0.979995 0.828046
0.381415 0.994675 0.00538643
0.391287 0.994492 0.00540169
0.400778 0.994308 0.00540169
0.409888 0.994141 0.00541695
0.418647 0.993957 0.00543221
0.427146 0.993774 0.00543221
0.43714 0.993561 0.00544747
0.449866 0.993286 0.00546273
0.465858 0.992905 0.00549325
0.485649 0.992416 0.00550851
0.509697 0.991791 0.00553903
0.538293 0.990982 0.00556954
0.57145 0.98996 0.00561532
0.608804 0.988724 0.0056611
0.649439 0.987243 0.00570687
0.691646 0.985519 0.0590524
0.73431 0.983658 0.0828412
0.777188 0.981659 0.104463
0.818204 0.979629 0.126406
0.85507 0.977707 0.149752
0.887984 0.975952 0.175174
0.917494 0.97438 0.203342
0.942626 0.973114 0.234943
0.963561 0.972152 0.28098
0.979492 0.971557 0.334356
0.979355 0.971435 0.390433
0.979202 0.971847 0.448814
0.979049 0.972839 0.509331
0.978866 0.974411 0.572778
0.978683 0.976501 0.640589
0.978469 0.979004 0.711681
0.978271 0.981857 0.778332
0.978103 0.985107 0.835584
0.568338 1 0.261112
0.572519 1 0.261295
0.576608 1 0.261463
0.580621 1 0.261631
0.584543 1 0.261814
0.588418 1 0.261982
0.593072 1 0.262196
0.599115 1 0.262486
0.606928 1 0.262867
0.616876 1 0.263386
0.629389 1 0.264073
0.644816 0.999451 0.265003
0.663417 0.998749 0.266239
0.685176 0.997879 0.267918
0.710124 0.996841 0.270161
0.738338 0.995605 0.273167
0.769055 0.994171 0.27715
0.801053 0.992615 0.282445
0.832578 0.990997 0.289418
0.862257 0.98941 0.298512
0.890654 0.987854 0.310246
0.916747 0.986389 0.325154
0.939483 0.985138 0.343893
0.959182 0.984085 0.367056
0.97554 0.983291 0.403571
0.97908 0.982788 0.449271
0.978958 0.982635 0.500175
0.978821 0.982879 0.554955
0.978668 0.983581 0.612711
0.9785 0.98468 0.673701
0.978332 0.986145 0.735821
0.978164 0.987961 0.794217
0.978027 0.990097 0.845243
0.683833 1 0.38819
0.685863 1 0.388312
0.687877 1 0.388418
0.689876 1 0.388525
0.691829 1 0.388632
0.693782 1 0.388739
0.696147 1 0.388876
0.69926 1 0.389059
0.703334 1 0.389303
0.708629 1 0.389624
0.715434 1 0.390051
0.724102 1 0.390631
0.734936 1 0.391409
0.748257 1 0.392447
0.764248 1 0.393835
0.782834 1 0.395697
0.803677 1 0.398184
0.826017 1 0.401495
0.848966 0.999313 0.405921
0.872648 0.998001 0.411765
0.896162 0.996674 0.41944
0.918349 0.995392 0.429465
0.938354 0.994217 0.442435
0.956268 0.993179 0.458991
0.971588 0.992325 0.47985
0.978821 0.991669 0.513405
0.978729 0.991241 0.556237
0.978607 0.991073 0.604608
0.978469 0.991241 0.657069
0.978332 0.991699 0.711376
0.978195 0.992432 0.763836
0.978058 0.993454 0.813138
0.977935 0.994736 0.857343
0.763287 1 0.499474
0.764416 1 0.49955
0.76553 1 0.499641
0.766644 1 0.499718
0.767727 1 0.499794
0.768826 1 0.49987
0.770153 1 0.499962
0.771908 1 0.500084
0.774212 1 0.500252
0.777218 1 0.500481
0.781125 1 0.500786
0.78613 1 0.501198
0.792493 1 0.501747
0.800412 1 0.502464
0.810086 1 0.503456
0.821561 1 0.504753
0.834791 1 0.506508
0.849973 1 0.508843
0.866926 1 0.511955
0.885084 1 0.516091
0.90367 1 0.521569
0.921721 1 0.528771
0.938857 1 0.538201
0.954681 1 0.550393
0.968505 0.999222 0.566033
0.978561 0.998535 0.585824
0.9785 0.997986 0.617761
0.978393 0.997589 0.658732
0.978286 0.997421 0.704326
0.97818 0.997452 0.750286
0.978058 0.997681 0.794171
0.977951 0.998123 0.83444
0.977859 0.998764 0.872007
0.819989 1 0.604669
0.820584 1 0.60473
0.82118 1 0.604776
0.821759 1 0.604837
0.822339 1 0.604898
0.822919 1 0.604944
0.823636 1 0.60502
0.824582 1 0.605112
0.825818 1 0.605234
