BBLuts/BB_103_0180_LUT.cube
TITLE "Generated by Resolve"
LUT_3D_SIZE 33
0 0 0
0 0 0
0 0 0
0 0 0
0 0 0
0.00154116 0 0
0.0489052 0 0
0.0837262 0 0
0.119646 0 0
0.163333 0 0
0.216281 0 0
0.276814 0 0
0.346166 0 0
0.423239 0 0
0.509499 0 0
0.585046 0 0
0.646204 0 0
0.704158 0 0
0.754452 0 0
0.7944 0 0
0.804395 0 0
0.805188 0 0
0.804669 0.185641 0
0.795544 0.36846 0
0.787015 0.510567 0.025742
0.779431 0.614191 0.062562
0.773602 0.683772 0.109331
0.769451 0.735897 0.176959
0.766232 0.772473 0.270237
0.763378 0.799405 0.367498
0.76083 0.81883 0.458076
0.758312 0.833906 0.526986
0.756649 0.845792 0.580987
0 0 0
0 0 0
0 0 0
0 0 0
0 0 0
0.0106355 0 0
0.0518502 0 0
0.086183 0 0
0.123705 0 0
0.168261 0 0
0.221637 0 0
0.281163 0 0
0.347585 0 0
0.424826 0 0
0.510826 0 0
0.585595 0 0
0.646677 0 0
0.704158 0 0
0.754406 0 0
0.794141 0 0
0.804379 0 0
0.805066 0 0
0.803769 0.213794 0
0.793851 0.382406 0
0.786328 0.517861 0.0231174
0.77908 0.617456 0.0611124
0.773434 0.685481 0.108797
0.76939 0.736721 0.176852
0.766201 0.772885 0.269963
0.763363 0.799603 0.36733
0.760815 0.818921 0.458015
0.758297 0.833967 0.526955
0.756649 0.845823 0.580972
0 0 0
0 0 0
0 0 0
0 0 0
0 0 0
0.0153353 0 0
0.0522316 0 0
0.0881056 0 0
0.12755 0 0
0.17171 0 0
0.223926 0 0
0.28217 0 0
0.349462 0 0
0.426795 0 0
0.512169 0 0
0.586389 0 0
0.646937 0 0
0.704372 0 0
0.75433 0 0
0.793851 0 0
0.804349 0 0
0.80502 0.0061799 0
0.802579 0.241749 0
0.792462 0.395377 0
0.785672 0.524758 0.0207523
0.778759 0.620279 0.0598306
0.773281 0.687068 0.108324
0.769329 0.737484 0.176761
0.766171 0.773251 0.269688
0.763363 0.799802 0.367178
0.760815 0.819028 0.457938
0.758297 0.834028 0.526909
0.756649 0.845853 0.580957
0 0 0
0 0 0
0 0 0
0 0 0
0 0 0
0.0166323 0 0
0.0505074 0 0
0.0862745 0 0
0.126421 0 0
0.172656 0 0
0.226078 0 0
0.284031 0 0
0.351766 0 0
0.428794 0 0
0.513527 0 0
0.586969 0 0
0.647425 0 0
0.70457 0 0
0.754253 0 0
0.793561 0 0
0.804318 0 0
0.805341 0.0744488 0
0.801404 0.263996 0
0.791379 0.405875 0
0.785107 0.530617 0.0187228
0.778485 0.622782 0.0586709
0.773144 0.688533 0.107881
0.769268 0.738216 0.176654
0.76614 0.773648 0.269429
0.763348 0.800015 0.36701
0.7608 0.819135 0.457847
0.758297 0.834073 0.526879
0.756649 0.845884 0.580941
0 7.62951e-05 0
0 0.00263981 0
0 0.00514229 0
0 0.00759899 0
0 0.00860609 0
0.00238041 0.00737011 0
0.0412757 0.00494392 0
0.0793164 0.000137331 0
0.121981 0 0
0.17258 0 0
0.227268 0 0
0.286244 0 0
0.353979 0 0
0.430838 0 0
0.515236 0 0
0.587793 0 0
0.647913 0 0
0.704753 0 0
0.754147 0 0
0.793225 0 0
0.804288 0 0
0.805386 0.114504 0
0.800229 0.283268 0
0.79057 0.417044 0
0.784497 0.536736 0.0161288
0.778195 0.62536 0.0573739
0.773007 0.689937 0.107469
0.769207 0.738918 0.176577
0.766125 0.774029 0.269169
0.763333 0.800198 0.366857
0.7608 0.819242 0.457786
0.758297 0.834134 0.526833
0.756649 0.845914 0.580926
0 0.0290684 0
0 0.0311284 0
0 0.0332952 0
0 0.0349584 0
0 0.0358129 0
0 0.0356756 0
0.0303502 0.0341497 0
0.0719768 0.0319524 0
0.116381 0.0276493 0
0.167178 0.0191196 0
0.223911 0.0027924 0
0.286931 0 0
0.356039 0 0
0.433341 0 0
0.516838 0 0
0.58851 0 0
0.648447 0 0
0.704952 0 0
0.75404 0 0
0.792889 0 0
0.804074 0 0
0.805112 0.148241 0
0.7991 0.300114 0
0.789883 0.426673 0
0.783917 0.542351 0.0136568
0.77789 0.628046 0.0559396
0.772869 0.691493 0.106981
0.769146 0.739605 0.176486
0.766094 0.774395 0.268925
0.763317 0.800397 0.366705
0.7608 0.819348 0.457694
0.758282 0.834195 0.526802
0.756649 0.845945 0.580896
0 0.059678 0
0 0.0614328 0
0 0.0631571 0
0 0.0642252 0
0 0.0649729 0
0 0.0652171 0
0.00936904 0.0644236 0
0.0609598 0.0631266 0
0.108644 0.0606699 0
0.161791 0.0556497 0
0.219989 0.0464942 0
0.283558 0.0319066 0
0.355261 0.00613413 0
0.435126 0 0
0.518807 0 0
0.589746 0 0
0.648859 0 0
0.704982 0 0
0.753719 0 0
0.792447 0 0
0.804059 0.0104067 0
0.804746 0.182574 0
0.797787 0.318654 0
0.789075 0.438025 0
0.783276 0.548409 0.0109865
0.777539 0.631174 0.0543374
0.772686 0.693355 0.106416
0.76907 0.740581 0.176394
0.766064 0.774823 0.26862
0.763302 0.800626 0.366522
0.760784 0.819471 0.457603
0.758282 0.834257 0.526757
0.756649 0.845991 0.58088
0 0.0948806 0
0 0.096437 0
0 0.0975967 0
0 0.0984817 0
0 0.0990158 0
0 0.0995041 0
0 0.0996719 0
0.0382391 0.0985885 0
0.0959029 0.0971084 0
0.152468 0.0938582 0
0.213733 0.0872053 0
0.280735 0.0774243 0
0.354665 0.0634012 0
0.434745 0.0417029 0
0.518914 0 0
0.589853 0 0
0.649119 0 0
0.705425 0 0
0.753506 0 0
0.79147 0 0
0.804364 0.0897231 0
0.803388 0.223468 0
0.796033 0.342611 0
0.788022 0.453361 0
0.782269 0.556924 0.00575265
0.777081 0.635355 0.0522011
0.772457 0.695827 0.105669
0.768963 0.741863 0.176272
0.766018 0.775555 0.268162
0.763287 0.800946 0.366262
0.760769 0.819638 0.457481
0.758282 0.834348 0.526696
0.756634 0.846036 0.58085
0 0.136904 0
0 0.138094 0
0 0.138918 0
0 0.139574 0
0 0.140047 0
0 0.140566 0
0 0.14078 0
0 0.140764 0
0.0712596 0.139376 0
0.135821 0.136889 0
0.202243 0.132311 0
0.274464 0.125078 0
0.353109 0.115175 0
0.436545 0.10135 0
0.519707 0.0831006 0
0.588067 0.0591135 0
0.647776 0.0259861 0
0.704784 0 0
0.752605 0 0
0.790616 0.0656138 0
0.803647 0.16669 0
0.801114 0.269032 0
0.793866 0.37203 0
0.786603 0.473487 0
0.780789 0.567849 0
0.77641 0.641306 0.0489815
0.772152 0.699107 0.104677
0.768811 0.743648 0.176104
0.765942 0.776547 0.267536
0.763241 0.801495 0.36585
0.760754 0.819898 0.457298
0.758267 0.834501 0.526619
0.756634 0.846113 0.580804
0 0.185885 0
0 0.186465 0
0 0.186831 0
0 0.187121 0
0 0.187549 0
0 0.187625 0
0 0.187564 0
0 0.187274 0
0.0218967 0.187274 0
0.107698 0.186404 0
0.182864 0.18381 0
0.26183 0.178744 0
0.347143 0.171206 0
0.436179 0.161059 0
0.520775 0.149737 0
0.587808 0.137545 0
0.64712 0.126879 0
0.703075 0.121019 0
0.750973 0.13257 0
0.78854 0.174136 0
0.801404 0.240269 0
0.797665 0.320348 0
0.791211 0.408194 0
0.784741 0.498711 0
0.77882 0.581827 0
0.775509 0.649165 0.0446021
0.771725 0.703716 0.103288
0.768627 0.746029 0.175891
0.76585 0.777905 0.266682
0.763195 0.802243 0.365301
0.760739 0.820325 0.456962
0.758251 0.834699 0.526482
0.756634 0.84622 0.580728
0 0.241321 0
0 0.241932 0
0 0.242313 0
0 0.242618 0
0 0.242847 0
0 0.243 0
0 0.243076 0
0 0.24329 0
0 0.242924 0
0.0492714 0.244266 0
0.150408 0.244221 0
0.239429 0.241474 0
0.333318 0.236164 0
0.43032 0.229114 0
0.519295 0.221881 0
0.586801 0.215228 0
0.645701 0.211627 0
0.70071 0.21384 0
0.747372 0.22887 0
0.783001 0.262837 0
0.796735 0.313619 0
0.793439 0.377722 0
0.78822 0.450492 0
0.782422 0.528481 0
0.776532 0.598947 0
0.77438 0.659327 0.0394598
0.771176 0.709743 0.101503
0.768368 0.749294 0.175677
0.765713 0.779706 0.265522
0.763134 0.803265 0.364523
0.760693 0.820905 0.456519
0.758236 0.835035 0.526253
0.756619 0.846372 0.580636
0 0.308888 0
0 0.309163 0
0 0.309545 0
0 0.31017 0
0 0.310414 0
0 0.310613 0
0 0.310796 0
0 0.310872 0
0 0.310796 0
0 0.312154 0
0.0854505 0.314916 0
0.201541 0.315297 0
0.307881 0.312795 0
0.414786 0.308827 0
0.511345 0.303944 0
0.58204 0.300237 0
0.641657 0.300679 0
0.69546 0.306432 0
0.740185 0.321675 0
0.774426 0.349477 0
0.790906 0.389334 0
0.789014 0.439048 0
0.784649 0.499947 0
0.779675 0.561929 0
0.774639 0.619074 0
0.773053 0.671794 0.0337224
0.770489 0.717449 0.0992599
0.768017 0.753643 0.175479
0.76553 0.782223 0.265171
0.763043 0.804593 0.363531
0.760647 0.821698 0.455894
0.758206 0.835508 0.525933
0.756603 0.846647 0.580468
0 0.391379 0
0 0.391562 0
0 0.391913 0
0 0.392203 0
0 0.392432 0
0 0.393011 0
0 0.39324 0
0 0.393408 0
0 0.393576 0
0 0.393683 0
0 0.397345 0
0.131655 0.401526 0
0.266011 0.401572 0
0.386648 0.399573 0
0.493797 0.396658 0
0.571191 0.394385 0
0.633494 0.394766 0
0.68751 0.400259 0
0.731044 0.413291 0
0.764614 0.435019 0
0.785153 0.466056 0
0.784207 0.505714 0
0.780606 0.550652 0
0.776532 0.598291 0
0.772534 0.641611 0
0.771405 0.687068 0.025452
0.76968 0.726833 0.0966201
0.76759 0.759197 0.175387
0.765286 0.785565 0.265827
0.762921 0.80647 0.362264
0.760586 0.822766 0.455085
0.75816 0.836133 0.52549
0.756573 0.847013 0.580224
0 0.484276 0
0 0.484352 0
0 0.484627 0
0 0.484871 0
0 0.485069 0
0 0.485283 0
0 0.485466 0
0 0.48571 0
0 0.486244 0
0 0.486336 0
0 0.486229 0
0.0226139 0.491676 0
0.197482 0.495232 0
0.345098 0.493492 0
0.466255 0.491188 0
0.554482 0.488838 0
0.621759 0.489113 0
0.677974 0.493477 0
0.721355 0.5037 0
0.753902 0.520211 0
0.778363 0.54226 0
0.778805 0.568933 0
0.776287 0.60087 0
0.773373 0.632639 0
0.770214 0.667308 0
0.769558 0.704417 0.0154726
0.768734 0.738079 0.0934005
0.767071 0.766033 0.175494
0.764965 0.789792 0.266865
0.762753 0.808942 0.360693
0.760494 0.824247 0.453971
0.758114 0.836973 0.524926
0.756542 0.847517 0.579904
0 0.572106 0
0 0.572106 0
0 0.572213 0
0 0.572351 0
0 0.572442 0
0 0.572534 0
0 0.572625 0
0 0.572717 0
0 0.572778 0
0 0.572747 0
0 0.5729 0
0 0.572442 0
0.0835737 0.57763 0
0.28365 0.578332 0
0.428092 0.576837 0
0.532601 0.57525 0
0.60531 0.574777 0
0.664897 0.577371 0
0.709636 0.583612 0
0.741955 0.594095 0
0.76701 0.608698 0
0.773434 0.624201 0
0.77229 0.644373 0
0.770123 0.668421 0
0.76791 0.694682 0
0.767498 0.72311 0.00318914
0.767727 0.750759 0.0906386
0.766445 0.774411 0.175998
0.764569 0.79498 0.268345
0.762524 0.812085 0.360662
0.760372 0.82623 0.452522
0.758038 0.838163 0.524117
0.756497 0.848173 0.579461
0 0.641855 0
0 0.641855 0
0 0.641855 0
0 0.641917 0
0 0.641932 0
0 0.641978 0
0 0.641978 0
0 0.642008 0
0 0.641978 0
0 0.641886 0
0 0.641672 0
0 0.641474 0
0 0.642786 0
0.18172 0.645594 0
0.377295 0.644953 0
0.503288 0.643427 0
0.585122 0.642512 0
0.648844 0.643381 0
0.695598 0.64683 0
0.729168 0.652766 0
0.754162 0.661555 0
0.768032 0.673182 0
0.768292 0.687068 0
0.767208 0.703517 0
0.765805 0.72195 0
0.765133 0.742107 0
0.766674 0.764614 0.0883192
0.765759 0.784054 0.177874
0.764111 0.801236 0.270619
0.762219 0.815915 0.362875
0.760189 0.828763 0.451698
0.757931 0.83975 0.523049
0.756436 0.849104 0.578836
0 0.704509 0
0 0.704509 0
0 0.704509 0
0 0.704509 0
0 0.704509 0
0 0.704494 0
0 0.704463 0
0 0.704417 0
0 0.704295 0
0 0.704097 0
0 0.703761 0
0 0.703182 0
0 0.702495 0
0.0802014 0.705943 0
0.315801 0.705531 0
0.468757 0.703624 0
0.562814 0.701335 0
0.630549 0.700694 0
0.67985 0.701839 0
0.715236 0.70486 0
0.741558 0.709651 0
0.760433 0.716533 0
0.765042 0.725231 0
0.764828 0.735576 0
0.764004 0.747677 0
0.763195 0.76112 0
0.765637 0.779431 0.0883192
0.764996 0.794629 0.181506
0.763561 0.808347 0.274556
0.761852 0.820676 0.365942
0.75996 0.831876 0.451835
0.757809 0.841749 0.52192
0.756359 0.850355 0.577966
0 0.756603 0
0 0.756603 0
0 0.756603 0
0 0.756603 0
0 0.756603 0
0 0.756573 0
0 0.756481 0
0 0.756359 0
0 0.756146 0
0 0.755825 0
0 0.755352 0
0 0.754589 0
0 0.753536 0
0.00106813 0.755108 0
0.2486 0.755367 0
0.43798 0.752132 0
0.544015 0.748623 0
0.614237 0.746548 0
0.665064 0.74609 0
0.702312 0.746868 0
0.729992 0.748928 0
0.750057 0.752316 0
0.761944 0.757076 0
0.762753 0.763363 0
0.762493 0.771054 0
0.762356 0.780758 0
0.764675 0.7944 0.0940261
0.764218 0.805737 0.187945
0.762966 0.816144 0.280415
0.761395 0.826215 0.370718
0.75964 0.835676 0.454551
0.757641 0.844205 0.520806
0.756252 0.851957 0.576898
0 0.795773 0
0 0.795773 0
0 0.795773 0
0 0.795773 0
0 0.795773 0
0 0.795773 0
0 0.795773 0
0 0.795621 0
0 0.795361 0
0 0.794903 0
0 0.794293 0
0 0.793439 0
0 0.792279 0
0 0.792721 0
0.20119 0.792706 0
0.41912 0.788571 0
0.531914 0.784253 0
0.602487 0.781155 0
0.653269 0.779736 0
0.691112 0.779355 0
0.719783 0.779797 0
0.740826 0.781308 0
0.756954 0.783825 0
0.760998 0.787427 0
0.761166 0.792142 0
0.76257 0.800092 0.010605
0.763806 0.808957 0.10753
0.763409 0.816739 0.197879
0.762295 0.824552 0.28893
0.760876 0.83241 0.377371
0.759258 0.84004 0.458839
0.757397 0.847166 0.522896
0.756115 0.853941 0.575601
0 0.825742 0
0 0.825742 0
0 0.825742 0
0 0.825742 0
0 0.825742 0
0 0.825742 0
0 0.825742 0
0 0.825742 0
0 0.82562 0
0 0.825132 0
0 0.824353 0
0 0.823392 0
0 0.822232 0
0 0.82237 0
0.210925 0.821393 0
0.416953 0.816449 0
0.527077 0.811765 0
0.595163 0.80824 0
0.644526 0.80618 0
0.68188 0.805142 0
0.710628 0.804746 0
0.732448 0.805005 0
0.749462 0.805997 0
0.75906 0.807752 0
0.760037 0.810285 0
0.76231 0.816587 0.0385443
0.763012 0.822309 0.126711
0.762585 0.82771 0.213321
0.761578 0.833234 0.300511
0.760296 0.839094 0.386542
0.758816 0.844892 0.464607
0.757076 0.850599 0.526284
0.755917 0.856336 0.576898
0 0.847501 0
0 0.847501 0
0 0.847501 0
0 0.847501 0
0 0.847501 0
0 0.847501 0
0 0.847501 0
0 0.847501 0
0 0.847501 0
0 0.847471 0
0 0.846647 0
0 0.845563 0
0 0.844312 0
0 0.843458 0
0.2645 0.841825 0
0.433799 0.836728 0
0.530968 0.831907 0
0.593454 0.828428 0
0.63975 0.8262 0
0.675624 0.824765 0
0.703532 0.823957 0
0.725399 0.82359 0
0.742962 0.823682 0
0.756725 0.824414 0
0.758846 0.825849 0
0.761898 0.831174 0.0702373
0.762219 0.83473 0.153643
0.761715 0.838209 0.234455
0.7608 0.841901 0.316518
0.759655 0.845884 0.398337
0.758312 0.85008 0.472358
0.756725 0.854459 0.530785
0.755688 0.859113 0.579477
0 0.863767 0
0 0.863767 0
0 0.863767 0
0 0.863767 0
0 0.863767 0
0 0.863767 0
0 0.863767 0
0 0.863767 0
0 0.863767 0
0 0.863767 0
0 0.863767 0
0 0.862699 0
0 0.861494 0
0.0692149 0.861295 0
0.333501 0.856718 0
0.464149 0.85185 0
0.541558 0.847425 0
0.596201 0.844205 0
0.638224 0.842039 0
0.671839 0.840589 0
0.698299 0.839536 0
0.719554 0.838895 0
0.737041 0.83856 0
0.750942 0.838682 0
0.759793 0.841917 0.0393378
0.76144 0.844022 0.116381
0.761379 0.845869 0.188846
0.76083 0.847791 0.262623
0.759991 0.850019 0.337591
0.758953 0.852583 0.414023
0.757763 0.855421 0.482231
0.756313 0.85861 0.536721
0.755413 0.862196 0.583047
0 0.875944 0
0 0.875944 0
0 0.875944 0
0 0.875944 0
0 0.875944 0
0 0.875944 0
0 0.875944 0
0 0.875944 0
0 0.875944 0
0 0.875944 0
0 0.875944 0
0 0.875944 0
0 0.874723 0
0.256443 0.872312 0
0.405997 0.867414 0
0.499962 0.862989 0
0.557656 0.859236 0
0.603387 0.856519 0
0.640223 0.854566 0
0.670527 0.853101 0
0.695018 0.852079 0
0.715389 0.85127 0
0.732326 0.850721 0
0.748226 0.852842 0.029633
0.759197 0.854063 0.100374
0.76054 0.854749 0.166033
0.760479 0.85536 0.231128
0.759915 0.856245 0.297719
0.759167 0.85745 0.36495
0.758206 0.858961 0.433433
0.757168 0.860761 0.494911
0.755886 0.862882 0.544182
0.755108 0.865476 0.587716
0.22092 0.884199 0
0.22092 0.884199 0
0.22092 0.884199 0
0.22092 0.884199 0
0.220905 0.884199 0
0.220905 0.884199 0
0.220905 0.884199 0
0.220905 0.884199 0
0.22089 0.884215 0
0.220874 0.884215 0
0.220874 0.884215 0
0.220829 0.884215 0
0.220798 0.884215 0
0.361868 0.879744 0
0.469795 0.875227 0
0.531426 0.871153 0
0.576883 0.868238 0
0.613825 0.866056 0
0.645289 0.864378 0
0.671855 0.863066 0
0.695079 0.863371 0.000747692
0.715053 0.863844 0.0389715
0.731701 0.863783 0.0722972
0.745281 0.863767 0.114076
0.756603 0.863691 0.16463
0.759487 0.863554 0.219974
0.759533 0.863462 0.278447
0.758968 0.863645 0.337362
0.758282 0.864118 0.398672
0.757427 0.86479 0.45687
0.756237 0.865751 0.508522
0.755413 0.867063 0.553979
0.754788 0.868788 0.593469
0.463035 0.887602 0.104112
0.463035 0.887602 0.104112
0.463035 0.887602 0.104112
0.463035 0.887602 0.104112
0.463035 0.887602 0.104112
0.463035 0.887602 0.104112
0.463035 0.887602 0.104112
0.463035 0.887602 0.104112
0.463035 0.887602 0.104112
0.46302 0.887602 0.104112
0.46302 0.887602 0.104112
0.46302 0.887602 0.104112
0.463004 0.887602 0.104112
0.462989 0.887602 0.104112
0.517739 0.884474 0.10399
0.564279 0.881392 0.105531
0.599649 0.878904 0.108812
0.629496 0.877226 0.113619
0.655787 0.875853 0.120607
0.678248 0.874754 0.129717
0.697734 0.873838 0.141527
0.714855 0.873014 0.156512
0.729671 0.872328 0.17557
0.742168 0.871702 0.198566
0.75256 0.871153 0.233936
0.758099 0.870634 0.279103
0.758556 0.870115 0.328649
0.758022 0.869856 0.382071
0.757366 0.869749 0.434607
0.756634 0.869871 0.483848
0.755596 0.870222 0.525963
0.754955 0.870954 0.565789
0.754452 0.872068 0.600916
0.559823 0.88574 0.22179
0.559823 0.88574 0.22179
0.559823 0.88574 0.22179
0.559823 0.88574 0.22179
0.559823 0.88574 0.22179
0.559823 0.88574 0.22179
0.559823 0.88574 0.22179
0.559823 0.88574 0.22179
0.559823 0.88574 0.22179
0.559823 0.88574 0.22179
0.559823 0.88574 0.22179
0.559823 0.88574 0.22179
0.559808 0.88574 0.22179
0.559808 0.88574 0.22179
0.559792 0.88574 0.22179
0.588235 0.884978 0.222919
0.618509 0.88426 0.225788
0.643 0.882994 0.229419
0.664179 0.881849 0.234211
0.682811 0.880537 0.240772
0.699458 0.879637 0.249073
0.714672 0.878767 0.259724
0.727962 0.877989 0.273167
0.739452 0.877287 0.29041
0.749279 0.876631 0.310903
0.756649 0.87599 0.342336
0.757565 0.875319 0.383627
0.757061 0.874754 0.427863
0.756481 0.874342 0.471351
0.755566 0.874113 0.509972
0.754986 0.874128 0.545953
0.754513 0.874479 0.57966
0.754131 0.875135 0.609689
0.614786 0.883818 0.330007
0.614786 0.883818 0.330007
0.614786 0.883818 0.330007
0.614786 0.883818 0.330007
0.614786 0.883818 0.330007
0.614786 0.883818 0.330007
0.614786 0.883818 0.330007
0.614786 0.883818 0.330007
0.614786 0.883818 0.330007
0.614786 0.883818 0.330007
0.614786 0.883818 0.330007
0.614786 0.883818 0.330007
0.614786 0.883818 0.330007
0.614786 0.883818 0.330007
0.614771 0.883818 0.330007
0.614771 0.883818 0.330007
0.634058 0.883604 0.331716
0.655268 0.883513 0.334646
0.672358 0.883513 0.338277
0.687541 0.883558 0.342763
0.702022 0.883436 0.349004
0.715145 0.882933 0.356573
0.726909 0.881865 0.366384
0.737362 0.881178 0.378912
0.746426 0.880537 0.39469
0.753948 0.879942 0.41294
0.756146 0.879301 0.44007
0.756115 0.878584 0.472969
0.755322 0.878004 0.505562
0.754849 0.877623 0.537041
0.754437 0.87747 0.567239
0.754101 0.877546 0.595026
0.753826 0.877852 0.619806
0.652064 0.882582 0.42916
0.652064 0.882582 0.42916
0.652064 0.882582 0.42916
0.652064 0.882582 0.42916
0.652064 0.882582 0.42916
0.652064 0.882582 0.42916
0.652064 0.882582 0.42916
0.652064 0.882582 0.42916
0.652064 0.882582 0.42916
