BBLuts/BB_102_0390_LUT.cube
TITLE "Generated by Resolve"
LUT_3D_SIZE 5
0.00860609 0.00970474 0.00415045
0.212558 0.00933852 0.00239567
0.788525 0.0178683 0.00579843
1 0.586206 0.0775616
0.973465 1 0.711025
0 0.242847 0.00369268
0.154696 0.243702 0.000823987
0.784405 0.137591 0.00349432
1 0.647684 0.0376898
0.973434 1 0.710719
0 0.859541 0.00395209
0 0.859236 0.00395209
0.659434 0.842664 0
0.985016 0.910735 0.000259403
0.972915 1 0.706172
0.508705 1 0.170855
0.508705 1 0.170855
0.702068 1 0.183734
0.961776 1 0.314778
0.969909 1 0.743526
0.929442 1 0.856168
0.929442 1 0.856168
0.929442 1 0.856168
0.950042 1 0.859648
0.967758 1 0.893492
0.0114748 0.0131838 0.173007
0.182025 0.0123903 0.171221
0.789487 0.0205844 0.176715
1 0.5729 0.229572
0.973465 1 0.71104
0 0.202609 0.159472
0.160082 0.198474 0.153216
0.787152 0.04065 0.162341
1 0.637827 0.213596
0.973434 1 0.710719
0 0.85388 0.00395209
0 0.853544 0.00395209
0.664897 0.837171 0
0.986084 0.909575 0.0350958
0.972915 1 0.706172
0.517708 1 0.170352
0.517708 1 0.170352
0.704631 1 0.18323
0.961852 1 0.314565
0.969909 1 0.743526
0.929488 1 0.856168
0.929488 1 0.856168
0.929488 1 0.856168
0.950072 1 0.859632
0.967758 1 0.893492
0.0129397 0.0163729 0.725567
0.0129397 0.0163729 0.725673
0.77586 0.0219577 0.721538
1 0.310796 0.733242
0.972915 1 0.824491
0.0129397 0.0163729 0.724239
0.0129549 0.0163729 0.724315
0.78677 0.0221561 0.719783
1 0.463416 0.726619
0.972869 1 0.824323
0 0.78352 0.678416
0 0.783581 0.678447
0.630823 0.770352 0.672572
0.988647 0.874907 0.694514
0.97232 1 0.822202
0.509224 1 0.539574
0.509224 1 0.539574
0.689998 1 0.544198
0.954208 1 0.600381
0.969573 1 0.799496
0.930114 1 0.856077
0.930114 1 0.856077
0.930114 1 0.856077
0.950301 1 0.859556
0.967758 1 0.893462
0.0121309 0.0164187 1
0.0121309 0.0164187 1
0.0121309 0.0164187 1
1 0.0267185 1
0.974914 1 0.980117
0.0121309 0.0164187 1
0.0121309 0.0164187 1
0.0121309 0.0164187 1
1 0.0267185 1
0.974792 1 0.979995
0.0121309 0.0164187 1
0.0121309 0.0164187 1
0.0121309 0.0164187 1
1 0.0267185 1
0.973449 1 0.978469
0 1 0.97908
0 1 0.97908
0 1 0.97908
0.931304 1 0.968627
0.968673 1 0.972076
0.924666 1 0.947723
0.924666 1 0.947723
0.924666 1 0.947723
0.944045 1 0.948653
0.967239 1 0.958358
0 0.327977 1
0 0.327977 1
0 0.327977 1
0 0.328054 1
0.997528 0.726314 1
0 0.327977 1
0 0.327977 1
0 0.327977 1
0 0.328054 1
0.997528 0.726314 1
0 0.327977 1
0 0.327977 1
0 0.327977 1
0 0.328054 1
0.997528 0.726314 1
0 0.326787 1
0 0.326787 1
0 0.326787 1
0 0.326848 1
0.997147 0.73135 1
0.847288 1 0.999893
0.847288 1 0.999893
0.847288 1 0.999893
0.847288 1 0.999893
0.966888 1 1
