BBLuts/BB_104_0120_LUT.cube
TITLE "Generated by Resolve"
LUT_3D_SIZE 33
0 0 0
0 0 0
0 0 0
0 0 0
0 0 0
0.0442359 0 0
0.107683 0 0
0.154788 0 0
0.202701 0 0
0.255543 0 0
0.31696 0 0
0.383703 0 0
0.456992 0 0
0.532784 0 0
0.600015 0 0
0.664363 0 0
0.730755 0 0
0.797818 0 0
0.859007 0 0
0.907668 0 0
0.919707 0 0
0.920409 0 0
0.907378 0.280995 0
0.899443 0.464454 0.0134279
0.894057 0.588327 0.0649271
0.890562 0.665843 0.121996
0.887465 0.735286 0.186786
0.885084 0.790539 0.266209
0.883421 0.832135 0.361822
0.8822 0.864713 0.454749
0.881361 0.889021 0.533791
0.880751 0.908339 0.591531
0.880308 0.923476 0.639811
0 0 0
0 0 0
0 0 0
0 0 0
0 0 0
0.0561227 0 0
0.111681 0 0
0.158083 0 0
0.208026 0 0
0.261631 0 0
0.323125 0 0
0.388266 0 0
0.458503 0 0
0.534203 0 0
0.601022 0 0
0.664988 0 0
0.731304 0 0
0.797818 0 0
0.858946 0 0
0.907347 0 0
0.919692 0 0
0.919402 0.00517281 0
0.906081 0.31043 0
0.898741 0.479179 0
0.893767 0.594308 0.0606851
0.890394 0.669108 0.120012
0.887373 0.737057 0.18616
0.885054 0.79144 0.266102
0.883406 0.832593 0.361547
0.882185 0.864958 0.454597
0.881361 0.889143 0.533745
0.880751 0.9084 0.591501
0.880308 0.923506 0.639796
0 0 0
0 0 0
0 0 0
0 0 0
0 0 0
0.0623636 0 0
0.1122 0 0
0.160678 0 0
0.213062 0 0
0.265873 0 0
0.32575 0 0
0.389319 0 0
0.460533 0 0
0.535958 0 0
0.602029 0 0
0.665873 0 0
0.731579 0 0
0.798077 0 0
0.858854 0 0
0.906996 0 0
0.919661 0 0
0.916182 0.0792096 0
0.904814 0.3393 0
0.898116 0.492378 0
0.893507 0.599435 0.0568093
0.890257 0.672023 0.118257
0.887297 0.738705 0.18558
0.885008 0.792279 0.265995
0.883391 0.833021 0.361273
0.882185 0.865187 0.454444
0.881361 0.889265 0.533669
0.880751 0.908476 0.59147
0.880308 0.923537 0.639796
0 0 0
0 0 0
0 0 0
0 0 0
0.00668345 0 0
0.0638437 0 0
0.109575 0 0
0.157916 0 0
0.211276 0 0
0.266957 0 0
0.328206 0 0
0.391272 0 0
0.462989 0 0
0.537728 0 0
0.603067 0 0
0.666514 0 0
0.732128 0 0
0.798291 0 0
0.858763 0 0
0.906645 0 0
0.919631 0 0
0.912718 0.158465 0
0.903822 0.362219 0
0.897612 0.502922 0
0.893309 0.603433 0.0534829
0.89012 0.674632 0.11667
0.887221 0.740246 0.185031
0.884962 0.793088 0.265873
0.88336 0.833463 0.361013
0.88217 0.865415 0.454292
0.881346 0.889387 0.533593
0.880751 0.908537 0.59144
0.880308 0.923583 0.639765
0 0.0456092 0
0 0.0491646 0
0 0.0526284 0
0 0.0560159 0
0 0.0574197 0
0.0465553 0.0568856 0
0.0982071 0.0543832 0
0.150179 0.048188 0
0.208484 0.0342718 0
0.266499 0 0
0.329274 0 0
0.393347 0 0
0.465339 0 0
0.539544 0 0
0.604379 0 0
0.66743 0 0
0.732677 0 0
0.79852 0 0
0.85864 0 0
0.906249 0 0
0.9196 0 0
0.91075 0.203662 0
0.902953 0.38201 0
0.897154 0.513344 0
0.893095 0.607492 0.0491493
0.889982 0.677333 0.11487
0.887144 0.741711 0.184512
0.884932 0.793866 0.265782
0.883345 0.833906 0.360754
0.882155 0.865644 0.454154
0.881346 0.889494 0.533532
0.880751 0.908614 0.591394
0.880308 0.923613 0.63975
0 0.0856947 0
0 0.0885481 0
0 0.0915236 0
0 0.0938277 0
0 0.0950027 0
0.0211032 0.0952163 0
0.0840772 0.0946975 0
0.139818 0.0923171 0
0.198566 0.0873274 0
0.267903 0.0758984 0
0.327184 0.0583658 0
0.394919 0 0
0.467262 0 0
0.541451 0 0
0.605615 0 0
0.668208 0 0
0.733272 0 0
0.798764 0 0
0.858503 0 0
0.905821 0 0
0.918212 0.0131228 0
0.909117 0.240955 0
0.902205 0.398917 0
0.896757 0.522087 0
0.892912 0.611276 0.0449683
0.889845 0.68011 0.112871
0.887068 0.743343 0.183932
0.884901 0.794614 0.265675
0.883314 0.834318 0.360494
0.882139 0.865873 0.454002
0.881331 0.889632 0.533455
0.880735 0.908675 0.591379
0.880308 0.923644 0.639735
0 0.127718 0
0 0.130129 0
0 0.132479 0
0 0.133913 0
0 0.134859 0
0 0.134981 0
0.0596017 0.134951 0
0.127855 0.134066 0
0.190402 0.13164 0
0.256291 0.12668 0
0.323018 0.117281 0
0.391348 0.101808 0
0.466377 0.0722057 0
0.542916 0.0028687 0
0.606836 0 0
0.669367 0 0
0.733745 0 0
0.798795 0 0
0.858106 0 0
0.905303 0 0
0.915084 0.0841535 0
0.907515 0.277745 0
0.901396 0.417044 0
0.8963 0.532128 0
0.892683 0.615625 0.0403601
0.889693 0.683253 0.110613
0.886976 0.745281 0.183215
0.88484 0.795697 0.265568
0.883299 0.834806 0.360204
0.882139 0.866133 0.453819
0.881331 0.889784 0.533379
0.880735 0.908751 0.591333
0.880308 0.92369 0.639719
0 0.175387 0
0 0.177462 0
0 0.179004 0
0 0.180194 0
0 0.180819 0
0 0.181231 0
0.00370794 0.181109 0
0.10013 0.181003 0
0.175692 0.179721 0
0.246189 0.176852 0
0.316503 0.170626 0
0.388296 0.161532 0
0.46508 0.147585 0
0.540429 0.123903 0
0.605371 0.0737011 0
0.669566 0.0105592 0
0.733761 0.00363165 0
0.799069 0 0
0.857862 0 0
0.901884 0.0395514 0
0.911025 0.175753 0
0.905653 0.320439 0
0.900374 0.440528 0
0.895705 0.545327 0
0.892348 0.622034 0.0309758
0.889494 0.687419 0.107607
0.886854 0.74789 0.1823
0.884779 0.797131 0.265431
0.883253 0.835645 0.359731
0.882109 0.866514 0.453574
0.881315 0.889982 0.533272
0.880735 0.908858 0.591272
0.880293 0.923751 0.639689
0 0.230961 0
0 0.232517 0
0 0.23357 0
0 0.234409 0
0 0.234913 0
0 0.235325 0
0 0.235218 0
0.0503243 0.235126 0
0.146624 0.234012 0
0.227909 0.231632 0
0.304555 0.22768 0
0.381872 0.221607 0
0.462837 0.212726 0
0.540124 0.19884 0
0.603342 0.179583 0
0.665507 0.152758 0
0.730083 0.112779 0
0.797452 0.0324407 0
0.854841 0.0420844 0
0.89604 0.149676 0
0.907179 0.260822 0
0.903593 0.367391 0
0.899077 0.469688 0
0.894957 0.56173 0
0.891905 0.630594 0.0161898
0.889189 0.693401 0.103029
0.886687 0.751354 0.181048
0.884688 0.7991 0.265248
0.883192 0.836774 0.359091
0.882078 0.867155 0.453193
0.8813 0.890272 0.533104
0.88072 0.909026 0.591196
0.880293 0.923842 0.639643
0 0.292134 0
0 0.292836 0
0 0.293263 0
0 0.293629 0
0 0.294148 0
0 0.294102 0
0 0.293751 0
0 0.292927 0
0.0872816 0.292393 0
0.19649 0.291051 0
0.284764 0.288823 0
0.369802 0.284962 0
0.456794 0.278798 0
0.538552 0.269261 0
0.602411 0.258137 0
0.663661 0.245151 0
0.726375 0.2318 0
0.789578 0.221469 0
0.845853 0.229587 0
0.889265 0.27039 0
0.9037 0.337774 0
0.901335 0.418723 0
0.89752 0.505104 0
0.894057 0.581567 0
0.891295 0.641901 0
0.888792 0.701335 0.0967117
0.886442 0.756222 0.179324
0.88455 0.80174 0.265003
0.883116 0.838636 0.358221
0.882033 0.868025 0.452659
0.881285 0.890776 0.532799
0.880705 0.90927 0.591089
0.880293 0.923964 0.639567
0 0.356817 0
0 0.357504 0
0 0.357931 0
0 0.358282 0
0 0.358541 0
0 0.358709 0
0 0.358816 0
0 0.358968 0
0 0.358267 0
0.127092 0.357519 0
0.250996 0.356298 0
0.348547 0.353979 0
0.4439 0.349706 0
0.533364 0.343252 0
0.600412 0.336217 0
0.662348 0.328969 0
0.724086 0.323049 0
0.785611 0.321172 0
0.840421 0.331838 0
0.882872 0.362737 0
0.900252 0.412131 0
0.898833 0.475395 0
0.895811 0.542885 0
0.893019 0.603967 0
0.890532 0.656138 0
0.888273 0.711681 0.0891432
0.886137 0.762646 0.17705
0.884382 0.805386 0.264729
0.883009 0.840696 0.357061
0.881987 0.8692 0.451926
0.881239 0.891463 0.532403
0.88069 0.909667 0.59089
0.880278 0.924163 0.63949
0 0.429709 0
0 0.429999 0
0 0.430396 0
0 0.431037 0
0 0.431296 0
0 0.431495 0
0 0.431693 0
0 0.431769 0
0 0.431693 0
0.00531014 0.431525 0
0.178759 0.4309 0
0.31194 0.429694 0
0.420691 0.427604 0
0.521843 0.423972 0
0.594659 0.419226 0
0.659052 0.414847 0
0.72137 0.41294 0
0.781552 0.414649 0
0.834485 0.425345 0
0.87602 0.449104 0
0.89662 0.486915 0
0.896269 0.533028 0
0.894011 0.582559 0
0.891905 0.627359 0
0.889647 0.674754 0
0.887648 0.724514 0.0804913
0.885725 0.770916 0.174166
0.884153 0.810269 0.264469
0.882872 0.843595 0.356664
0.88191 0.870756 0.45098
0.881193 0.892378 0.531868
0.880659 0.910216 0.5906
0.880262 0.924468 0.639338
0 0.512901 0
0 0.513069 0
0 0.51339 0
0 0.513649 0
0 0.513863 0
0 0.514397 0
0 0.514595 0
0 0.514748 0
0 0.5149 0
0 0.514992 0
0.0576181 0.51516 0
0.238117 0.515419 0
0.381125 0.514412 0
0.499275 0.512428 0
0.582498 0.509422 0
0.651118 0.506645 0
0.716167 0.505043 0
0.776562 0.506783 0
0.827924 0.515099 0
0.868238 0.531441 0
0.893187 0.55584 0
0.893797 0.587167 0
0.892287 0.619074 0
0.890547 0.655665 0
0.888579 0.697215 0
0.886839 0.740475 0.0675212
0.885237 0.781079 0.170718
0.883848 0.81651 0.264286
0.882689 0.847456 0.357244
0.881788 0.872938 0.449744
0.881132 0.893614 0.531136
0.880629 0.910948 0.590204
0.880247 0.92491 0.639094
0 0.590341 0
0 0.590387 0
0 0.590585 0
0 0.590768 0
0 0.590921 0
0 0.591073 0
0 0.591211 0
0 0.591379 0
0 0.591775 0
0 0.591836 0
0 0.59176 0
0.113039 0.591775 0
0.313985 0.591638 0
0.463645 0.590295 0
0.56405 0.588449 0
0.637919 0.586191 0
0.707393 0.584665 0
0.769787 0.585077 0
0.820737 0.590021 0
0.859815 0.600015 0
0.889418 0.613123 0
0.891585 0.632578 0
0.890455 0.657771 0
0.888991 0.688365 0
0.887358 0.722972 0
0.885908 0.758999 0.0509499
0.884642 0.793408 0.1664
0.883482 0.824247 0.264302
0.88246 0.852369 0.358175
0.881651 0.875822 0.448218
0.881056 0.895369 0.530144
0.880583 0.91194 0.5897
0.880217 0.92549 0.638788
0 0.650507 0
0 0.650507 0
0 0.650584 0
0 0.65069 0
0 0.650767 0
0 0.650828 0
0 0.650889 0
0 0.650965 0
0 0.651011 0
0 0.650996 0
0 0.651102 0
0 0.650767 0
0.191882 0.650614 0
0.405478 0.650111 0
0.53814 0.648737 0
0.619165 0.647135 0
0.693812 0.645518 0
0.759319 0.645228 0
0.811627 0.647669 0
0.850263 0.654078 0
0.880674 0.664836 0
0.888808 0.679988 0
0.888441 0.699947 0
0.887297 0.724102 0
0.886015 0.751156 0
0.884871 0.779492 0.0284886
0.883955 0.807477 0.162585
0.883024 0.833799 0.264683
0.88217 0.858412 0.359548
0.881483 0.879515 0.448127
0.880934 0.897688 0.528862
0.880507 0.913329 0.588983
0.880171 0.926268 0.638376
0 0.711589 0
0 0.711589 0
0 0.711589 0
0 0.71165 0
0 0.711666 0
0 0.711696 0
0 0.711711 0
0 0.711727 0
0 0.711711 0
0 0.71162 0
0 0.711406 0
0 0.711238 0
0.0169223 0.710643 0
0.301396 0.71014 0
0.496162 0.709255 0
0.594339 0.707576 0
0.674495 0.705898 0
0.743816 0.70486 0
0.798276 0.706081 0
0.838346 0.710231 0
0.868589 0.717769 0
0.885344 0.728954 0
0.886366 0.74316 0
0.885573 0.760418 0
0.884642 0.780026 0
0.883741 0.801175 0
0.883207 0.823072 0.159228
0.882506 0.845167 0.266529
0.881834 0.865736 0.361639
0.88127 0.884062 0.450126
0.880796 0.900664 0.528099
0.880415 0.915175 0.588037
0.88011 0.927352 0.637797
0 0.771328 0
0 0.771328 0
0 0.771328 0
0 0.771328 0
0 0.771313 0
0 0.771313 0
0 0.771267 0
0 0.771221 0
0 0.771115 0
0 0.770916 0
0 0.770596 0
0 0.770047 0
0 0.769375 0
0.183368 0.768688 0
0.434562 0.767636 0
0.565621 0.766125 0
0.651316 0.764019 0
0.724163 0.762371 0
0.781399 0.761959 0
0.823743 0.763699 0
0.855634 0.767681 0
0.878599 0.774319 0
0.884092 0.783505 0
0.88394 0.794797 0
0.883299 0.808087 0
0.882597 0.82298 0
0.882399 0.840223 0.158862
0.881926 0.857404 0.270237
0.881453 0.874098 0.36527
0.88101 0.889708 0.452873
0.880613 0.904356 0.528176
0.880293 0.917525 0.587045
0.880049 0.928832 0.636988
0 0.821988 0
0 0.821988 0
0 0.821988 0
0 0.821988 0
0 0.821988 0
0 0.821942 0
0 0.821866 0
0 0.821744 0
0 0.821546 0
0 0.821225 0
0 0.820752 0
0 0.82002 0
0 0.818967 0
0.0803388 0.817899 0
0.360906 0.816907 0
0.54081 0.815076 0
0.630991 0.81268 0
0.705745 0.810513 0
0.76408 0.809079 0
0.808988 0.80885 0
0.84268 0.810269 0
0.86717 0.813458 0
0.881331 0.818494 0
0.88246 0.825513 0
0.882063 0.834272 0
0.881621 0.845106 0
0.881605 0.857389 0.166018
0.881331 0.870375 0.27689
0.881025 0.883314 0.370535
0.880705 0.896315 0.45716
0.880415 0.908904 0.53048
0.880156 0.920424 0.586053
0.879942 0.930709 0.635981
0 0.861234 0
0 0.861234 0
0 0.861234 0
0 0.861234 0
0 0.861234 0
0 0.861234 0
0 0.861234 0
0 0.861082 0
0 0.860822 0
0 0.860365 0
0 0.859754 0
0 0.8589 0
0 0.85774 0
0.0201877 0.856413 0
0.306035 0.855177 0
0.521828 0.853437 0
0.617426 0.850935 0
0.692103 0.848402 0
0.750042 0.846494 0
0.795651 0.845365 0
0.830671 0.845243 0
0.856489 0.84651 0
0.876234 0.849104 0
0.880858 0.853178 0
0.880903 0.858686 0
0.880812 0.865812 0.040177
0.880858 0.87422 0.183185
0.880751 0.88333 0.287221
0.880583 0.893324 0.378332
0.880385 0.903746 0.462974
0.880171 0.914168 0.534127
0.879988 0.92398 0.587839
0.879835 0.933013 0.634775
0 0.891661 0
0 0.891661 0
0 0.891661 0
0 0.891661 0
0 0.891661 0
0 0.891661 0
0 0.891661 0
0 0.891661 0
0 0.891524 0
0 0.891035 0
0 0.890227 0
0 0.88925 0
0 0.88806 0
0.019913 0.886687 0
0.312505 0.88542 0
0.517784 0.883528 0
0.611612 0.881132 0
0.683558 0.878584 0
0.739651 0.876402 0
0.784588 0.874815 0
0.819745 0.873915 0
0.846616 0.873838 0
0.867536 0.874769 0
0.87892 0.876692 0
0.879896 0.879713 0
0.880079 0.884153 0.085893
0.880186 0.889784 0.206836
0.880186 0.896345 0.303136
0.880125 0.903716 0.389029
0.880034 0.911788 0.470848
0.879927 0.920027 0.539071
0.87982 0.928115 0.590753
0.879698 0.935897 0.63595
0 0.914137 0
0 0.914137 0
0 0.914137 0
0 0.914137 0
0 0.914137 0
0 0.914137 0
0 0.914137 0
0 0.914137 0
0 0.914137 0
0 0.914092 0
0 0.913252 0
0 0.912123 0
0 0.910811 0
0 0.909331 0
0.366369 0.908278 0
0.531426 0.906325 0
0.615122 0.903914 0
0.681468 0.901549 0
0.734081 0.899382 0
0.777188 0.897536 0
0.811322 0.896254 0
0.838285 0.895552 0
0.859922 0.895445 0
0.876463 0.896178 0
0.878965 0.897719 0
0.879438 0.900694 0.132372
0.879591 0.904387 0.238163
0.879667 0.908919 0.324605
0.879683 0.914168 0.404425
0.879683 0.920012 0.481056
0.879652 0.926329 0.545724
0.879622 0.932784 0.594629
0.879561 0.939208 0.638285
0 0.930526 0
0 0.930373 0
0 0.930312 0
0 0.930404 0
0 0.930587 0
0 0.930877 0
0 0.93106 0
0 0.931167 0
0 0.931167 0
0 0.931167 0
0 0.931167 0
0 0.930037 0
0 0.928603 0
0.143603 0.927459 0
0.437827 0.926238 0
0.554147 0.924254 0
0.625864 0.922026 0
0.684504 0.919799 0
0.732418 0.917754 0
0.772824 0.915984 0
0.805173 0.914534 0
0.831418 0.913542 0
0.85301 0.912963 0
0.870039 0.912932 0
0.877958 0.913878 0.0862593
0.878935 0.91545 0.193439
0.879088 0.917662 0.27686
0.87921 0.920546 0.352651
0.879286 0.924071 0.424765
0.879347 0.928222 0.494789
0.879377 0.932845 0.554086
0.879408 0.937835 0.599802
0.879393 0.942916 0.64155
0 0.943206 0
0 0.943053 0
0 0.942992 0
0 0.943084 0
0 0.943267 0
0 0.943557 0
0 0.943755 0
0 0.943847 0
0 0.943847 0
0 0.943847 0
0 0.943847 0
0 0.943847 0
0 0.942519 0
0.355566 0.941695 0
0.505241 0.940124 0
0.583337 0.938247 0
0.642756 0.936233 0
0.692622 0.934249 0
0.734981 0.932372 0
0.771511 0.930663 0
0.801434 0.929244 0
0.826535 0.928069 0
0.847456 0.92723 0
0.864698 0.927108 0.0707256
0.87686 0.927352 0.17258
0.878508 0.928023 0.251575
0.878691 0.929198 0.320851
0.878828 0.930938 0.385946
0.878935 0.933242 0.45124
0.879042 0.936126 0.511727
0.879149 0.939422 0.563577
0.879194 0.943023 0.606348
0.87924 0.946868 0.645853
0.319905 0.952956 0
0.319936 0.952956 0
0.319753 0.953002 0
0.319463 0.953063 0
0.318868 0.953216 0
0.317983 0.953429 0
0.317403 0.953567 0
0.317113 0.953643 0
0.317098 0.953643 0
0.317082 0.953643 0
0.317082 0.953643 0
0.317037 0.953643 0
0.317006 0.953643 0
0.464973 0.952438 0
0.558068 0.950713 0
0.61532 0.948959 0
0.663447 0.947204 0
0.704555 0.94548 0
0.741146 0.943801 0
0.773342 0.94226 0
0.800427 0.94107 0.0201724
0.823865 0.940124 0.0857404
0.843931 0.939315 0.134691
0.860426 0.938827 0.190143
0.874006 0.938628 0.249882
0.877928 0.938735 0.309194
0.87837 0.939269 0.367742
0.878508 0.940215 0.424292
0.878645 0.941634 0.481071
0.878782 0.94345 0.532097
0.878889 0.945678 0.575189
0.878996 0.948165 0.615045
0.879072 0.950866 0.651209
0.551446 0.960571 0.169787
0.551629 0.960494 0.169863
0.55169 0.960464 0.169894
0.551568 0.960525 0.169833
0.551339 0.960616 0.169741
0.550988 0.960769 0.169589
0.550759 0.960861 0.169482
0.550652 0.960906 0.169436
0.550652 0.960906 0.169436
0.550637 0.960906 0.169436
0.550637 0.960906 0.169436
0.550637 0.960906 0.169436
0.550622 0.960906 0.169436
0.550622 0.960906 0.169436
0.598352 0.959564 0.172564
0.647166 0.957931 0.17734
0.685725 0.956436 0.183017
0.719661 0.954986 0.189868
0.750652 0.953521 0.198901
0.778073 0.952193 0.21004
0.801968 0.951003 0.223926
0.823148 0.949905 0.241001
0.84155 0.949035 0.262119
0.857145 0.948318 0.286809
0.870253 0.94789 0.323415
0.87718 0.947692 0.368185
0.878126 0.947753 0.415702
0.878279 0.948165 0.466468
0.878431 0.948898 0.512627
0.878569 0.949981 0.555215
0.878706 0.951324 0.59028
0.878828 0.952956 0.625666
0.878935 0.954818 0.658183
0.643107 0.962921 0.309606
0.643183 0.96289 0.309651
0.643351 0.962814 0.309743
0.643534 0.962753 0.309834
0.643549 0.962737 0.30985
0.643381 0.962814 0.309758
0.643198 0.962875 0.309651
0.643107 0.962921 0.309606
0.643107 0.962921 0.309606
0.643107 0.962921 0.309606
0.643107 0.962921 0.309606
0.643107 0.962921 0.309606
0.643091 0.962921 0.309606
0.643091 0.962921 0.309606
0.643076 0.962921 0.309606
0.673915 0.963012 0.311864
0.707729 0.962982 0.315282
0.736263 0.961822 0.319326
0.761608 0.960601 0.324285
0.784588 0.959472 0.330861
0.805127 0.958404 0.339101
0.824033 0.957382 0.349599
0.84062 0.956497 0.362768
0.855039 0.955779 0.378836
0.867399 0.9552 0.398413
0.876509 0.954818 0.428977
0.877989 0.95465 0.467765
0.878126 0.954696 0.506661
0.878279 0.955001 0.544594
0.878431 0.955566 0.57641
0.878569 0.956344 0.607828
0.878691 0.957336 0.638331
0.878798 0.958541 0.666499
0.704952 0.963439 0.41738
0.704952 0.963439 0.41738
0.704952 0.963439 0.41738
0.705043 0.963409 0.417426
0.705119 0.963378 0.417487
0.705196 0.963348 0.417533
0.705119 0.963378 0.417472
0.705028 0.963409 0.417426
0.704936 0.963439 0.41738
0.704936 0.963439 0.41738
0.704936 0.963439 0.41738
0.704936 0.963439 0.41738
0.704936 0.963439 0.41738
0.704936 0.963439 0.41738
0.704921 0.963439 0.41738
0.704921 0.963439 0.41738
0.727275 0.9635 0.419318
0.752499 0.963577 0.422324
0.773526 0.963653 0.425879
0.792172 0.963714 0.430243
0.809873 0.963653 0.435996
0.8262 0.963058 0.443275
0.840864 0.962249 0.45243
0.853956 0.961532 0.463645
0.86537 0.960952 0.477378
0.874891 0.960494 0.493462
0.877714 0.960189 0.51725
0.87805 0.960037 0.545968
0.878202 0.960052 0.572457
0.87834 0.960281 0.599924
0.878477 0.960647 0.626947
0.878599 0.961181 0.652598
0.878691 0.961868 0.676219
0.750179 0.963882 0.508522
0.750179 0.963882 0.508522
0.750179 0.963882 0.508522
0.750179 0.963882 0.508522
0.750179 0.963882 0.508522
0.750179 0.963882 0.508522
0.750179 0.963882 0.508522
0.750179 0.963882 0.508522
0.750179 0.963882 0.508522
