BBLuts/BB_103_0780_LUT.cube
TITLE "Generated by Resolve"
LUT_3D_SIZE 5
0 0 0
0.15848 0 0
0.786053 0 0
1 0.558846 0.128923
0.956069 1 0.866743
0 0.20267 0
0.108782 0.206958 0
0.787533 0.0386053 0
0.995911 0.634348 0.0943618
0.955962 1 0.866194
0 0.853086 0
0 0.852461 0
0.664805 0.840818 0
0.973053 0.910872 0
0.955184 1 0.86183
0.531899 1 0.274525
0.57142 1 0.276677
0.738064 1 0.294087
0.950515 1 0.434226
0.951934 1 0.881849
0.918624 1 0.979629
0.919036 1 0.979675
0.922072 1 0.980026
0.940749 1 0.983505
0.950454 1 1
0 0 0.175021
0.132433 0 0.175051
0.785122 0 0.179065
1 0.542138 0.319997
0.956054 1 0.880812
0 0.160357 0.154635
0.120348 0.156802 0.149508
0.786191 0 0.158709
0.996399 0.621759 0.300999
0.955932 1 0.880308
0 0.848646 0
0 0.847929 0
0.671382 0.836378 0
0.972747 0.908858 0.117281
0.955154 1 0.876387
0.538277 1 0.274113
0.576684 1 0.276265
0.73994 1 0.293736
0.950622 1 0.43418
0.951934 1 0.881773
0.9187 1 0.979629
0.919097 1 0.97966
0.922118 1 0.980011
0.94078 1 0.983474
0.950454 1 1
0 0 0.796063
0 0 0.796323
0.790036 0 0.79118
1 0.328557 0.815732
0.956008 1 0.954345
0 0 0.794034
0 0 0.794293
0.800626 0 0.788983
1 0.478202 0.811002
0.955886 1 0.95404
0 0.784619 0.747555
0 0.785046 0.747921
0.649393 0.775326 0.750042
0.973007 0.879408 0.781094
0.955062 1 0.951782
0.543587 1 0.578607
0.57998 1 0.579629
0.737041 1 0.588037
0.94461 1 0.667109
0.951797 1 0.932937
0.919188 1 0.979568
0.91957 1 0.979614
0.922545 1 0.979965
0.940948 1 0.983444
0.950454 1 1
0 0 1
0 0 1
0 0 1
1 0 1
0.958526 1 1
0 0 1
0 0 1
0 0 1
1 0 1
0.958282 1 1
0 0 1
0 0 1
0.201068 0 1
1 0 1
0.956664 1 1
0 1 1
0 1 1
0.568261 1 1
0.923796 1 1
0.951659 1 1
0.916503 1 1
0.916884 1 1
0.919738 1 1
0.937591 1 1
0.950286 1 1
0 0.352056 1
0 0.352056 1
0 0.352087 1
0 0.352255 1
0.978561 0.799786 1
0 0.352041 1
0 0.352041 1
0 0.352056 1
0 0.352239 1
0.978561 0.799908 1
0 0.351904 1
0 0.351904 1
0 0.351934 1
0 0.352102 1
0.978485 0.800763 1
0 0.350561 1
0 0.350561 1
0 0.350576 1
1 0 1
0.978225 0.803906 1
0.849302 1 1
0.851072 1 1
0.86363 1 1
0.918227 1 1
0.950134 1 1
