BBLuts/BB_104_0220_LUT.cube
TITLE "Generated by Resolve"
LUT_3D_SIZE 33
0 0 0
0 0 0
0 0 0
0 0 0
0.00306706 0 0
0.0727398 0 0.00111391
0.157992 0 0.000579843
0.22385 0 0
0.292073 0 0
0.372213 0 0
0.464286 0 0
0.565316 0 0
0.653101 0 0
0.715526 0 0
0.787793 0 0
0.866926 0 0
0.949645 0 0
1 0 0
1 0 0
1 0 0
1 0 0
1 0 0
0.898512 0.411749 0
1 0.566323 0
1 0.634379 0.012314
1 0.707698 0.105928
1 0.775235 0.210575
1 0.82771 0.339727
1 0.866606 0.480339
1 0.897002 0.559762
1 0.919554 0.633814
1 0.937255 0.707149
1 0.951003 0.773159
0 0 0
0 0 0
0 0 0
0 0 0
0.00367742 0 0
0.088365 0 0.00120546
0.163378 0 0.000442512
0.228687 0 0
0.299504 0 0
0.381292 0 0
0.473594 0 0
0.571542 0 0
0.654643 0 0
0.716823 0 0
0.788983 0 0
0.86772 0 0
0.950332 0 0
1 0 0
1 0 0
1 0 0
1 0 0
1 0 0
0.876936 0.454047 0
1 0.566476 0
1 0.638544 0.00720226
1 0.710964 0.101884
1 0.777005 0.209659
1 0.828626 0.339452
1 0.867094 0.479942
1 0.897246 0.559609
1 0.919661 0.633722
1 0.937331 0.707088
1 0.951034 0.773129
0 0 0
0 0 0
0 0 0
0 0 0
0.0037995 0 0
0.0967575 0 0.00109865
0.16408 0 0.000396735
0.232471 0 0
0.306889 0 0
0.387015 0 0
0.477363 0 0
0.573037 0 0
0.656657 0 0
0.718471 0 0
0.790158 0 0
0.868833 0 0
0.950698 0 0
1 0 0
1 0 0
1 0 0
1 0 0
1 0.063798 0
0.874128 0.48806 0
1 0.570871 0
1 0.642664 0.00137331
1 0.713924 0.098909
1 0.778531 0.208057
1 0.82948 0.339193
1 0.867536 0.479576
1 0.89749 0.559442
1 0.919799 0.633646
1 0.937407 0.707027
1 0.95108 0.773114
0 0 0
0 0 0
0 0 0
0 0 0
0.0216831 0.00740063 0
0.098497 0 0.00106813
0.160327 0 0.000671397
0.228687 0 0
0.304524 0 0
0.388754 0 0
0.480888 0 0
0.575769 0 0
0.65893 0 0
0.720012 0 0
0.79147 0 0
0.869657 0 0
0.951324 0 0
1 0 0
1 0 0
1 0 0
1 0 0
1 0.173037 0
0.88893 0.509056 0
1 0.574945 0
1 0.646647 0
1 0.716609 0.0963302
1 0.780118 0.206989
1 0.83032 0.338933
1 0.867994 0.479194
1 0.897734 0.559304
1 0.919921 0.633539
1 0.937469 0.706981
1 0.951125 0.773083
0 0.0726787 0
0 0.0774853 0
0 0.0817121 0
0 0.0861524 0
0 0.0880446 0
0.0628672 0.089189 0
0.131289 0.0851759 0
0.159167 0.0928664 0
0.27921 0.0577859 0
0.387808 0 0
0.482673 0 0
0.579019 0 0
0.661128 0 0
0.72166 0 0
0.793133 0 0
0.870817 0 0
0.951904 0 0
1 0 0
1 0 0
1 0 0
1 0 0
1 0.256413 0
0.920378 0.521584 0
1 0.580667 0
1 0.650813 0
1 0.719188 0.0928511
1 0.781582 0.206195
1 0.831128 0.338689
1 0.868391 0.478752
1 0.897963 0.559182
1 0.920043 0.633463
1 0.937545 0.70692
1 0.951156 0.773053
0 0.124926 0
0 0.128634 0
0 0.132616 0
0 0.135729 0
0 0.137301 0
0.0252079 0.139406 0
0.107866 0.137987 0
0.185153 0.133211 0
0.217273 0.143893 0
0.30164 0.131991 0
0.457267 0.0797742 0
0.576989 0 0
0.661585 0 0
0.723781 0 0
0.794675 0 0
0.871824 0 0
0.952682 0 0
1 0 0
1 0 0
1 0 0
1 0 0
0.969299 0.337789 0
0.956588 0.527703 0
1 0.585946 0
1 0.654932 0
1 0.722072 0.0890974
1 0.783246 0.205173
1 0.831891 0.33846
1 0.868757 0.478294
1 0.898192 0.55906
1 0.92018 0.633371
1 0.937621 0.706874
1 0.951186 0.773022
0 0.179889 0
0 0.182666 0
0 0.185672 0
0 0.18761 0
0 0.188983 0
0 0.189425 0
0.0677043 0.191455 0
0.160693 0.188632 0
0.249744 0.182773 0
0.302922 0.189029 0
0.352621 0.192187 0
0.503899 0.149569 0
0.638972 0.0867018 0
0.720989 0 0
0.79472 0 0
0.873503 0 0
0.953277 0 0
1 0 0
1 0 0
1 0 0
1 0.0707408 0
0.90248 0.406332 0
0.996262 0.532647 0
1 0.592447 0
1 0.659388 0
1 0.725277 0.0852369
1 0.785245 0.203784
1 0.832929 0.338521
1 0.869215 0.477775
1 0.898451 0.558907
1 0.920333 0.633265
1 0.937682 0.706813
1 0.951232 0.772976
0 0.241642 0
0 0.244053 0
0 0.246113 0
0 0.247684 0
0 0.248646 0
0 0.2495 0
0 0.251102 0
0.116091 0.251164 0
0.22211 0.246342 0
0.324529 0.238758 0
0.403296 0.235813 0
0.422034 0.252613 0
0.51107 0.230488 0
0.646097 0.170001 0
0.773556 0.0807202 0
0.868086 0 0
0.950057 0 0
1 0 0
1 0 0
1 0.0123293 0
1 0.202548 0
0.873869 0.466392 0
1 0.540917 0
1 0.601678 0
1 0.66598 0
1 0.729427 0.0796216
1 0.787717 0.201846
1 0.834394 0.338155
1 0.870085 0.477119
1 0.898848 0.558709
1 0.920531 0.633127
1 0.937804 0.706722
1 0.951293 0.772931
0 0.312337 0
0 0.314366 0
0 0.315755 0
0 0.316854 0
0 0.317662 0
0 0.318517 0
0 0.318898 0
0.0437171 0.320974 0
0.174533 0.317006 0
0.291341 0.310018 0
0.404486 0.299687 0
0.509194 0.290303 0
0.507195 0.309514 0
0.532998 0.304387 0
0.615732 0.274067 0
0.774456 0.20502 0
0.918379 0.124132 0
1 0.0113222 0
1 0.0198215 0
1 0.161563 0
0.925582 0.37731 0
0.895598 0.513054 0
1 0.556313 0
1 0.613748 0
1 0.674754 0
1 0.735409 0.0710307
1 0.791287 0.19942
1 0.836332 0.337438
1 0.87126 0.476188
1 0.899504 0.558358
1 0.920836 0.632898
1 0.937972 0.7066
1 0.9514 0.772854
0 0.390402 0
0 0.391333 0
0 0.391913 0
0 0.39237 0
0 0.393057 0
0 0.393179 0
0 0.393088 0
0 0.392615 0
0.0859541 0.393576 0
0.239078 0.387579 0
0.368765 0.379583 0
0.495369 0.368246 0
0.596521 0.355154 0
0.633036 0.351125 0
0.615915 0.367483 0
0.64332 0.365667 0
0.716701 0.348028 0
0.81857 0.322911 0
0.890562 0.328389 0
0.886183 0.396231 0
0.872633 0.48632 0
0.999496 0.532937 0
1 0.576028 0
1 0.629206 0
1 0.68632 0
1 0.743374 0.06009
1 0.796063 0.196338
1 0.838895 0.336919
1 0.872801 0.475196
1 0.900328 0.557961
1 0.921355 0.632517
1 0.938216 0.706416
1 0.951522 0.772747
0 0.471321 0
0 0.472084 0
0 0.472557 0
0 0.472938 0
0 0.473213 0
0 0.473381 0
0 0.473503 0
0 0.473793 0
0 0.473304 0
0.136309 0.473304 0
0.312703 0.466117 0
0.457465 0.456504 0
0.575235 0.445045 0
0.650065 0.432654 0
0.726436 0.42005 0
0.772992 0.418158 0
0.769604 0.436393 0
0.779843 0.454551 0
0.821332 0.473198 0
0.879576 0.505043 0
0.986084 0.530602 0
1 0.559594 0
1 0.599878 0
1 0.648768 0
1 0.701213 0
1 0.75407 0.0464485
1 0.802487 0.191852
1 0.842618 0.336156
1 0.874922 0.473533
1 0.901503 0.557153
1 0.922057 0.632013
1 0.938628 0.706081
1 0.95172 0.77261
0 0.557488 0
0 0.557794 0
0 0.558175 0
0 0.558801 0
0 0.559075 0
0 0.559274 0
0 0.559487 0
0 0.559579 0
0 0.559487 0
0 0.559884 0
0.203937 0.557961 0
0.394842 0.549523 0
0.542092 0.540322 0
0.628748 0.531899 0
0.70956 0.522423 0
0.789029 0.513176 0
0.865934 0.506722 0
0.934234 0.506203 0
0.984543 0.519356 0
1 0.540764 0
1 0.566888 0
1 0.593057 0
1 0.630014 0
1 0.672587 0
1 0.719768 0
1 0.76701 0.0312963
1 0.810895 0.186465
1 0.847379 0.335195
1 0.877699 0.472602
1 0.902983 0.556054
1 0.922957 0.631449
1 0.939147 0.70573
1 0.952041 0.772351
0 0.62414 0
0 0.624262 0
0 0.624475 0
0 0.624659 0
0 0.624796 0
0 0.625162 0
0 0.625299 0
0 0.625406 0
0 0.625513 0
0 0.625574 0
0.0375982 0.627756 0
0.286915 0.622034 0
0.492088 0.612757 0
0.602594 0.605905 0
0.689189 0.599496 0
0.772793 0.593118 0
0.853025 0.587732 0
0.927947 0.584466 0
0.991241 0.585962 0
1 0.594003 0
1 0.609552 0
1 0.633585 0
1 0.664317 0
1 0.700755 0
1 0.741985 0
1 0.783078 0.00888075
1 0.82092 0.17937
1 0.853544 0.334264
1 0.88159 0.47306
1 0.905241 0.554772
1 0.924239 0.630518
1 0.93991 0.705135
1 0.952468 0.771954
0 0.680858 0
0 0.680903 0
0 0.681071 0
0 0.681224 0
0 0.681346 0
0 0.681468 0
0 0.68159 0
0 0.681743 0
0 0.682078 0
0 0.682139 0
0 0.682063 0
0.109697 0.68333 0
0.395438 0.67364 0
0.56878 0.66453 0
0.663081 0.658091 0
0.753201 0.651499 0
0.838727 0.645365 0
0.915938 0.641291 0
0.978592 0.641535 0
1 0.647379 0
1 0.658747 0
1 0.677943 0
1 0.702831 0
1 0.73315 0
1 0.767773 0
1 0.801633 0
1 0.83331 0.171542
1 0.861204 0.333547
1 0.886366 0.473716
1 0.908141 0.553323
1 0.926024 0.629328
1 0.940917 0.704311
1 0.952987 0.771359
0 0.740185 0
0 0.740185 0
0 0.740261 0
0 0.740368 0
0 0.740444 0
0 0.740505 0
0 0.740581 0
0 0.740658 0
0 0.740703 0
0 0.740688 0
0 0.740795 0
0 0.740444 0
0.216709 0.738567 0
0.513802 0.725948 0
0.628946 0.718761 0
0.725826 0.71194 0
0.817639 0.705257 0
0.898466 0.700252 0
0.962921 0.698894 0
1 0.702358 0
1 0.710597 0
1 0.724987 0
1 0.744701 0
1 0.768902 0
1 0.795789 0
1 0.82237 0
1 0.847257 0.163867
1 0.870665 0.333669
1 0.892439 0.475074
1 0.911742 0.552682
1 0.928206 0.62771
1 0.942367 0.703151
1 0.953735 0.770626
0 0.800626 0
0 0.800626 0
0 0.800626 0
0 0.800687 0
0 0.800717 0
0 0.800748 0
0 0.800763 0
0 0.800778 0
0 0.800763 0
0 0.800656 0
0 0.800458 0
0 0.800275 0
0 0.799832 0
0.371298 0.791669 0
0.585275 0.78085 0
0.69131 0.773602 0
0.789425 0.766506 0
0.874815 0.76025 0
0.941756 0.757809 0
0.991318 0.758953 0
1 0.764065 0
1 0.773816 0
1 0.787778 0
1 0.804822 0
1 0.824338 0
1 0.844434 0
1 0.862791 0.156939
1 0.881605 0.336187
1 0.899641 0.476921
1 0.916289 0.55404
1 0.931243 0.626596
1 0.944183 0.701625
1 0.954864 0.76968
0 0.859449 0
0 0.859449 0
0 0.859449 0
0 0.859449 0
0 0.859449 0
0 0.859434 0
0 0.859403 0
0 0.859358 0
0 0.859236 0
0 0.859037 0
0 0.858717 0
0 0.858152 0
0 0.857481 0
0.199908 0.855467 0
0.532509 0.840833 0
0.652537 0.833173 0
0.75697 0.825513 0
0.846326 0.818784 0
0.916777 0.814298 0
0.969131 0.812894 0
1 0.814496 0
1 0.819242 0
1 0.827924 0
1 0.838895 0
1 0.852201 0
1 0.866911 0
1 0.879469 0.155108
1 0.893568 0.340978
1 0.90782 0.480537
1 0.921782 0.555779
1 0.93489 0.626398
1 0.946456 0.700099
1 0.956298 0.768688
0 0.909255 0
0 0.909255 0
0 0.909255 0
0 0.909255 0
0 0.909255 0
0 0.909239 0
0 0.909163 0
0 0.909056 0
0 0.908858 0
0 0.908553 0
0 0.90808 0
0 0.907332 0
0 0.906279 0
0.0582742 0.90663 0
0.450858 0.893156 0
0.618631 0.882979 0
0.72842 0.874754 0
0.820264 0.867628 0
0.892226 0.862089 0
0.947707 0.858503 0
0.989609 0.857481 0
1 0.858839 0
1 0.862638 0
1 0.869551 0
1 0.878111 0
1 0.887953 0
1 0.896315 0.166094
1 0.90634 0.351507
1 0.916777 0.485924
1 0.928237 0.558602
1 0.939391 0.628153
1 0.949447 0.698375
1 0.958251 0.767071
0 0.947555 0
0 0.947555 0
0 0.947555 0
0 0.947555 0
0 0.947555 0
0 0.947555 0
0 0.947555 0
0 0.947402 0
0 0.947143 0
0 0.94667 0
0 0.946044 0
0 0.94519 0
0 0.94406 0
0 0.942596 0
0.372137 0.933822 0
0.597116 0.921492 0
0.709316 0.91313 0
0.801038 0.905623 0
0.872374 0.899702 0
0.928557 0.895216 0
0.972137 0.892576 0
1 0.89192 0
1 0.892973 0
1 0.89659 0
1 0.902052 0
1 0.907225 0
1 0.912551 0.193881
1 0.918807 0.368399
1 0.926497 0.494087
1 0.93547 0.56286
1 0.944457 0.631647
1 0.952789 0.700496
1 0.960647 0.765118
0 0.977417 0
0 0.977417 0
0 0.977417 0
0 0.977417 0
0 0.977417 0
0 0.977417 0
0 0.977417 0
0 0.977417 0
0 0.977279 0
0 0.976776 0
0 0.975967 0
0 0.975082 0
0 0.973938 0
0 0.972168 0
0.380636 0.96318 0
0.591134 0.951431 0
0.700343 0.943343 0
0.78851 0.936019 0
0.857466 0.930007 0
0.912673 0.925139 0
0.956527 0.921675 0
0.990066 0.9196 0
1 0.918914 0
1 0.919936 0
1 0.922774 0
1 0.924773 0.0288548
1 0.927398 0.232197
1 0.93135 0.393927
1 0.936645 0.50312
1 0.943297 0.569116
1 0.950271 0.636561
1 0.956909 0.704173
1 0.963317 0.766476
0 0.999603 0
0 0.999603 0
0 0.999603 0
0 0.999603 0
0 0.999603 0
0 0.999603 0
0 0.999603 0
0 0.999603 0
0 0.999603 0
0 0.999573 0
0 0.998718 0
0 0.997574 0
0 0.996307 0
0 0.994247 0
0.452811 0.982498 0
0.602426 0.973312 0
0.703059 0.96556 0
0.784283 0.958831 0
0.849027 0.952972 0
0.902129 0.948135 0
0.944579 0.944396 0
0.978256 0.94168 0
1 0.939941 0
1 0.93933 0
1 0.940581 0
1 0.940002 0.105608
1 0.940978 0.284184
1 0.943206 0.424781
1 0.946761 0.513573
1 0.951293 0.577691
1 0.956344 0.64329
1 0.961379 0.709194
1 0.966659 0.769284
0 1 0
0 1 0
0 1 0
0 1 0
0 1 0
0 1 0
0 1 0
0 1 0
0 1 0
0 1 0
0 1 0
0 1 0
0 1 0
0.140002 1 0
0.521004 0.996902 0
0.628016 0.989578 0
0.714839 0.982635 0
0.786816 0.976455 0
0.845716 0.971252 0
0.895491 0.966674 0
0.935668 0.96289 0
0.968429 0.95993 0
0.995239 0.957748 0
1 0.956298 0
1 0.954192 0.0276036
1 0.953079 0.208179
1 0.953079 0.347738
1 0.953994 0.460914
1 0.956222 0.529412
1 0.959136 0.590005
1 0.962615 0.652125
1 0.966354 0.716045
1 0.970108 0.773556
0 1 0
0 1 0
0 1 0
0 1 0
0 1 0
0 1 0
0 1 0
0 1 0
0 1 0
0 1 0
0 1 0
0 1 0
0 1 0
0.437568 1 0
0.575265 1 0
0.662348 1 0
0.734722 0.995575 0
0.795697 0.990188 0
0.84802 0.985412 0
0.892729 0.981216 0
0.929961 0.977615 0
0.961212 0.974517 0
0.987335 0.972122 0
1 0.968444 0.00282292
1 0.965606 0.172519
1 0.964065 0.304616
1 0.963272 0.417487
1 0.963714 0.498039
1 0.964935 0.550088
1 0.96669 0.605905
1 0.968826 0.664805
1 0.971252 0.724666
1 0.973968 0.779293
0.385061 1 0
0.385061 1 0
0.385061 1 0
0.385061 1 0
0.385046 1 0
0.385046 1 0
0.385046 1 0
0.385046 1 0
0.385016 1 0
0.384985 1 0
0.384985 1 0
0.384939 1 0
0.384909 1 0
0.53962 1 0
0.630884 1 0
0.700038 1 0
0.759091 1 0
0.809628 1 0
0.854551 0.996109 0
0.894041 0.992309 0
0.925628 0.987884 0
0.952865 0.984146 0.0281529
0.976257 0.980789 0.109438
0.994797 0.977691 0.202075
1 0.974945 0.301305
1 0.973083 0.399786
1 0.972244 0.477714
1 0.972168 0.527443
1 0.972702 0.575647
1 0.973571 0.626566
1 0.974655 0.680903
1 0.976059 0.736171
1 0.977752 0.786084
0.614557 1 0.181384
0.614557 1 0.181384
0.614557 1 0.181384
0.614557 1 0.181384
0.614557 1 0.181384
0.614557 1 0.181384
0.614557 1 0.181384
0.614557 1 0.181384
0.614557 1 0.181384
0.614542 1 0.181384
0.614542 1 0.181384
0.614542 1 0.181384
0.614527 1 0.181399
0.614527 1 0.181384
0.671778 1 0.184634
0.731365 1 0.190478
0.77818 1 0.198352
0.819486 1 0.207919
0.857496 0.999969 0.221607
0.890639 0.996399 0.239185
0.919783 0.993088 0.26128
0.945464 0.990219 0.288533
0.96759 0.987366 0.322835
0.985962 0.984771 0.364233
1 0.982345 0.420233
1 0.980728 0.477562
1 0.979767 0.5196
1 0.979446 0.561685
1 0.979248 0.605493
1 0.979538 0.651911
1 0.979889 0.701106
1 0.980453 0.750484
1 0.981567 0.79556
0.720684 1 0.411337
0.720684 1 0.411337
0.720684 1 0.411337
0.720684 1 0.411337
0.720684 1 0.411337
0.720684 1 0.411337
0.720684 1 0.411337
0.720684 1 0.411337
0.720684 1 0.411337
0.720684 1 0.411337
0.720684 1 0.411337
0.720684 1 0.411337
0.720668 1 0.411337
0.720668 1 0.411337
0.720653 1 0.411337
0.758038 1 0.413001
0.799619 1 0.417075
0.834485 1 0.421118
0.865644 1 0.426932
0.893523 0.999939 0.43476
0.918654 0.997162 0.444663
0.942061 0.994629 0.457404
0.962188 0.992233 0.472145
0.979751 0.990188 0.490257
0.994675 0.988357 0.505516
1 0.986831 0.529885
1 0.985809 0.56199
1 0.985214 0.599023
1 0.984649 0.639063
1 0.984482 0.68159
1 0.984344 0.72517
1 0.984619 0.76759
1 0.984939 0.806699
0.793011 1 0.530007
0.793011 1 0.530007
0.793011 1 0.530007
0.793011 1 0.530007
0.793011 1 0.530007
0.793011 1 0.530007
0.793011 1 0.530007
0.793011 1 0.530007
0.793011 1 0.530007
0.793011 1 0.530007
0.793011 1 0.530007
0.793011 1 0.530007
0.793011 1 0.530007
0.793011 1 0.530007
0.792996 1 0.530007
0.792996 1 0.530007
0.82031 1 0.530251
0.851301 1 0.531121
0.876738 1 0.532799
0.899748 1 0.535103
0.921798 1 0.538964
0.942061 0.998383 0.543786
0.960021 0.996506 0.550454
0.976089 0.994537 0.559304
0.990127 0.99295 0.571099
1 0.991409 0.585657
1 0.990478 0.609247
1 0.989685 0.640284
1 0.988922 0.675608
1 0.988479 0.714
1 0.988052 0.751293
1 0.987961 0.787045
1 0.988083 0.819928
0.84625 1 0.607752
0.84625 1 0.607752
0.84625 1 0.607752
0.84625 1 0.607752
0.84625 1 0.607752
0.84625 1 0.607752
0.84625 1 0.607752
0.84625 1 0.607752
0.84625 1 0.607752
