BBLuts/BB_104_0140_LUT.cube
TITLE "Generated by Resolve"
LUT_3D_SIZE 9
0 0 0
0 0 0
0.162402 0 0
0.442176 0 0
0.725475 0 0
0.869154 0 0
0.909407 0.567681 0.156802
0.888991 0.784619 0.482246
0.883726 0.850065 0.753399
0 0.0414588 0
0 0.0494392 0
0.173678 0.0290684 0
0.455222 0 0
0.727062 0 0
0.869154 0 0
0.907271 0.595361 0.141039
0.889052 0.78732 0.479591
0.883726 0.850401 0.753246
0 0.178958 0
0 0.182376 0
0.137652 0.186954 0
0.483833 0.153246 0
0.741238 0.0463722 0
0.903914 0.215946 0.0355688
0.903578 0.629129 0.111604
0.889128 0.791485 0.475288
0.883726 0.850935 0.753002
0 0.479713 0
0 0.481117 0
0 0.481895 0
0.42208 0.498711 0
0.765606 0.500984 0.0106966
0.906661 0.574639 0.0406348
0.896422 0.699382 0.0217288
0.889387 0.802518 0.462394
0.883726 0.852476 0.75227
0.0263066 0.769146 0.0263066
0.026276 0.769085 0.026276
0.0261234 0.768795 0.0261234
0.0251011 0.766796 0.0251011
0.732448 0.755398 0.013489
0.875837 0.759945 0.0179141
0.894514 0.787106 0.0181888
0.889128 0.825208 0.466682
0.883726 0.85655 0.750057
0.0716869 0.891844 0.0716869
0.0715953 0.891371 0.0715953
0.071458 0.890593 0.071458
0.0710307 0.888228 0.0710307
0.720439 0.854841 0.019379
0.849393 0.848554 0.0174411
0.894194 0.849561 0.0175937
0.888426 0.853788 0.517388
0.883741 0.865156 0.747509
0.636088 0.898375 0.217487
0.650874 0.896864 0.216266
0.671366 0.894926 0.215213
0.715557 0.891402 0.216266
0.7794 0.888045 0.231434
0.844068 0.884047 0.28069
0.886397 0.879469 0.413901
0.885649 0.875013 0.626062
0.883711 0.876554 0.764279
0.81503 0.884413 0.684092
0.81593 0.884413 0.684199
0.817365 0.884398 0.684367
0.821881 0.884337 0.684871
0.832227 0.884321 0.686534
0.852003 0.88423 0.691585
0.875715 0.884031 0.70576
0.883757 0.883757 0.740841
0.883741 0.883741 0.79765
0.863859 0.883741 0.81619
0.863966 0.883741 0.816205
0.864149 0.883741 0.81622
0.864683 0.883741 0.816281
0.866209 0.883741 0.816449
0.870069 0.883741 0.816983
0.87744 0.883726 0.819043
0.883726 0.883726 0.823377
0.883726 0.883726 0.834836
0 0 0.0406195
0 0 0.0408331
0.162676 0 0.0380407
0.443122 0 0.0143282
0.725963 0 0
0.87068 0 0.0489662
0.910369 0.562493 0.227466
0.888151 0.7832 0.522622
0.883726 0.849973 0.757305
0 0.0227512 0.0332647
0.0320897 0.0320897 0.0320897
0.180606 0 0.0299382
0.449729 0 0.00387579
0.72636 0 0
0.870222 0 0.0249485
0.908217 0.592264 0.210819
0.888197 0.785931 0.520531
0.883726 0.850309 0.757168
0 0.170367 0
0 0.173205 0
0.156619 0.177707 0
0.480751 0.142824 0
0.734905 0.012192 0
0.90219 0.195682 0.0323644
0.904463 0.626749 0.181827
0.888273 0.790112 0.517128
0.883726 0.850843 0.756939
0 0.47425 0
0 0.475608 0
0 0.476158 0
0.435798 0.492988 0
0.765286 0.496178 0.0106203
0.906813 0.571664 0.0409094
0.896834 0.69836 0.0651255
0.888518 0.801236 0.507042
0.883726 0.852399 0.756237
0.025803 0.76817 0.025803
0.0257725 0.768093 0.0257725
0.0256046 0.767773 0.0256046
0.0245518 0.765728 0.0245518
0.734203 0.754604 0.0134127
0.875914 0.759426 0.0179141
0.894514 0.786847 0.0181888
0.888945 0.824887 0.477272
0.883726 0.856474 0.754147
0.0716564 0.891676 0.0716564
0.0715648 0.891203 0.0715648
0.0714275 0.890425 0.0714275
0.0710002 0.88806 0.0710002
0.721706 0.854673 0.0193027
0.849592 0.848478 0.0174411
0.894194 0.8495 0.0175937
0.888426 0.853742 0.517159
0.883741 0.865141 0.747875
0.638392 0.898116 0.216892
0.652903 0.896651 0.215763
0.67306 0.894759 0.214801
0.716579 0.891325 0.215991
0.779797 0.888014 0.231266
0.844175 0.884031 0.280537
0.886412 0.879454 0.413886
0.885649 0.874998 0.626001
0.883711 0.876554 0.764263
0.815167 0.884413 0.684062
0.816068 0.884413 0.684184
0.817487 0.884398 0.684352
0.822003 0.884337 0.68484
0.832319 0.884321 0.686519
0.852049 0.88423 0.691569
0.875731 0.884031 0.705745
0.883757 0.883757 0.740826
0.883741 0.883741 0.79765
0.863874 0.883741 0.81619
0.863981 0.883741 0.816205
0.864164 0.883741 0.81622
0.864698 0.883741 0.816281
0.866224 0.883741 0.816449
0.870069 0.883741 0.816983
0.87744 0.883726 0.819043
0.883726 0.883726 0.823377
0.883726 0.883726 0.834836
0 0 0.167987
0 0 0.168215
0.140002 0 0.165621
0.456611 0 0.135546
0.726619 0 0.126345
0.872007 0 0.182483
0.911055 0.550332 0.351171
0.886946 0.781033 0.573281
0.883711 0.849836 0.763165
0 0 0.163714
0 0 0.164126
0.1664 0 0.159823
0.454795 0 0.131533
0.72813 0 0.121813
0.871977 0 0.174151
0.908904 0.584253 0.338643
0.886992 0.78381 0.57171
0.883711 0.850172 0.763043
0 0.146654 0.147341
0 0.14876 0.146838
0.147265 0.147265 0.147265
0.462287 0.118318 0.138018
0.727245 0 0.109026
0.898024 0.134981 0.206317
0.904952 0.620096 0.317098
0.887053 0.788052 0.569177
0.883711 0.850721 0.762829
0 0.461021 0.0454414
0 0.462669 0.0463874
0 0.463478 0.0476997
0.439368 0.480674 0.0736095
0.76405 0.484535 0.0977798
0.909606 0.563882 0.158007
0.896788 0.694438 0.256306
0.887282 0.799298 0.56173
0.883726 0.852277 0.762188
0.0247654 0.766125 0.0247654
0.0247196 0.766049 0.0247196
0.0245518 0.765728 0.0245518
0.0234989 0.763653 0.0234989
0.735668 0.753002 0.0132143
0.875822 0.758221 0.0179141
0.894453 0.786007 0.0986954
0.887663 0.823194 0.540337
0.883726 0.856367 0.760281
0.0716106 0.891417 0.0716106
0.071519 0.890944 0.071519
0.0713817 0.890166 0.0713817
0.0709544 0.8878 0.0709544
0.72372 0.854414 0.0191806
0.849897 0.848341 0.0174411
0.894194 0.849409 0.0175937
0.888426 0.853712 0.516793
0.883726 0.865049 0.754574
0.6421 0.897734 0.215991
0.656168 0.89633 0.214969
0.675746 0.894514 0.21413
0.718212 0.891218 0.215549
0.780468 0.887968 0.230961
0.844373 0.884016 0.280278
0.886458 0.879438 0.41384
0.885649 0.874998 0.625895
0.883711 0.876539 0.764233
0.815381 0.884413 0.684031
0.816281 0.884413 0.684153
0.8177 0.884398 0.684321
0.822187 0.884337 0.68481
0.832456 0.884321 0.686488
0.852125 0.88423 0.691539
0.875761 0.884031 0.70573
0.883757 0.883757 0.740826
0.883741 0.883741 0.797635
0.863905 0.883741 0.81619
0.864012 0.883741 0.816205
0.864195 0.883741 0.81622
0.864729 0.883741 0.816281
0.866255 0.883741 0.816449
0.870085 0.883741 0.816968
0.877455 0.883726 0.819043
0.883726 0.883726 0.823377
0.883726 0.883726 0.834836
0 0 0.455085
0 0 0.455283
0 0 0.455375
0.421942 0 0.430777
0.736889 0 0.423301
0.87155 0 0.471077
0.912001 0.5037 0.587228
0.884642 0.775692 0.657984
0.883726 0.849424 0.777844
0 0 0.452323
0 0 0.452583
0.053666 0 0.452384
0.440406 0 0.426444
0.735622 0 0.420066
0.871565 0 0.467491
0.91014 0.54844 0.582406
0.884657 0.778592 0.657176
0.883726 0.849775 0.777737
0 0.0460059 0.447547
0 0.0505531 0.447807
0.082414 0.047303 0.448295
0.448142 0 0.420996
0.731685 0 0.414557
0.87158 0 0.4607
0.905653 0.596857 0.571633
0.884688 0.783017 0.655879
0.883726 0.850324 0.777569
0 0.407507 0.403952
0 0.409674 0.404364
0 0.411154 0.405234
0.428275 0.428275 0.428275
0.754284 0.43093 0.447593
0.911665 0.525048 0.499931
0.894224 0.678981 0.539712
0.884825 0.79469 0.652201
0.883726 0.851911 0.77705
0.0257267 0.760082 0.338781
0.0257115 0.760052 0.339666
0.0255894 0.759823 0.340948
0.0246891 0.757931 0.344045
0.731197 0.744823 0.342031
0.871183 0.749722 0.382803
0.889006 0.777371 0.482948
0.885405 0.81944 0.64242
0.883726 0.856062 0.77554
0.0714733 0.890669 0.0714733
0.071397 0.890196 0.071397
0.0712444 0.889403 0.0712444
0.0708171 0.887037 0.0708171
0.723644 0.853742 0.0191958
0.849088 0.847288 0.168887
0.89102 0.84567 0.377707
0.885908 0.850721 0.616648
0.883726 0.864836 0.771176
0.652705 0.896635 0.213352
0.665537 0.895415 0.21265
0.683528 0.893812 0.212222
0.723003 0.890867 0.214298
0.782437 0.887846 0.23006
0.844953 0.88394 0.27953
0.88658 0.879377 0.413718
0.885664 0.874968 0.625589
0.883711 0.876524 0.764126
0.816052 0.884413 0.68394
0.816938 0.884413 0.684047
0.818631 0.884398 0.68423
0.822751 0.884352 0.684718
0.832898 0.884321 0.686397
0.852354 0.88423 0.691447
0.875837 0.884031 0.705653
0.883757 0.883757 0.74081
0.883741 0.883741 0.797604
0.863981 0.883741 0.81619
0.864103 0.883741 0.81619
0.864271 0.883741 0.816205
0.864805 0.883741 0.816266
0.866316 0.883741 0.816434
0.870146 0.883741 0.816968
0.877485 0.883726 0.819028
0.883726 0.883726 0.823362
0.883726 0.883726 0.834836
0 0 0.72665
0 0 0.726711
0 0 0.726787
0.224979 0 0.722469
0.728191 0 0.708614
0.873594 0 0.727245
0.909422 0.211383 0.772274
0.883467 0.764019 0.76524
0.883741 0.848219 0.80679
0 0 0.726253
0 0 0.726299
0 0 0.72639
0.258152 0 0.720638
0.731823 0 0.708507
0.873564 0 0.726802
0.915984 0.348302 0.777951
0.883421 0.767529 0.764828
0.883741 0.848569 0.806714
0 0 0.725597
0 0 0.725658
0 0 0.725734
0.303426 0 0.717891
0.734005 0 0.707973
0.873533 0 0.72604
0.914626 0.478828 0.775189
0.883406 0.772763 0.764233
0.883741 0.849165 0.806607
0 0.198108 0.724529
0 0.201373 0.724514
0 0.20557 0.724468
0.343328 0.210803 0.732158
0.757382 0.102922 0.728908
0.913039 0.268986 0.761547
0.899092 0.631662 0.755383
0.883482 0.786175 0.762692
0.883741 0.850828 0.806256
0.0110781 0.727352 0.720119
0.0111696 0.727596 0.720272
0.0112001 0.727672 0.720394
0.0107118 0.726375 0.720363
0.71426 0.71426 0.71426
0.860227 0.723766 0.718898
0.88365 0.760586 0.729
0.88394 0.813565 0.759167
0.883741 0.855177 0.805249
0.0566873 0.8804 0.714321
0.0566415 0.879973 0.714427
0.0565805 0.879225 0.714595
0.0563668 0.876966 0.715099
0.693996 0.841672 0.687404
0.834058 0.835081 0.693538
0.883955 0.836316 0.71284
0.883726 0.846998 0.750622
0.883741 0.864271 0.802502
0.636439 0.889158 0.62005
0.649989 0.887861 0.619303
0.669093 0.886351 0.618662
0.710201 0.883085 0.617929
0.771069 0.879698 0.621302
0.834562 0.876173 0.634211
0.877943 0.873137 0.668315
0.883818 0.872648 0.730373
0.883741 0.87628 0.79527
0.818341 0.884413 0.68365
0.819348 0.884367 0.683711
0.820676 0.884352 0.683894
0.82446 0.884352 0.684443
0.834211 0.884321 0.686122
0.853056 0.884245 0.691188
0.876066 0.884047 0.70544
0.883757 0.883757 0.740764
0.883741 0.883741 0.797498
0.86424 0.883741 0.816159
0.864347 0.883741 0.816159
0.864515 0.883741 0.81619
0.865049 0.883741 0.816236
0.866545 0.883741 0.816403
0.870314 0.883741 0.816938
0.877562 0.883726 0.819013
0.883726 0.883726 0.823346
0.883726 0.883726 0.834836
0 0 0.840223
0 0 0.840238
0 0 0.840253
0 0 0.840284
0.654948 0 0.820813
0.878767 0 0.840162
0.878798 0 0.840757
0.886152 0.714229 0.843137
0.883726 0.844236 0.843961
0 0 0.840177
0 0 0.840192
0 0 0.840192
0 0 0.840223
0.660975 0 0.820844
0.878767 0 0.840116
0.878798 0 0.840696
0.885435 0.721447 0.842039
0.883726 0.844663 0.843915
0 0 0.840101
0 0 0.840116
0 0 0.840116
0 0 0.840146
0.670329 0 0.820951
0.878767 0 0.840024
0.878782 0 0.84062
0.884596 0.731929 0.84062
0.883726 0.84535 0.843839
0 0 0.839857
0 0 0.839872
0 0 0.839872
0 0 0.839673
0.690044 0 0.821408
0.878752 0 0.83975
0.878721 0 0.839368
0.883513 0.756603 0.83801
0.883726 0.847333 0.843626
0 0.561883 0.838407
0 0.563287 0.838392
0 0.565545 0.838361
0 0.569039 0.838026
0.710338 0.575402 0.850614
0.904326 0.605097 0.861173
0.887678 0.70193 0.840162
0.883955 0.798474 0.835462
0.883726 0.852415 0.84303
0.0559091 0.872023 0.857923
0.0558938 0.871748 0.857893
0.0558633 0.871214 0.857832
0.0557107 0.869123 0.857603
0.634531 0.836973 0.831052
0.825956 0.825956 0.825956
0.881514 0.829068 0.827039
0.883726 0.842527 0.831022
0.883726 0.862593 0.841596
0.494362 0.897368 0.832578
0.534295 0.894453 0.829969
0.582193 0.890684 0.826688
0.656367 0.882979 0.820325
0.746654 0.8766 0.816495
0.82208 0.872999 0.817044
0.870451 0.870695 0.819898
0.883726 0.871382 0.825956
0.883726 0.875578 0.838666
0.811566 0.883818 0.795621
0.812421 0.883818 0.795651
0.813794 0.883803 0.795697
0.817761 0.883787 0.795819
0.828244 0.883741 0.796201
0.847608 0.883741 0.797559
0.871412 0.883741 0.801602
0.883741 0.883741 0.812238
0.883726 0.883726 0.831922
0.864988 0.883741 0.816068
0.865095 0.883741 0.816083
0.865263 0.883741 0.816098
0.865751 0.883741 0.816144
0.867185 0.883741 0.816327
0.870802 0.883741 0.816846
0.877821 0.883726 0.818921
0.883726 0.883726 0.82327
0.883726 0.883726 0.834821
0 0 0.872892
0 0 0.872892
0 0 0.872892
0 0 0.872892
0 0 0.872892
0.86836 0 0.879118
0.880705 0 0.880705
0.880705 0 0.880705
0.883726 0.826993 0.873274
0 0 0.872892
0 0 0.872892
0 0 0.872892
0 0 0.872892
0 0 0.872892
0.869307 0 0.87924
0.880705 0 0.880705
0.880705 0 0.880705
0.883726 0.827787 0.873213
0 0 0.872892
0 0 0.872892
0 0 0.872892
0 0 0.872892
0 0 0.872892
0.870817 0 0.879423
0.880705 0 0.880705
0.880705 0 0.880705
0.883726 0.829038 0.873121
0 0 0.872892
0 0 0.872892
0 0 0.872892
0 0 0.872892
0 0 0.872892
0.875227 0 0.879988
0.880705 0 0.880705
0.880705 0 0.880705
0.883726 0.832578 0.872862
0 0 0.872892
0 0 0.872892
0 0 0.872892
0 0 0.872892
0.325612 0 0.866758
0.880705 0 0.880705
0.880705 0 0.880705
0.900633 0.636088 0.897581
0.883726 0.841321 0.872206
0.0462501 0.805737 0.903456
0.0463111 0.80592 0.903471
0.0464027 0.806256 0.903517
0.0466773 0.807233 0.903593
0.0456245 0.803647 0.902266
0.828519 0.771115 0.874571
0.883528 0.785641 0.873121
0.883726 0.822324 0.871443
0.883726 0.85684 0.870939
0.0566415 0.914199 0.89984
0.0566567 0.913787 0.899809
0.056672 0.913115 0.899763
0.0567025 0.911177 0.899596
0.676356 0.877226 0.869917
0.808042 0.869795 0.867262
0.86714 0.86714 0.86714
0.883726 0.868544 0.867582
0.883726 0.873869 0.869245
0.793912 0.883787 0.863783
0.795026 0.883787 0.863783
0.796811 0.883787 0.863783
0.801892 0.883803 0.863783
0.814817 0.883787 0.863752
0.839231 0.883726 0.863691
0.866484 0.883726 0.86392
0.883726 0.883726 0.864851
0.883726 0.883726 0.867323
0.862394 0.883726 0.855665
0.862501 0.883726 0.855665
0.862669 0.883726 0.855665
0.863172 0.883726 0.855695
0.864637 0.883726 0.855741
0.868315 0.883726 0.855909
0.875502 0.883726 0.856413
0.883696 0.883726 0.857954
0.883726 0.883726 0.861997
0 0.0275883 0.874403
0 0.0275883 0.874403
0 0.0275883 0.874403
0 0.0276036 0.874403
0 0.0276646 0.874403
0 0.0278172 0.874418
0.880705 0 0.880705
0.880705 0 0.880705
0.893523 0.669047 0.893523
0 0.0275578 0.874403
0 0.0275578 0.874403
0 0.0275731 0.874403
0 0.0275883 0.874403
0 0.0276493 0.874403
0 0.0278019 0.874418
0.880705 0 0.880705
0.880705 0 0.880705
0.893523 0.669032 0.893523
0 0.027512 0.874403
0 0.027512 0.874403
0 0.0275273 0.874403
0 0.0275425 0.874403
0 0.0275883 0.874403
0 0.0277562 0.874418
0.880705 0 0.880705
0.880705 0 0.880705
0.893538 0.669001 0.893538
0 0.0273899 0.874403
0 0.0273747 0.874403
0 0.0273899 0.874403
0 0.0274052 0.874403
0 0.0274662 0.874403
0 0.00241093 0.873487
0.880705 0 0.880705
0.880705 0 0.880705
0.893553 0.66891 0.893553
0 0.026978 0.874388
0 0.026978 0.874388
0 0.026978 0.874388
0 0.0270085 0.874388
0 0.0270542 0.874388
0.369848 0 0.865171
0.880705 0 0.880705
0.880705 0 0.880705
0.893614 0.66862 0.893614
0 0.0256657 0.874327
0 0.0256657 0.874327
0 0.0256657 0.874327
0 0.0256809 0.874327
0 0.025742 0.874327
0.745846 0 0.864286
0.880705 0 0.880705
0.893507 0.0619059 0.893507
0.88397 0.800748 0.88397
0.0567941 0.894072 0.915404
0.0567941 0.894102 0.915404
0.0567941 0.894133 0.915404
0.0567941 0.89424 0.915404
0.0567941 0.894545 0.915404
0.740017 0.850584 0.883848
0.868559 0.846265 0.883726
0.883726 0.852094 0.883726
0.883726 0.865919 0.883726
0.691478 0.885283 0.885206
0.697429 0.885008 0.884916
0.706157 0.884657 0.88455
0.72781 0.884047 0.883879
0.768612 0.883711 0.883406
0.819593 0.883726 0.883223
0.861173 0.883726 0.88304
0.883009 0.883009 0.883009
0.883726 0.883345 0.883146
0.855848 0.883726 0.881727
0.855985 0.883726 0.881727
0.856214 0.883726 0.881727
0.856901 0.883726 0.881727
0.858824 0.883726 0.881712
0.8636 0.883726 0.881712
0.872358 0.883726 0.881697
0.881773 0.883726 0.881758
0.883726 0.883726 0.882063
0 0.279103 0.881209
0 0.279103 0.881209
0 0.279103 0.881209
0 0.279118 0.881209
0 0.279118 0.881209
0 0.279194 0.881209
0 0.279332 0.881209
0.922499 0.335027 0.922499
0.888151 0.699306 0.888151
0 0.279103 0.881209
0 0.279103 0.881209
0 0.279103 0.881209
0 0.279103 0.881209
0 0.279118 0.881209
0 0.279164 0.881209
0 0.279332 0.881209
0.922499 0.335393 0.922499
0.888151 0.699321 0.888151
0 0.279088 0.881209
0 0.279088 0.881209
0 0.279088 0.881209
0 0.279103 0.881209
0 0.279103 0.881209
0 0.279164 0.881209
0 0.279301 0.881209
0.922515 0.335943 0.922515
0.888136 0.699367 0.888136
0 0.279057 0.881209
0 0.279057 0.881209
0 0.279057 0.881209
0 0.279057 0.881209
0 0.279088 0.881209
0 0.279118 0.881209
0 0.279255 0.881209
0.922545 0.337667 0.922545
0.888121 0.699519 0.888121
0 0.27892 0.881209
0 0.27892 0.881209
0 0.27892 0.881209
0 0.27892 0.881209
0 0.27895 0.881209
0 0.278996 0.881209
0.417578 0.27393 0.892989
0.922621 0.342916 0.922621
0.88806 0.699947 0.88806
0 0.278538 0.881209
0 0.278538 0.881209
0 0.278538 0.881209
0 0.278569 0.881209
0 0.278569 0.881209
0 0.278614 0.881209
0.780163 0.0677958 0.884031
0.922789 0.358419 0.922789
0.887953 0.700587 0.887953
0 0.277378 0.881209
0 0.277378 0.881209
0 0.277378 0.881209
0 0.277409 0.881209
0 0.277409 0.881209
0 0.27744 0.881209
0.880705 0 0.880705
0.922774 0.388113 0.922774
0.887785 0.701778 0.887785
0.056611 0.915312 0.915312
0.056611 0.915312 0.915312
0.056611 0.915312 0.915312
0.056611 0.915312 0.915312
0.056611 0.915312 0.915312
0.056611 0.915312 0.915312
0.83621 0.877043 0.883726
0.883696 0.875273 0.883726
0.883726 0.87747 0.883726
0.823987 0.883726 0.883726
0.824475 0.883726 0.883726
0.825254 0.883726 0.883726
0.827543 0.883726 0.883726
0.833616 0.883726 0.883726
0.846677 0.883726 0.883726
0.865339 0.883726 0.883726
0.880125 0.883726 0.883726
0.883726 0.883726 0.883726
