BBLuts/BB_104_0310_LUT.cube
TITLE "Generated by Resolve"
LUT_3D_SIZE 9
0.0476081 0.0559548 0.0666514
0.0476081 0.0559548 0.0666514
0.208667 0.0570687 0.0696574
0.458961 0.057023 0.072221
0.732967 0.291112 0.329122
0.886824 0.612253 0.620127
0.885481 0.636652 0.619394
0.875837 0.78265 0.576349
0.869383 0.858946 0.699229
0.0412757 0.093843 0.0637522
0.0401007 0.10074 0.0632181
0.214298 0.0869764 0.067277
0.470802 0.057435 0.0728771
0.73492 0.295628 0.333318
0.886824 0.612253 0.620127
0.885084 0.643351 0.618463
0.875715 0.785641 0.571084
0.869352 0.859312 0.698711
0.0320134 0.207813 0.053727
0.0318456 0.21091 0.0533913
0.158145 0.212345 0.0562295
0.483528 0.19588 0.0673533
0.738567 0.334844 0.340185
0.886671 0.615579 0.619867
0.884291 0.655406 0.616571
0.875532 0.790265 0.561669
0.869307 0.859892 0.697856
0.0100099 0.469703 0.0208896
0.00991836 0.470985 0.0208286
0.00987259 0.471687 0.0208133
0.382147 0.481605 0.0316472
0.741161 0.512276 0.32813
0.885374 0.638407 0.617624
0.881468 0.695506 0.607752
0.875181 0.802823 0.523262
0.869169 0.86157 0.695247
0.00169375 0.734142 0.023331
0.00167849 0.734066 0.023331
0.00164797 0.733776 0.0232853
0.00148013 0.731807 0.0230259
0.679149 0.732677 0.033875
0.857359 0.747127 0.53254
0.87628 0.779446 0.550317
0.875319 0.828809 0.0429847
0.868788 0.866041 0.68716
0.0243687 0.866377 0.0517128
0.0242618 0.865827 0.0515755
0.0240787 0.864912 0.0513619
0.0235294 0.86215 0.0506905
0.0221408 0.855177 0.0489967
0.820584 0.847639 0.04271
0.874052 0.850187 0.0433967
0.873243 0.861311 0.0435798
0.867948 0.875578 0.669978
0.0310979 0.905592 0.0601358
0.0310521 0.905211 0.0600595
0.0309758 0.904662 0.059968
0.0307469 0.903181 0.059678
0.584726 0.898238 0.0545357
0.806119 0.889342 0.0437324
0.865675 0.887495 0.0438087
0.870542 0.887922 0.0438087
0.866255 0.887968 0.691142
0.767498 0.899214 0.0441749
0.769238 0.899214 0.0441596
0.771984 0.899184 0.0440986
0.779522 0.899168 0.0439918
0.797467 0.899168 0.0438239
0.827039 0.899336 0.0437629
0.858625 0.899702 0.0437781
0.86659 0.897414 0.566827
0.865232 0.895781 0.74995
0.841474 0.895827 0.776562
0.841611 0.895842 0.776593
0.841825 0.895842 0.776623
0.842496 0.895842 0.776761
0.844404 0.895872 0.777096
0.84918 0.895933 0.778119
0.858244 0.896071 0.78088
0.86598 0.896284 0.787366
0.866529 0.896681 0.802747
0.0527199 0.0593729 0.102098
0.0527504 0.0594034 0.102266
0.213687 0.0604257 0.106706
0.46009 0.0606088 0.109895
0.732967 0.293202 0.343923
0.886824 0.61239 0.62118
0.885542 0.63563 0.62034
0.875792 0.781964 0.584985
0.869368 0.858854 0.705715
0.048249 0.0803082 0.0943313
0.0816205 0.0887617 0.0932174
0.228351 0.0599222 0.100587
0.466941 0.0598917 0.102266
0.733791 0.29395 0.337804
0.886824 0.612345 0.620859
0.885145 0.642267 0.619425
0.875654 0.784985 0.580957
0.869337 0.859205 0.705257
0.0324254 0.2 0.0545357
0.0322881 0.202579 0.0542916
0.175463 0.204608 0.0572366
0.4813 0.188037 0.0674144
0.736233 0.320256 0.33547
0.886671 0.615274 0.619883
0.884367 0.654276 0.617609
0.875456 0.789609 0.572824
0.869291 0.8598 0.704479
0.0103761 0.464805 0.0211185
0.0102846 0.466026 0.0210727
0.0102541 0.466529 0.0210422
0.399023 0.476158 0.0317082
0.740887 0.509178 0.328145
0.88542 0.637812 0.6177
0.881544 0.69453 0.608698
0.875059 0.802243 0.540276
0.869139 0.861479 0.702098
0.0016022 0.733166 0.023209
0.00158694 0.733074 0.0231937
0.00155642 0.732769 0.0231479
0.00138857 0.730755 0.0228885
0.681941 0.731746 0.0338293
0.85745 0.746578 0.533639
0.876295 0.779141 0.550912
0.875334 0.828672 0.0429847
0.868757 0.865934 0.69482
0.0243381 0.866194 0.051667
0.0242161 0.865644 0.0515297
0.0240482 0.864729 0.0513161
0.0234989 0.861952 0.0506447
0.0221103 0.855009 0.0489662
0.820859 0.847547 0.04271
0.874052 0.850126 0.0433967
0.873243 0.861265 0.0435798
0.867948 0.875547 0.670848
0.0310826 0.905516 0.0601205
0.0310369 0.90515 0.0600443
0.0309606 0.904601 0.0599527
0.0307469 0.90312 0.0596628
0.590677 0.897963 0.0540627
0.806287 0.889326 0.0437324
0.865705 0.88748 0.0438087
0.870558 0.887907 0.0438087
0.866255 0.887953 0.691112
0.767773 0.899214 0.0441749
0.769512 0.899199 0.0441444
0.772229 0.899199 0.0440986
0.779721 0.899168 0.0439918
0.797604 0.899168 0.0438239
0.827085 0.899336 0.0437629
0.85864 0.899702 0.0437781
0.86659 0.897414 0.566751
0.865232 0.895781 0.749935
0.841489 0.895827 0.776562
0.841627 0.895842 0.776593
0.84184 0.895842 0.776623
0.842527 0.895842 0.776745
0.844419 0.895872 0.777096
0.849195 0.895933 0.778119
0.858259 0.896071 0.78088
0.86598 0.896284 0.787366
0.866529 0.896681 0.802747
0.0662394 0.0683909 0.198672
0.0662699 0.0684215 0.198856
0.205463 0.0697185 0.200168
0.475212 0.0694438 0.204608
0.733043 0.298192 0.374075
0.886809 0.612604 0.622812
0.885649 0.633814 0.622843
0.8757 0.780835 0.598032
0.869368 0.858717 0.715145
0.0657969 0.0681163 0.195453
0.0658274 0.0681315 0.195743
0.225956 0.0694133 0.196948
0.474464 0.068925 0.202457
0.734859 0.302068 0.376043
0.886809 0.612589 0.62269
0.885267 0.640208 0.621927
0.875547 0.783871 0.594751
0.869337 0.859083 0.714717
0.0433967 0.190723 0.175509
0.0430457 0.19237 0.175128
0.188357 0.189425 0.176638
0.466621 0.179965 0.188785
0.733776 0.299184 0.371603
0.886702 0.61471 0.622309
0.88452 0.651911 0.620157
0.875334 0.788556 0.58938
0.869276 0.859663 0.714046
0.0118105 0.451575 0.0483711
0.0117037 0.452964 0.0483711
0.0116579 0.453635 0.049012
0.406882 0.462409 0.0754864
0.737377 0.499184 0.34818
0.885527 0.63595 0.619471
0.881697 0.691997 0.612161
0.874861 0.801266 0.566232
0.869123 0.861357 0.711986
0.00141909 0.731151 0.0229343
0.00141909 0.73106 0.0229343
0.00138857 0.730739 0.0228885
0.00122072 0.72871 0.0226291
0.684565 0.729854 0.0337377
0.857435 0.745251 0.535271
0.876295 0.778256 0.555749
0.87541 0.828397 0.277043
0.868727 0.865812 0.70573
0.0242771 0.865888 0.0515908
0.0241703 0.865324 0.0514687
0.0239872 0.864408 0.0512398
0.0234379 0.861646 0.0505837
0.0220493 0.854765 0.0489052
0.821241 0.847395 0.04271
0.874052 0.850019 0.0433814
0.873259 0.861204 0.0435798
0.867826 0.875349 0.685817
0.0310674 0.905409 0.0601053
0.0310216 0.905043 0.060029
0.0309453 0.904494 0.0599374
0.0307317 0.903029 0.0596475
0.599557 0.897551 0.0533761
0.806577 0.889311 0.0437324
0.865766 0.887449 0.0438087
0.870558 0.887892 0.0438087
0.86627 0.887953 0.691035
0.768185 0.899214 0.0441749
0.769924 0.899199 0.0441444
0.77261 0.899184 0.0440986
0.780072 0.899168 0.0439918
0.797848 0.899168 0.0438239
0.827192 0.899336 0.0437629
0.858671 0.899702 0.0437781
0.86659 0.897414 0.566751
0.865232 0.895781 0.74992
0.84152 0.895827 0.776562
0.841657 0.895842 0.776593
0.841886 0.895842 0.776638
0.842542 0.895842 0.776745
0.84445 0.895872 0.777081
0.84921 0.895933 0.778103
0.858259 0.896071 0.780865
0.86598 0.896284 0.787366
0.866529 0.896681 0.802747
0.147936 0.121828 0.428443
0.148058 0.121904 0.428611
0.148119 0.121935 0.428702
0.456535 0.123857 0.42266
0.747951 0.354971 0.495827
0.886732 0.61413 0.633494
0.885878 0.629953 0.639185
0.875441 0.777493 0.642267
0.869444 0.858427 0.737316
0.146136 0.120653 0.426093
0.146319 0.120745 0.426291
0.212711 0.121263 0.426078
0.471809 0.123339 0.419928
0.746441 0.351446 0.493156
0.886748 0.614084 0.633204
0.885542 0.635401 0.638193
0.875257 0.780621 0.640192
0.869413 0.858778 0.737026
0.134844 0.168856 0.421027
0.13434 0.172885 0.421164
0.22533 0.170596 0.421317
0.477729 0.121599 0.415641
0.741817 0.341482 0.486992
0.886748 0.614008 0.632715
0.884901 0.645869 0.636332
0.874983 0.785428 0.636698
0.869368 0.859373 0.736538
0.0256504 0.415671 0.375326
0.0245518 0.417395 0.375448
0.0240787 0.418647 0.376074
0.422187 0.426154 0.393713
0.730175 0.464485 0.462043
0.885817 0.631067 0.62945
0.8822 0.684459 0.628656
0.874311 0.798444 0.625238
0.8692 0.861067 0.735088
0.000732433 0.722362 0.0218509
0.000732433 0.722332 0.0218509
0.000717174 0.722103 0.0218357
0.000595102 0.720241 0.021622
0.68246 0.721767 0.0332647
0.855985 0.739223 0.55874
0.876234 0.774594 0.585992
0.873289 0.824948 0.579965
0.868757 0.865522 0.730739
0.024094 0.865019 0.0513924
0.0239872 0.864454 0.0512551
0.0238041 0.863523 0.0510262
0.0232547 0.860761 0.05037
0.0218814 0.85388 0.0486915
0.820844 0.846647 0.0426795
0.874113 0.849409 0.0433814
0.87335 0.860777 0.0435645
0.86775 0.875029 0.717845
0.0310216 0.905058 0.060029
0.0309758 0.904738 0.059968
0.0308995 0.904189 0.0598764
0.0307012 0.90277 0.0596017
0.621973 0.896513 0.0517128
0.807446 0.88922 0.0437324
0.865919 0.887388 0.0438239
0.870558 0.887861 0.0438087
0.86627 0.887938 0.690822
0.769467 0.899199 0.0441444
0.77116 0.899199 0.0441291
0.7738 0.899184 0.0440833
0.781094 0.899153 0.0439765
0.798535 0.899168 0.0438239
0.827512 0.899336 0.0437629
0.858763 0.899702 0.0437781
0.86659 0.897414 0.566583
0.865232 0.895781 0.749859
0.841627 0.895827 0.776562
0.841764 0.895842 0.776593
0.841978 0.895842 0.776608
0.842649 0.895842 0.77673
0.844541 0.895872 0.777081
0.849271 0.895933 0.778088
0.858289 0.896071 0.780865
0.86598 0.896284 0.78735
0.866529 0.896681 0.802747
0.553674 0.527443 0.700816
0.55375 0.527535 0.700877
0.553887 0.527687 0.700969
0.563897 0.526741 0.700252
0.741283 0.545739 0.700877
0.885771 0.639216 0.724285
0.885481 0.645106 0.732525
0.875822 0.769665 0.740871
0.870069 0.857908 0.776211
0.552987 0.52665 0.700328
0.553063 0.526741 0.700389
0.553216 0.526925 0.700496
0.565347 0.525795 0.699641
0.745022 0.546426 0.700603
0.885786 0.639048 0.723903
0.885359 0.646708 0.731594
0.875563 0.773114 0.740032
0.870024 0.858289 0.776043
0.551873 0.525353 0.69955
0.551965 0.52546 0.699611
0.552117 0.525643 0.699718
0.567941 0.5243 0.69868
0.74728 0.546181 0.699901
0.885786 0.638758 0.723262
0.885054 0.65069 0.730007
0.875166 0.778347 0.738735
0.869963 0.8589 0.775769
0.543709 0.532097 0.694881
0.543709 0.532372 0.694896
0.543664 0.532692 0.694896
0.562356 0.531243 0.694148
0.74612 0.547219 0.696178
0.885649 0.640131 0.719615
0.883223 0.673701 0.724376
0.874189 0.791959 0.734951
0.869795 0.860639 0.774975
0.0043183 0.698833 0.659617
0.00433356 0.699062 0.659709
0.00433356 0.699123 0.659831
0.00430304 0.697978 0.660212
0.682719 0.699718 0.668589
0.851011 0.721401 0.689998
0.876066 0.76376 0.703883
0.872282 0.820279 0.724498
0.869307 0.865202 0.772656
0.0235904 0.862409 0.0507668
0.0234836 0.86186 0.0506294
0.0233005 0.86096 0.0504158
0.0227512 0.858183 0.0497444
0.0213016 0.851057 0.0479896
0.813123 0.842176 0.545373
0.871077 0.844022 0.646357
0.869688 0.855619 0.697124
0.868177 0.874784 0.766384
0.0309453 0.904479 0.0599374
0.0308995 0.904128 0.0598611
0.030808 0.903609 0.0597543
0.0306096 0.90219 0.0594949
0.592004 0.897139 0.0539101
0.803296 0.88867 0.0437324
0.862562 0.88687 0.0438087
0.868025 0.884779 0.588693
0.866392 0.887602 0.750576
0.773236 0.899184 0.0440833
0.774807 0.899168 0.0440528
0.777264 0.899168 0.0440223
0.7841 0.899153 0.043946
0.800626 0.899168 0.0438087
0.828458 0.899351 0.0437629
0.859052 0.899702 0.0437781
0.86659 0.897414 0.56614
0.865232 0.895781 0.749706
0.841932 0.895842 0.776532
0.842069 0.895842 0.776547
0.842283 0.895842 0.776608
0.842939 0.895842 0.776715
0.8448 0.895872 0.77705
0.849485 0.895933 0.778073
0.858396 0.896071 0.780835
0.86598 0.896284 0.78732
0.866529 0.896681 0.802747
0.709789 0.701793 0.831495
0.709789 0.701793 0.831495
0.709804 0.701823 0.83151
0.70985 0.701854 0.83154
0.730724 0.698177 0.828244
0.883268 0.716503 0.830014
0.883253 0.717052 0.830564
0.879942 0.750637 0.823102
0.871962 0.856168 0.819776
0.709728 0.701732 0.831434
0.709728 0.701732 0.831449
0.709743 0.701747 0.831449
0.709789 0.701793 0.831495
0.732418 0.698085 0.828153
0.883268 0.716457 0.829969
0.883253 0.717006 0.830518
0.879606 0.754269 0.822461
0.871916 0.856596 0.819684
0.709636 0.701625 0.831357
0.709636 0.70164 0.831373
0.709651 0.70164 0.831373
0.709682 0.701671 0.831403
0.735317 0.697963 0.827985
0.883268 0.716365 0.829877
0.883253 0.71693 0.830442
0.879072 0.760113 0.821485
0.871855 0.857282 0.819547
0.709331 0.701289 0.831098
0.709346 0.701305 0.831113
0.709361 0.70132 0.831113
0.709117 0.701045 0.8309
0.742611 0.697658 0.827573
0.883268 0.716121 0.829618
0.883268 0.715755 0.829252
0.877653 0.776593 0.81883
0.871656 0.859251 0.819104
0.698497 0.701854 0.822797
0.698451 0.701946 0.822782
0.69836 0.702083 0.822721
0.697856 0.701976 0.822324
0.730846 0.699718 0.820584
0.880507 0.719173 0.822889
0.880369 0.742336 0.818891
0.874922 0.811353 0.813489
0.871107 0.864363 0.817899
0.0243076 0.857862 0.806043
0.0242618 0.857557 0.806012
0.0241855 0.856947 0.805982
0.0238499 0.854566 0.805798
0.562814 0.846174 0.803525
0.809247 0.834638 0.799008
0.869978 0.839384 0.80209
0.871443 0.853376 0.805295
0.869917 0.874723 0.815
0.0291752 0.905043 0.786862
0.0291447 0.904662 0.786954
0.029099 0.904067 0.787106
0.0289769 0.90248 0.787564
0.540017 0.89546 0.784634
0.790249 0.883909 0.779828
0.852293 0.881987 0.785687
0.868009 0.883162 0.794202
0.86804 0.888167 0.809354
0.764706 0.895399 0.739803
0.766232 0.895369 0.739879
0.768658 0.895354 0.740001
0.775387 0.895308 0.740414
0.791455 0.895277 0.741711
0.819455 0.895354 0.745556
0.850233 0.895659 0.754879
0.865599 0.89601 0.772534
0.866377 0.896574 0.798978
0.842863 0.895842 0.776455
0.842985 0.895842 0.776486
0.843183 0.895857 0.776516
0.843824 0.895857 0.776623
0.845594 0.895872 0.776974
0.85008 0.895933 0.777981
0.858717 0.896071 0.780743
0.86598 0.896284 0.787228
0.866529 0.896666 0.802731
0.748669 0.744915 0.866148
0.748669 0.744915 0.866148
0.748669 0.744915 0.866148
0.748669 0.744915 0.866148
0.748669 0.744915 0.866148
0.873137 0.754345 0.868254
0.883619 0.756024 0.868452
0.883619 0.756024 0.868452
0.875578 0.843748 0.853071
0.748669 0.744915 0.866148
0.748669 0.744915 0.866148
0.748669 0.744915 0.866148
0.748669 0.744915 0.866148
0.748669 0.744915 0.866148
0.87393 0.754467 0.868269
0.883619 0.756024 0.868452
0.883619 0.756024 0.868452
0.875517 0.844434 0.852964
0.748669 0.744915 0.866148
0.748669 0.744915 0.866148
0.748669 0.744915 0.866148
0.748669 0.744915 0.866148
0.748669 0.744915 0.866148
0.875196 0.754665 0.868299
0.883619 0.756024 0.868452
0.883619 0.756024 0.868452
0.875425 0.845548 0.852811
0.748669 0.744915 0.866148
0.748669 0.744915 0.866148
0.748669 0.744915 0.866148
0.748669 0.744915 0.866148
0.748669 0.744915 0.866148
0.878935 0.755245 0.86836
0.883619 0.756024 0.868452
0.883619 0.756024 0.868452
0.875135 0.848722 0.852384
0.748669 0.744915 0.866148
0.748669 0.744915 0.866148
0.748669 0.744915 0.866148
0.748669 0.744915 0.866148
0.749554 0.74493 0.866163
0.883619 0.756024 0.868452
0.883619 0.756024 0.868452
0.882856 0.760113 0.864927
0.874372 0.856733 0.85124
0.727718 0.803647 0.858137
0.727672 0.803769 0.858122
0.727581 0.803967 0.858106
0.727275 0.804593 0.858045
0.726925 0.801953 0.857237
0.826398 0.797726 0.855665
0.87808 0.810346 0.854582
0.875746 0.839216 0.851286
0.872801 0.871489 0.84892
0.0301671 0.909377 0.855222
0.0301518 0.908919 0.855207
0.0300908 0.908156 0.855177
0.0299687 0.905943 0.85507
0.582971 0.894926 0.848768
0.78735 0.883268 0.842603
0.853071 0.881086 0.843427
0.871138 0.882826 0.844205
0.870604 0.888395 0.845579
0.758465 0.897765 0.837018
0.760098 0.897749 0.837003
0.762631 0.897719 0.836973
0.769757 0.897673 0.836912
0.786892 0.897597 0.836866
0.816831 0.897658 0.837034
0.848829 0.897948 0.837797
0.868696 0.898253 0.839368
0.86894 0.898436 0.842252
0.84303 0.897383 0.827817
0.843168 0.897383 0.827832
0.843351 0.897383 0.827832
0.843961 0.897398 0.827863
0.845685 0.897414 0.82797
0.850019 0.897475 0.82826
0.858442 0.897597 0.829099
0.868055 0.89781 0.831205
0.868437 0.89807 0.835996
0.748653 0.745037 0.866148
0.748653 0.745037 0.866148
0.748653 0.745037 0.866148
0.748653 0.745037 0.866148
0.748653 0.745037 0.866148
0.748653 0.745037 0.866148
0.883619 0.756024 0.868452
0.883619 0.756024 0.868452
0.882658 0.767086 0.867826
0.748653 0.745037 0.866148
0.748653 0.745037 0.866148
0.748653 0.745037 0.866148
0.748653 0.745037 0.866148
0.748653 0.745037 0.866148
0.748653 0.745037 0.866148
0.883619 0.756024 0.868452
0.883619 0.756024 0.868452
0.882658 0.767071 0.867826
0.748653 0.745037 0.866148
0.748653 0.745037 0.866148
0.748653 0.745037 0.866148
0.748653 0.745037 0.866148
0.748653 0.745037 0.866148
0.748653 0.745037 0.866148
0.883619 0.756024 0.868452
0.883619 0.756024 0.868452
0.882658 0.767071 0.867826
0.748653 0.745037 0.866148
0.748653 0.745037 0.866148
0.748653 0.745037 0.866148
0.748653 0.745037 0.866148
0.748653 0.745037 0.866148
0.748653 0.744976 0.866148
0.883619 0.756024 0.868452
0.883619 0.756024 0.868452
0.882658 0.767056 0.867826
0.748653 0.745037 0.866148
0.748653 0.745037 0.866148
0.748653 0.745037 0.866148
0.748653 0.745037 0.866148
0.748653 0.745037 0.866148
0.749828 0.74493 0.866163
0.883619 0.756024 0.868452
0.883619 0.756024 0.868452
0.882658 0.76701 0.867826
0.748653 0.745037 0.866148
0.748653 0.745037 0.866148
0.748653 0.745037 0.866148
0.748653 0.745037 0.866148
0.748653 0.745037 0.866148
0.78909 0.746426 0.86659
0.883619 0.756024 0.868452
0.883604 0.75613 0.868452
0.878279 0.824933 0.865217
0.671717 0.879973 0.864454
0.671656 0.880003 0.864454
0.67158 0.880034 0.864454
0.671305 0.880156 0.864469
0.670466 0.880491 0.864469
0.747372 0.866316 0.863005
0.859602 0.862867 0.863401
0.874662 0.868635 0.863355
0.873213 0.881941 0.862577
0.652857 0.902358 0.863554
0.659297 0.902083 0.863264
0.66894 0.901686 0.862837
0.69366 0.900786 0.861875
0.741985 0.899535 0.860487
0.800168 0.899107 0.859846
0.845899 0.899413 0.860029
0.870024 0.89897 0.860441
0.870771 0.899336 0.860578
0.839765 0.899229 0.858412
0.839933 0.899229 0.858412
0.840177 0.899229 0.858412
0.840925 0.899245 0.858427
0.843046 0.89926 0.858457
0.84831 0.899321 0.858503
0.857969 0.899428 0.858656
0.868376 0.899565 0.858915
0.870573 0.899626 0.859312
0.748547 0.745724 0.866133
0.748547 0.745724 0.866133
0.748547 0.745724 0.866133
0.748547 0.745724 0.866133
0.748547 0.745724 0.866133
0.748547 0.745724 0.866133
0.748547 0.745724 0.866133
0.883558 0.756634 0.868421
0.882139 0.773281 0.867475
0.748547 0.745724 0.866133
0.748547 0.745724 0.866133
0.748547 0.745724 0.866133
0.748547 0.745724 0.866133
0.748547 0.745724 0.866133
0.748547 0.745724 0.866133
0.748547 0.745724 0.866133
0.883558 0.756634 0.868421
0.882139 0.773297 0.867475
0.748547 0.745724 0.866133
0.748547 0.745724 0.866133
0.748547 0.745724 0.866133
0.748547 0.745724 0.866133
0.748547 0.745724 0.866133
0.748547 0.745724 0.866133
0.748547 0.745724 0.866133
0.883558 0.756634 0.868421
0.882139 0.773312 0.867475
0.748547 0.745724 0.866133
0.748547 0.745724 0.866133
0.748547 0.745724 0.866133
0.748547 0.745724 0.866133
0.748547 0.745724 0.866133
0.748547 0.745724 0.866133
0.748547 0.745724 0.866133
0.883558 0.756634 0.868421
0.882139 0.773342 0.867475
0.748547 0.745724 0.866133
0.748547 0.745724 0.866133
0.748547 0.745724 0.866133
0.748547 0.745724 0.866133
0.748547 0.745724 0.866133
0.748547 0.745724 0.866133
0.749737 0.745647 0.866148
0.883558 0.756649 0.868421
0.882124 0.773449 0.86746
0.748547 0.745724 0.866133
0.748547 0.745724 0.866133
0.748547 0.745724 0.866133
0.748547 0.745724 0.866133
0.748547 0.745724 0.866133
0.748547 0.745724 0.866133
0.797894 0.747082 0.866728
0.883558 0.756725 0.868421
0.882109 0.773617 0.86746
0.748547 0.745724 0.866133
0.748547 0.745724 0.866133
0.748547 0.745724 0.866133
0.748547 0.745724 0.866133
0.748547 0.745724 0.866133
0.748547 0.745724 0.866133
0.883619 0.756024 0.868452
0.883543 0.756848 0.868406
0.882094 0.773953 0.867445
0.030518 0.912123 0.873625
0.030518 0.912123 0.873625
0.030518 0.912123 0.873625
0.030518 0.912123 0.873625
0.030518 0.912123 0.873625
0.030518 0.912123 0.873625
0.820874 0.892424 0.861112
0.872007 0.891203 0.861921
0.871717 0.893416 0.861738
0.805249 0.899184 0.860441
0.805783 0.899184 0.860441
0.806653 0.899168 0.860441
0.809171 0.899184 0.860456
0.815854 0.899214 0.860502
0.830167 0.899321 0.860624
0.850584 0.899519 0.860868
0.866819 0.899718 0.861128
0.870787 0.899779 0.861204
