BBLuts/BB_106_0450_LUT.cube
TITLE "Generated by Resolve"
LUT_3D_SIZE 9
0 0 0
0.0593423 0 0
0.208988 0 0
0.484733 0.00584421 0
0.84535 0.38645 0.381399
1 0.537301 0.582193
1 0.563638 0.581781
0.920043 0.737957 0.466987
0.911879 0.884428 0.448859
0 0.0437171 0
0.0215 0.0459144 0
0.175341 0.0571298 0
0.49276 0.0091249 0
0.845914 0.386526 0.38204
1 0.539376 0.58201
1 0.573846 0.579843
0.90248 0.755795 0.453849
0.915434 0.886152 0.442237
0 0.217533 0
0 0.218265 0
0.165179 0.221241 0
0.387304 0.288045 0
0.845853 0.41944 0.38468
1 0.55581 0.579889
1 0.606928 0.571923
0.879057 0.790173 0.43801
0.924468 0.890166 0.421744
0 0.533867 0
0 0.534325 0
0 0.534066 0
0.459342 0.542916 0
0.72079 0.624247 0.24831
0.989609 0.64979 0.539528
0.909392 0.743603 0.451652
0.873121 0.844099 0.407538
0.946883 0.89984 0.30959
0 0.826566 0
0 0.825986 0
0 0.823911 0
0 0.816968 0
0.770459 0.816999 0
0.899443 0.841825 0.104829
0.919921 0.867231 0.205264
0.949218 0.888441 0
0.964828 0.921569 0
0 0.946761 0
0 0.945769 0
0 0.943221 0
0 0.936629 0
0.702907 0.923461 0
0.910109 0.920562 0
0.965347 0.928023 0
0.969177 0.934905 0
0.972778 0.948104 0
0 0.993118 0
0 0.992355 0
0 0.990494 0
0 0.986404 0
0.726986 0.971618 0
0.897841 0.966613 0
0.963226 0.967254 0
0.976547 0.968551 0
0.977172 0.972045 0
0.157916 1 0
0.155383 1 0
0.482521 0.999329 0
0.718166 0.992615 0
0.833127 0.989837 0
0.907179 0.989517 0
0.957153 0.989242 0
0.978683 0.989044 0
0.981231 0.98819 0.124102
0.88191 0.990036 0.0619211
0.881834 0.990326 0.063386
0.874052 0.992477 0.074464
0.882338 0.992615 0.0746929
0.910155 0.990799 0.0647593
0.936385 0.990127 0.179843
0.961761 0.984512 0.533043
0.981582 0.983597 0.641001
0.982528 0.982513 0.730648
0 0 0.0487526
0.0462348 0 0.0504158
0.230152 0 0.0380255
0.499077 0.00817884 0.0570687
0.853223 0.384497 0.398489
1 0.537682 0.585077
1 0.562005 0.584222
0.929412 0.732113 0.479026
0.908553 0.884596 0.475303
0 0.0368048 0.0366827
0.0356146 0.0360113 0.0364996
0.222568 0.0263981 0.0320287
0.501411 0.00868238 0.0519265
0.852705 0.3832 0.396857
1 0.53933 0.584634
1 0.571954 0.582803
0.909651 0.751003 0.463203
0.911772 0.886412 0.470344
0 0.208072 0
0 0.208957 0
0.179187 0.211017 0
0.384848 0.277653 0
0.843412 0.414771 0.381292
1 0.55462 0.581109
1 0.604608 0.575372
0.882109 0.787274 0.444434
0.92018 0.890578 0.455451
0 0.530007 0
0 0.530434 0
0 0.530068 0
0.469795 0.539101 0
0.721401 0.621347 0.249805
0.99057 0.647562 0.541238
0.912062 0.740978 0.453742
0.873167 0.843 0.414572
0.941176 0.900023 0.389517
0 0.82562 0
0 0.82501 0
0 0.822904 0
0 0.815961 0
0.772366 0.816358 0
0.89897 0.84155 0.112245
0.919219 0.867063 0.209842
0.949035 0.888304 0
0.96495 0.921447 0
0 0.946441 0
0 0.945449 0
0 0.942916 0
0 0.936324 0
0.706523 0.923201 0
0.910399 0.920439 0
0.965347 0.927932 0
0.969162 0.934829 0
0.972778 0.948058 0
0 0.992981 0
0 0.992218 0
0 0.990356 0
0 0.986297 0
0.729305 0.971511 0
0.898116 0.966583 0
0.963287 0.967239 0
0.976547 0.968521 0
0.977188 0.97203 0
0.158358 1 0
0.161089 1 0
0.506081 0.998581 0
0.719905 0.992584 0
0.833692 0.989822 0
0.907362 0.989502 0
0.957214 0.989242 0
0.978683 0.989029 0
0.981231 0.98819 0.124041
0.882124 0.990036 0.0619211
0.88333 0.990082 0.0621042
0.874235 0.992477 0.0744488
0.88249 0.992615 0.0746929
0.910323 0.990784 0.0647135
0.936477 0.990127 0.179767
0.961791 0.984512 0.533013
0.981598 0.983597 0.64097
0.982528 0.982513 0.730632
0 0 0.203098
0 0 0.203204
0.229526 0 0.20116
0.539147 0.0248875 0.196826
0.855573 0.387793 0.417548
1 0.538491 0.591226
1 0.558404 0.593301
0.962066 0.713329 0.528008
0.903655 0.884062 0.533761
0 0 0.199847
0.0114443 0 0.200107
0.241459 0 0.198566
0.533944 0.0221256 0.192813
0.855329 0.387228 0.416648
1 0.53846 0.590875
1 0.567391 0.591836
0.93904 0.734356 0.50399
0.90573 0.886229 0.531182
0 0.185885 0.165927
0 0.187091 0.165927
0.190784 0.189532 0.169986
0.518837 0.202045 0.183322
0.842084 0.405493 0.4009
1 0.551553 0.588174
1 0.598215 0.584451
0.896422 0.777508 0.470527
0.911788 0.891127 0.523903
0 0.514244 0
0 0.514794 0
0 0.514626 0
0.478157 0.52282 0
0.728893 0.605051 0.275685
0.996078 0.637644 0.556817
0.932708 0.727169 0.478996
0.87541 0.839048 0.442817
0.929839 0.901061 0.497108
0 0.822232 0
0 0.821622 0
0 0.819547 0
0 0.812619 0
0.772885 0.813504 0
0.896696 0.839765 0.127901
0.912535 0.866941 0.263966
0.945907 0.888411 0.114305
0.963378 0.92047 0.241047
0 0.945647 0
0 0.944656 0
0 0.942107 0
0 0.935576 0
0.715007 0.92256 0
0.911101 0.92015 0
0.965347 0.927687 0
0.9691 0.93463 0
0.972808 0.947921 0
0 0.992584 0
0 0.991852 0
0 0.990021 0
0 0.986023 0
0.734997 0.971237 0
0.898817 0.966491 0
0.963439 0.967178 0
0.976532 0.968475 0
0.977157 0.971984 0
0.159442 1 0
0.162097 1 0
0.555398 0.996429 0
0.725002 0.99237 0
0.835142 0.989776 0
0.907805 0.989487 0
0.957351 0.989227 0
0.978683 0.989013 0
0.981231 0.98819 0.123934
0.882658 0.990036 0.0619059
0.884001 0.990066 0.0619364
0.887327 0.990097 0.0620432
0.883864 0.992432 0.0737469
0.910964 0.990723 0.0643931
0.936645 0.990158 0.179522
0.961868 0.984527 0.532799
0.981613 0.983612 0.640848
0.982513 0.982513 0.730617
0.247379 0.185565 0.509819
0.247654 0.185824 0.510048
0.292363 0.186053 0.509697
0.556817 0.20621 0.510536
0.892287 0.434577 0.558328
1 0.547967 0.646708
1 0.558541 0.657542
1 0.680522 0.668711
0.918608 0.874998 0.649104
0.245212 0.183429 0.508034
0.245502 0.183703 0.508263
0.301518 0.18381 0.507637
0.564752 0.206012 0.508034
0.890974 0.433295 0.5561
1 0.547784 0.645823
1 0.564446 0.655756
1 0.693004 0.665553
0.917845 0.878157 0.648341
0.231022 0.23415 0.501488
0.231052 0.235401 0.50164
0.295781 0.234028 0.501579
0.568444 0.217258 0.50396
0.880613 0.421622 0.547219
1 0.550713 0.642557
1 0.586908 0.650324
0.993133 0.726925 0.642924
0.916701 0.885527 0.646494
0 0.479362 0.44828
0 0.480308 0.448569
0 0.480797 0.449424
0.489891 0.48809 0.463737
0.835904 0.527214 0.512139
1 0.616999 0.622461
1 0.682033 0.622141
0.905928 0.820188 0.552575
0.918639 0.900725 0.641382
0 0.810803 0
0 0.810315 0
0 0.808438 0
0 0.801633 0
0.776501 0.801907 0.0099794
0.868986 0.837476 0.365621
0.889525 0.866346 0.468177
0.913603 0.890745 0.503441
0.940108 0.920256 0.624094
0 0.943786 0
0 0.942794 0
0 0.940246 0
0 0.933669 0
0.699245 0.920851 0
0.907225 0.917967 0
0.963058 0.92578 0
0.969116 0.93344 0
0.969924 0.942092 0.519966
0 0.991714 0
0 0.990982 0
0 0.989212 0
0 0.985351 0
0.741894 0.970611 0
0.899107 0.96611 0
0.962814 0.966781 0
0.976532 0.968185 0
0.977996 0.971633 0.00341802
0.162264 1 0
0.165438 1 0
0.617243 0.994141 0
0.747204 0.990341 0
0.839765 0.989548 0
0.90901 0.989425 0
0.957717 0.989197 0
0.978668 0.988968 0
0.981216 0.988144 0.123522
0.884077 0.990066 0.0618753
0.885405 0.990066 0.0619059
0.888655 0.990112 0.0619974
0.896788 0.990219 0.0623026
0.913161 0.990478 0.0630503
0.937148 0.990158 0.178607
0.962097 0.984543 0.532204
0.981659 0.983597 0.642008
0.982528 0.982513 0.730571
0.592935 0.53904 0.809033
0.592996 0.539101 0.80911
0.593118 0.539223 0.809201
0.619989 0.535988 0.80621
0.894423 0.570184 0.81384
1 0.622904 0.826688
1 0.626184 0.831571
1 0.675227 0.832547
0.997116 0.838163 0.832639
0.592401 0.538506 0.808606
0.592477 0.538567 0.808667
0.592538 0.538643 0.808713
0.62356 0.535332 0.805615
0.897444 0.570672 0.813642
1 0.622644 0.826291
1 0.626093 0.83061
1 0.683207 0.830777
0.996963 0.84155 0.831876
0.591012 0.537087 0.807431
0.591073 0.537148 0.807492
0.590875 0.536965 0.80734
0.629694 0.5337 0.80415
0.900969 0.570718 0.812772
1 0.62182 0.82501
1 0.627939 0.827298
1 0.705852 0.826123
0.996277 0.849805 0.829282
0.574731 0.548135 0.795712
0.57467 0.548486 0.795697
0.574273 0.548699 0.795407
0.614221 0.54609 0.79379
0.88278 0.572839 0.802365
1 0.632395 0.815381
1 0.667887 0.814771
1 0.766964 0.814176
0.982818 0.873655 0.806928
0.0669871 0.792538 0.753872
0.0669108 0.792416 0.753948
0.0668803 0.791363 0.754116
0.119036 0.787457 0.756191
0.776654 0.775296 0.753994
0.944717 0.786252 0.769619
0.995987 0.813764 0.778958
0.968643 0.863355 0.758846
0.946563 0.915633 0.777905
0 0.940612 0.641352
0 0.939681 0.643748
0 0.937209 0.649485
0 0.930678 0.662303
0.667994 0.911574 0.677867
0.901915 0.903807 0.703395
0.933501 0.921355 0.710323
0.942397 0.931502 0.732784
0.953109 0.943709 0.776349
0 0.992981 0.205051
0 0.992233 0.205982
0 0.990387 0.208209
0 0.986282 0.21323
0.698466 0.969909 0.209308
0.887541 0.961181 0.364477
0.956909 0.956527 0.589532
0.97557 0.958511 0.694972
0.976349 0.962005 0.761685
0.165805 1 0
0.168383 1 0
0.593576 0.995224 0
0.741039 0.990677 0
0.835477 0.989731 0
0.905562 0.988968 0
0.956039 0.988083 0.107942
0.982071 0.986603 0.246616
0.981765 0.978729 0.685405
0.887617 0.990097 0.0617838
0.888853 0.990112 0.0618296
0.891936 0.990143 0.0619211
0.899657 0.990234 0.0621805
0.915343 0.990478 0.0628672
0.938384 0.990219 0.176257
0.962661 0.984588 0.53077
0.981811 0.983642 0.639872
0.982513 0.982513 0.730449
0.740749 0.691966 0.933135
0.740764 0.691997 0.93315
0.740795 0.692012 0.933181
0.740169 0.690776 0.932143
0.858274 0.689357 0.927962
1 0.710735 0.931563
1 0.710994 0.931838
1 0.712901 0.930831
1 0.81825 0.913405
0.740658 0.691875 0.933059
0.740673 0.69189 0.933074
0.740703 0.69192 0.933104
0.740063 0.690486 0.931899
0.861799 0.689494 0.927932
1 0.710658 0.931472
1 0.710918 0.931762
1 0.713619 0.930037
1 0.8224 0.912749
0.740429 0.69163 0.93286
0.740444 0.691646 0.932876
0.740459 0.691676 0.932891
0.739956 0.689693 0.931243
0.870802 0.689937 0.927871
1 0.71046 0.931273
1 0.710735 0.931563
1 0.716472 0.927245
1 0.832334 0.911192
0.739727 0.690913 0.93225
0.739742 0.690913 0.932265
0.739757 0.690944 0.93228
0.740414 0.688045 0.929854
0.881621 0.690044 0.927443
1 0.709484 0.930251
1 0.709194 0.928145
1 0.742733 0.918471
0.999222 0.85507 0.907607
0.696361 0.74818 0.907454
0.696208 0.748516 0.907408
0.695918 0.748974 0.907256
0.69543 0.746654 0.906249
0.817197 0.741711 0.904677
0.976486 0.758221 0.908309
1 0.785321 0.906294
0.999695 0.835126 0.901946
0.997467 0.891569 0.901198
0.079469 0.93727 0.894575
0.0801251 0.93666 0.894545
0.0825055 0.934752 0.894499
0.0901656 0.928756 0.894301
0.710414 0.903014 0.880735
0.898665 0.897566 0.877821
0.976471 0.899809 0.882399
0.991897 0.911635 0.881117
0.973678 0.936751 0.870985
0 0.992126 0.872602
0 0.991348 0.872724
0 0.98941 0.872953
0 0.984405 0.873625
0.698375 0.962112 0.860975
0.880308 0.954025 0.861341
0.954559 0.952544 0.865766
0.967208 0.961624 0.859968
0.970611 0.965225 0.870695
0.155077 1 0.851835
0.157412 1 0.851911
0.537713 0.991684 0.84065
0.716899 0.983627 0.833951
0.820264 0.981186 0.833341
0.894759 0.978943 0.836957
0.948577 0.977478 0.843549
0.980743 0.977417 0.85301
0.984558 0.978424 0.866682
0.883375 0.980758 0.769314
0.884596 0.980758 0.769482
0.887633 0.980774 0.76997
0.895262 0.980789 0.771267
0.910872 0.98088 0.774411
0.933379 0.981064 0.780545
0.959319 0.981399 0.791485
0.980652 0.982147 0.809262
0.984787 0.982681 0.836713
0.792691 0.746303 0.979278
0.792691 0.746303 0.979278
0.792691 0.746303 0.979278
0.792691 0.746303 0.979278
0.81651 0.746166 0.978805
1 0.758556 0.980194
1 0.758206 0.979446
1 0.757855 0.97908
1 0.770352 0.971542
0.792691 0.746303 0.979278
0.792691 0.746303 0.979278
0.792691 0.746303 0.979278
0.792691 0.746303 0.979278
0.818067 0.746105 0.978729
1 0.758572 0.980179
1 0.75819 0.979431
1 0.757839 0.97908
1 0.772625 0.970825
0.792691 0.746303 0.979278
0.792691 0.746303 0.979278
0.792691 0.746303 0.979278
0.792691 0.746303 0.979278
0.822431 0.745983 0.978546
1 0.758618 0.980148
1 0.75816 0.979385
1 0.757809 0.979034
1 0.779904 0.968963
0.792691 0.746303 0.979278
0.792691 0.746303 0.979278
0.792691 0.746303 0.979278
0.792691 0.746303 0.979278
0.836728 0.745876 0.978164
1 0.758755 0.980041
1 0.758038 0.979278
1 0.757488 0.978653
1 0.805035 0.962768
0.79089 0.746166 0.977752
0.790875 0.746166 0.977737
0.790829 0.746181 0.977691
0.790585 0.74609 0.977493
0.848676 0.745129 0.975753
1 0.757839 0.977417
1 0.758907 0.974548
1 0.78027 0.966659
1 0.864805 0.953048
0.697871 0.887724 0.951873
0.697719 0.887861 0.951858
0.697627 0.88809 0.951827
0.701152 0.885573 0.951339
0.757259 0.873198 0.948669
0.917098 0.867948 0.947723
0.994034 0.875288 0.948516
1 0.892622 0.946883
0.99881 0.919799 0.944808
0 0.995377 0.951522
0 0.994598 0.951461
0 0.992493 0.951354
0 0.986969 0.951049
0.702419 0.961028 0.935714
0.879149 0.951827 0.933486
0.952529 0.951431 0.931823
0.989532 0.953368 0.929564
0.984848 0.961089 0.925917
0.151965 1 0.945525
0.154391 1 0.94551
0.528267 0.994888 0.934066
0.702678 0.987228 0.926726
0.813779 0.983429 0.9243
0.892226 0.980575 0.924727
0.948196 0.978637 0.926268
0.981888 0.978546 0.92726
0.984878 0.980865 0.927199
0.879515 0.983215 0.915953
0.880781 0.983215 0.915969
0.88394 0.983215 0.916014
0.89189 0.98323 0.916121
0.908141 0.983291 0.916426
0.93135 0.983429 0.917082
0.958099 0.983719 0.918303
0.981247 0.984161 0.920363
0.988998 0.985611 0.923201
0.792691 0.746303 0.979278
0.792691 0.746303 0.979278
0.792691 0.746303 0.979278
0.792691 0.746303 0.979278
0.792691 0.746303 0.979278
0.933043 0.755261 0.982376
1 0.763195 0.984405
1 0.763195 0.984405
1 0.764462 0.984344
0.792691 0.746303 0.979278
0.792691 0.746303 0.979278
0.792691 0.746303 0.979278
0.792691 0.746303 0.979278
0.792691 0.746303 0.979278
0.934737 0.755398 0.982422
1 0.763195 0.984405
1 0.763195 0.984405
1 0.764462 0.984329
0.792691 0.746303 0.979278
0.792691 0.746303 0.979278
0.792691 0.746303 0.979278
0.792691 0.746303 0.979278
0.792691 0.746303 0.979278
0.939025 0.755718 0.982528
1 0.763195 0.984405
1 0.763195 0.984405
1 0.764462 0.984329
0.792691 0.746303 0.979278
0.792691 0.746303 0.979278
0.792691 0.746303 0.979278
0.792691 0.746303 0.979278
0.792691 0.746303 0.979278
0.950576 0.756664 0.982849
1 0.763195 0.984405
1 0.763195 0.984405
1 0.764462 0.984344
0.792691 0.746303 0.979278
0.792691 0.746303 0.979278
0.792691 0.746303 0.979278
0.792691 0.746303 0.979278
0.794827 0.746349 0.979294
0.975799 0.75906 0.98352
1 0.763195 0.984405
1 0.763195 0.984405
1 0.768109 0.9841
0.790646 0.761776 0.978821
0.790631 0.761852 0.978805
0.7906 0.762066 0.978805
0.790494 0.762676 0.97879
0.796292 0.762798 0.978836
0.972519 0.773159 0.982589
1 0.781598 0.983246
1 0.799741 0.982086
1 0.862242 0.977752
0.529534 0.969329 0.979004
0.528237 0.969421 0.979065
0.522164 0.969772 0.979309
0.602136 0.965438 0.975784
0.686732 0.950912 0.971984
0.866682 0.935912 0.96849
0.964141 0.933745 0.969162
0.999756 0.937331 0.969482
0.999298 0.94696 0.968368
0.105623 1 0.983368
0.113359 1 0.983368
0.127169 1 0.982818
0.41149 1 0.975875
0.758968 0.986648 0.961639
0.877943 0.98088 0.96054
0.946059 0.978042 0.961273
0.980117 0.978912 0.958831
0.987137 0.981018 0.955581
0.862791 0.985962 0.957366
0.864424 0.985962 0.957351
0.868513 0.985946 0.957351
0.878691 0.985931 0.957351
0.899031 0.985946 0.957412
0.926558 0.986068 0.957641
0.956725 0.986297 0.958083
0.981796 0.986618 0.958679
0.990539 0.988144 0.957504
0.79263 0.746761 0.979263
0.79263 0.746761 0.979263
0.79263 0.746761 0.979263
0.79263 0.746761 0.979263
0.79263 0.746761 0.979263
0.79263 0.746761 0.979263
1 0.762478 0.984268
1 0.763195 0.984405
1 0.765133 0.984283
0.79263 0.746761 0.979263
0.79263 0.746761 0.979263
0.79263 0.746761 0.979263
0.79263 0.746761 0.979263
0.79263 0.746761 0.979263
0.79263 0.746761 0.979263
1 0.762493 0.984283
1 0.763195 0.984405
1 0.765133 0.984283
0.79263 0.746761 0.979263
0.79263 0.746761 0.979263
0.79263 0.746761 0.979263
0.79263 0.746761 0.979263
0.79263 0.746761 0.979263
0.79263 0.746761 0.979263
1 0.762554 0.984283
1 0.763195 0.984405
1 0.765133 0.984283
0.79263 0.746761 0.979263
0.79263 0.746761 0.979263
0.79263 0.746761 0.979263
0.79263 0.746761 0.979263
0.79263 0.746761 0.979263
0.792645 0.746731 0.979263
1 0.762707 0.984314
1 0.763195 0.984405
1 0.765164 0.984283
0.79263 0.746761 0.979263
0.79263 0.746761 0.979263
0.79263 0.746761 0.979263
0.79263 0.746761 0.979263
0.79263 0.746761 0.979263
0.795911 0.746685 0.979309
1 0.763088 0.98439
1 0.763195 0.984405
1 0.765179 0.984283
0.79263 0.746761 0.979263
0.79263 0.746761 0.979263
0.79263 0.746761 0.979263
0.79263 0.746761 0.979263
0.79263 0.746761 0.979263
0.827543 0.747845 0.979751
1 0.763195 0.984405
1 0.763195 0.984405
1 0.765225 0.984283
0.780789 0.790692 0.977813
0.780758 0.790722 0.977813
0.780713 0.790814 0.977813
0.78056 0.791058 0.977798
0.780148 0.791669 0.977783
0.844083 0.789776 0.978454
0.998962 0.79855 0.981826
1 0.805478 0.981643
1 0.858381 0.979248
0.023743 1 0.991791
0.0237125 1 0.991806
0.0235752 1 0.991806
0.0232547 1 0.991775
0.124025 1 0.992828
0.783825 0.976822 0.972259
0.934218 0.969284 0.972595
0.98819 0.968185 0.973678
0.998047 0.970016 0.9738
0.727321 0.989273 0.972671
0.735775 0.989013 0.972427
0.754528 0.988479 0.971939
0.792172 0.987655 0.971222
0.846738 0.986999 0.970733
0.901518 0.986923 0.970871
0.947692 0.987182 0.971389
0.980041 0.987503 0.971923
0.990662 0.989548 0.969223
