BBLuts/BB_104_0030_LUT.cube
TITLE "Generated by Resolve"
LUT_3D_SIZE 9
0.0016022 0.0107118 0.026566
0.0016022 0.0107118 0.026566
0.176944 0.0124514 0.0294347
0.452781 0.0124056 0.0334936
0.707652 0.268254 0.353353
0.834958 0.605692 0.650523
0.833951 0.625772 0.650065
0.826673 0.746273 0.61178
0.82118 0.808591 0.725429
0 0.0524605 0.0234073
0 0.0600748 0.0228275
0.182712 0.0457465 0.0269474
0.466804 0.0128328 0.0344091
0.709285 0.273136 0.358511
0.834958 0.605692 0.650523
0.833646 0.631296 0.649256
0.826596 0.748745 0.607904
0.821149 0.808896 0.724956
0 0.178073 0.0123598
0 0.181491 0.0119631
0.124788 0.183017 0.0158389
0.477806 0.167147 0.0287022
0.712352 0.315694 0.367269
0.834836 0.608423 0.650309
0.833036 0.64123 0.647623
0.826474 0.75256 0.601053
0.821118 0.809369 0.724163
0 0.467689 0
0 0.469169 0
0 0.469978 0
0.372412 0.481086 0
0.714885 0.514122 0.354818
0.833875 0.627222 0.648447
0.830884 0.67425 0.639841
0.826352 0.762737 0.575936
0.821012 0.810773 0.721782
0 0.706935 0
0 0.706874 0
0 0.70663 0
0 0.705013 0
0.664897 0.705608 0
0.811368 0.716899 0.580774
0.8271 0.743664 0.592889
0.827466 0.78468 0.0125429
0.820752 0.81445 0.714382
0 0.815747 0.0209354
0 0.81529 0.0207675
0 0.814542 0.0204623
0 0.812268 0.0195926
0 0.806516 0.0173342
0.782269 0.800198 0.0123445
0.82649 0.802274 0.0135195
0.825879 0.811429 0.0139925
0.820157 0.822339 0.698634
0 0.84802 0.0321965
0 0.847715 0.032105
0 0.847257 0.0319677
0 0.846021 0.0315862
0.586816 0.841886 0.0267643
0.770459 0.834531 0.014435
0.819699 0.83299 0.0148165
0.823743 0.833341 0.014847
0.818723 0.832502 0.718227
0.738781 0.842664 0.0150149
0.740215 0.842649 0.0149844
0.742473 0.842634 0.0149386
0.74873 0.842618 0.014847
0.763333 0.842618 0.0147402
0.787793 0.842741 0.0148013
0.813931 0.84303 0.0150149
0.819471 0.840543 0.605722
0.8177 0.838804 0.772625
0.797955 0.838804 0.79707
0.798062 0.838804 0.797101
0.798245 0.838804 0.797131
0.798795 0.838819 0.797253
0.800366 0.838834 0.797574
0.804318 0.83888 0.79852
0.81181 0.838987 0.801083
0.818189 0.839139 0.807065
0.818586 0.839445 0.820981
0.00709544 0.014374 0.0702831
0.00714122 0.0144045 0.0704967
0.182345 0.0160983 0.0739147
0.454337 0.0162356 0.0791943
0.707637 0.270466 0.371298
0.834958 0.605798 0.651499
0.833997 0.624949 0.650919
0.826596 0.745693 0.618982
0.821134 0.808499 0.731594
0.00228885 0.0374609 0.0609445
0.039292 0.0467689 0.0597696
0.198764 0.0155032 0.0668803
0.461311 0.01561 0.0696117
0.708324 0.271305 0.363897
0.834958 0.605768 0.651209
0.833677 0.630411 0.650141
0.826505 0.748165 0.615442
0.821118 0.808804 0.731167
0 0.169451 0.0132753
0 0.17229 0.0129854
0.143908 0.174472 0.0170443
0.47538 0.158404 0.0287175
0.710399 0.29987 0.361379
0.834852 0.608179 0.650324
0.833097 0.640299 0.648569
0.826398 0.751995 0.609232
0.821088 0.809277 0.730465
0 0.462058 0
0 0.463462 0
0 0.464027 0
0.391333 0.474937 0
0.714641 0.510704 0.354803
0.833906 0.626734 0.648508
0.830945 0.673457 0.640696
0.8262 0.762234 0.58616
0.820966 0.810681 0.728099
0 0.706142 0
0 0.706065 0
0 0.705806 0
0 0.704158 0
0.667216 0.70486 0
0.811444 0.716442 0.581399
0.8271 0.743404 0.593301
0.827482 0.784558 0.0125429
0.820691 0.814359 0.721416
0 0.815579 0.0208743
0 0.815137 0.0206912
0 0.814389 0.0204166
0 0.8121 0.0195315
0 0.806394 0.0172885
0.782498 0.800122 0.0123445
0.826505 0.802228 0.0135195
0.825879 0.811399 0.0139925
0.820142 0.822324 0.699443
0 0.847944 0.0321813
0 0.847654 0.0320897
0 0.847196 0.0319371
0 0.845975 0.0315709
0.59202 0.841672 0.0262303
0.770596 0.834516 0.014435
0.81973 0.832975 0.0148165
0.823743 0.833326 0.014847
0.818723 0.832486 0.718196
0.738994 0.842664 0.0150149
0.740429 0.842649 0.0149844
0.742687 0.842649 0.0149386
0.748882 0.842618 0.014847
0.763455 0.842618 0.014725
0.787839 0.842741 0.0148165
0.813947 0.84303 0.0150149
0.819471 0.840543 0.605661
0.8177 0.838804 0.77261
0.797971 0.838804 0.797086
0.798077 0.838804 0.797101
0.79826 0.838804 0.797131
0.79881 0.838819 0.797238
0.800381 0.838834 0.797574
0.804334 0.83888 0.79852
0.81181 0.838987 0.801083
0.818189 0.839139 0.807065
0.818586 0.839445 0.820981
0.0216526 0.024033 0.189425
0.0216983 0.0240482 0.189654
0.175753 0.0254368 0.191669
0.470619 0.0259861 0.193347
0.707652 0.275807 0.407721
0.834943 0.605982 0.65301
0.834058 0.623438 0.653208
0.826459 0.744717 0.631617
0.821103 0.808362 0.740276
0.0211795 0.0237278 0.185443
0.02121 0.023743 0.185809
0.198474 0.0251164 0.187747
0.46865 0.0256199 0.189746
0.709163 0.280003 0.410163
0.834943 0.605966 0.652888
0.833768 0.628702 0.65243
0.826368 0.747234 0.628565
0.821073 0.808667 0.739879
0 0.158892 0.162219
0 0.160693 0.161761
0.155581 0.158145 0.162341
0.458335 0.149081 0.174868
0.708263 0.276905 0.404746
0.834867 0.607706 0.652552
0.833204 0.638346 0.650889
0.82623 0.751095 0.623301
0.821042 0.809155 0.739269
0 0.446723 0.00852979
0 0.44831 0.00856031
0 0.449088 0.00935378
0.398016 0.459724 0.0428016
0.711696 0.499611 0.378912
0.833982 0.625208 0.650126
0.831052 0.671351 0.64387
0.825956 0.761395 0.604471
0.82092 0.810544 0.737392
0 0.704479 0
0 0.704402 0
0 0.704143 0
0 0.702464 0
0.669367 0.703288 0
0.811429 0.715358 0.582361
0.827085 0.742687 0.596719
0.827115 0.784085 0.300313
0.82063 0.814221 0.731655
0 0.815335 0.0207828
0 0.814878 0.0205997
0 0.81413 0.0203098
0 0.811856 0.0194247
0 0.80618 0.0172122
0.782818 0.799985 0.0123445
0.826505 0.802136 0.0135042
0.825879 0.811353 0.0139773
0.820005 0.822126 0.713222
0 0.847868 0.0321508
0 0.847562 0.0320592
0 0.84712 0.0319219
0 0.845914 0.0315404
0.599649 0.841321 0.0254215
0.77084 0.834501 0.0144503
0.819776 0.832959 0.0148165
0.823743 0.833326 0.014847
0.818738 0.832486 0.718135
0.739345 0.842649 0.0150149
0.74078 0.842649 0.0149691
0.743008 0.842634 0.0149233
0.749172 0.842618 0.014847
0.763653 0.842618 0.014725
0.78793 0.842741 0.0148165
0.813962 0.84303 0.0150149
0.819471 0.840543 0.605661
0.8177 0.838804 0.772595
0.797986 0.838804 0.797086
0.798108 0.838804 0.797101
0.798291 0.838804 0.797147
0.79884 0.838819 0.797253
0.800412 0.838834 0.797559
0.804334 0.83888 0.798505
0.811826 0.838987 0.801068
0.818189 0.839139 0.807065
0.818586 0.839445 0.820981
0.111254 0.0822156 0.472343
0.111376 0.0822919 0.472541
0.111452 0.0823377 0.472663
0.453208 0.0843671 0.465782
0.719844 0.337118 0.546944
0.834852 0.607202 0.662837
0.83418 0.620233 0.668223
0.826078 0.741878 0.672297
0.821088 0.808087 0.760693
0.10927 0.0809339 0.469306
0.109453 0.0810407 0.469581
0.182971 0.08159 0.46949
0.470893 0.0838026 0.462272
0.718593 0.333288 0.544335
0.834852 0.607172 0.662577
0.833921 0.624704 0.667353
0.825956 0.744457 0.67042
0.821057 0.808377 0.760418
0.0970321 0.134066 0.463279
0.0964981 0.138491 0.463493
0.197208 0.135927 0.46392
0.477684 0.0818952 0.456657
0.714763 0.322484 0.538262
0.834852 0.607111 0.662135
0.833432 0.633326 0.665736
0.825757 0.748425 0.667247
0.821027 0.808865 0.759976
0 0.405127 0.408179
0 0.407065 0.408347
0 0.408484 0.409125
0.411093 0.418509 0.428153
0.7019 0.46302 0.509972
0.834165 0.621164 0.659266
0.831373 0.66511 0.658976
0.825284 0.758938 0.656809
0.82089 0.810269 0.758648
0 0.697246 0
0 0.69723 0
0 0.697032 0
0 0.695491 0
0.667597 0.696635 0
0.810132 0.710353 0.598459
0.826932 0.739605 0.619883
0.824704 0.780865 0.614954
0.820569 0.813947 0.754681
0 0.814618 0.0204929
0 0.81416 0.020325
0 0.813397 0.0200351
0 0.811124 0.0191501
0 0.805463 0.0169223
0.782483 0.799374 0.0122835
0.826551 0.801633 0.013489
0.825956 0.810987 0.0139773
0.819806 0.82179 0.742901
0 0.847578 0.0320592
0 0.847303 0.0319829
0 0.84686 0.0318456
0 0.845685 0.0314794
0.618189 0.840467 0.0234531
0.771557 0.834424 0.0144503
0.819913 0.832898 0.0148165
0.823743 0.83328 0.014847
0.818738 0.832471 0.717922
0.740398 0.842649 0.0149844
0.741802 0.842649 0.0149538
0.743984 0.842634 0.0149233
0.750011 0.842618 0.0148318
0.764233 0.842618 0.014725
0.78819 0.842741 0.0148165
0.814038 0.84303 0.0150149
0.819471 0.840543 0.605524
0.8177 0.838804 0.772534
0.798077 0.838804 0.79707
0.798184 0.838804 0.797101
0.798367 0.838804 0.797116
0.798917 0.838819 0.797238
0.800488 0.838834 0.797559
0.804395 0.83888 0.798505
0.811856 0.838987 0.801068
0.818189 0.839139 0.807065
0.818586 0.839445 0.820981
0.559579 0.529656 0.723507
0.559655 0.529763 0.723552
0.559792 0.529931 0.723644
0.569451 0.528893 0.722988
0.714092 0.54902 0.724056
0.833814 0.627665 0.746838
0.83357 0.632502 0.754467
0.826017 0.735225 0.76321
0.821454 0.807584 0.796475
0.558892 0.528801 0.723049
0.558968 0.528908 0.72311
0.559121 0.529091 0.723201
0.570779 0.527871 0.722438
0.717189 0.549722 0.723812
0.833829 0.627527 0.746487
0.833478 0.633829 0.753628
0.825818 0.738064 0.762463
0.821424 0.807889 0.796323
0.557794 0.527382 0.722316
0.557885 0.527504 0.722377
0.558038 0.527718 0.722484
0.572915 0.526238 0.721553
0.719066 0.549477 0.723171
0.833829 0.627298 0.745892
0.833249 0.637095 0.752194
0.825513 0.742367 0.761303
0.821378 0.808392 0.796078
0.549554 0.534722 0.718059
0.549554 0.534997 0.718074
0.549508 0.535348 0.718074
0.568048 0.533791 0.717403
0.71812 0.550561 0.719738
0.833738 0.628428 0.74255
0.831846 0.656062 0.747204
0.824781 0.753582 0.757946
0.821241 0.809827 0.795361
0 0.677043 0.686336
0 0.677226 0.686412
0 0.677287 0.686549
0 0.676341 0.68687
0.666331 0.677638 0.695476
0.805493 0.695415 0.715709
0.826322 0.730449 0.729107
0.823346 0.776699 0.748562
0.820874 0.813596 0.793271
0 0.812467 0.0196689
0 0.812024 0.019501
0 0.811292 0.0192111
0 0.809003 0.0183261
0 0.803128 0.0160067
0.775097 0.795102 0.589868
0.822705 0.796429 0.676631
0.821424 0.805859 0.723461
0.820005 0.8215 0.787579
0 0.847105 0.0319219
0 0.846815 0.0318303
0 0.846387 0.031693
0 0.845212 0.0313268
0.59321 0.840986 0.0260166
0.768124 0.833982 0.0144045
0.817136 0.832471 0.014786
0.820539 0.830091 0.623423
0.818631 0.832074 0.773129
0.743511 0.842634 0.0149233
0.744808 0.842634 0.0148928
0.746853 0.842618 0.0148623
0.752499 0.842603 0.0148013
0.765942 0.842618 0.014725
0.788968 0.842756 0.0148165
0.814267 0.843046 0.0150149
0.819486 0.840543 0.605203
0.8177 0.838804 0.772396
0.798337 0.838804 0.797055
0.798444 0.838804 0.79707
0.798627 0.838804 0.797116
0.799161 0.838819 0.797208
0.800702 0.838834 0.797528
0.804562 0.83888 0.798489
0.811933 0.838987 0.801038
0.818189 0.839139 0.807034
0.818586 0.839445 0.820981
0.688136 0.678996 0.845457
0.688136 0.679011 0.845457
0.688151 0.679026 0.845472
0.688197 0.679057 0.845502
0.705455 0.67602 0.842481
0.831662 0.691081 0.844572
0.831647 0.691524 0.84509
0.829068 0.719188 0.838499
0.822858 0.806043 0.836332
0.68809 0.67895 0.845411
0.68809 0.67895 0.845411
0.688106 0.678965 0.845426
0.688136 0.678996 0.845457
0.706859 0.675944 0.842405
0.831662 0.691035 0.844541
0.831647 0.691493 0.845045
0.828809 0.722179 0.837949
0.822828 0.806409 0.836255
0.688014 0.678859 0.845335
0.688014 0.678874 0.845335
0.688029 0.678874 0.84535
0.68806 0.678904 0.845365
0.709255 0.675853 0.842252
0.831662 0.690959 0.84445
0.831647 0.691432 0.844984
0.828382 0.726986 0.837095
0.822782 0.806973 0.836118
0.68777 0.678599 0.84509
0.68777 0.678599 0.845106
0.687785 0.678614 0.845106
0.687587 0.678386 0.844907
0.715282 0.675593 0.841886
0.831662 0.690761 0.844221
0.831662 0.690455 0.84387
0.827283 0.740764 0.834791
0.822629 0.808591 0.835737
0.678843 0.679072 0.83743
0.678798 0.679149 0.837415
0.678721 0.679255 0.837369
0.678309 0.679179 0.837003
0.705592 0.677302 0.835431
0.829419 0.693294 0.838041
0.829389 0.712367 0.834562
0.825177 0.769177 0.830167
0.822202 0.812802 0.834669
0 0.80763 0.822461
0 0.80737 0.822431
0 0.806867 0.8224
0 0.804913 0.822217
0.569558 0.79794 0.820661
0.770977 0.788388 0.816907
0.821225 0.792279 0.819913
0.822477 0.803784 0.822965
0.821256 0.821332 0.83209
0 0.84651 0.805463
0 0.846189 0.805554
0 0.845701 0.805692
0 0.844388 0.806104
0.547433 0.83856 0.803906
0.755749 0.828992 0.799863
0.806806 0.827375 0.805371
0.819791 0.828336 0.81326
0.819776 0.83241 0.827008
0.734813 0.838544 0.763073
0.73608 0.838529 0.763149
0.738079 0.838514 0.763272
0.743648 0.838468 0.763653
0.756924 0.838422 0.764889
0.779843 0.838483 0.76849
0.805264 0.838697 0.777127
0.817929 0.838956 0.793423
0.818479 0.839353 0.817517
0.7991 0.838804 0.796979
0.799207 0.838804 0.797009
0.799374 0.838819 0.79704
0.799893 0.838819 0.797131
0.801358 0.838834 0.797467
0.805066 0.83888 0.798398
0.812192 0.838987 0.800961
0.818189 0.839139 0.806943
0.818586 0.839429 0.820966
0.720333 0.714412 0.877821
0.720333 0.714412 0.877821
0.720333 0.714412 0.877821
0.720333 0.714412 0.877821
0.720333 0.714412 0.877821
0.823285 0.722148 0.880079
0.831968 0.723522 0.880308
0.831968 0.723522 0.880308
0.825696 0.795743 0.86688
0.720333 0.714412 0.877821
0.720333 0.714412 0.877821
0.720333 0.714412 0.877821
0.720333 0.714412 0.877821
0.720333 0.714412 0.877821
0.823941 0.72224 0.88011
0.831968 0.723522 0.880308
0.831968 0.723522 0.880308
0.82565 0.796323 0.866789
0.720333 0.714412 0.877821
0.720333 0.714412 0.877821
0.720333 0.714412 0.877821
0.720333 0.714412 0.877821
0.720333 0.714412 0.877821
0.824994 0.722408 0.88014
0.831968 0.723522 0.880308
0.831968 0.723522 0.880308
0.825574 0.797238 0.866667
0.720333 0.714412 0.877821
0.720333 0.714412 0.877821
0.720333 0.714412 0.877821
0.720333 0.714412 0.877821
0.720333 0.714412 0.877821
0.828077 0.722896 0.880217
0.831968 0.723522 0.880308
0.831968 0.723522 0.880308
0.825345 0.799847 0.866285
0.720333 0.714412 0.877821
0.720333 0.714412 0.877821
0.720333 0.714412 0.877821
0.720333 0.714412 0.877821
0.721065 0.714427 0.877821
0.831968 0.723522 0.880308
0.831968 0.723522 0.880308
0.831357 0.726909 0.877104
0.82475 0.806439 0.865309
0.703258 0.762753 0.870893
0.703212 0.76286 0.870893
0.703136 0.763027 0.870863
0.702892 0.763546 0.870817
0.702602 0.761364 0.870054
0.784833 0.75787 0.868772
0.827634 0.768246 0.867994
0.825818 0.79202 0.865202
0.823514 0.818601 0.863294
0 0.849928 0.868193
0 0.849546 0.868177
0 0.84892 0.868132
0 0.847105 0.868025
0.583368 0.837964 0.862745
0.753124 0.828336 0.857404
0.807248 0.826505 0.858274
0.822202 0.827939 0.859052
0.821775 0.832517 0.860365
0.729305 0.840284 0.852323
0.730648 0.840269 0.852308
0.732754 0.840253 0.852293
0.738643 0.840208 0.852262
0.752819 0.840131 0.852232
0.777356 0.840177 0.852461
0.80383 0.840406 0.853223
0.820249 0.84065 0.854719
0.820447 0.840787 0.857374
0.799069 0.839963 0.844022
0.799176 0.839963 0.844038
0.799329 0.839963 0.844038
0.799832 0.839979 0.844068
0.801251 0.839994 0.84416
0.804837 0.84004 0.84445
0.811795 0.840146 0.845243
0.81976 0.840299 0.847211
0.82005 0.840513 0.851621
0.720317 0.714519 0.877821
0.720317 0.714519 0.877821
0.720317 0.714519 0.877821
0.720317 0.714519 0.877821
0.720317 0.714519 0.877821
0.720317 0.714519 0.877821
0.831968 0.723522 0.880308
0.831968 0.723522 0.880308
0.831205 0.73283 0.87982
0.720317 0.714519 0.877821
0.720317 0.714519 0.877821
0.720317 0.714519 0.877821
0.720317 0.714519 0.877821
0.720317 0.714519 0.877821
0.720317 0.714519 0.877821
0.831968 0.723522 0.880308
0.831968 0.723522 0.880308
0.831205 0.732815 0.87982
0.720317 0.714519 0.877821
0.720317 0.714519 0.877821
0.720317 0.714519 0.877821
0.720317 0.714519 0.877821
0.720317 0.714519 0.877821
0.720317 0.714519 0.877821
0.831968 0.723522 0.880308
0.831968 0.723522 0.880308
0.831205 0.732815 0.87982
0.720317 0.714519 0.877821
0.720317 0.714519 0.877821
0.720317 0.714519 0.877821
0.720317 0.714519 0.877821
0.720317 0.714519 0.877821
0.720317 0.714473 0.877821
0.831968 0.723522 0.880308
0.831968 0.723522 0.880308
0.831205 0.732799 0.87982
0.720317 0.714519 0.877821
0.720317 0.714519 0.877821
0.720317 0.714519 0.877821
0.720317 0.714519 0.877821
0.720317 0.714519 0.877821
0.721294 0.714443 0.877836
0.831968 0.723522 0.880308
0.831968 0.723522 0.880308
0.83122 0.732769 0.87982
0.720317 0.714519 0.877821
0.720317 0.714519 0.877821
0.720317 0.714519 0.877821
0.720317 0.714519 0.877821
0.720317 0.714519 0.877821
0.753964 0.715663 0.878325
0.831968 0.723522 0.880308
0.831952 0.723613 0.880308
0.827802 0.78024 0.877913
0.657206 0.825605 0.877256
0.657145 0.825635 0.877256
0.657084 0.82565 0.877256
0.656855 0.825757 0.877256
0.656168 0.826032 0.877272
0.719738 0.814343 0.875959
0.812512 0.811475 0.876524
0.824979 0.81622 0.876554
0.823835 0.827176 0.875959
0.641688 0.844038 0.876585
0.647013 0.843809 0.876326
0.654994 0.843473 0.875944
0.675441 0.842725 0.875105
0.715404 0.841703 0.873899
0.7635 0.841337 0.873442
0.801328 0.841566 0.873701
0.821271 0.841199 0.874128
0.821897 0.841505 0.87425
0.796262 0.841428 0.872206
0.796399 0.841428 0.872206
0.796597 0.841428 0.872206
0.797223 0.841443 0.872221
0.798978 0.841459 0.872251
0.803326 0.841505 0.872312
0.811307 0.841581 0.872465
0.819928 0.841703 0.872724
0.821744 0.841749 0.873091
0.720241 0.715084 0.877806
0.720241 0.715084 0.877806
0.720241 0.715084 0.877806
0.720241 0.715084 0.877806
0.720241 0.715084 0.877806
0.720241 0.715084 0.877806
0.720241 0.715084 0.877806
0.831922 0.724025 0.880278
0.830808 0.737926 0.879561
0.720241 0.715084 0.877806
0.720241 0.715084 0.877806
0.720241 0.715084 0.877806
0.720241 0.715084 0.877806
0.720241 0.715084 0.877806
0.720241 0.715084 0.877806
0.720241 0.715084 0.877806
0.831922 0.724025 0.880278
0.830808 0.737942 0.879561
0.720241 0.715084 0.877806
0.720241 0.715084 0.877806
0.720241 0.715084 0.877806
0.720241 0.715084 0.877806
0.720241 0.715084 0.877806
0.720241 0.715084 0.877806
0.720241 0.715084 0.877806
0.831922 0.724025 0.880278
0.830808 0.737957 0.879561
0.720241 0.715084 0.877806
0.720241 0.715084 0.877806
0.720241 0.715084 0.877806
0.720241 0.715084 0.877806
0.720241 0.715084 0.877806
0.720241 0.715084 0.877806
0.720241 0.715084 0.877806
0.831922 0.724025 0.880278
0.830793 0.737987 0.879561
0.720241 0.715084 0.877806
0.720241 0.715084 0.877806
0.720241 0.715084 0.877806
0.720241 0.715084 0.877806
0.720241 0.715084 0.877806
0.720241 0.715084 0.877806
0.721218 0.715023 0.877821
0.831922 0.724041 0.880278
0.830793 0.738079 0.879545
0.720241 0.715084 0.877806
0.720241 0.715084 0.877806
0.720241 0.715084 0.877806
0.720241 0.715084 0.877806
0.720241 0.715084 0.877806
0.720241 0.715084 0.877806
0.761028 0.716197 0.878462
0.831907 0.724102 0.880278
0.830777 0.738216 0.87953
0.720241 0.715084 0.877806
0.720241 0.715084 0.877806
0.720241 0.715084 0.877806
0.720241 0.715084 0.877806
0.720241 0.715084 0.877806
0.720241 0.715084 0.877806
0.831968 0.723522 0.880308
0.831907 0.724208 0.880262
0.830762 0.738476 0.87953
0 0.852155 0.885161
0 0.852155 0.885161
0 0.852155 0.885161
0 0.852155 0.885161
0 0.852155 0.885161
0 0.852155 0.885161
0.780606 0.835828 0.874601
0.822889 0.834806 0.875425
0.82266 0.836622 0.875273
0.767697 0.841382 0.874006
0.768154 0.841382 0.874006
0.768872 0.841382 0.874006
0.770947 0.841398 0.874022
0.776471 0.841413 0.874067
0.788312 0.841505 0.87422
0.805203 0.841657 0.874495
0.818616 0.841825 0.874769
0.821897 0.841871 0.87483
