BBLuts/BB_106_0450_LUT.cube
TITLE "Generated by Resolve"
LUT_3D_SIZE 33
0 0 0
0 0 0
0 0 0
0.0229648 0 0
0.0593423 0 0
0.0862898 0 0
0.116442 0 0
0.157824 0 0
0.208988 0 0
0.266621 0 0
0.333303 0 0
0.404685 0 0
0.484733 0.00584421 0
0.576089 0.0599832 0.0392462
0.673854 0.166369 0.149218
0.765347 0.284886 0.271565
0.84535 0.38645 0.381399
0.920928 0.464057 0.476707
0.991943 0.520882 0.56025
1 0.532494 0.577279
1 0.537301 0.582193
1 0.538231 0.582132
1 0.542702 0.581842
1 0.550637 0.582132
1 0.563638 0.581781
1 0.583703 0.577829
1 0.616083 0.573816
0.989975 0.665141 0.542229
0.920043 0.737957 0.466987
0.878828 0.797726 0.444327
0.874266 0.836545 0.438499
0.888045 0.864515 0.4383
0.911879 0.884428 0.448859
0 0 0
0 0 0
0 0 0
0.0228275 0 0
0.0573281 0 0
0.0871901 0 0
0.119554 0 0
0.162036 0 0
0.212055 0 0
0.268711 0 0
0.335271 0 0
0.406409 0 0
0.486305 0.00640879 0
0.57734 0.0609903 0.0404212
0.674723 0.16733 0.150317
0.766003 0.285344 0.272389
0.845426 0.386511 0.381506
0.920546 0.463767 0.476265
0.991363 0.520302 0.559548
1 0.532311 0.577081
1 0.537301 0.582193
1 0.538415 0.582101
1 0.543725 0.581628
1 0.552239 0.581842
1 0.565835 0.58143
1 0.586511 0.577401
1 0.619364 0.572793
0.986831 0.669596 0.537316
0.91548 0.742306 0.463386
0.87808 0.799924 0.44358
0.874372 0.837888 0.437552
0.888762 0.865248 0.437049
0.912688 0.88484 0.447395
0 0 0
0 0 0
0 0 0
0.00105287 0 0
0.0349737 0 0
0.0817273 0 0
0.118639 0 0
0.164385 0 0
0.216617 0 0
0.271443 0 0
0.337438 0 0
0.408316 0 0
0.487999 0.00703441 0
0.578653 0.0620737 0.0416419
0.675608 0.168338 0.151431
0.766598 0.285817 0.273152
0.845487 0.386557 0.381582
0.92015 0.463462 0.475792
0.990768 0.519677 0.558801
1 0.532113 0.576867
1 0.537346 0.582177
1 0.538705 0.582071
1 0.544854 0.581537
1 0.553948 0.581552
1 0.568109 0.581033
1 0.58941 0.576959
1 0.622705 0.571557
0.983307 0.674205 0.532036
0.911162 0.746532 0.460105
0.877363 0.802106 0.442817
0.874495 0.8392 0.436561
0.889525 0.865934 0.435767
0.913512 0.885237 0.445914
0 0.0184634 0
0 0.0197757 0
0 0.0202945 0
0 0.0207675 0
0.0277714 0.0232547 0
0.046952 0.0292058 0
0.0863813 0.0280461 0
0.148074 0.0175021 0
0.214939 0 0
0.276982 0 0
0.340856 0 0
0.410559 0 0
0.489906 0.00776684 0
0.580118 0.0632792 0.0430152
0.676616 0.16939 0.152712
0.767437 0.286198 0.274174
0.84564 0.386572 0.38175
0.919722 0.463127 0.475303
0.990097 0.51902 0.557992
1 0.531899 0.576638
1 0.538689 0.582071
1 0.541588 0.581811
1 0.546487 0.581384
1 0.555825 0.581231
1 0.570565 0.58056
1 0.592462 0.576471
1 0.626276 0.570016
0.979232 0.679118 0.526268
0.907301 0.750637 0.457267
0.876661 0.804318 0.442008
0.874678 0.840543 0.435523
0.890333 0.866651 0.434409
0.914336 0.885634 0.444343
0 0.0437171 0
0 0.0445563 0
0 0.0449531 0
0 0.0453498 0
0.0215 0.0459144 0
0.0558022 0.0488289 0
0.0725567 0.0588083 0
0.110262 0.0635386 0
0.175341 0.0571298 0
0.260487 0.0393835 0
0.343801 0.0153811 0
0.415335 0 0
0.49276 0.0091249 0
0.582116 0.0650339 0.0449073
0.678065 0.170794 0.154513
0.768841 0.28661 0.275792
0.845914 0.386526 0.38204
0.919142 0.462669 0.474617
0.989212 0.518135 0.556924
1 0.53164 0.576333
1 0.539376 0.58201
1 0.543267 0.581674
1 0.548424 0.581201
1 0.558373 0.580713
1 0.573846 0.579843
1 0.596506 0.575814
1 0.631006 0.567605
0.973404 0.685634 0.518441
0.90248 0.755795 0.453849
0.875822 0.807095 0.44094
0.874968 0.842222 0.434134
0.891402 0.867552 0.432593
0.915434 0.886152 0.442237
0 0.0727703 0
0 0.0734417 0
0 0.0738231 0
0 0.0740215 0
0 0.0747692 0
0.0483864 0.0753338 0
0.0888991 0.0792096 0
0.107744 0.0933547 0
0.148104 0.0996719 0
0.213764 0.0977493 0
0.309056 0.0852979 0
0.405219 0.0712596 0
0.497765 0.0553292 0
0.586145 0.0799725 0.0500801
0.681254 0.174914 0.158526
0.771023 0.2878 0.278386
0.846189 0.386542 0.38233
0.918318 0.462043 0.47361
0.987915 0.516991 0.555322
1 0.532845 0.575738
1 0.541527 0.581827
1 0.545419 0.581491
1 0.551247 0.580941
1 0.562081 0.579843
1 0.579049 0.576196
1 0.602075 0.574853
1 0.637675 0.563455
0.964584 0.694682 0.5075
0.896773 0.762341 0.449973
0.87483 0.810712 0.43949
0.875471 0.844404 0.432197
0.892897 0.868727 0.430091
0.916899 0.886824 0.439307
0 0.111284 0
0 0.111925 0
0 0.112383 0
0 0.112673 0
0 0.112917 0
0.0127871 0.114 0
0.0787671 0.114 0
0.131579 0.11841 0
0.151171 0.13463 0
0.195071 0.143694 0
0.263905 0.147021 0
0.356542 0.144274 0
0.470802 0.145724 0
0.589776 0.167132 0.0535744
0.688212 0.224521 0.170199
0.773465 0.302907 0.282521
0.846159 0.388037 0.382467
0.915618 0.462974 0.470893
0.981003 0.520043 0.548882
1 0.536995 0.571328
1 0.544915 0.580911
1 0.548669 0.581155
1 0.555413 0.58053
1 0.567407 0.579263
1 0.585534 0.575311
1 0.609506 0.573449
0.999252 0.646906 0.556481
0.951919 0.706737 0.493278
0.890639 0.770199 0.44593
0.873762 0.815229 0.437552
0.876295 0.847105 0.429541
0.894942 0.870161 0.426612
0.918791 0.887694 0.435294
0 0.160906 0
0 0.161242 0
0 0.16144 0
0 0.161486 0
0 0.161379 0
0 0.161151 0
0.0349737 0.162112 0
0.117342 0.162264 0
0.184695 0.167407 0
0.206165 0.187778 0
0.252506 0.201282 0
0.31809 0.210666 0
0.419425 0.21796 0
0.569772 0.224277 0.0263676
0.689265 0.263783 0.170199
0.775051 0.331884 0.286702
0.846067 0.405722 0.383917
0.914427 0.471122 0.468055
0.979034 0.521889 0.546136
1 0.540078 0.570199
1 0.549065 0.58053
1 0.553735 0.580667
1 0.561685 0.579889
1 0.575692 0.575692
1 0.594553 0.573968
1 0.619715 0.570306
0.99237 0.660014 0.544274
0.934691 0.722347 0.476326
0.884428 0.779522 0.441871
0.872724 0.820783 0.434867
0.877684 0.850446 0.425849
0.897749 0.871962 0.421744
0.921279 0.888792 0.429664
0 0.217533 0
0 0.217868 0
0 0.218097 0
0 0.218219 0
0 0.218265 0
0 0.218112 0
0 0.217899 0
0.0581521 0.220127 0
0.165179 0.221241 0
0.248844 0.227039 0
0.272801 0.252216 0
0.315755 0.270878 0
0.387304 0.288045 0
0.514611 0.29868 0
0.674296 0.31107 0.149233
0.773953 0.358511 0.285573
0.845853 0.41944 0.38468
0.913405 0.477546 0.466682
0.97612 0.524514 0.542107
0.998947 0.545113 0.568536
1 0.55581 0.579889
1 0.561685 0.579873
1 0.57113 0.578866
1 0.586709 0.574533
1 0.606928 0.571923
1 0.634165 0.562448
0.97821 0.679026 0.523018
0.914488 0.74107 0.459327
0.879057 0.790173 0.43801
0.872007 0.827436 0.431159
0.879988 0.854383 0.420615
0.901564 0.874113 0.414832
0.924468 0.890166 0.421744
0 0.285283 0
0 0.285603 0
0 0.285847 0
0 0.286015 0
0 0.286168 0
0 0.286198 0
0 0.286152 0
0 0.286427 0
0.0821088 0.290074 0
0.224109 0.292287 0
0.326085 0.29926 0
0.35082 0.327749 0
0.390723 0.353445 0
0.472648 0.37525 0
0.613581 0.386709 0.0920424
0.760311 0.400549 0.266072
0.843961 0.442115 0.382727
0.912413 0.489555 0.464912
0.972381 0.531075 0.536538
0.997482 0.554253 0.566064
1 0.566857 0.578744
1 0.574945 0.574945
1 0.58587 0.574655
1 0.602502 0.572366
1 0.624292 0.566354
0.993973 0.655482 0.544305
0.951049 0.706249 0.490455
0.895552 0.761501 0.445838
0.874861 0.802213 0.433875
0.872084 0.835172 0.425864
0.883589 0.858991 0.412924
0.906706 0.876677 0.404669
0.928496 0.89189 0.410193
0 0.365972 0
0 0.366262 0
0 0.366506 0
0 0.36669 0
0 0.366888 0
0 0.36701 0
0 0.367041 0
0 0.367056 0
0 0.367453 0
0.115023 0.37467 0
0.298924 0.377829 0
0.410727 0.383963 0
0.443992 0.412131 0
0.476509 0.443473 0
0.558755 0.465797 0.0669413
0.698344 0.472755 0.20293
0.830289 0.482338 0.361776
0.911803 0.511238 0.461585
0.966949 0.54583 0.526635
0.994476 0.570886 0.559838
1 0.585122 0.574197
1 0.593942 0.573587
1 0.606607 0.571817
1 0.624887 0.566201
0.996567 0.650431 0.54847
0.968368 0.688167 0.508125
0.915038 0.739422 0.458045
0.881315 0.782498 0.436545
0.871504 0.815869 0.428199
0.873823 0.843748 0.418189
0.889693 0.863996 0.40145
0.913542 0.879667 0.38912
0.933547 0.894041 0.39263
0 0.448325 0
0 0.448554 0
0 0.448737 0
0 0.448905 0
0 0.449088 0
0 0.449256 0
0 0.449363 0
0 0.449363 0
0 0.44921 0
0 0.449393 0
0.179431 0.458412 0
0.383764 0.459937 0
0.493217 0.465904 0
0.532815 0.492866 0
0.560586 0.52784 0.0483101
0.640681 0.548333 0.170474
0.778027 0.548516 0.300069
0.902907 0.548501 0.439506
0.960021 0.571603 0.513741
0.991592 0.596033 0.554025
1 0.610666 0.57055
1 0.620752 0.568002
1 0.635569 0.560311
0.992432 0.657954 0.541588
0.966354 0.690013 0.505394
0.922393 0.731304 0.462181
0.887907 0.77052 0.439353
0.873716 0.802457 0.429786
0.870283 0.829892 0.420294
0.878233 0.852461 0.40705
0.898421 0.869062 0.3841
0.921904 0.882994 0.364858
0.939422 0.896605 0.36556
0 0.533867 0
0 0.53402 0
0 0.534142 0
0 0.534234 0
0 0.534325 0
0 0.534401 0
0 0.534432 0
0 0.53434 0
0 0.534066 0
0 0.533562 0
0 0.534173 0
0.261219 0.542763 0
0.459342 0.542916 0
0.575936 0.548989 0
0.621256 0.575311 0
0.641901 0.610361 0.102098
0.72079 0.624247 0.24831
0.832227 0.623224 0.351812
0.920043 0.62533 0.45153
0.967376 0.637507 0.51339
0.989609 0.64979 0.539528
0.988449 0.664042 0.535378
0.972137 0.684062 0.512627
0.942733 0.712428 0.479927
0.909392 0.743603 0.451652
0.885725 0.772564 0.436332
0.874235 0.79881 0.428901
0.869673 0.822995 0.420249
0.873121 0.844099 0.407538
0.887434 0.861189 0.388434
0.911009 0.874357 0.351934
0.932738 0.886885 0.31548
0.946883 0.89984 0.30959
0 0.619638 0
0 0.619699 0
0 0.619745 0
0 0.619776 0
0 0.619791 0
0 0.619776 0
0 0.619715 0
0 0.619532 0
0 0.619165 0
0 0.618463 0
0 0.617456 0
0 0.618601 0
0.336446 0.625956 0
0.540688 0.6262 0
0.656535 0.632395 0
0.705852 0.653651 0.00779736
0.716442 0.685374 0.130175
0.763729 0.700786 0.293538
0.81857 0.709972 0.359731
0.867964 0.71722 0.408484
0.90721 0.723339 0.445136
0.917906 0.735042 0.458061
0.901473 0.752041 0.446021
0.886641 0.770687 0.436286
0.876905 0.788876 0.429618
0.871397 0.807034 0.423819
0.868955 0.825528 0.415564
0.872114 0.842634 0.403769
0.883177 0.857282 0.38497
0.903181 0.869413 0.354391
0.92903 0.879789 0.266529
0.947066 0.89163 0.149813
0.956451 0.904234 0.104265
0 0.701488 0
0 0.701488 0
0 0.701457 0
0 0.701427 0
0 0.701381 0
0 0.701259 0
0 0.701091 0
0 0.700786 0
0 0.700267 0
0 0.699428 0
0 0.698116 0
0 0.696406 0
0.0427863 0.699733 0
0.412833 0.704753 0
0.625391 0.704448 0
0.726436 0.709895 0
0.77554 0.723934 0
0.796094 0.743862 0.0831769
0.795117 0.767407 0.295827
0.821347 0.777783 0.357122
0.851179 0.785504 0.398032
0.871138 0.793866 0.422614
0.871626 0.802976 0.423484
0.869657 0.813687 0.419471
0.868467 0.825071 0.413092
0.869734 0.836789 0.404486
0.874998 0.848463 0.389929
0.886473 0.859022 0.370138
0.904677 0.868147 0.331441
0.927047 0.876905 0.251545
0.945647 0.886564 0.0793317
0.954177 0.897719 0
0.959884 0.909346 0.0047303
0 0.770977 0
0 0.770901 0
0 0.770825 0
0 0.770733 0
0 0.770596 0
0 0.770397 0
0 0.770123 0
0 0.769665 0
0 0.768994 0
0 0.767987 0
0 0.766522 0
0 0.764721 0
0 0.762478 0
0.122927 0.768139 0
0.499519 0.76875 0
0.705745 0.767987 0
0.782376 0.772396 0
0.824964 0.781353 0
0.848798 0.794064 0.0907607
0.855192 0.80824 0.194675
0.853468 0.82327 0.295888
0.861601 0.833097 0.376196
0.869322 0.839551 0.394476
0.873198 0.845762 0.390417
0.878065 0.852033 0.378683
0.886397 0.858289 0.361517
0.899641 0.864378 0.327001
0.92018 0.869734 0.232044
0.936065 0.876738 0.128008
0.945724 0.885634 0.0538949
0.952895 0.894987 0
0.958022 0.905028 0
0.962463 0.91519 0
0 0.826566 0
0 0.826459 0
0 0.826322 0
0 0.826169 0
0 0.825986 0
0 0.825696 0
0 0.825315 0
0 0.824735 0
0 0.823911 0
0 0.822766 0
0 0.821225 0
0 0.819333 0
0 0.816968 0
0 0.81413 0
0.381109 0.820844 0
0.667994 0.816739 0
0.770459 0.816999 0
0.826001 0.820569 0
0.86125 0.826291 0
0.885435 0.833112 0.0192416
0.899443 0.841825 0.104829
0.903838 0.851392 0.194934
0.905928 0.859907 0.246387
0.912383 0.863828 0.23267
0.919921 0.867231 0.205264
0.927428 0.871275 0.176181
0.935134 0.876356 0.14136
0.943221 0.881956 0.0494392
0.949218 0.888441 0
0.95378 0.896147 0
0.957717 0.904372 0
0.961456 0.912902 0
0.964828 0.921569 0
0 0.869993 0
0 0.869825 0
0 0.869657 0
0 0.869474 0
0 0.86923 0
0 0.868894 0
0 0.868406 0
0 0.86775 0
0 0.866835 0
0 0.865629 0
0 0.864042 0
0 0.862119 0
0 0.859724 0
0 0.856825 0
0.259434 0.86273 0
0.586587 0.856123 0
0.754803 0.853635 0
0.818555 0.854673 0
0.862547 0.857038 0
0.891966 0.860227 0
0.912459 0.864713 0
0.92697 0.870008 0
0.937667 0.876188 0.00415045
0.942763 0.879789 0
0.946151 0.882948 0
0.948501 0.886381 0
0.950973 0.890822 0
0.953613 0.895888 0
0.956329 0.901411 0
0.959091 0.907393 0
0.961883 0.914031 0
0.964614 0.92105 0
0.967178 0.928313 0
0 0.904219 0
0 0.904036 0
0 0.903822 0
0 0.903624 0
0 0.903319 0
0 0.902937 0
0 0.902403 0
0 0.901686 0
0 0.900771 0
0 0.89955 0
0 0.897963 0
0 0.896086 0
0 0.893721 0
0 0.890852 0
0 0.888151 0
0.371145 0.89189 0
0.738827 0.883146 0
0.814588 0.882155 0
0.86154 0.883009 0
0.892561 0.884657 0
0.914794 0.88751 0
0.931533 0.891005 0
0.944427 0.89482 0
0.952178 0.898177 0
0.9561 0.900893 0
0.957153 0.903166 0
0.958526 0.906142 0
0.960082 0.909728 0
0.961791 0.913787 0
0.963623 0.918395 0
0.965545 0.923674 0
0.967483 0.92932 0
0.96936 0.935225 0
0 0.927275 0
0 0.927062 0
0 0.926833 0
0 0.926604 0
0 0.926314 0
0 0.925902 0
0 0.925368 0
0 0.924651 0
0 0.92372 0
0 0.922515 0
0 0.920974 0
0 0.919142 0
0 0.916854 0
0 0.914107 0
0 0.911086 0
0.349645 0.914733 0
0.719829 0.904616 0
0.806439 0.902464 0
0.858473 0.901961 0
0.889403 0.902907 0
0.913222 0.904738 0
0.931853 0.907103 0
0.946227 0.90985 0
0.956725 0.912749 0
0.962036 0.915022 0
0.962875 0.916609 0
0.963729 0.918776 0
0.964721 0.921462 0
0.96585 0.924575 0
0.967056 0.928161 0
0.968429 0.932342 0
0.969802 0.936873 0
0.971176 0.941665 0
0 0.946761 0
0 0.946532 0
0 0.946303 0
0 0.946059 0
0 0.945769 0
0 0.945357 0
0 0.944823 0
0 0.944121 0
0 0.943221 0
0 0.942046 0
0 0.940566 0
0 0.938796 0
0 0.936629 0
0 0.934051 0
0 0.931273 0
0.337453 0.934417 0
0.702907 0.923461 0
0.79733 0.920729 0
0.851621 0.919615 0
0.884413 0.919661 0
0.910109 0.920562 0
0.930266 0.922057 0
0.945983 0.923949 0
0.958389 0.926207 0
0.965347 0.928023 0
0.967407 0.929274 0
0.967895 0.930724 0
0.968475 0.932631 0
0.969177 0.934905 0
0.96997 0.937575 0
0.970855 0.94078 0
0.971801 0.944305 0
0.972778 0.948104 0
0 0.962966 0
0 0.962753 0
0 0.962524 0
0 0.96228 0
0 0.961975 0
0 0.961593 0
0 0.961074 0
0 0.960403 0
0 0.959533 0
0 0.958419 0
0 0.957 0
0 0.955337 0
0 0.953307 0
0 0.950973 0
0 0.948516 0
0.328954 0.951293 0
0.690669 0.939757 0
0.790555 0.936599 0
0.845548 0.935225 0
0.879149 0.934722 0
0.906004 0.934951 0
0.92755 0.935729 0
0.944289 0.936965 0
0.957321 0.938476 0
0.966384 0.939925 0
0.970916 0.941054 0
0.971145 0.941894 0
0.971466 0.943114 0
0.971862 0.944671 0
0.972335 0.946548 0
0.9729 0.948898 0
0.973526 0.951553 0
0.974197 0.954482 0
0 0.975586 0
0 0.975357 0
0 0.975143 0
0 0.974914 0
0 0.97464 0
0 0.974273 0
0 0.97377 0
0 0.973144 0
0 0.97232 0
0 0.971267 0
0 0.96994 0
0 0.968414 0
0 0.966598 0
0 0.964569 0
0 0.962417 0
0.32961 0.964843 0
0.68957 0.952865 0
0.788052 0.94963 0
0.84181 0.94815 0
0.874876 0.947433 0
0.902205 0.947188 0
0.924422 0.947478 0
0.941955 0.94815 0
0.95555 0.949187 0
0.966339 0.950317 0
0.973404 0.951308 0
0.973495 0.951705 0
0.973663 0.952422 0
0.973892 0.953414 0
0.974166 0.954711 0
0.974517 0.956436 0
0.974929 0.958434 0
0.975418 0.960693 0
0 0.985565 0
0 0.985367 0
0 0.985153 0
0 0.984955 0
0 0.984222 0
0 0.983871 0
0 0.983413 0
0 0.982818 0
0 0.982071 0
0 0.981155 0
0 0.97998 0
0 0.978668 0
0 0.977127 0
0 0.975402 0
0 0.973602 0
0.343862 0.975494 0
0.70457 0.963119 0
0.791363 0.960235 0
0.841199 0.958816 0
0.872694 0.958038 0
0.899489 0.957565 0
0.921721 0.957534 0
0.939422 0.957855 0
0.953506 0.958465 0
0.964843 0.959289 0
0.973938 0.960143 0
0.974945 0.960357 0
0.975296 0.960754 0
0.975402 0.961349 0
0.975555 0.962203 0
0.975784 0.963409 0
0.976059 0.964874 0
0.976379 0.966567 0
0 0.993118 0
0 0.99295 0
0 0.992767 0
0 0.992584 0
0 0.992355 0
0 0.992035 0
0 0.991638 0
0 0.991135 0
0 0.990494 0
0 0.989715 0
0 0.988739 0
0 0.987655 0
0 0.986404 0
0 0.984985 0
0.0906233 0.98703 0
0.452415 0.981674 0
0.726986 0.971618 0
0.798474 0.969268 0
0.842908 0.967971 0
0.872328 0.967178 0
0.897841 0.966613 0
0.919615 0.966354 0
0.937087 0.96643 0
0.951247 0.966751 0
0.963226 0.967254 0
0.973144 0.967941 0
0.975723 0.968109 0
0.976471 0.968277 0
0.976547 0.968551 0
0.976623 0.969024 0
0.976761 0.969833 0
0.976944 0.97084 0
0.977172 0.972045 0
0 0.998825 0
0 0.998672 0
0 0.998535 0
0 0.998398 0
0 0.998215 0
0 0.997986 0
0 0.997681 0
0 0.997299 0
0 0.996811 0
0 0.996231 0
0 0.995514 0
0 0.994705 0
0 0.993759 0
0 0.993561 0
0.378927 0.993317 0
0.646677 0.982696 0
0.754498 0.978714 0
0.809079 0.976959 0
0.84683 0.975845 0
0.873716 0.975082 0
0.897459 0.974487 0
0.918196 0.974105 0
0.935119 0.973983 0
0.949111 0.974105 0
0.961074 0.974395 0
0.97145 0.974792 0
0.976104 0.974975 0
0.977401 0.975006 0
0.977432 0.975036 0
0.977462 0.975219 0
0.977569 0.975677 0
0.977707 0.976318 0
0.97789 0.977111 0
0 1 0
0 1 0
0 1 0
0 1 0
0 1 0
0 1 0
0 1 0
0 1 0
0 0.999924 0
0 0.999802 0
0 0.999649 0
0 0.999481 0
0 0.99913 0
0.342138 1 0
0.60235 0.991318 0
0.721462 0.986572 0
0.782818 0.984039 0
0.823117 0.982773 0
0.8542 0.981872 0
0.877897 0.981186 0
0.899245 0.980621 0
0.918318 0.980179 0
0.934218 0.97998 0
0.947692 0.979965 0
0.959365 0.980102 0
0.969375 0.980331 0
0.976211 0.980545 0
0.978027 0.980468 0
0.978042 0.980362 0
0.978073 0.980362 0
0.978134 0.980606 0
0.978241 0.980987 0
0.978378 0.981521 0
0 1 0
0 1 0
0 1 0
0 0.999924 0
0 0.999146 0
0 0.999008 0
0 0.999023 0
0 0.99968 0
0.177981 1 0
