BBLuts/BB_102_0340_LUT.cube
TITLE "Generated by Resolve"
LUT_3D_SIZE 5
0.0371252 0.0477607 0.0481727
0.309499 0.0469215 0.0482185
0.932876 0.0364233 0.591669
1 0.567926 0.717906
0.979339 0.933761 0.753811
0.00198367 0.351232 0.00518807
0.216464 0.347814 0.000793469
0.933333 0.0562905 0.592905
1 0.640879 0.702327
0.979263 0.934905 0.750546
0 0.868498 0
0 0.868162 0
0.76788 0.825635 0
1 0.846754 0.0823529
0.978866 0.94229 0.723156
0 1 0
0 1 0
0.803235 0.994781 0
0.990387 0.976837 0
0.976043 0.968353 0.701564
0.943969 0.976959 0.867903
0.944381 0.976928 0.867964
0.947433 0.976745 0.868513
0.96408 0.975677 0.873426
0.97438 0.974456 0.906752
0.0825055 0.0888075 0.422629
0.322042 0.0838788 0.424125
0.931548 0.0359655 0.644556
1 0.552148 0.725429
0.978943 0.933471 0.781949
0.0373236 0.345266 0.321798
0.273671 0.330953 0.313848
0.932525 0.0359808 0.641779
1 0.631724 0.708995
0.978821 0.9346 0.779538
0 0.865629 0
0 0.865248 0
0.773373 0.822446 0
1 0.840482 0.360082
0.978195 0.941833 0.760769
0 1 0
0 1 0
0.80531 0.994553 0
0.990478 0.976806 0
0.976059 0.968338 0.701305
0.94403 0.976944 0.867887
0.944457 0.976928 0.867964
0.947494 0.97673 0.868498
0.964111 0.975662 0.873411
0.97438 0.974456 0.906752
0.657282 0.69839 0.838956
0.65745 0.698543 0.839109
0.822721 0.685542 0.83003
1 0.685405 0.850111
0.978698 0.933639 0.877226
0.655879 0.697108 0.837674
0.656077 0.697292 0.837842
0.829969 0.683604 0.828504
1 0.690669 0.846357
0.978668 0.934691 0.876417
0.599863 0.79942 0.783581
0.600092 0.79968 0.78378
0.754696 0.785199 0.780865
0.993652 0.82182 0.796002
0.977691 0.941741 0.870024
0 1 0
0.307774 1 0
0.804395 0.993957 0
0.986511 0.976654 0
0.974304 0.967147 0.826505
0.944518 0.976928 0.867811
0.94493 0.976898 0.867872
0.947906 0.976715 0.868406
0.964263 0.975662 0.873335
0.97438 0.974456 0.906752
0.857755 0.877974 1
0.857755 0.877974 1
0.857755 0.877974 1
0.99263 0.869703 0.995331
0.985107 0.92726 0.987808
0.857755 0.877974 1
0.857755 0.877974 1
0.857755 0.877974 1
0.99263 0.869703 0.995331
0.984894 0.928908 0.987594
0.857755 0.877974 1
0.857755 0.877974 1
0.858366 0.877928 1
0.99263 0.869703 0.995331
0.983612 0.939361 0.985565
0.80885 0.983032 0.975402
0.808942 0.983017 0.975494
0.82237 0.980987 0.975799
0.958572 0.964706 0.971664
0.979873 0.970855 0.972137
0.947646 0.975311 0.946624
0.947997 0.97528 0.946624
0.950652 0.975128 0.94667
0.965484 0.974243 0.947463
0.977691 0.973358 0.957015
0.85771 0.878294 1
0.85771 0.878294 1
0.85771 0.878294 1
0.85771 0.878294 1
0.991424 0.878813 0.994125
0.85771 0.878294 1
0.85771 0.878294 1
0.85771 0.878294 1
0.85771 0.878294 1
0.991424 0.878813 0.994125
0.85771 0.878294 1
0.85771 0.878294 1
0.85771 0.878294 1
0.858503 0.878202 1
0.991409 0.878904 0.99411
0.85771 0.878294 1
0.85771 0.878294 1
0.85771 0.878294 1
0.99263 0.869703 0.995331
0.991363 0.879179 0.994064
0.914611 0.976562 0.985321
0.915831 0.976486 0.98526
0.924117 0.976013 0.984802
0.959533 0.973953 0.98291
0.979416 0.973022 0.982086
