BBLuts/BB_104_0340_LUT.cube
TITLE "Generated by Resolve"
LUT_3D_SIZE 33
0.054139 0.0504463 0.0450599
0.054139 0.0504463 0.0450599
0.054139 0.0504463 0.0450599
0.054139 0.0504463 0.0450599
0.054139 0.0504463 0.0450599
0.0911116 0.050248 0.0447089
0.139406 0.0508736 0.0449378
0.173938 0.0513313 0.0451209
0.210132 0.0516823 0.0452277
0.261723 0.0517739 0.0450446
0.322637 0.0511025 0.0442512
0.391257 0.0494392 0.0426795
0.471473 0.0468757 0.0432898
0.554833 0.0438087 0.05832
0.622934 0.0406958 0.0977035
0.685267 0.038407 0.195865
0.745663 0.037644 0.312917
0.801801 0.0395819 0.424674
0.870726 0.0393378 0.532128
0.909712 0.0429541 0.577035
0.91696 0.0436713 0.585199
0.91696 0.0436713 0.585199
0.91696 0.0436713 0.58558
0.91696 0.0436713 0.585489
0.901122 0.524407 0.557336
0.895399 0.636271 0.550774
0.889006 0.709163 0.537453
0.884459 0.764263 0.510887
0.882261 0.804242 0.409033
0.947921 0.811414 0.0484321
0.94902 0.832425 0.0488746
0.878416 0.869917 0.517266
0.877211 0.882231 0.604334
0.054139 0.0504463 0.0450599
0.054139 0.0504463 0.0450599
0.054139 0.0504463 0.0450599
0.054139 0.0504463 0.0450599
0.054139 0.0504463 0.0450599
0.100938 0.0503548 0.0447395
0.142748 0.0509194 0.0449531
0.176669 0.0513619 0.0451362
0.215335 0.0517281 0.0452277
0.268055 0.0517433 0.0449989
0.329137 0.0509804 0.0441291
0.39707 0.0492714 0.0425116
0.475181 0.0467536 0.0436561
0.556741 0.0437476 0.0589151
0.624094 0.0406348 0.0988632
0.686061 0.0383917 0.197452
0.74612 0.0376593 0.313802
0.801999 0.0395972 0.425055
0.870665 0.0393378 0.532067
0.909453 0.0429236 0.576745
0.91696 0.0436713 0.585199
0.91696 0.0436713 0.585199
0.91696 0.0436866 0.585306
0.918471 0.0817273 0.585138
0.900725 0.537942 0.556802
0.895033 0.640879 0.550179
0.888747 0.71191 0.536492
0.884352 0.765789 0.508843
0.882261 0.805112 0.399145
0.947936 0.811841 0.0484321
0.94902 0.832654 0.0488899
0.878431 0.870085 0.516152
0.877211 0.882322 0.604135
0.054139 0.0504463 0.0450599
0.054139 0.0504463 0.0450599
0.054139 0.0504463 0.0450599
0.054139 0.0504463 0.0450599
0.054139 0.0504463 0.0450599
0.106767 0.0504311 0.04477
0.143893 0.0509346 0.0449683
0.179263 0.0513924 0.0451514
0.220966 0.0517586 0.0452277
0.273945 0.0517128 0.0449378
0.334096 0.0508888 0.0440375
0.400183 0.0491798 0.0424353
0.478264 0.0466468 0.0439765
0.55877 0.0436561 0.059556
0.625269 0.0405737 0.100053
0.686839 0.0383612 0.198978
0.746563 0.0376593 0.314672
0.802197 0.0396124 0.425422
0.870573 0.0393225 0.531975
0.909194 0.0429084 0.576455
0.91696 0.0436713 0.585199
0.91696 0.0436713 0.585199
0.91696 0.0436713 0.584833
0.924331 0.161013 0.587015
0.900343 0.549996 0.556283
0.894667 0.645335 0.549554
0.888502 0.71458 0.535515
0.88426 0.767254 0.506691
0.882246 0.805966 0.388357
0.947951 0.812284 0.0484474
0.949035 0.832898 0.0488899
0.878431 0.870253 0.515053
0.877211 0.882399 0.603937
0.054139 0.0504463 0.0450599
0.054139 0.0504463 0.0450599
0.054139 0.0504463 0.0450599
0.054139 0.0504463 0.0450599
0.0684215 0.0500343 0.0446632
0.111208 0.0504921 0.0447852
0.144427 0.0509499 0.0449683
0.179492 0.0514076 0.0451514
0.221927 0.0517586 0.0452125
0.276341 0.0516976 0.0449073
0.337316 0.0508125 0.0439612
0.403006 0.0490883 0.0423438
0.481224 0.04654 0.0442969
0.560815 0.0435798 0.0602274
0.626459 0.040528 0.101305
0.687633 0.0383459 0.20058
0.747005 0.0376593 0.315526
0.802365 0.0396124 0.425757
0.870481 0.0393225 0.531884
0.908904 0.0428779 0.57612
0.91696 0.0436713 0.585199
0.91696 0.0436713 0.585199
0.91696 0.0436713 0.584756
0.900587 0.257389 0.558923
0.899962 0.560876 0.555795
0.894316 0.649683 0.548943
0.888273 0.717174 0.534554
0.884153 0.768704 0.504448
0.882246 0.806836 0.376608
0.947982 0.812726 0.0484627
0.94905 0.833127 0.0488899
0.878447 0.87042 0.513848
0.877195 0.88249 0.603754
0.0524758 0.0838483 0.0444953
0.0523537 0.0868696 0.0444648
0.0522316 0.0897993 0.0444343
0.0521096 0.092607 0.0444038
0.0520638 0.0937057 0.0444038
0.101244 0.093019 0.0441596
0.137469 0.090898 0.0441444
0.174273 0.085771 0.0442664
0.218891 0.0736095 0.0446021
0.277409 0.0516823 0.0449073
0.339193 0.050782 0.0439307
0.405585 0.049012 0.0422827
0.484047 0.0464485 0.0446174
0.562875 0.0435035 0.060914
0.627695 0.0404669 0.102571
0.688441 0.0383307 0.202152
0.747448 0.0376593 0.316396
0.802518 0.0396277 0.426062
0.87039 0.0393072 0.531762
0.908598 0.0428473 0.575784
0.91696 0.0436713 0.585199
0.91696 0.0436713 0.585122
0.91696 0.0436713 0.58468
0.902419 0.321218 0.559792
0.899626 0.570733 0.555322
0.893965 0.65391 0.548302
0.888045 0.719722 0.533578
0.884062 0.770138 0.502098
0.882261 0.807675 0.363622
0.947997 0.813153 0.0484627
0.94905 0.833356 0.0489052
0.878462 0.870588 0.512596
0.877195 0.882582 0.603555
0.0511025 0.116838 0.0442054
0.0509957 0.119188 0.0441901
0.0508888 0.121508 0.0441749
0.0508278 0.123323 0.0441596
0.050782 0.124208 0.0441596
0.082887 0.124025 0.0438392
0.129137 0.123156 0.0435645
0.168215 0.121096 0.043473
0.213184 0.116533 0.0433661
0.272694 0.107134 0.0429541
0.33695 0.0881971 0.0423133
0.407889 0.0489357 0.0422217
0.486931 0.0463417 0.0449531
0.565057 0.0434119 0.0616617
0.628992 0.0404059 0.103975
0.689296 0.0383001 0.203861
0.74789 0.0376745 0.317281
0.80267 0.0396429 0.426383
0.870268 0.0393072 0.53164
0.908278 0.0428168 0.575402
0.91696 0.0436713 0.585199
0.91696 0.0436713 0.584985
0.91696 0.0436713 0.584604
0.902968 0.368536 0.55967
0.899245 0.579385 0.554849
0.893614 0.658183 0.547616
0.887816 0.722301 0.532525
0.88397 0.771588 0.49955
0.882261 0.808591 0.348043
0.948013 0.813596 0.0484779
0.949065 0.833616 0.0489052
0.878462 0.870756 0.511177
0.877195 0.882673 0.603342
0.0495918 0.150896 0.0439155
0.0495003 0.152834 0.0439002
0.049424 0.154757 0.0438849
0.0493629 0.15584 0.0438697
0.0493324 0.156527 0.0438544
0.0493172 0.156786 0.0438544
0.113909 0.156069 0.0431525
0.15935 0.155047 0.0429236
0.206027 0.152621 0.0426947
0.268116 0.147463 0.0420844
0.333425 0.137423 0.0409094
0.404501 0.120867 0.0392004
0.486534 0.0898604 0.0374762
0.567819 0.0433051 0.0626383
0.630686 0.0403143 0.105837
0.69041 0.0382849 0.206043
0.748486 0.0376745 0.318425
0.802884 0.0396582 0.42678
0.870115 0.039292 0.531456
0.907835 0.042771 0.574914
0.91696 0.0436713 0.585199
0.91696 0.0436713 0.584909
0.91696 0.0436713 0.584482
0.902846 0.414496 0.55877
0.898726 0.587961 0.554238
0.893156 0.663508 0.5467
0.887541 0.725536 0.531136
0.883848 0.773434 0.496101
0.882292 0.80975 0.324392
0.948043 0.81416 0.0484932
0.949081 0.833921 0.0489052
0.878477 0.870985 0.509163
0.87718 0.88278 0.603082
0.0476387 0.189105 0.0434272
0.0475471 0.190784 0.0433967
0.0474861 0.19205 0.0433814
0.0474403 0.192874 0.0433661
0.0473945 0.193469 0.0433509
0.0473793 0.19379 0.0433509
0.0666514 0.193606 0.043061
0.14342 0.192782 0.0423438
0.194644 0.191516 0.0420844
0.259648 0.187961 0.0415045
0.32813 0.180819 0.0402991
0.402884 0.16994 0.0383307
0.486549 0.153628 0.0358587
0.567315 0.126864 0.0468757
0.631739 0.0711986 0.0991379
0.691905 0.0382391 0.208972
0.749294 0.0376745 0.319997
0.803159 0.0396735 0.427314
0.869886 0.0392767 0.531197
0.907225 0.04271 0.574212
0.91696 0.0436713 0.585061
0.91696 0.0436713 0.584802
0.91696 0.0436713 0.584298
0.902358 0.463249 0.557458
0.898039 0.599023 0.553353
0.892546 0.670283 0.545449
0.887175 0.729656 0.529244
0.883711 0.775799 0.491234
0.882353 0.811307 0.283253
0.948074 0.814908 0.0485084
0.949096 0.834333 0.0489204
0.878492 0.871275 0.50631
0.877165 0.882948 0.602731
0.0443427 0.239353 0.0422827
0.0442206 0.240894 0.042237
0.0441596 0.241749 0.0422065
0.0440986 0.242618 0.0421759
0.0440528 0.243229 0.0421607
0.044007 0.243641 0.0421454
0.0439918 0.2439 0.0421454
0.106676 0.243153 0.0413367
0.17467 0.241398 0.0410925
0.24358 0.238254 0.0407721
0.317922 0.232486 0.0397955
0.398138 0.223178 0.0379797
0.486915 0.209369 0.0355993
0.570169 0.190402 0.040238
0.633768 0.164797 0.0899214
0.692302 0.124895 0.199084
0.749981 0.0506447 0.318608
0.80351 0.0396887 0.428016
0.86952 0.0392462 0.530816
0.90634 0.0426184 0.573022
0.91696 0.0436713 0.584894
0.91696 0.0436713 0.584634
0.925429 0.173709 0.586435
0.901457 0.510857 0.556115
0.897139 0.612665 0.552071
0.891798 0.678767 0.543709
0.886732 0.734859 0.526635
0.883528 0.778836 0.484154
0.882307 0.813306 0.18584
0.948119 0.815869 0.0485237
0.949111 0.834867 0.0489357
0.878508 0.871672 0.502205
0.877165 0.883146 0.602258
0.0388952 0.298939 0.0398413
0.0388495 0.299397 0.039826
0.0388037 0.29984 0.0397955
0.0387579 0.300221 0.0397803
0.0387427 0.30045 0.039765
0.0387274 0.300526 0.039765
0.0387427 0.300389 0.039765
0.0387884 0.299977 0.0397955
0.137148 0.298726 0.0391089
0.2159 0.297444 0.0392615
0.299748 0.294163 0.0388647
0.387228 0.287892 0.0375677
0.483055 0.277989 0.0356603
0.572595 0.263676 0.0339361
0.637842 0.245182 0.0855573
0.696284 0.216236 0.19881
0.751629 0.164111 0.317617
0.803281 0.0712139 0.425315
0.868986 0.0392004 0.529641
0.905074 0.0424964 0.571359
0.91696 0.0436713 0.584695
0.91696 0.0436713 0.584344
0.902968 0.381155 0.558923
0.900206 0.553185 0.554559
0.895949 0.628931 0.550225
0.890822 0.689296 0.541268
0.886213 0.741329 0.523125
0.883314 0.782635 0.473426
0.947005 0.793088 0.0480964
0.94818 0.817105 0.0485542
0.949142 0.835569 0.0489357
0.878538 0.872175 0.496437
0.87715 0.883406 0.601633
0.0315862 0.362493 0.036347
0.0315404 0.362936 0.0363165
0.0314794 0.363394 0.0363012
0.0314336 0.363729 0.036286
0.0314031 0.363989 0.0362707
0.0313878 0.364141 0.0362554
0.0313725 0.364218 0.0362554
0.0313878 0.36408 0.0362554
0.0314488 0.363607 0.036286
0.168322 0.363333 0.0363775
0.268528 0.362524 0.0369573
0.366598 0.358907 0.0364233
0.471321 0.352102 0.035111
0.571496 0.342733 0.0341497
0.640833 0.331624 0.0726329
0.700832 0.318425 0.194781
0.756985 0.294316 0.321645
0.807462 0.231724 0.429007
0.869963 0.0913405 0.527779
0.903243 0.0423285 0.568902
0.91696 0.0436713 0.584329
0.901869 0.297551 0.558785
0.901839 0.494682 0.556619
0.89868 0.588403 0.552758
0.894453 0.647974 0.547372
0.889647 0.702144 0.537697
0.885588 0.749249 0.518196
0.88307 0.787366 0.455955
0.947127 0.795758 0.048127
0.948241 0.818677 0.0485847
0.949187 0.836469 0.0489662
0.878584 0.872847 0.487953
0.877134 0.883741 0.600809
0.0211337 0.438712 0.032105
0.0210727 0.439185 0.0320745
0.0210117 0.439612 0.0320592
0.0209659 0.439948 0.0320439
0.0209354 0.440223 0.0320287
0.0209049 0.440421 0.0320134
0.0208896 0.440574 0.0320134
0.0208896 0.440635 0.0320134
0.0208896 0.440467 0.0320134
0.0477913 0.43949 0.0315404
0.209705 0.441398 0.0334783
0.330053 0.440803 0.034287
0.448096 0.437171 0.0336614
0.562524 0.431647 0.0331884
0.639246 0.424598 0.0352026
0.70219 0.418936 0.168338
0.759426 0.410941 0.316579
0.810819 0.394308 0.429679
0.853712 0.364797 0.502358
0.886549 0.325032 0.541787
0.902953 0.368124 0.559045
0.902007 0.48658 0.556863
0.899702 0.568124 0.553918
0.896559 0.620493 0.550072
0.892576 0.669902 0.54313
0.888273 0.717281 0.532448
0.884886 0.758724 0.509651
0.882841 0.793423 0.424994
0.94728 0.799084 0.048188
0.948333 0.820661 0.0486305
0.949218 0.837613 0.0489815
0.87866 0.873747 0.474632
0.877119 0.884184 0.59971
0.0116884 0.524437 0.0284123
0.0116579 0.524773 0.0284123
0.0116274 0.525109 0.028397
0.0115969 0.525338 0.0283818
0.0115816 0.525536 0.0283818
0.0115663 0.525719 0.0283818
0.0115358 0.525872 0.0283665
0.0115206 0.526009 0.0283665
0.0115053 0.526146 0.0283665
0.0115053 0.526238 0.0283665
0.0837262 0.526177 0.028275
0.262364 0.529381 0.0318456
0.40705 0.528771 0.032105
0.540993 0.525948 0.0315404
0.631281 0.522271 0.0314336
0.697185 0.519005 0.0843366
0.757443 0.518151 0.29012
0.808515 0.515511 0.417395
0.850019 0.513741 0.493736
0.882048 0.516884 0.534585
0.900725 0.537301 0.555184
0.899214 0.57969 0.553338
0.896925 0.615488 0.550576
0.893919 0.654383 0.5458
0.890333 0.694728 0.537469
0.886778 0.734401 0.524559
0.884123 0.769787 0.493156
0.882673 0.800519 0.350469
0.947478 0.803174 0.0482643
0.948455 0.823148 0.0486763
0.949294 0.839094 0.049012
0.878767 0.874922 0.452079
0.877089 0.884764 0.598215
0.0043946 0.595193 0.0276646
0.00436408 0.595392 0.0276646
0.00434882 0.59556 0.0276646
0.00433356 0.595682 0.0276646
0.0043183 0.595804 0.0276799
0.00430304 0.595926 0.0276646
0.00428778 0.596033 0.0276646
0.00427253 0.596139 0.0276646
0.00427253 0.596216 0.0276646
0.00425727 0.596246 0.0276646
0.00427253 0.596139 0.0276646
0.1075 0.596292 0.028397
0.336492 0.598032 0.0319066
0.501076 0.596262 0.0307164
0.616205 0.594064 0.0299535
0.686427 0.591882 0.0301061
0.750607 0.59234 0.191821
0.803815 0.593439 0.388434
0.84419 0.596124 0.479545
0.874525 0.602167 0.524758
0.897078 0.613153 0.55079
0.895537 0.634333 0.548547
0.893431 0.660182 0.544854
0.890791 0.689677 0.538781
0.887877 0.721675 0.528252
0.885313 0.753155 0.511894
0.883375 0.782315 0.461067
0.946685 0.786511 0.0479896
0.947692 0.808103 0.0483711
0.948577 0.826154 0.0487526
0.949371 0.84094 0.0490578
0.878996 0.876585 0.404105
0.877043 0.885496 0.596216
0 0.655573 0.0280461
0 0.65568 0.0280461
0 0.655787 0.0280461
0 0.655863 0.0280461
0 0.655924 0.0280461
0 0.655985 0.0280461
0 0.656031 0.0280613
0 0.656092 0.0280613
0 0.656107 0.0280613
0 0.656046 0.0280461
0 0.655894 0.0280461
0 0.655512 0.0280461
0.172488 0.65594 0.0298619
0.432456 0.655467 0.0301671
0.584955 0.653513 0.0290227
0.669932 0.65156 0.0287022
0.737636 0.650431 0.0302434
0.794705 0.653025 0.286809
0.835416 0.656031 0.445624
0.865019 0.661814 0.506813
0.887846 0.670863 0.537041
0.891203 0.68513 0.539879
0.889509 0.703716 0.534829
0.887541 0.725536 0.526543
0.885634 0.74902 0.512932
0.883955 0.772946 0.480186
0.882856 0.79649 0.364248
0.947097 0.795468 0.048127
0.947967 0.81384 0.0484779
0.948745 0.82977 0.0488289
0.949447 0.843229 0.0490883
0.879698 0.879423 0.242924
0.877012 0.886442 0.5935
0 0.715297 0.0300298
0 0.715343 0.0300298
0 0.715373 0.0300298
0 0.715404 0.0300298
0 0.715419 0.0300298
0 0.715434 0.030045
0 0.71545 0.030045
0 0.715419 0.0300298
0 0.715373 0.0300298
0 0.715267 0.0300145
0 0.715023 0.0300145
0 0.714595 0.029984
0 0.713802 0.0299229
0.296376 0.714626 0.0326696
0.534569 0.712474 0.0304112
0.647868 0.710277 0.0290227
0.721874 0.708721 0.0292668
0.779995 0.708766 0.0315404
0.823484 0.712261 0.268132
0.853666 0.716289 0.450706
0.875959 0.722835 0.507744
0.886976 0.732265 0.5234
0.885985 0.74461 0.51635
0.884871 0.759228 0.50135
0.883818 0.775616 0.468986
0.883009 0.793454 0.370672
0.946777 0.788617 0.0480201
0.94754 0.805097 0.0483101
0.948257 0.820386 0.0486152
0.948913 0.833936 0.0489052
0.949569 0.846036 0.049134
0.950271 0.857038 0.0493019
0.876966 0.887617 0.589792
0 0.772366 0.0368505
0 0.772351 0.0368505
0 0.772335 0.0368505
0 0.77232 0.0368505
0 0.772305 0.0368505
0 0.772274 0.0368353
0 0.772213 0.0368353
0 0.772152 0.03682
0 0.772015 0.0368048
0 0.771817 0.0367742
0 0.771466 0.0367132
0 0.770916 0.0366217
0 0.770077 0.0364843
0 0.768872 0.0363012
0.431983 0.76817 0.0363012
0.620951 0.764935 0.0327001
0.703227 0.76231 0.0308843
0.765087 0.761181 0.0314336
0.867506 0.741588 0.0434882
0.900084 0.743557 0.0454261
0.864881 0.767849 0.351247
0.881361 0.772808 0.464103
0.883543 0.780255 0.453696
0.883116 0.78967 0.398474
0.946624 0.779034 0.137514
0.946853 0.790387 0.0480507
0.947417 0.802869 0.0482643
0.948028 0.815396 0.0485237
0.948592 0.827527 0.0487678
0.949142 0.838743 0.049012
0.949676 0.849363 0.0491951
0.950332 0.85922 0.0493172
0.876921 0.889082 0.584588
0 0.819577 0.0459907
0 0.819532 0.0459754
0 0.819471 0.0459602
0 0.819409 0.0459602
0 0.819333 0.0459449
0 0.819257 0.0459297
0 0.819165 0.0458991
0 0.819028 0.0458686
0 0.818814 0.0458228
0 0.818509 0.0457618
0 0.818051 0.045655
0 0.817365 0.0455024
0 0.816419 0.045304
0 0.815152 0.0450294
0.00987259 0.813596 0.0448463
0.579324 0.809293 0.038529
0.686 0.805249 0.0342718
0.81091 0.781094 0.0437629
0.858122 0.780224 0.0446174
0.892302 0.780499 0.0458686
0.917815 0.781842 0.0469215
0.936339 0.784451 0.0476387
0.946746 0.788312 0.0480201
0.947005 0.793805 0.0480964
0.947295 0.800351 0.0482185
0.947662 0.808057 0.0483558
0.948058 0.816709 0.0485389
0.948501 0.825864 0.0487373
0.948928 0.835004 0.0489357
0.949355 0.844175 0.0491035
0.949828 0.853208 0.0492561
0.879484 0.886885 0.0361486
0.87686 0.890913 0.577142
0.00544747 0.854551 0.0540169
0.00543221 0.854459 0.0539864
0.00541695 0.854383 0.0539712
0.00540169 0.854292 0.0539559
0.00538643 0.854185 0.0539254
0.00537118 0.854093 0.0538949
0.00535592 0.853956 0.0538643
0.0053254 0.853758 0.0538186
0.00527962 0.853483 0.0537575
0.00521859 0.853101 0.0536812
0.00512703 0.852567 0.0535439
0.00500496 0.851835 0.0533761
0.00483711 0.850828 0.0531472
0.00462348 0.849531 0.052842
0.00434882 0.847868 0.0524453
0.528634 0.842481 0.0445411
0.673198 0.837095 0.0377966
0.802716 0.811215 0.04654
0.850172 0.809583 0.0463569
0.8851 0.808911 0.046952
0.911391 0.809018 0.0475776
0.930663 0.810025 0.0480659
0.945708 0.811994 0.0484016
0.947967 0.815 0.0485084
0.948165 0.819028 0.0486
0.948394 0.823957 0.0486915
0.948653 0.829694 0.0488136
0.948943 0.835966 0.0489509
0.949264 0.842832 0.0490883
0.949599 0.850126 0.0492103
0.949996 0.857542 0.0493019
0.879301 0.889967 0.0361028
0.876829 0.893126 0.565957
0.00978103 0.881239 0.0601511
0.00976577 0.881117 0.0601205
0.00973526 0.88101 0.0601053
0.00972 0.880888 0.0600748
0.00970474 0.880781 0.0600443
0.00968948 0.880659 0.0600137
0.00965896 0.880476 0.0599832
0.00962844 0.880247 0.0599222
0.00956741 0.879927 0.0598459
0.00950637 0.879515 0.0597543
0.00941482 0.878965 0.0596323
0.009308 0.878202 0.0594644
0.00914015 0.877226 0.0592355
0.00894179 0.875944 0.0589609
0.00868238 0.874311 0.0585794
0.473976 0.868406 0.0499123
0.727794 0.838026 0.0521859
0.797559 0.834394 0.0487831
0.8439 0.832334 0.0478676
0.878813 0.831128 0.0479438
0.905241 0.830549 0.0482643
0.92517 0.830579 0.0485695
0.940871 0.831205 0.0487831
0.948775 0.832609 0.0488899
0.948867 0.834775 0.0489357
0.949004 0.837674 0.0489815
0.949157 0.841352 0.0490578
0.949355 0.845762 0.049134
0.949584 0.850843 0.0492256
0.949844 0.856382 0.0492866
0.87921 0.887312 0.0361334
0.879149 0.893446 0.0360723
0.876875 0.895811 0.547814
0.0125734 0.900542 0.0642863
0.0125582 0.90042 0.064271
0.0125429 0.900282 0.0642405
0.0125124 0.90016 0.06421
0.0124971 0.900023 0.0641794
0.0124819 0.899886 0.0641489
0.0124514 0.899702 0.0641184
0.0124208 0.899458 0.0640574
0.0123751 0.899153 0.0639963
0.0123293 0.898726 0.06392
0.012253 0.898177 0.063798
0.0121462 0.897444 0.0636454
0.0120241 0.896483 0.063447
0.0118563 0.895262 0.0631876
0.0116274 0.893706 0.0628672
0.485039 0.886549 0.0518807
0.731579 0.855222 0.0538643
0.797177 0.851575 0.0501564
0.841047 0.849378 0.0489052
0.874754 0.847929 0.0486763
0.900343 0.846998 0.0487831
0.920378 0.84651 0.0489509
0.936538 0.846448 0.0490883
0.948882 0.846906 0.0491646
0.949416 0.848005 0.0491646
0.949493 0.84976 0.0491951
0.949599 0.852155 0.0492409
0.949706 0.855116 0.0492714
0.949874 0.858671 0.0493172
0.879072 0.8878 0.0361334
0.878965 0.892348 0.0360876
0.878965 0.897276 0.0360113
0.876799 0.898665 0.542519
0.014313 0.914977 0.0670939
0.0142977 0.914855 0.0670787
0.0142824 0.914717 0.0670481
0.0142672 0.914595 0.0670329
0.0142519 0.914458 0.0670024
0.0142367 0.914321 0.0669718
0.0142214 0.914153 0.0669413
0.0141909 0.913909 0.0668956
0.0141604 0.913603 0.0668345
0.0141146 0.913207 0.0667582
0.0140536 0.912673 0.0666667
0.0139773 0.911986 0.0665446
0.0138705 0.911086 0.0663615
0.0137484 0.909941 0.0661479
0.0135653 0.908507 0.0658732
0.567529 0.897154 0.050782
0.744701 0.868193 0.054139
0.801297 0.864958 0.0508431
0.841245 0.862867 0.0495308
0.872694 0.861372 0.0491646
0.896819 0.860334 0.049134
0.91632 0.859602 0.0492103
0.932418 0.859174 0.0492866
0.945052 0.859113 0.0493172
0.949844 0.859495 0.0493172
0.879088 0.885405 0.0361486
0.879026 0.886854 0.0361486
0.878935 0.888792 0.0361334
0.878843 0.891203 0.0361028
0.878752 0.894118 0.0360571
0.878706 0.897505 0.0360113
0.878767 0.90132 0.0359503
0.876661 0.901717 0.541787
0.0153506 0.925612 0.0689708
0.0153353 0.925505 0.0689403
0.0153201 0.925368 0.068925
0.0153201 0.925246 0.0689097
0.0153048 0.925124 0.0688792
0.0152895 0.924987 0.068864
0.0152895 0.924834 0.0688334
0.015259 0.92462 0.0688029
0.0152438 0.924315 0.0687572
0.015198 0.923949 0.0686961
0.0151522 0.923461 0.0686046
0.0151064 0.922835 0.0684977
0.0150301 0.922011 0.0683604
0.0149233 0.920974 0.0681773
0.253605 0.917647 0.0637369
0.681773 0.887907 0.0556191
0.765225 0.877836 0.0534066
0.809979 0.875273 0.0509346
0.844724 0.873396 0.0498207
0.872877 0.871992 0.049424
0.894972 0.870939 0.0493324
0.913527 0.870115 0.0493477
0.929046 0.869474 0.0493782
0.870329 0.894453 0.0361181
0.878614 0.894392 0.0360571
0.878599 0.894713 0.0360571
0.878584 0.89543 0.0360571
0.878523 0.89659 0.0360266
0.878477 0.898146 0.0360113
0.878447 0.90016 0.0359808
0.878447 0.902586 0.0359197
0.878584 0.90544 0.035874
0.876463 0.90483 0.545678
0.0159304 0.933059 0.070161
0.0159304 0.932952 0.0701457
0.0159152 0.932845 0.0701305
0.0159152 0.932723 0.0701152
0.0158999 0.932601 0.0700999
0.0158999 0.932494 0.0700847
0.0158846 0.932342 0.0700542
0.0158694 0.932143 0.0700236
0.0158541 0.931899 0.0699779
0.0158236 0.931563 0.0699321
0.0157931 0.931136 0.0698711
0.0157473 0.930587 0.0697795
0.0157015 0.929931 0.0696727
0.410483 0.923537 0.0587625
0.658091 0.902693 0.054139
0.747372 0.887419 0.0550546
0.789151 0.884962 0.0522469
0.822858 0.883055 0.05066
0.85153 0.881529 0.049836
0.875242 0.880308 0.0495155
0.894896 0.879316 0.0494087
0.912077 0.878477 0.0493935
0.926665 0.877791 0.0494087
0.86685 0.902953 0.0360113
0.876539 0.902647 0.0359503
0.878157 0.902602 0.035935
0.878157 0.902876 0.035935
0.878157 0.903471 0.0359197
0.878141 0.904418 0.0358892
0.878141 0.90573 0.035874
0.878218 0.907393 0.0358282
0.878416 0.909453 0.0357671
0.876219 0.907851 0.55581
0.0162661 0.938155 0.0709239
0.0162509 0.938064 0.0709087
0.0162509 0.937972 0.0708934
0.0162509 0.937881 0.0708782
0.0162356 0.937789 0.0708782
0.0162356 0.937697 0.0708629
0.0162356 0.937591 0.0708476
0.0162203 0.937453 0.0708171
0.0162051 0.937255 0.0707866
0.0161898 0.937011 0.0707561
0.424857 0.930327 0.0585336
0.558556 0.926299 0.0516518
0.65716 0.910506 0.0538033
0.725032 0.896345 0.0564736
0.75935 0.893523 0.0543679
0.787808 0.891844 0.0524758
0.814084 0.890349 0.0511025
0.838285 0.889006 0.0502174
0.860334 0.887846 0.0497139
0.879408 0.886839 0.049485
0.896498 0.885954 0.0493935
0.911864 0.885145 0.0493782
0.853193 0.910369 0.035935
0.864225 0.909804 0.0358892
0.873518 0.909392 0.0358129
0.87776 0.909148 0.0357824
0.877775 0.909117 0.0357824
0.877806 0.909346 0.0357824
0.877852 0.909834 0.0357671
0.877897 0.910628 0.0357519
0.878035 0.911742 0.0357214
0.878294 0.913176 0.0356756
0.875944 0.910735 0.57171
0.682109 0.908431 0.0549325
0.689616 0.906828 0.0552987
0.696574 0.905379 0.0556191
0.703014 0.904082 0.0558633
0.708995 0.902922 0.0560769
0.714717 0.901869 0.0562295
0.721309 0.90074 0.0563363
0.728862 0.899596 0.0563516
0.736919 0.89868 0.0561379
0.744884 0.898253 0.0555734
0.754025 0.897887 0.0548562
0.764691 0.897475 0.0540475
0.776913 0.897047 0.0532082
0.7906 0.896605 0.0523537
0.80557 0.896056 0.051545
0.821576 0.895155 0.0508125
0.838041 0.89424 0.0502174
0.854704 0.893355 0.0498054
0.870405 0.892515 0.049546
0.885344 0.891722 0.0494087
0.899687 0.890959 0.0493324
0.912978 0.890242 0.0493172
0.852354 0.915709 0.0357977
0.862486 0.915145 0.0357519
0.871244 0.914687 0.0356909
0.87744 0.914336 0.0356451
0.877485 0.914168 0.0356603
0.877531 0.914153 0.0356451
0.877607 0.914382 0.0356451
0.877729 0.914855 0.0356298
0.877913 0.915587 0.0355993
0.878233 0.916625 0.0355688
0.875731 0.913466 0.59089
0.797482 0.896437 0.0519722
0.798611 0.896406 0.0519112
0.799725 0.896376 0.0518502
0.800809 0.896345 0.0517891
0.801892 0.896315 0.0517281
0.803006 0.896284 0.0516823
0.804395 0.896239 0.0515908
0.80621 0.896193 0.0515145
0.80856 0.896132 0.0513924
0.811521 0.896056 0.0512551
0.815274 0.895964 0.0510719
0.819928 0.895857 0.0508736
0.825589 0.895735 0.0506447
0.832395 0.895613 0.0504005
0.840345 0.895476 0.0501411
0.849378 0.895354 0.049897
