BBLuts/BB_103_0870_LUT.cube
TITLE "Generated by Resolve"
LUT_3D_SIZE 5
0 0 0
0.188952 0 0
0.74612 0 0
0.866331 0.563897 0.193057
0.828183 0.899718 0.963348
0 0.217487 0
0.1402 0.218204 0
0.738155 0.0639963 0
0.862165 0.629709 0.135882
0.828138 0.90074 0.962753
0 0.790417 0
0 0.790036 0
0.662577 0.779629 0
0.84979 0.822797 0
0.827832 0.907362 0.958297
0.549187 0.95404 0.318578
0.584909 0.951385 0.317388
0.709392 0.942565 0.333486
0.830518 0.933181 0.544335
0.826078 0.930587 0.98085
0.802075 0.938567 1
0.802396 0.938567 1
0.804685 0.938567 1
0.817151 0.938598 1
0.824186 0.938476 1
0 0 0.236133
0.16141 0 0.240513
0.742351 0 0.243336
0.865522 0.54519 0.441199
0.82797 0.89929 0.978531
0 0.174258 0.214817
0.147311 0.167834 0.206378
0.743343 0 0.218952
0.860609 0.619165 0.413947
0.827924 0.900343 0.978027
0 0.787243 0
0 0.786816 0
0.666712 0.776623 0
0.8477 0.820066 0.136812
0.827588 0.906996 0.974197
0.555108 0.953582 0.317052
0.589532 0.951003 0.316091
0.710674 0.942443 0.33283
0.830594 0.933135 0.544259
0.826078 0.930571 0.980758
0.802121 0.938567 1
0.802441 0.938567 1
0.80473 0.938567 1
0.817166 0.938598 1
0.824186 0.938476 1
0 0 0.922011
0 0 0.922225
0.740078 0 0.919219
0.880095 0.211109 0.953796
0.827253 0.89688 1
0 0 0.920348
0 0 0.920577
0.746822 0 0.917708
0.8663 0.469978 0.957321
0.827176 0.897978 1
0 0.739712 0.8972
0 0.740047 0.897536
0.641215 0.73051 0.898329
0.836408 0.792538 0.925475
0.826795 0.905043 1
0.548669 0.946395 0.779431
0.581857 0.943847 0.778134
0.70016 0.935378 0.779629
0.821347 0.92755 0.839124
0.825483 0.929854 1
0.802502 0.938567 1
0.802808 0.938567 1
0.805051 0.938567 1
0.817304 0.938598 1
0.824186 0.938476 1
0 0 1
0 0 1
0 0 1
0.895598 0 1
0.827878 0.871656 1
0 0 1
0 0 1
0 0 1
0.895598 0 1
0.82771 0.874067 1
0 0 1
0 0 1
0.361624 0 1
0.895598 0 1
0.826841 0.888472 1
0 0.959777 1
0 0.958434 1
0.586664 0.931975 1
0.806439 0.918746 1
0.824628 0.926619 1
0.799954 0.938354 1
0.800259 0.938354 1
0.802441 0.938369 1
0.814511 0.938415 1
0.82385 0.938354 1
0 0.312032 1
0 0.312032 1
0 0.312047 1
0 0.312245 1
0.84361 0.713878 1
0 0.312001 1
0 0.312001 1
0 0.312032 1
0 0.31223 1
0.843595 0.71397 1
0 0.311849 1
0 0.311849 1
0 0.311879 1
0.378668 0.290242 1
0.843503 0.714687 1
0 0.310369 1
0 0.310369 1
0 0.310399 1
0.895598 0 1
0.843198 0.717006 1
0.756863 0.938048 1
0.758282 0.938048 1
0.767605 0.938064 1
0.802823 0.938216 1
0.823789 0.938521 1
