BBLuts/BB_104_0015_LUT.cube
TITLE "Generated by Resolve"
LUT_3D_SIZE 9
0 0 0
0 0 0
0.164797 0 0
0.400076 0 0
0.70959 0 0
0.932876 0 0
0.903227 0.542306 0.0373236
0.884489 0.855802 0.312688
0.875975 0.970932 0.640543
0 0.0269322 0
0 0.0369268 0
0.167666 0.0149691 0
0.407401 0 0
0.711833 0 0
0.932738 0 0
0.901122 0.567758 0.0259403
0.884321 0.85803 0.311681
0.875959 0.971115 0.640452
0 0.189441 0
0 0.193149 0
0.109545 0.19234 0
0.40267 0.170047 0
0.710338 0.0739757 0
0.920531 0.208118 0
0.897993 0.599329 0.0041352
0.884047 0.861662 0.31014
0.875944 0.971405 0.640284
0 0.454414 0
0 0.455406 0
0 0.456474 0
0.319387 0.456764 0
0.68983 0.446662 0
0.900542 0.501579 0
0.890501 0.681117 0
0.883085 0.874723 0.308522
0.875853 0.972763 0.639506
0 0.768673 0
0 0.768658 0
0 0.768414 0
0 0.766278 0
0.603235 0.763241 0
0.848386 0.768765 0
0.880415 0.819455 0
0.880644 0.9084 0.316594
0.875486 0.977752 0.636484
0 0.945922 0
0 0.945922 0
0 0.945922 0
0 0.941772 0
0.553918 0.938094 0
0.789654 0.929686 0
0.871992 0.93257 0
0.876997 0.95967 0.356741
0.87451 0.990967 0.638498
0.476234 1 0.126116
0.476234 1 0.126116
0.476234 1 0.126116
0.476219 1 0.126116
0.64036 1 0.140398
0.780667 1 0.179477
0.864271 1 0.276402
0.873869 1 0.470588
0.872938 1 0.667643
0.756481 1 0.545754
0.756481 1 0.545769
0.756481 1 0.545769
0.756481 1 0.545769
0.756466 1 0.545769
0.804639 1 0.552865
0.854719 1 0.573571
0.872145 1 0.627314
0.871702 1 0.727794
0.837995 1 0.762417
0.837995 1 0.762417
0.837995 1 0.762417
0.837995 1 0.762417
0.837995 1 0.762417
0.83798 1 0.762417
0.855879 1 0.765362
0.871443 1 0.773587
0.871321 1 0.794034
0 0 0.0174868
0 0 0.0178073
0.163317 0 0.0140383
0.400778 0 0.0110781
0.710353 0 0.00619516
0.934539 0 0.00479133
0.903929 0.540429 0.0589761
0.884489 0.855772 0.312703
0.875975 0.970916 0.640558
0 0.000320439 0.0123293
0.00563058 0.0128481 0.0106813
0.176822 0 0.0090486
0.402914 0 0.00407416
0.710079 0 0
0.933303 0 0
0.901762 0.566339 0.0432593
0.884321 0.858 0.311711
0.875959 0.971115 0.640452
0 0.178531 0
0 0.181857 0
0.127474 0.181384 0
0.400992 0.158755 0
0.708461 0.0417029 0
0.921386 0.193347 0
0.898711 0.598398 0.0176242
0.884047 0.861662 0.31014
0.875944 0.971389 0.640284
0 0.449348 0
0 0.450248 0
0 0.451209 0
0.329946 0.451102 0
0.689387 0.441932 0
0.900618 0.498085 0
0.890562 0.680247 0
0.883085 0.874723 0.308522
0.875853 0.972763 0.639506
0 0.767056 0
0 0.76704 0
0 0.766781 0
0 0.764614 0
0.605615 0.761929 0
0.848463 0.76788 0
0.88043 0.81915 0
0.880644 0.9084 0.316594
0.875486 0.977752 0.636484
0 0.945525 0
0 0.945602 0
0 0.945602 0
0 0.941497 0
0.555856 0.937865 0
0.789883 0.929534 0
0.871992 0.932494 0
0.876997 0.95967 0.356741
0.87451 0.990967 0.638498
0.479805 1 0.125948
0.479805 1 0.125948
0.479789 1 0.125948
0.479774 1 0.125948
0.641276 1 0.140185
0.780835 1 0.179309
0.864286 1 0.276387
0.873869 1 0.470588
0.872938 1 0.667643
0.756695 1 0.545739
0.756695 1 0.545739
0.756695 1 0.545739
0.756695 1 0.545739
0.75668 1 0.545739
0.80473 1 0.55285
0.854749 1 0.573541
0.872145 1 0.627314
0.871702 1 0.727794
0.83801 1 0.762417
0.83801 1 0.762417
0.83801 1 0.762417
0.83801 1 0.762417
0.83801 1 0.762417
0.83801 1 0.762417
0.855879 1 0.765362
0.871443 1 0.773587
0.871321 1 0.794034
0 0 0.132723
0 0 0.132982
0.135027 0 0.129015
0.410971 0 0.121706
0.71223 0 0.119371
0.93695 0 0.132204
0.906432 0.531014 0.184985
0.884627 0.855253 0.341192
0.875975 0.970916 0.640558
0 0 0.130419
0 0 0.1308
0.156817 0 0.126055
0.409995 0 0.118776
0.713359 0 0.11577
0.93666 0 0.125383
0.904509 0.558633 0.178729
0.884474 0.857511 0.340185
0.875959 0.971115 0.640452
0 0.151003 0.118746
0 0.153811 0.1187
0.116564 0.148547 0.113878
0.39118 0.129549 0.113069
0.711452 0 0.10724
0.928557 0.142504 0.120012
0.902083 0.59292 0.169421
0.884199 0.861189 0.338445
0.875944 0.971389 0.640284
0 0.437552 0.0525216
0 0.438895 0.052781
0 0.439796 0.0538186
0.331441 0.439643 0.0544594
0.687755 0.431434 0.0547646
0.904707 0.489113 0.0643015
0.895598 0.680415 0.133181
0.883207 0.874342 0.331838
0.875853 0.972763 0.639506
0 0.764004 0
0 0.764004 0
0 0.763729 0
0 0.761578 0
0.607828 0.758648 0
0.848463 0.765255 0
0.882139 0.81944 0.00282292
0.880659 0.908263 0.317876
0.875486 0.977752 0.636484
0 0.945037 0
0 0.945037 0
0 0.945037 0
0 0.940993 0
0.559228 0.937499 0
0.790402 0.929244 0
0.872023 0.932296 0
0.876997 0.959594 0.356558
0.87451 0.990967 0.638498
0.484535 1 0.125704
0.484535 1 0.125704
0.484535 1 0.125704
0.48452 1 0.125704
0.642512 1 0.139895
0.781216 1 0.17911
0.864332 1 0.276173
0.873884 1 0.470527
0.872938 1 0.667643
0.757 1 0.545708
0.757 1 0.545708
0.757 1 0.545708
0.757 1 0.545708
0.757 1 0.545708
0.804837 1 0.552804
0.85478 1 0.573526
0.872145 1 0.627298
0.871702 1 0.727794
0.838026 1 0.762417
0.838026 1 0.762417
0.838026 1 0.762417
0.838026 1 0.762417
0.838026 1 0.762417
0.838026 1 0.762417
0.855894 1 0.765347
0.871443 1 0.773587
0.871321 1 0.794034
0 0 0.354253
0 0 0.354345
0 0 0.354574
0.373098 0 0.346517
0.73138 0 0.342046
0.937499 0 0.352804
0.910063 0.488243 0.399817
0.885115 0.850462 0.492485
0.875944 0.970687 0.652735
0 0 0.352819
0 0 0.352941
0 0 0.352728
0.387167 0 0.344396
0.729854 0 0.340246
0.937362 0 0.350225
0.907805 0.522484 0.397009
0.884947 0.852872 0.491875
0.875929 0.970871 0.652644
0 0.020676 0.349737
0 0.0230869 0.349844
0 0.023682 0.349569
0.3935 0 0.341131
0.72459 0 0.336934
0.936843 0 0.346731
0.905104 0.563165 0.392813
0.884672 0.856748 0.490867
0.875914 0.971176 0.652506
0 0.388952 0.325002
0 0.389853 0.325078
0 0.391897 0.325612
0.315038 0.391699 0.325978
0.676677 0.38265 0.327382
0.909895 0.443992 0.338033
0.898314 0.663523 0.37818
0.883665 0.870726 0.487129
0.875807 0.972519 0.651835
0 0.757656 0.244999
0 0.757656 0.244999
0 0.757855 0.245716
0 0.755795 0.2486
0.607187 0.753338 0.259312
0.85214 0.76199 0.282048
0.887266 0.818906 0.339513
0.881071 0.906386 0.47451
0.875456 0.977539 0.64918
0 0.946944 0.0290379
0 0.946944 0.0290379
0 0.946944 0.0290379
0 0.943099 0.0303349
0.5579 0.939574 0.0363775
0.79411 0.933577 0.136629
0.877882 0.938354 0.26363
0.87718 0.959152 0.441123
0.87451 0.990906 0.641566
0.498741 1 0.124392
0.498741 1 0.124392
0.498741 1 0.124392
0.498741 1 0.124392
0.646296 1 0.138979
0.782223 1 0.178393
0.864546 1 0.275853
0.873884 1 0.4701
0.872938 1 0.667567
0.758083 1 0.545586
0.758083 1 0.545586
0.758083 1 0.545586
0.758083 1 0.545586
0.758083 1 0.545586
0.805249 1 0.552666
0.854932 1 0.573419
0.872145 1 0.627176
0.871702 1 0.727764
0.838148 1 0.762402
0.838148 1 0.762402
0.838148 1 0.762402
0.838148 1 0.762402
0.838148 1 0.762402
0.838148 1 0.762402
0.85594 1 0.765332
0.871443 1 0.773571
0.871321 1 0.794034
0 0 0.648692
0 0 0.648692
0 0 0.648783
0.0676127 0 0.646693
0.699718 0 0.634714
0.93669 0 0.634104
0.923659 0.250172 0.651682
0.885801 0.832822 0.673426
0.8757 0.968215 0.735668
0 0 0.648615
0 0 0.648615
0 0 0.648676
0.0743877 0 0.646143
0.703334 0 0.634226
0.93669 0 0.633722
0.918883 0.331655 0.650919
0.885588 0.835828 0.673075
0.8757 0.968399 0.735607
0 0 0.647608
0 0 0.647608
0 0 0.647684
0.164431 0 0.643656
0.708736 0 0.633036
0.936706 0 0.632639
0.913649 0.417121 0.649393
0.885267 0.840391 0.672511
0.875669 0.968719 0.735531
0 0.158907 0.642618
0 0.158907 0.642618
0 0.162921 0.642588
0.160021 0.155062 0.639887
0.705119 0.061799 0.631937
0.928588 0.139971 0.63238
0.902693 0.588266 0.643427
0.884092 0.857023 0.670405
0.875563 0.970138 0.735149
0 0.710933 0.606592
0 0.710933 0.606592
0 0.710994 0.606607
0 0.710796 0.607004
0.584192 0.708324 0.609018
0.846525 0.723278 0.612787
0.888685 0.795331 0.62652
0.881148 0.89839 0.664042
0.875196 0.975448 0.733745
0 0.947341 0.563912
0 0.947341 0.563912
0 0.947433 0.563851
0 0.944366 0.564462
0.51664 0.939498 0.569863
0.784604 0.930968 0.579477
0.877531 0.9346 0.602609
0.877012 0.956207 0.650233
0.874205 0.98938 0.72874
0.479057 1 0.497932
0.479057 1 0.497932
0.479057 1 0.497932
0.479057 1 0.497932
0.632212 1 0.5028
0.775601 1 0.515251
0.85893 1 0.548867
0.873701 1 0.618372
0.872755 1 0.714611
0.761501 1 0.544915
0.761501 1 0.544915
0.761501 1 0.544915
0.761501 1 0.544915
0.761501 1 0.544915
0.806546 1 0.552193
0.855329 1 0.573022
0.872145 1 0.626978
0.871702 1 0.72755
0.838575 1 0.762356
0.838575 1 0.762356
0.838575 1 0.762356
0.838575 1 0.762356
0.838575 1 0.762356
0.83856 1 0.762356
0.856092 1 0.765286
0.871443 1 0.773526
0.871321 1 0.794003
0 0 0.837125
0 0 0.837232
0 0 0.837232
0 0 0.837263
0.500206 0 0.826291
0.930465 0 0.813825
0.934829 0 0.814404
0.890822 0.74789 0.810941
0.875715 0.961349 0.812894
0 0 0.837232
0 0 0.837232
0 0 0.837232
0 0 0.837263
0.499474 0 0.826322
0.930465 0 0.813825
0.934829 0 0.814328
0.890379 0.754391 0.810544
0.875685 0.961593 0.812863
0 0 0.837186
0 0 0.837186
0 0 0.837186
0 0 0.837201
0.510628 0 0.825986
0.930831 0 0.813718
0.934829 0 0.814191
0.889708 0.76434 0.809934
0.875669 0.961975 0.812818
0 0 0.836728
0 0 0.836728
0 0 0.836728
0 0 0.836744
0.569162 0 0.824063
0.931731 0 0.813214
0.934844 0 0.812741
0.887449 0.797101 0.807797
0.875547 0.963638 0.812604
0 0.435645 0.82417
0 0.435645 0.82417
0 0.435645 0.82417
0 0.439643 0.823987
0.531243 0.437171 0.819409
0.898878 0.458122 0.812955
0.89659 0.66302 0.807782
0.882597 0.866545 0.802655
0.875105 0.969863 0.81181
0 0.928954 0.784268
0 0.928954 0.784268
0 0.928954 0.784268
0 0.928954 0.784268
0.281086 0.920394 0.785122
0.767559 0.91191 0.787518
0.873259 0.91902 0.789181
0.876921 0.946395 0.794553
0.87396 0.985763 0.8094
0.29514 1 0.768841
0.29514 1 0.768841
0.296208 1 0.768811
0.296208 1 0.768811
0.551034 1 0.770657
0.752728 1 0.772702
0.846952 0.998734 0.776608
0.87306 1 0.785718
0.872343 1 0.804227
0.748211 1 0.741604
0.748211 1 0.741604
0.748211 1 0.741604
0.748211 1 0.741604
0.748211 1 0.741604
0.79382 1 0.743694
0.845914 1 0.749767
0.871473 1 0.764965
0.871336 1 0.792233
0.839933 1 0.762188
0.839933 1 0.762188
0.839933 1 0.762188
0.839933 1 0.762188
0.839933 1 0.762188
0.839933 1 0.762188
0.856596 1 0.765087
0.871443 1 0.773373
0.871321 1 0.793957
0 0 0.889647
0 0 0.889647
0 0 0.889647
0 0 0.889647
0 0 0.889647
0.841123 0 0.878538
0.934081 0 0.877256
0.934081 0 0.877256
0.877562 0.929992 0.867704
0 0 0.889647
0 0 0.889647
0 0 0.889647
0 0 0.889647
0 0 0.889647
0.841123 0 0.878538
0.934081 0 0.877256
0.934081 0 0.877256
0.877516 0.93051 0.867674
0 0 0.889647
0 0 0.889647
0 0 0.889647
0 0 0.889647
0 0 0.889647
0.841123 0 0.878538
0.934081 0 0.877256
0.934081 0 0.877256
0.877455 0.931426 0.867597
0 0 0.889647
0 0 0.889647
0 0 0.889647
0 0 0.889647
0 0 0.889647
0.846281 0 0.878462
0.934081 0 0.877256
0.934081 0 0.877256
0.877211 0.934951 0.867308
0 0 0.889647
0 0 0.889647
0 0 0.889647
0 0 0.889647
0 0 0.889647
0.882689 0 0.877958
0.934081 0 0.877256
0.913542 0.385473 0.882353
0.876326 0.947372 0.866316
0 0.741009 0.876188
0 0.741009 0.876188
0 0.741009 0.876188
0 0.741009 0.876188
0 0.744503 0.876036
0.763882 0.741756 0.8757
0.887007 0.795758 0.872419
0.879927 0.897002 0.866911
0.874449 0.973449 0.864088
0 1 0.854002
0 1 0.854002
0 1 0.854002
0 1 0.854002
0 1 0.854002
0.702831 0.996002 0.857511
0.839765 0.990723 0.858
0.873014 0.993805 0.858671
0.872221 1 0.860899
0.715602 1 0.851469
0.715602 1 0.851469
0.715602 1 0.851469
0.715602 1 0.851469
0.715602 1 0.851469
0.766079 1 0.851667
0.835691 1 0.852277
0.869993 1 0.853834
0.870893 1 0.857542
0.833967 1 0.840131
0.833967 1 0.840131
0.833967 1 0.840131
0.833967 1 0.840131
0.833967 1 0.840131
0.833967 1 0.840131
0.850782 1 0.840925
0.869215 1 0.843351
0.870954 1 0.849195
0 0.0428473 0.890562
0 0.0428473 0.890562
0 0.0428473 0.890562
0 0.0428473 0.890562
0 0.0428473 0.890562
0 0.0429389 0.890562
0.934081 0 0.877256
0.9337 0 0.878676
0.89778 0.63415 0.886809
0 0.0428473 0.890562
0 0.0428473 0.890562
0 0.0428473 0.890562
0 0.0428473 0.890562
0 0.0428473 0.890562
0 0.0429389 0.890562
0.934081 0 0.877256
0.9337 0 0.878676
0.89778 0.63415 0.886809
0 0.0428473 0.890562
0 0.0428473 0.890562
0 0.0428473 0.890562
0 0.0428473 0.890562
0 0.0428473 0.890562
0 0.0429389 0.890562
0.934081 0 0.877256
0.9337 0 0.878676
0.89778 0.634119 0.886809
0 0.0428473 0.890562
0 0.0428473 0.890562
0 0.0428473 0.890562
0 0.0428473 0.890562
0 0.0428473 0.890562
0 0.0429389 0.890562
0.934081 0 0.877256
0.9337 0 0.878676
0.89778 0.634012 0.886809
0 0.0427405 0.890562
0 0.0427405 0.890562
0 0.0427405 0.890562
0 0.0427405 0.890562
0 0.0427405 0.890562
0 0.0428168 0.890562
0.934081 0 0.877256
0.933669 0 0.878782
0.89781 0.633692 0.886809
0 0.0411841 0.890562
0 0.0411841 0.890562
0 0.0411841 0.890562
0 0.0411841 0.890562
0 0.0411841 0.890562
0 0.0412604 0.890562
0.934081 0 0.877256
0.932494 0.0180819 0.880293
0.887083 0.793011 0.886564
0 0.923842 0.880552
0 0.923842 0.880552
0 0.923842 0.880552
0 0.923842 0.880552
0 0.923842 0.880552
0 0.925933 0.880507
0.841703 0.90927 0.885863
0.876265 0.945953 0.885756
0.873426 0.985229 0.885481
0.396567 1 0.88191
0.396567 1 0.88191
0.396567 1 0.88191
0.396567 1 0.88191
0.396567 1 0.88191
0.396567 1 0.88191
0.816373 1 0.884062
0.86775 1 0.884245
0.870771 1 0.884428
0.82182 1 0.882368
0.82182 1 0.882368
0.82182 1 0.882368
0.82182 1 0.882368
0.82182 1 0.882368
0.82182 1 0.882368
0.840665 1 0.882429
0.865446 1 0.882612
0.87071 1 0.883009
0 0.272755 0.889693
0 0.272755 0.889693
0 0.272755 0.889693
0 0.272755 0.889693
0 0.272755 0.889693
0 0.272755 0.889693
0 0.272831 0.889693
0.930098 0.0789502 0.882109
0.895415 0.670115 0.886824
0 0.272755 0.889693
0 0.272755 0.889693
0 0.272755 0.889693
0 0.272755 0.889693
0 0.272755 0.889693
0 0.272755 0.889693
0 0.272831 0.889693
0.930098 0.0789502 0.882109
0.895415 0.670115 0.886824
0 0.272755 0.889693
0 0.272755 0.889693
0 0.272755 0.889693
0 0.272755 0.889693
0 0.272755 0.889693
0 0.272755 0.889693
0 0.272831 0.889693
0.930098 0.0789502 0.882109
0.895415 0.670115 0.886824
0 0.272755 0.889693
0 0.272755 0.889693
0 0.272755 0.889693
0 0.272755 0.889693
0 0.272755 0.889693
0 0.272755 0.889693
0 0.272831 0.889693
0.930098 0.0789502 0.882109
0.895415 0.670115 0.886824
0 0.272755 0.889693
0 0.272755 0.889693
0 0.272755 0.889693
0 0.272755 0.889693
0 0.272755 0.889693
0 0.272755 0.889693
0 0.272831 0.889693
0.930098 0.0789502 0.882109
0.895415 0.670115 0.886824
0 0.272679 0.889693
0 0.272679 0.889693
0 0.272679 0.889693
0 0.272679 0.889693
0 0.272679 0.889693
0 0.272679 0.889693
0 0.27274 0.889693
0.930068 0.0799115 0.882124
0.895323 0.671626 0.886824
0 0.271519 0.889708
0 0.271519 0.889708
0 0.271519 0.889708
0 0.271519 0.889708
0 0.271519 0.889708
0 0.271519 0.889708
0 0.27158 0.889708
0.923888 0.205188 0.884428
0.89514 0.674342 0.886824
0 1 0.879011
0 1 0.879011
0 1 0.879011
0 1 0.879011
0 1 0.879011
0 1 0.879011
0 1 0.879011
0.866072 1 0.885328
0.871672 1 0.885313
0.767208 1 0.884657
0.767208 1 0.884657
0.767208 1 0.884657
0.767208 1 0.884657
0.767208 1 0.884657
0.767208 1 0.884657
0.767208 1 0.884657
0.859907 1 0.885145
0.870695 1 0.885206
