BBLuts/BB_103_0830_LUT.cube
TITLE "Generated by Resolve"
LUT_3D_SIZE 5
0.0336004 0.0256504 0.0273442
0.232258 0.0290379 0.0303197
0.776181 0.0442664 0.0436255
0.941039 0.547036 0.128939
0.892668 0.999054 0.649805
0.0153048 0.258335 0.0110628
0.186877 0.260487 0.0106813
0.770977 0.14258 0.0319677
0.932692 0.621897 0.0830396
0.8925 1 0.649027
0 0.825147 0
0 0.824689 0
0.649668 0.811902 0
0.906065 0.86659 0
0.891356 1 0.643458
0.492912 1 0.149187
0.535897 1 0.151614
0.697246 1 0.170703
0.88043 1 0.307546
0.887495 1 0.661982
0.853864 1 0.742489
0.854337 1 0.742535
0.857725 1 0.742916
0.876219 1 0.746258
0.886687 1 0.770993
0.0352178 0.027451 0.22182
0.21178 0.0298161 0.223789
0.776379 0.0445869 0.238544
0.943358 0.529442 0.291081
0.89279 0.998718 0.66511
0.0187991 0.222446 0.191424
0.197253 0.218326 0.187549
0.777279 0.0445411 0.22298
0.934279 0.609796 0.265827
0.892622 1 0.664424
0 0.821241 0
0 0.820722 0
0.655192 0.808042 0
0.905928 0.864195 0.0628367
0.891478 1 0.659373
0.499916 1 0.148714
0.541497 1 0.151171
0.699031 1 0.170336
0.880552 1 0.307515
0.887495 1 0.661906
0.853925 1 0.742489
0.854398 1 0.742535
0.857786 1 0.742901
0.876234 1 0.746242
0.886687 1 0.770993
0.0427863 0.0358892 0.712627
0.0428016 0.0358892 0.712825
0.786175 0.0495003 0.718929
0.977829 0.252903 0.717586
0.893507 0.996185 0.73463
0.0427558 0.0358587 0.711025
0.0427558 0.0358587 0.711254
0.795041 0.0497292 0.717388
0.953063 0.464881 0.691432
0.893309 0.997864 0.734157
0 0.769528 0.612589
0 0.769924 0.612818
0.642191 0.758389 0.614527
0.910353 0.83917 0.62974
0.892103 1 0.730938
0.503166 1 0.466728
0.543328 1 0.467658
0.696895 1 0.474754
0.876722 1 0.529076
0.887816 1 0.71133
0.854475 1 0.742428
0.854932 1 0.742473
0.858259 1 0.74284
0.876432 1 0.746197
0.886687 1 0.770993
0.0471809 0.0407874 0.942641
0.0471809 0.0407874 0.942641
0.0471809 0.0407874 0.942641
1 0.0588846 0.956039
0.898436 0.958709 0.841657
0.0471809 0.0407874 0.942641
0.0471809 0.0407874 0.942641
0.0471809 0.0407874 0.942641
1 0.0588846 0.956039
0.898024 0.962356 0.841047
0.0471809 0.0407874 0.942641
0.0471809 0.0407874 0.942641
0.393942 0.0439155 0.945281
1 0.0588846 0.956039
0.895506 0.984649 0.837324
0 1 0.824674
0 1 0.824704
0.558801 1 0.822354
0.863035 1 0.824506
0.888975 1 0.826734
0.851835 1 0.803601
0.852277 1 0.803616
0.855512 1 0.803738
0.873381 1 0.804898
0.886946 1 0.813672
0.0152743 0.349889 0.914443
0.0152743 0.349889 0.914443
0.0152743 0.349905 0.914443
0.015259 0.350072 0.914427
0.924025 0.733837 0.881331
0.0152895 0.349874 0.914443
0.0152895 0.349874 0.914443
0.0152743 0.349889 0.914443
0.015259 0.350042 0.914427
0.92401 0.733959 0.881315
0.0152895 0.349737 0.914458
0.0152895 0.349737 0.914458
0.0152895 0.349752 0.914458
0.394415 0.327733 0.916869
0.923903 0.73492 0.881209
0.0154269 0.348486 0.914565
0.0154269 0.348486 0.914565
0.0154116 0.348516 0.914565
1 0.0588846 0.956039
0.923552 0.737972 0.880888
0.788373 1 0.846784
0.790478 1 0.846799
0.804273 1 0.846876
0.856931 1 0.847196
0.887144 1 0.847395
