BBLuts/BB_106_0210_LUT.cube
TITLE "Generated by Resolve"
LUT_3D_SIZE 33
0 0 0.0175174
0 0 0.0175174
0 0 0.0175174
0 0 0.0175174
0.00265507 0 0.0182956
0.0444953 0 0.0214542
0.0875257 0 0.0238956
0.122789 0 0.0254063
0.162661 9.15541e-05 0.0266423
0.214282 0.000885023 0.0277409
0.277424 0.00129702 0.0287175
0.351766 0.00163272 0.0301213
0.439017 0.00364691 0.034287
0.535149 0.0126192 0.0480354
0.612421 0.0420539 0.0889143
0.68716 0.124636 0.193011
0.766293 0.285008 0.344945
0.837278 0.440253 0.491753
0.896742 0.557244 0.588525
0.94078 0.613199 0.639399
0.949142 0.622507 0.648676
0.949126 0.622705 0.648707
0.94905 0.626139 0.648997
0.948852 0.63389 0.648936
0.948013 0.650752 0.647822
0.946807 0.68127 0.644388
0.944778 0.724956 0.636194
0.942885 0.770703 0.621302
0.941741 0.808682 0.600443
0.941039 0.838437 0.583841
0.939941 0.860807 0.604822
0.938186 0.877241 0.673411
0.936736 0.890562 0.739773
0 0 0.0175174
0 0 0.0175174
0 0 0.0175174
0 0 0.0175326
0.00503548 0 0.0185092
0.0526894 0 0.021973
0.09131 0 0.0240787
0.12639 0 0.0255283
0.167926 0.000198367 0.0267643
0.220401 0.000961318 0.0278477
0.283513 0.00131228 0.028809
0.356939 0.00167849 0.0302586
0.442557 0.00378424 0.0345312
0.537224 0.0129854 0.0485542
0.613672 0.0428931 0.090013
0.68809 0.126116 0.194705
0.766842 0.286168 0.346044
0.837476 0.440711 0.492149
0.896635 0.557076 0.588418
0.94049 0.612863 0.639063
0.949142 0.622507 0.648676
0.949126 0.622751 0.648676
0.949035 0.626825 0.648692
0.948821 0.635065 0.648753
0.947951 0.652522 0.647593
0.946715 0.683421 0.643992
0.944686 0.726986 0.635554
0.94284 0.772076 0.620417
0.941726 0.809491 0.599268
0.941039 0.838941 0.582422
0.939941 0.861082 0.603861
0.93817 0.877409 0.673014
0.936721 0.890654 0.739635
0 0 0.0175174
0 0 0.0175174
0 0 0.0175021
0 0 0.0175784
0.0108034 0 0.0189212
0.0565652 0 0.0222171
0.092195 0 0.0241093
0.128878 0 0.0256199
0.17232 0.000289921 0.0268711
0.225452 0.000991836 0.027924
0.288045 0.00132753 0.0288701
0.360159 0.00169375 0.0303502
0.445686 0.00392157 0.0347753
0.539437 0.0133669 0.0491188
0.614939 0.0437476 0.0911574
0.689006 0.127611 0.196414
0.767376 0.287327 0.347127
0.837659 0.441123 0.492515
0.896513 0.556893 0.588296
0.9402 0.612512 0.638712
0.949142 0.622507 0.648676
0.949126 0.622797 0.648661
0.94902 0.627573 0.648325
0.948455 0.636286 0.648554
0.947875 0.654337 0.647334
0.946624 0.685588 0.643595
0.944595 0.729 0.634913
0.942794 0.773434 0.619501
0.941711 0.8103 0.598077
0.941039 0.839445 0.580896
0.939956 0.861357 0.602884
0.93817 0.877577 0.672633
0.936721 0.890761 0.739483
0 0.00103761 0.0167391
0 0.00157168 0.0166934
0 0.00271611 0.0166018
0 0.00613413 0.0166934
0.0163424 0.00885023 0.0183719
0.056199 0.00704967 0.0213931
0.0899977 0.00820935 0.0232395
0.127413 0.00839246 0.0248875
0.172457 0.00636301 0.0264439
0.227726 0.00102235 0.0279698
0.291081 0.00132753 0.0289158
0.363119 0.00173953 0.0304417
0.448768 0.0040589 0.0350195
0.54165 0.0137636 0.0497139
0.616236 0.0446326 0.0923323
0.689952 0.129152 0.198154
0.767895 0.288457 0.34818
0.837827 0.44152 0.492851
0.896376 0.556664 0.588144
0.939879 0.612146 0.638346
0.949142 0.622522 0.648676
0.949126 0.623011 0.64863
0.948989 0.628397 0.648264
0.948409 0.637583 0.648341
0.947814 0.656184 0.647074
0.946532 0.687755 0.643183
0.944503 0.730968 0.634272
0.942748 0.774762 0.618585
0.941695 0.811093 0.596887
0.941054 0.839933 0.579263
0.939956 0.861631 0.601907
0.93817 0.87776 0.672221
0.936721 0.890852 0.739345
0 0.0406043 0.0135348
0 0.0429236 0.0133516
0 0.0451514 0.0131685
0 0.046952 0.0130159
0 0.0484321 0.0139315
0.0436866 0.0511025 0.0174411
0.0806897 0.0509651 0.0197147
0.120043 0.0475929 0.0218204
0.168261 0.0364996 0.0242008
0.227832 0.0135195 0.0270695
0.292607 0.00976577 0.028336
0.365881 0.00177005 0.0305333
0.45185 0.00419623 0.0352636
0.543938 0.0142061 0.0503243
0.617594 0.0455787 0.0935836
0.690913 0.130755 0.199939
0.768429 0.289586 0.349248
0.837995 0.441871 0.493156
0.896223 0.55642 0.587976
0.939544 0.611765 0.637949
0.949126 0.622583 0.648676
0.949096 0.624002 0.648554
0.948974 0.629282 0.648173
0.948379 0.638941 0.648096
0.947753 0.658076 0.646799
0.946426 0.689952 0.642756
0.944411 0.732921 0.6336
0.942718 0.776089 0.617655
0.941695 0.811887 0.595682
0.941054 0.840421 0.577508
0.939956 0.861921 0.600916
0.93817 0.877928 0.671824
0.936706 0.890959 0.739193
0 0.0675517 0.0113069
0 0.0694133 0.0111543
0 0.0711681 0.0110018
0 0.0723583 0.0109102
0 0.0735332 0.0115053
0.0243687 0.0761273 0.0142519
0.0706951 0.0781567 0.0172427
0.112367 0.0780346 0.0194095
0.161913 0.0754864 0.0213931
0.223743 0.0685283 0.023331
0.291875 0.0515145 0.0256199
0.368124 0.0164797 0.029633
0.4551 0.0137179 0.0349737
0.546456 0.0146944 0.0510414
0.619104 0.0466621 0.0950179
0.691997 0.13257 0.201938
0.769009 0.290837 0.350408
0.838163 0.442252 0.493507
0.89604 0.556146 0.587793
0.939162 0.611307 0.637522
0.949126 0.62269 0.648661
0.949065 0.625437 0.648447
0.948943 0.63032 0.648081
0.948333 0.640482 0.647776
0.947677 0.660197 0.646479
0.946319 0.692348 0.642283
0.94432 0.735042 0.632883
0.942672 0.777508 0.616617
0.94168 0.812741 0.594339
0.94107 0.84094 0.575418
0.939956 0.862226 0.599802
0.938155 0.878096 0.671366
0.936706 0.891066 0.739025
0 0.0965133 0.00883497
0 0.0980697 0.00869764
0 0.099443 0.00859083
0 0.100237 0.00851453
0 0.10071 0.00849927
0 0.102083 0.00972
0.0514687 0.105974 0.0140383
0.101183 0.107591 0.0168002
0.153277 0.107286 0.0190127
0.218906 0.104402 0.0210117
0.290043 0.0975967 0.0229343
0.369528 0.0858473 0.0258183
0.45922 0.0641337 0.0327611
0.54992 0.0318151 0.0512551
0.621317 0.0568704 0.0967727
0.693416 0.134997 0.204578
0.769772 0.292485 0.351965
0.838376 0.442741 0.493919
0.895796 0.555734 0.587533
0.938643 0.610742 0.636912
0.949126 0.623056 0.64863
0.94905 0.62649 0.648371
0.948913 0.631769 0.647929
0.948272 0.642573 0.647242
0.94757 0.66302 0.646052
0.946181 0.695476 0.641627
0.944198 0.737743 0.631907
0.942611 0.779324 0.615244
0.941665 0.81384 0.592645
0.94107 0.841627 0.57261
0.939971 0.862608 0.598367
0.938155 0.87834 0.670787
0.93669 0.891203 0.738811
0 0.130785 0.00596628
0 0.132097 0.00584421
0 0.133043 0.00576791
0 0.133715 0.00570687
0 0.134157 0.0056611
0 0.134936 0.00616464
0.0158846 0.13753 0.00880446
0.0813153 0.141283 0.0132296
0.138903 0.142428 0.0160678
0.209186 0.141253 0.0184939
0.285344 0.137179 0.0206912
0.370245 0.130907 0.0237583
0.464271 0.1234 0.0309453
0.555901 0.11603 0.0501717
0.625574 0.112337 0.0990158
0.696086 0.154788 0.208484
0.770977 0.300343 0.35407
0.838666 0.443397 0.494469
0.89543 0.555215 0.587137
0.937911 0.610376 0.636042
0.949096 0.62475 0.648508
0.949004 0.627924 0.648249
0.948867 0.633844 0.647745
0.94818 0.645502 0.646662
0.947417 0.666804 0.645441
0.945983 0.699565 0.640742
0.94406 0.741207 0.63061
0.94255 0.781659 0.613413
0.941649 0.815259 0.590417
0.941085 0.842512 0.56875
0.939971 0.863111 0.596414
0.93814 0.87866 0.670039
0.93669 0.891386 0.738521
0 0.176516 0.00138857
0 0.17763 0.0012665
0 0.178378 0.0011902
0 0.179049 0.00109865
0 0.179507 0.00105287
0 0.179797 0.00102235
0 0.181003 0.00213626
0.0431373 0.184894 0.00665293
0.113848 0.187274 0.0112001
0.190127 0.187091 0.0146334
0.274601 0.184436 0.0175479
0.366979 0.179782 0.0213016
0.467903 0.175418 0.0294957
0.561975 0.176989 0.0505226
0.631571 0.195712 0.102174
0.702174 0.246098 0.214328
0.77319 0.335317 0.356573
0.839017 0.448814 0.494957
0.894911 0.556176 0.586511
0.936858 0.611399 0.634684
0.949035 0.626719 0.648341
0.948959 0.630121 0.648066
0.94844 0.636912 0.647456
0.948043 0.649683 0.646204
0.947219 0.671916 0.644572
0.945739 0.704936 0.639521
0.943877 0.745647 0.62884
0.942458 0.784604 0.61091
0.941634 0.81709 0.587411
0.941115 0.843656 0.563409
0.939986 0.863783 0.593851
0.93814 0.879057 0.669001
0.936675 0.89163 0.738155
0 0.234684 0
0 0.235142 0
0 0.235584 0
0 0.23592 0
0 0.236103 0
0 0.236149 0
0 0.235996 0
0 0.237049 0
0.0663005 0.241932 0.00105287
0.154543 0.244633 0.00675975
0.252705 0.244251 0.0112306
0.355856 0.241032 0.016083
0.466499 0.237064 0.0255283
0.566476 0.237736 0.0488441
0.636652 0.252979 0.103655
0.706569 0.295293 0.218204
0.775525 0.372763 0.358846
0.839445 0.476234 0.494392
0.894163 0.564157 0.585306
0.935317 0.612665 0.632746
0.948974 0.629358 0.648127
0.948867 0.633585 0.647761
0.948302 0.64152 0.647013
0.947845 0.655634 0.645518
0.946929 0.678889 0.643244
0.945403 0.712001 0.637766
0.943648 0.751293 0.626398
0.942367 0.788357 0.607507
0.941619 0.819425 0.583047
0.941146 0.845136 0.555795
0.940017 0.864652 0.590524
0.938125 0.879591 0.667643
0.93666 0.891951 0.737667
0 0.300496 0
0 0.300954 0
0 0.301396 0
0 0.301717 0
0 0.301946 0
0 0.302098 0
0 0.302144 0
0 0.301976 0
0 0.303471 0
0.0893721 0.310445 0
0.207568 0.314092 0
0.330571 0.313207 0.00511177
0.455253 0.310109 0.0153506
0.566781 0.310109 0.0409247
0.640223 0.3205 0.0993057
0.710567 0.351812 0.218372
0.777752 0.411307 0.360113
0.839796 0.496559 0.493751
0.892958 0.571023 0.583505
0.933135 0.614862 0.629923
0.948867 0.633799 0.647745
0.948379 0.639094 0.647257
0.948089 0.648447 0.646296
0.947524 0.664042 0.644419
0.946517 0.688212 0.641169
0.944976 0.721126 0.635248
0.943374 0.758312 0.623011
0.942245 0.793271 0.602869
0.941619 0.822385 0.575769
0.941207 0.847013 0.544656
0.940047 0.865766 0.586053
0.938125 0.880278 0.665843
0.936629 0.892348 0.737026
0 0.381445 0
0 0.381903 0
0 0.3823 0
0 0.382635 0
0 0.382895 0
0 0.383093 0
0 0.383246 0
0 0.383291 0
0 0.383124 0
0 0.385245 0
0.112657 0.394598 0
0.273167 0.399451 0
0.42678 0.398688 0
0.557946 0.398245 0.0203403
0.638895 0.403662 0.0790112
0.712169 0.423651 0.204486
0.779126 0.465797 0.356237
0.83978 0.525689 0.490959
0.891066 0.582818 0.58024
0.930037 0.620111 0.625742
0.948318 0.641337 0.647028
0.948104 0.647959 0.646342
0.947723 0.658915 0.64506
0.947051 0.675929 0.642649
0.945953 0.700679 0.638132
0.944442 0.732631 0.631571
0.943069 0.766918 0.61825
0.942123 0.798947 0.596582
0.941634 0.826139 0.563714
0.941299 0.849424 0.527306
0.940093 0.867201 0.578912
0.938109 0.881163 0.663401
0.936599 0.892866 0.736171
0 0.478904 0
0 0.479332 0
0 0.479683 0
0 0.479973 0
0 0.480217 0
0 0.480446 0
0 0.480644 0
0 0.480812 0
0 0.480934 0
0 0.48101 0
0 0.483879 0
0.143709 0.496254 0
0.360418 0.501274 0
0.533135 0.500526 0
0.629358 0.501549 0.0328985
0.707958 0.510201 0.15346
0.778134 0.531334 0.337713
0.838956 0.565469 0.482933
0.888273 0.599664 0.573953
0.925933 0.631235 0.61976
0.947906 0.65391 0.645655
0.947616 0.661936 0.644648
0.947127 0.674311 0.642893
0.946334 0.692302 0.639765
0.945174 0.71693 0.634165
0.943862 0.746563 0.626169
0.942733 0.777203 0.611399
0.942 0.805753 0.588144
0.941695 0.830777 0.54461
0.941497 0.852476 0.497963
0.940185 0.869062 0.566201
0.938094 0.882292 0.660121
0.936553 0.893538 0.735042
0 0.570123 0
0 0.570367 0
0 0.570565 0
0 0.570733 0
0 0.570886 0
0 0.571023 0
0 0.571176 0
0 0.571298 0
0 0.571374 0
0 0.571374 0
0 0.571191 0
0 0.573449 0
0.200656 0.583597 0
0.472786 0.584924 0
0.609873 0.583825 0
0.696498 0.584939 0.0567941
0.773175 0.592111 0.273457
0.835996 0.606683 0.45951
0.884031 0.62797 0.5617
0.920455 0.651621 0.61062
0.946502 0.673457 0.64213
0.946761 0.68278 0.641474
0.946166 0.695918 0.639002
0.945327 0.713924 0.634836
0.944274 0.73698 0.627832
0.943236 0.762814 0.618006
0.942412 0.789075 0.601282
0.941909 0.813809 0.573648
0.941848 0.836439 0.510994
0.941894 0.856336 0.438025
0.940307 0.871397 0.545754
0.938079 0.883741 0.655634
0.936507 0.894408 0.733547
0 0.635126 0
0 0.635233 0
0 0.635325 0
0 0.635401 0
0 0.635462 0
0 0.635523 0
0 0.635569 0
0 0.635599 0
0 0.635599 0
0 0.635523 0
0 0.635309 0
0 0.634836 0
0.00260929 0.636728 0
0.296422 0.645945 0
0.571191 0.645243 0
0.676204 0.644022 0
0.760555 0.646647 0.0968185
0.828367 0.655177 0.376959
0.877058 0.667582 0.533333
0.912703 0.683146 0.594659
0.93959 0.699901 0.629313
0.945434 0.711391 0.635416
0.944854 0.724056 0.631937
0.944121 0.740383 0.626398
0.943374 0.759716 0.61767
0.942672 0.78085 0.605234
0.942138 0.802533 0.586465
0.941909 0.823224 0.544244
0.94226 0.84329 0.438422
0.942718 0.861265 0.294972
0.940597 0.874418 0.50811
0.938079 0.885557 0.649439
0.936446 0.895491 0.731548
0 0.699062 0
0 0.699107 0
0 0.699138 0
0 0.699168 0
0 0.699168 0
0 0.699184 0
0 0.699168 0
0 0.699138 0
0 0.699077 0
0 0.698909 0
0 0.698619 0
0 0.69807 0
0 0.697169 0
0.01178 0.699168 0
0.411749 0.7084 0
0.64097 0.706386 0
0.740505 0.705364 0
0.81387 0.708675 0.115175
0.866087 0.715694 0.417105
0.902281 0.724376 0.556771
0.929458 0.735241 0.60444
0.943557 0.74609 0.623285
0.943496 0.756329 0.619196
0.943053 0.768917 0.611994
0.942611 0.783673 0.600778
0.942229 0.800031 0.584863
0.942 0.816724 0.554345
0.942229 0.834089 0.474464
0.943114 0.851438 0.263432
0.942718 0.866148 0.000534066
0.941329 0.878462 0.406928
0.938079 0.887816 0.64062
0.93637 0.896864 0.728923
0 0.760418 0
0 0.760403 0
0 0.760372 0
0 0.760342 0
0 0.760327 0
0 0.760281 0
0 0.76022 0
0 0.760113 0
0 0.759945 0
0 0.759686 0
0 0.759258 0
0 0.758602 0
0 0.757595 0
0 0.756237 0
0.0252537 0.758282 0
0.538888 0.766049 0
0.711925 0.762417 0
0.79469 0.761563 0
0.850401 0.763729 0.0254063
0.890425 0.768658 0.398184
0.918822 0.773983 0.535729
0.938735 0.780972 0.593271
0.942504 0.788205 0.595926
0.942306 0.797116 0.586694
0.942153 0.807401 0.568475
0.942153 0.819074 0.53048
0.942504 0.832242 0.445426
0.943191 0.846326 0.275563
0.942824 0.859297 0
0.94255 0.871611 0
0.94229 0.88333 0.131914
0.938125 0.890562 0.627359
0.936263 0.898543 0.725368
0 0.811795 0
0 0.811734 0
0 0.811658 0
0 0.811582 0
0 0.811505 0
0 0.811414 0
0 0.811292 0
0 0.811109 0
0 0.810849 0
0 0.810483 0
0 0.809918 0
0 0.80911 0
0 0.807996 0
0 0.806516 0
0 0.804639 0
0.0473945 0.806699 0
0.669184 0.809689 0
0.773816 0.806348 0
0.834913 0.805707 0
0.877317 0.806912 0.0108797
0.909072 0.810071 0.209751
0.930251 0.813016 0.458335
0.942092 0.817273 0.517876
0.942412 0.822828 0.489113
0.942611 0.829953 0.438956
0.943053 0.83859 0.341543
0.943191 0.848051 0.0721599
0.94284 0.857725 0
0.942611 0.867674 0
0.942306 0.87776 0
0.941955 0.887663 0
0.938216 0.893858 0.608927
0.936156 0.900618 0.720592
0 0.850462 0
0 0.850355 0
0 0.850263 0
0 0.850156 0
0 0.850034 0
0 0.849912 0
0 0.849744 0
0 0.8495 0
0 0.84918 0
0 0.848722 0
0 0.848066 0
0 0.847196 0
0 0.846036 0
0 0.844526 0
0 0.842603 0
0.0396735 0.843412 0
0.57203 0.847288 0.0090486
0.751797 0.840726 0
0.82002 0.838575 0
0.865263 0.83801 0
0.898161 0.838605 0
0.922087 0.840345 0.00367742
0.9402 0.843229 0.0995041
0.943145 0.846418 0.0366827
0.942977 0.85066 0
0.94287 0.85597 0
0.942733 0.86215 0
0.94255 0.868986 0
0.942321 0.876493 0
0.942031 0.88452 0
0.941695 0.892638 0
0.938354 0.897673 0.586206
0.936019 0.90309 0.714076
0.000244144 0.879911 0.00234989
0.000228885 0.879789 0.00231937
0.000198367 0.879652 0.00227359
0.000167849 0.879515 0.00222782
0.000137331 0.879393 0.0021973
0.000106813 0.87924 0.00215152
6.10361e-05 0.879026 0.00210575
0 0.878752 0.00201419
0 0.87837 0.00189212
0 0.877882 0.00175479
0 0.877226 0.00155642
0 0.876341 0.00131228
0 0.875181 0.000961318
0 0.873701 0.000534066
0 0.871839 0
0 0.869551 0
0.0645151 0.870924 0.00622568
0.727214 0.867872 0.0040589
0.805844 0.864591 0.000579843
0.853864 0.86305 0
0.888106 0.862486 0
0.913375 0.86276 0
0.932769 0.863783 0
0.942596 0.865507 0
0.942565 0.867872 0
0.942473 0.871061 0
0.942336 0.87509 0
0.942168 0.879942 0
0.941955 0.885496 0
0.94168 0.8916 0
0.941405 0.897978 0
0.938247 0.901686 0.574228
0.935866 0.905943 0.706294
0.00483711 0.901366 0.00849927
0.00480659 0.901213 0.00846876
0.00477607 0.901076 0.00842298
0.00474556 0.900923 0.0083772
0.00471504 0.900771 0.00834669
0.00468452 0.900603 0.00828565
0.00462348 0.900389 0.00823987
0.00456245 0.900099 0.00814832
0.00448615 0.899733 0.0080415
0.00437934 0.899229 0.00790417
0.00424201 0.898589 0.00772107
0.00407416 0.897719 0.00747692
0.00383001 0.896605 0.00715648
0.00352483 0.895186 0.00675975
0.00315862 0.8934 0.0062562
0.00268559 0.891279 0.00564584
0.0658732 0.892439 0.0118257
0.703883 0.888579 0.00782788
0.794369 0.884367 0.00259403
0.844617 0.882277 0.000885023
0.879347 0.881132 6.10361e-05
0.905455 0.880613 0
0.926055 0.880674 0
0.941115 0.881361 0
0.942046 0.882582 0
0.94197 0.88452 0
0.941833 0.887144 0
0.94168 0.890425 0
0.941497 0.894316 0
0.941268 0.898726 0
0.941039 0.903502 0
0.938064 0.90602 0.56318
0.935607 0.909056 0.705318
0.00813306 0.917433 0.0128634
0.00810254 0.917296 0.0128176
0.00808728 0.917144 0.0127871
0.00805676 0.916991 0.0127413
0.00801099 0.916838 0.0126955
0.00799573 0.916686 0.012665
0.00794995 0.916472 0.012604
0.00788891 0.916182 0.0125277
0.00781262 0.915831 0.0124361
0.00772107 0.915358 0.012314
0.00759899 0.914733 0.0121462
0.0074464 0.913939 0.0119326
0.00721752 0.912902 0.0116579
0.00695811 0.911574 0.0113069
0.00662242 0.909941 0.0108644
0.00624094 0.90808 0.0103609
0.0669413 0.909239 0.016022
0.686458 0.904997 0.0108644
0.786145 0.900114 0.00411994
0.837507 0.89778 0.00198367
0.871992 0.896361 0.000961318
0.898283 0.89546 0.000259403
0.919295 0.894972 0
0.93521 0.894972 0
0.94139 0.895415 0
0.941329 0.896406 0
0.941238 0.897932 0
0.941115 0.899992 0
0.940963 0.902556 0
0.940795 0.905623 0
0.940627 0.909148 0
0.937728 0.910506 0.559335
0.935286 0.912398 0.707454
0.0104372 0.929274 0.0158541
0.0104067 0.929137 0.0158236
0.0103761 0.929 0.0157931
0.0103609 0.928847 0.0157473
0.0103304 0.92871 0.0157168
0.0102998 0.928557 0.015671
0.0102693 0.928359 0.0156405
0.0102083 0.928115 0.0155795
0.0101472 0.927764 0.0154879
0.010071 0.927337 0.0153811
0.00996414 0.926772 0.0152438
0.00982681 0.926024 0.0150607
0.0096437 0.925078 0.0148165
0.00941482 0.923919 0.0145266
0.00915541 0.922545 0.0141756
0.00883497 0.920989 0.0137789
0.0697642 0.922347 0.0192721
0.687236 0.917296 0.0119936
0.7841 0.912428 0.00502022
0.833494 0.910079 0.00273136
0.866743 0.908553 0.0016022
0.892622 0.907439 0.000839246
0.913405 0.906661 0.000228885
0.929732 0.906233 0
0.940551 0.906157 0
0.940642 0.906477 0
0.940597 0.907256 0
0.940505 0.908476 0
0.940398 0.910124 0
0.940276 0.91223 0
0.940169 0.914702 0
0.937179 0.91487 0.570809
0.93489 0.915846 0.71191
0.0119631 0.93756 0.0178378
0.0119326 0.937438 0.0178073
0.0119173 0.937316 0.0177768
0.0118868 0.937194 0.0177462
0.0118715 0.937057 0.0177157
0.011841 0.936934 0.0176852
0.0118105 0.936751 0.0176394
0.0117647 0.936522 0.0175937
0.0117189 0.936217 0.0175174
0.0116426 0.935836 0.0174258
0.0115511 0.935347 0.017319
0.0114443 0.934737 0.0171664
0.0113069 0.933974 0.0169833
0.0111391 0.933043 0.0167697
0.0109407 0.931975 0.0165103
0.0128481 0.930953 0.0166018
0.0988022 0.933364 0.0235904
0.712154 0.925704 0.0106661
0.78941 0.921798 0.00523384
0.833204 0.919676 0.00314336
0.864012 0.918196 0.00202945
0.888747 0.917037 0.00123598
0.908766 0.916136 0.000610361
0.924834 0.915511 7.62951e-05
0.937652 0.915129 0
0.93991 0.915084 0
0.939895 0.915343 0
0.939864 0.915969 0
0.939803 0.916945 0
0.939742 0.918288 0
0.939696 0.919951 0
0.936385 0.918853 0.595666
0.934462 0.919219 0.719493
0.0129397 0.94316 0.0191043
0.0129244 0.943053 0.0190738
0.0129091 0.942962 0.0190585
0.0128939 0.94287 0.0190433
0.0128786 0.942779 0.0190127
0.0128481 0.942672 0.0189975
0.0128328 0.94255 0.018967
0.0128023 0.942382 0.0189212
0.0127718 0.942168 0.0188907
0.0127108 0.941894 0.0188144
0.012665 0.941543 0.0187381
0.0125887 0.941115 0.0186465
0.0124971 0.940566 0.0185245
0.0123751 0.939925 0.0183871
0.0144961 0.939361 0.0185702
0.0903944 0.94168 0.0247349
0.622324 0.938048 0.0192264
0.747555 0.93164 0.00834669
0.801221 0.928954 0.00491341
0.836515 0.927214 0.00326543
0.863996 0.925856 0.00222782
0.886702 0.924712 0.00148013
0.905425 0.923796 0.000869764
0.920867 0.923064 0.000350958
0.933486 0.92253 0
0.939193 0.922225 0
0.939223 0.922179 0
0.939223 0.922393 0
0.939223 0.922866 0
0.939223 0.923629 0
0.939269 0.924666 0
0.935393 0.922332 0.630472
0.934005 0.922469 0.730526
0.0131533 0.944381 0.019379
0.0131533 0.944381 0.019379
0.0131533 0.944381 0.019379
0.0131533 0.944381 0.019379
0.0131533 0.944381 0.019379
0.0131533 0.944381 0.019379
0.0131533 0.944396 0.019379
0.0131533 0.944396 0.019379
0.0131533 0.944396 0.019379
0.014725 0.944549 0.0196689
0.026154 0.945113 0.0207828
0.0310674 0.945342 0.0212253
0.0336767 0.94548 0.0214694
0.0356298 0.945556 0.0216373
0.100175 0.947829 0.0264897
0.64358 0.94287 0.0177157
0.734157 0.938155 0.0096437
0.782162 0.935729 0.00621042
0.816541 0.934066 0.00430304
0.84361 0.932754 0.00311284
0.866819 0.931594 0.00225834
0.886763 0.930556 0.00157168
0.903639 0.929671 0.0010071
0.918059 0.928939 0.000518807
0.93022 0.928313 7.62951e-05
0.938506 0.927886 0
0.938613 0.927672 0
0.938659 0.927626 0
0.938704 0.927794 0
0.938781 0.928191 0
0.938903 0.928817 0.0197604
0.934401 0.925414 0.668803
0.933562 0.925475 0.744579
0.0321813 0.945449 0.0213474
0.0322423 0.945449 0.0213474
0.0323033 0.945449 0.0213474
0.0323644 0.945449 0.0213626
0.0324254 0.945449 0.0213626
0.0325017 0.945464 0.0213779
0.032578 0.94548 0.0213779
0.0326848 0.94548 0.0213779
0.0328222 0.94548 0.0213931
0.0901198 0.947738 0.0258793
0.482887 0.94934 0.0283513
0.612375 0.945129 0.0206302
0.665187 0.942687 0.0157626
0.704524 0.940902 0.012192
0.736996 0.939559 0.00947585
0.765164 0.938521 0.00740063
0.790204 0.937743 0.00578317
0.813016 0.937163 0.00454719
0.834073 0.936721 0.00358587
0.853758 0.936355 0.0027924
0.872053 0.93579 0.00213626
0.888685 0.93492 0.00157168
0.903349 0.934142 0.00106813
0.916396 0.93344 0.000610361
0.927672 0.932845 0.000198367
0.936751 0.932372 0
0.938094 0.932067 0
0.93817 0.931899 0
0.938277 0.931884 0
0.93843 0.932052 0.0166629
0.935103 0.929198 0.6009
0.933547 0.928069 0.7084
0.933196 0.928161 0.760952
0.746609 0.939223 0.00872816
0.748226 0.939162 0.00860609
0.749813 0.939101 0.00849927
0.751354 0.93904 0.0083772
0.75288 0.938994 0.00825513
0.754513 0.938949 0.00814832
0.756588 0.938872 0.00799573
0.759197 0.938766 0.00781262
0.762509 0.938659 0.00758373
