BBLuts/BB_101_0240_LUT.cube
TITLE "Generated by Resolve"
LUT_3D_SIZE 5
0.0136568 0.0245823 0.028275
0.0962081 0.0301213 0.0341802
0.825742 0 0.00358587
0.922774 0.393057 0.000869764
0.952575 0.932631 0.854795
0 0.172976 0.0605173
0.0996262 0.173983 0.0688487
0.793515 0.00175479 4.57771e-05
0.89456 0.484718 0.000244144
0.95259 0.932631 0.854597
0.216373 0.719982 0.190387
0.21561 0.719371 0.18999
0.664149 0.708736 0.251179
0.920027 0.802594 0.298421
0.952697 0.932662 0.85304
0.705776 0.910689 0.417151
0.737667 0.912902 0.493309
0.871427 0.916915 0.640711
0.948775 0.929549 0.662745
0.953002 0.934752 0.862791
0.959014 0.936904 0.903883
0.959014 0.936919 0.903929
0.959014 0.936965 0.904112
0.958923 0.937392 0.905821
0.958648 0.938766 0.911299
0.0108949 0.030869 0.082063
0.0673686 0.0395209 0.115114
0.671473 0.00228885 0.174945
0.967391 0.34197 0.179339
0.952941 0.934478 0.861891
0 0.150805 0.16144
0.0975967 0.151537 0.156954
0.688212 0.000747692 0.162737
0.933135 0.455558 0.137316
0.952926 0.934401 0.861631
0.20882 0.714061 0.186511
0.207843 0.713298 0.186007
0.667185 0.704082 0.241062
0.918975 0.802411 0.334905
0.952789 0.933791 0.859663
0.710994 0.910903 0.425437
0.742382 0.912871 0.499565
0.872801 0.917067 0.640497
0.948775 0.929534 0.662638
0.953002 0.934737 0.862745
0.959014 0.936904 0.903883
0.959014 0.936919 0.903929
0.959014 0.936965 0.904112
0.958923 0.937377 0.905776
0.958648 0.938766 0.911299
0 0.0525978 0.540352
0 0.0526131 0.540841
0.559442 0.114916 0.649912
0.759594 0.210895 0.681926
0.95819 0.935805 0.89633
0 0.0525216 0.535882
0 0.0525368 0.53637
0.572045 0.115923 0.645838
0.791638 0.366552 0.68545
0.95816 0.935805 0.896208
0.141619 0.646052 0.673671
0.142504 0.646571 0.674128
0.613672 0.647837 0.673854
0.937407 0.769055 0.712169
0.957824 0.935775 0.895109
0.7149 0.917388 0.684871
0.742641 0.918135 0.69221
0.868086 0.922652 0.743084
0.950225 0.933196 0.796139
0.955932 0.935699 0.887144
0.95903 0.936889 0.903838
0.959014 0.936904 0.903883
0.959014 0.93695 0.904067
0.958923 0.937377 0.905776
0.958648 0.938766 0.911299
0 0.0495766 0.87892
0 0.0495766 0.87892
0 0.0495766 0.87892
0.742107 0.106981 0.913725
0.958648 0.938766 0.911299
0 0.0495766 0.87892
0 0.0495766 0.87892
0 0.0495766 0.87892
0.742107 0.106981 0.913725
0.958648 0.938766 0.911299
0 0.0495766 0.87892
0 0.0495766 0.87892
0 0.0733196 0.906355
0.742107 0.106981 0.913725
0.958648 0.938766 0.911299
0.620569 0.924544 0.910704
0.620569 0.924544 0.910704
0.781674 0.925368 0.90544
0.958648 0.938766 0.911299
0.958648 0.938766 0.911299
0.958648 0.938766 0.911299
0.958648 0.938766 0.911299
0.958648 0.938766 0.911299
0.958648 0.938766 0.911299
0.958648 0.938766 0.911299
0 0.258122 0.909804
0 0.258122 0.909804
0 0.258122 0.909804
0 0.258244 0.909804
0.856336 0.659586 0.889708
0 0.258015 0.909804
0 0.258015 0.909804
0 0.258122 0.909804
0 0.258244 0.909804
0.856367 0.659709 0.889708
0 0.258015 0.909804
0 0.258015 0.909804
0 0.258015 0.909804
0 0.24828 0.91426
0.856748 0.660945 0.889662
0 0.257099 0.909804
0 0.257099 0.909804
0 0.257099 0.909804
0.742107 0.106981 0.913725
0.857939 0.664775 0.889525
0.955962 0.93846 0.911391
0.9579 0.938674 0.91133
0.958648 0.938766 0.911299
0.958648 0.938766 0.911299
0.958648 0.938766 0.911299
