BBLuts/BB_102_0340_LUT.cube
TITLE "Generated by Resolve"
LUT_3D_SIZE 33
0.0371252 0.0477607 0.0481727
0.0371252 0.0477607 0.0481727
0.0371252 0.0477607 0.0481727
0.0371252 0.0477607 0.0481727
0.0371252 0.0477607 0.0481727
0.101884 0.0473487 0.0481727
0.186801 0.0475166 0.0485695
0.247517 0.0473182 0.0484932
0.309499 0.0469215 0.0482185
0.394247 0.0461128 0.0475166
0.486107 0.0449836 0.0464942
0.577661 0.0437934 0.0453651
0.656092 0.0422065 0.0571908
0.717571 0.0420996 0.0987106
0.787045 0.0411383 0.192874
0.858579 0.0387121 0.400549
0.932876 0.0364233 0.591669
1 0.0354772 0.689998
1 0.0348211 0.760235
1 0.0342565 0.813748
1 0.0341497 0.823499
1 0.0341497 0.823499
1 0.0341497 0.823987
1 0.0341497 0.823865
1 0.567926 0.717906
1 0.663935 0.698405
1 0.738231 0.673136
0.935866 0.822232 0.579187
0.996948 0.843198 0.532982
1 0.887694 0
1 0.913237 0
0.98407 0.919829 0.628901
0.979339 0.933761 0.753811
0.0371252 0.0477607 0.0481727
0.0371252 0.0477607 0.0481727
0.0371252 0.0477607 0.0481727
0.0371252 0.0477607 0.0481727
0.0371252 0.0477607 0.0481727
0.119112 0.047425 0.0482948
0.192691 0.0475013 0.0485695
0.252262 0.047303 0.0484779
0.318257 0.0468605 0.0481575
0.404318 0.0459907 0.0474098
0.495842 0.0448463 0.0463722
0.584192 0.0437324 0.045304
0.658305 0.0422065 0.0583505
0.719203 0.0420844 0.100206
0.788403 0.0411078 0.195575
0.859495 0.0386816 0.403586
0.933455 0.036408 0.592752
1 0.0354772 0.690303
1 0.0348211 0.760159
1 0.0342565 0.813413
1 0.0341497 0.823499
1 0.0341497 0.823499
1 0.0341497 0.823621
1 0.0896925 0.808164
1 0.576669 0.716167
1 0.668467 0.6972
1 0.741482 0.670405
0.937606 0.823163 0.578775
0.997024 0.844251 0.525856
1 0.888212 0
1 0.913512 0
0.98407 0.920043 0.627283
0.979339 0.933883 0.753506
0.0371252 0.0477607 0.0481727
0.0371252 0.0477607 0.0481727
0.0371252 0.0477607 0.0481727
0.0371252 0.0477607 0.0481727
0.0371252 0.0477607 0.0481727
0.12932 0.0474556 0.0483711
0.194705 0.0475013 0.0485695
0.256733 0.0472725 0.0484779
0.327688 0.0467689 0.0480964
0.41355 0.0458839 0.0473182
0.503227 0.0447242 0.0462654
0.587625 0.0437018 0.0452735
0.660136 0.0422217 0.0593729
0.720958 0.0420844 0.101839
0.789776 0.0410773 0.198306
0.860395 0.0386511 0.406546
0.934035 0.0363928 0.593805
1 0.0354772 0.690578
1 0.0348211 0.760037
1 0.0342718 0.813046
1 0.0341497 0.823499
1 0.0341497 0.823499
1 0.0341497 0.823011
1 0.199084 0.7832
1 0.585107 0.714488
1 0.673091 0.696223
1 0.744778 0.667231
0.939956 0.823819 0.578637
0.997101 0.845289 0.518166
1 0.888747 0
1 0.913817 0
0.9841 0.920241 0.625696
0.979339 0.933989 0.753185
0.0371252 0.0477607 0.0481727
0.0371252 0.0477607 0.0481727
0.0371252 0.0477607 0.0481727
0.0371252 0.0477607 0.0481727
0.0622416 0.0470741 0.0477455
0.137133 0.0474708 0.0484016
0.195666 0.0475013 0.0485695
0.257145 0.0472725 0.0484779
0.329305 0.0467536 0.0480812
0.417151 0.0458381 0.0472877
0.508019 0.0446479 0.0461891
0.590723 0.0436713 0.045243
0.661906 0.042237 0.0603647
0.722713 0.0420691 0.103517
0.79115 0.0410468 0.201144
0.861326 0.0386206 0.409613
0.9346 0.0363775 0.594842
1 0.0354772 0.690822
1 0.0348211 0.759915
1 0.0342718 0.812634
1 0.0341497 0.823499
1 0.0341497 0.823499
1 0.0341497 0.822934
1 0.306401 0.762249
1 0.593011 0.712886
1 0.677394 0.695033
1 0.748226 0.663325
0.942931 0.824247 0.578805
0.997253 0.846387 0.507393
1 0.889281 0
1 0.914107 0
0.984115 0.920455 0.624002
0.979324 0.934096 0.752895
0.0281834 0.106447 0.0377508
0.027512 0.111604 0.0369421
0.0268559 0.116533 0.0361791
0.0262608 0.121263 0.035462
0.0260166 0.12311 0.0351873
0.110262 0.120806 0.0353094
0.148745 0.125521 0.0147097
0.217502 0.114824 0.0121462
0.316136 0.0845045 0.0399634
0.418769 0.0458228 0.0472725
0.510796 0.0446174 0.0461585
0.593484 0.0436561 0.0452125
0.663645 0.042237 0.0613413
0.724498 0.0420539 0.105257
0.792584 0.0410163 0.204059
0.862257 0.0385901 0.412619
0.935164 0.0363775 0.595911
1 0.0354772 0.691051
1 0.0348211 0.759777
1 0.0342718 0.812253
1 0.0341497 0.823499
1 0.0341497 0.823407
1 0.0341497 0.822843
1 0.380163 0.748898
1 0.600443 0.711376
1 0.68159 0.693812
1 0.751919 0.658579
0.946624 0.824384 0.579324
0.997513 0.847501 0.493675
1 0.889799 0
1 0.914397 0
0.984131 0.920668 0.622324
0.979309 0.934203 0.75259
0.0213169 0.161501 0.0295567
0.0208743 0.165347 0.0290074
0.0204318 0.169146 0.0284733
0.0200961 0.172122 0.0280613
0.0199283 0.173571 0.0278477
0.07393 0.172473 0.0276188
0.153368 0.169406 0.026978
0.218631 0.165301 0.0257115
0.241794 0.176608 0
0.369497 0.14902 0
0.493141 0.107698 0.031632
0.595956 0.0436408 0.0451972
0.665476 0.0422522 0.0623636
0.726406 0.0420386 0.107118
0.794095 0.0409857 0.207279
0.863264 0.0385443 0.415839
0.93576 0.0363622 0.596963
1 0.035462 0.691295
1 0.0348211 0.759609
1 0.034287 0.81178
1 0.0341497 0.823499
1 0.0341497 0.82324
1 0.0341497 0.822721
1 0.433341 0.739605
1 0.607782 0.709834
1 0.685847 0.692561
0.997055 0.756039 0.652659
0.951003 0.824292 0.580148
0.997833 0.848737 0.476234
1 0.890333 0
1 0.914702 0
0.984146 0.920882 0.620508
0.979309 0.934325 0.752255
0.0151217 0.216709 0.0219577
0.014786 0.219821 0.0215457
0.0144656 0.222904 0.021149
0.0142824 0.224628 0.0209201
0.0141604 0.225711 0.0207675
0.0141146 0.226139 0.0207218
0.122438 0.222919 0.0196078
0.20061 0.219181 0.0185397
0.277043 0.214084 0.0171359
0.314611 0.227405 0
0.398825 0.217166 0
0.552346 0.168505 0
0.64863 0.115328 0.0276493
0.728847 0.0420233 0.10956
0.796063 0.0409247 0.211505
0.864546 0.0385138 0.419837
0.936522 0.036347 0.598352
1 0.035462 0.691569
1 0.0348211 0.759396
1 0.034287 0.811215
1 0.0341497 0.823499
1 0.0341497 0.823117
1 0.0341497 0.822568
1 0.480919 0.731182
1 0.616663 0.707927
1 0.691173 0.690929
0.991073 0.761807 0.643717
0.957443 0.82388 0.581582
0.998428 0.850416 0.447425
1 0.89102 0
1 0.915068 0
0.984176 0.921157 0.618082
0.979294 0.934462 0.751842
0.00895705 0.2766 0.0142367
0.0087129 0.279179 0.0139162
0.00851453 0.281102 0.0136721
0.00839246 0.282353 0.0135195
0.00831617 0.283253 0.0134127
0.00825513 0.283757 0.0133516
0.0393835 0.28304 0.0131533
0.16846 0.278416 0.0109712
0.254871 0.273777 0.0093843
0.356558 0.266651 0.00708019
0.406806 0.273365 0
0.44741 0.27895 0
0.547784 0.248737 0
0.700023 0.176806 0.0433051
0.786206 0.0909133 0.18526
0.866545 0.0383307 0.425055
0.93756 0.0363317 0.600229
1 0.035462 0.691966
1 0.0348363 0.759075
1 0.034287 0.810376
1 0.0341497 0.823316
1 0.0341497 0.822995
1 0.0341497 0.822339
1 0.522606 0.723659
1 0.627604 0.70547
1 0.69839 0.686885
0.981018 0.770077 0.63035
0.9664 0.823087 0.583551
0.999741 0.852964 0.388754
1 0.89192 0
1 0.915587 0
0.984222 0.921523 0.614893
0.979278 0.934646 0.751278
0.00198367 0.351232 0.00518807
0.00180056 0.353445 0.00492866
0.00167849 0.354681 0.00479133
0.00158694 0.355917 0.004654
0.00151064 0.356786 0.00454719
0.00144961 0.357366 0.00447089
0.00141909 0.357748 0.00442512
0.10251 0.35436 0.00300603
0.216464 0.347814 0.000793469
0.32781 0.339376 0
0.435035 0.32929 0
0.519631 0.322103 0
0.5093 0.337606 0
0.566415 0.317113 0
0.759808 0.232517 0.132204
0.838132 0.169848 0.373892
0.933333 0.0562905 0.592905
1 0.035462 0.692485
1 0.0348363 0.758572
1 0.0343023 0.808957
1 0.0341497 0.823117
1 0.0341497 0.822766
1 0.215885 0.778439
1 0.559808 0.717159
1 0.640879 0.702327
1 0.706966 0.683955
0.966125 0.781186 0.613062
0.977615 0.822187 0.585199
1 0.857954 0.216617
1 0.89308 0
1 0.916243 0
0.984283 0.922011 0.610376
0.979263 0.934905 0.750546
0 0.43267 0
0 0.433265 0
0 0.433829 0
0 0.434318 0
0 0.434623 0
0 0.434714 0
0 0.434546 0
0 0.434012 0
0.15169 0.427634 0
0.279454 0.420356 0
0.4047 0.411292 0
0.517601 0.400809 0
0.601862 0.388678 0
0.635157 0.383032 0
0.635645 0.383764 0
0.818158 0.294865 0.342977
0.898558 0.218524 0.551293
0.998657 0.0819867 0.678584
1 0.0348516 0.757015
1 0.0343328 0.806943
1 0.0341497 0.822843
1 0.0341497 0.8224
1 0.447517 0.736355
1 0.587442 0.711818
1 0.656779 0.698283
1 0.717678 0.679927
0.949294 0.794324 0.595834
0.988739 0.822217 0.583398
1 0.865812 0
1 0.894575 0
1 0.917098 0
0.98436 0.922652 0.60412
0.979232 0.935225 0.749569
0 0.51223 0
0 0.512734 0
0 0.513268 0
0 0.513649 0
0 0.513939 0
0 0.514107 0
0 0.514183 0
0 0.514031 0
0 0.513497 0
0.202243 0.505257 0
0.355703 0.496544 0
0.48806 0.486748 0
0.586069 0.476249 0
0.659907 0.46273 0
0.709529 0.453315 0.0366674
0.798459 0.419532 0.302678
0.872129 0.380362 0.518914
0.953964 0.296132 0.633524
1 0.112093 0.734524
1 0.0343633 0.803967
1 0.0341497 0.822385
1 0.353643 0.752514
1 0.547539 0.719341
1 0.617166 0.705821
1 0.675731 0.692973
1 0.730892 0.67422
0.93753 0.806577 0.583352
0.996429 0.824689 0.572717
1 0.868971 0
1 0.896483 0
1 0.918212 0
0.984512 0.923506 0.595178
0.979202 0.935637 0.748287
0 0.585 0
0 0.585382 0
0 0.585718 0
0 0.585992 0
0 0.586206 0
0 0.586358 0
0 0.586496 0
0 0.586542 0
0 0.586404 0
0.0184939 0.586145 0
0.268482 0.576516 0
0.439002 0.567285 0
0.562509 0.558709 0
0.641749 0.550637 0
0.718715 0.540978 0
0.716899 0.550774 0.18172
0.853681 0.505562 0.487602
0.923308 0.480125 0.600397
0.98735 0.440101 0.669047
1 0.388006 0.724636
1 0.432898 0.738796
1 0.541024 0.72047
1 0.598489 0.709651
1 0.648554 0.698833
1 0.698054 0.68368
1 0.748959 0.658518
0.933623 0.817502 0.574502
0.998245 0.830762 0.546624
1 0.872938 0
1 0.898894 0
1 0.919615 0
0.984741 0.924636 0.581659
0.979171 0.936187 0.746578
0 0.641901 0
0 0.64213 0
0 0.642344 0
0 0.642512 0
0 0.642649 0
0 0.642756 0
0 0.642863 0
0 0.642954 0
0 0.643046 0
0 0.643107 0
0.0796826 0.642359 0
0.347539 0.631998 0
0.522637 0.622934 0
0.619028 0.616358 0
0.701305 0.609751 0
0.776867 0.601038 0.0576181
0.781659 0.611551 0.378286
0.907668 0.57731 0.578103
0.963806 0.569909 0.642435
1 0.566629 0.689128
1 0.576272 0.713985
1 0.608103 0.707698
1 0.643656 0.699992
1 0.682124 0.690318
1 0.723293 0.674327
0.963546 0.781781 0.607797
0.952453 0.821988 0.57438
0.998978 0.839506 0.47985
1 0.877821 0
1 0.901915 0
1 0.921431 0
0.985153 0.926177 0.560098
0.97911 0.936904 0.744244
0 0.698161 0
0 0.698344 0
0 0.698497 0
0 0.698619 0
0 0.698741 0
0 0.698848 0
0 0.698955 0
0 0.699062 0
0 0.699138 0
0 0.699153 0
0 0.699062 0
0.12134 0.696742 0
0.447761 0.682292 0
0.587884 0.673915 0
0.678157 0.667384 0
0.761822 0.660792 0
0.832532 0.648722 0.265751
0.889647 0.640726 0.539757
0.949371 0.634089 0.618952
0.99173 0.63444 0.66804
1 0.641382 0.700511
1 0.662104 0.695476
1 0.687892 0.688594
1 0.71812 0.676448
0.993347 0.757137 0.64184
0.93373 0.811887 0.574792
0.992706 0.820615 0.574517
1 0.858366 0
1 0.883711 0
1 0.905577 0
1 0.923705 0
0.986053 0.928389 0.52015
0.979065 0.937835 0.740856
0 0.755581 0
0 0.755688 0
0 0.755779 0
0 0.755856 0
0 0.755917 0
0 0.755962 0
0 0.756024 0
0 0.756069 0
0 0.756085 0
0 0.756024 0
0 0.755886 0
0 0.75552 0
0.224918 0.748775 0
0.542519 0.732677 0
0.64686 0.725597 0
0.737758 0.718883 0
0.822065 0.712261 0
0.878782 0.700023 0.415808
0.90193 0.707042 0.543099
0.975357 0.694331 0.638193
1 0.699718 0.675685
1 0.713481 0.678248
1 0.73257 0.670115
0.984634 0.764599 0.629892
0.93521 0.807248 0.575326
0.969284 0.819211 0.574289
0.999176 0.834745 0.495521
1 0.868635 0
1 0.890639 0
1 0.910002 0
1 0.926528 0
0.991302 0.934035 0.312718
0.979004 0.938994 0.736675
0 0.812894 0
0 0.812955 0
0 0.812985 0
0 0.813016 0
0 0.813016 0
0 0.813031 0
0 0.813046 0
0 0.813016 0
0 0.812985 0
0 0.812863 0
0 0.81265 0
0 0.812222 0
0 0.81146 0
0.399008 0.796231 0
0.603586 0.784146 0
0.706538 0.776867 0
0.797192 0.769985 0
0.873915 0.76437 0
0.921004 0.753948 0.379141
0.890242 0.77705 0.522957
0.937713 0.775219 0.579004
0.965759 0.778836 0.60763
0.939452 0.801312 0.580636
0.934646 0.817685 0.567285
0.981704 0.817563 0.573144
0.999451 0.831235 0.502647
1 0.860853 0
1 0.880125 0
1 0.898558 0
1 0.915099 0
1 0.929992 0
1 0.943587 0
0.978927 0.940459 0.731029
0 0.868498 0
0 0.868498 0
0 0.868482 0
0 0.868467 0
0 0.868437 0
0 0.868406 0
0 0.86836 0
0 0.868284 0
0 0.868162 0
0 0.867964 0
0 0.867628 0
0 0.867094 0
0 0.86627 0
0 0.865095 0
0.532586 0.842222 0
0.668315 0.833127 0
0.76788 0.825635 0
0.84892 0.819425 0
0.910277 0.815442 0
0.955581 0.814115 0
0.974792 0.805493 0.48571
0.979156 0.81445 0.569665
0.993301 0.818357 0.567956
0.999329 0.827024 0.527108
1 0.846754 0.0823529
1 0.862943 0
1 0.87744 0
1 0.892515 0
1 0.907271 0
1 0.921019 0
1 0.934112 0
1 0.946303 0
0.978866 0.94229 0.723156
0 0.914961 0
0 0.914916 0
0 0.914855 0
0 0.914794 0
0 0.914717 0
0 0.914641 0
0 0.914549 0
0 0.914412 0
0 0.914199 0
0 0.913893 0
0 0.913436 0
0 0.912749 0
0 0.911788 0
0 0.910536 0
0 0.90866 0
0.626001 0.880186 0
0.740887 0.871519 0
0.825193 0.864683 0
0.888457 0.859754 0
0.936355 0.856748 0
0.972488 0.855741 0
0.998428 0.856947 0
1 0.860487 0
1 0.866667 0
1 0.874434 0
1 0.883665 0
1 0.894102 0
1 0.905241 0
1 0.916426 0
1 0.927718 0
1 0.938872 0
1 0.949508 0
0.978805 0.944564 0.712032
0 0.950362 0
0 0.950256 0
0 0.950179 0
0 0.950088 0
0 0.949981 0
0 0.949874 0
0 0.949737 0
0 0.949538 0
0 0.949264 0
0 0.948882 0
0 0.948318 0
0 0.94757 0
0 0.946548 0
0 0.94522 0
0 0.943526 0
0.582864 0.916945 0
0.720287 0.906889 0
0.807019 0.899687 0
0.870268 0.894362 0
0.919356 0.890486 0
0.95697 0.888167 0
0.984482 0.887602 0
1 0.888579 0
1 0.892027 0
1 0.89691 0
1 0.902922 0
1 0.909911 0
1 0.917601 0
1 0.926055 0
1 0.935073 0
1 0.944244 0
1 0.953201 0
0.978866 0.947356 0.695369
0 0.978134 0
0 0.978012 0
0 0.97789 0
0 0.977768 0
0 0.977661 0
0 0.977523 0
0 0.977356 0
0 0.977111 0
0 0.976776 0
0 0.976349 0
0 0.975769 0
0 0.974975 0
0 0.973953 0
0 0.97261 0
0 0.970932 0
0.543755 0.946227 0
0.707744 0.934615 0
0.794537 0.927428 0
0.856367 0.922026 0
0.905028 0.9178 0
0.942992 0.914778 0
0.971771 0.913039 0
0.994293 0.912444 0
1 0.913481 0
1 0.916136 0
1 0.919722 0
1 0.924239 0
1 0.929686 0
1 0.935943 0
1 0.942809 0
1 0.950057 0
1 0.957351 0
0.979049 0.950698 0.669306
0 0.998413 0
0 0.998276 0
0 0.998138 0
0 0.998001 0
0 0.997864 0
0 0.997711 0
0 0.997528 0
0 0.997269 0
0 0.996933 0
0 0.99649 0
0 0.995911 0
0 0.995132 0
0 0.994125 0
0 0.992844 0
0 0.991196 0
0.548318 0.966155 0
0.707942 0.954925 0
0.789853 0.948119 0
0.848371 0.942916 0
0.895247 0.938659 0
0.932067 0.935393 0
0.961135 0.933059 0
0.984543 0.931594 0
1 0.931136 0
1 0.932448 0
1 0.934615 0
1 0.937575 0
1 0.941253 0
1 0.945647 0
1 0.950622 0
0.999893 0.956069 0
0.999466 0.961929 0
0.978805 0.954177 0.661524
0 1 0
0 1 0
0 1 0
0 1 0
0 1 0
0 1 0
0 1 0
0 1 0
0 1 0
0 1 0
0 1 0
0 1 0
0 1 0
0 1 0
0 1 0
0.598703 0.979004 0
0.72047 0.970199 0
0.792035 0.964202 0
0.845487 0.959426 0
0.889204 0.955367 0
0.923919 0.952148 0
0.95227 0.949615 0
0.975723 0.947723 0
0.994003 0.946609 0
1 0.946685 0
1 0.947768 0
1 0.949508 0
1 0.951827 0
0.999817 0.954711 0
0.99942 0.95819 0
0.999054 0.962234 0
0.99884 0.966766 0
0.978378 0.957824 0.660136
0 1 0
0 1 0
0 1 0
0 1 0
0 1 0
0 1 0
0 1 0
0 1 0
0 1 0
0 1 0
0 1 0
0 1 0
0 1 0
0 1 0
0.306615 1 0
0.661692 0.987579 0
0.743465 0.981308 0
0.800992 0.976425 0
0.847898 0.972183 0
0.887098 0.96849 0
0.918914 0.965454 0
0.945891 0.96289 0
0.968551 0.960815 0
0.986816 0.959319 0
0.999176 0.958526 0
0.999146 0.958907 0
0.999039 0.959777 0
0.998871 0.961151 0
0.998672 0.963012 0
0.998444 0.965408 0
0.99826 0.968307 0
0.998215 0.97171 0
0.977783 0.961517 0.665232
0 1 0
0 1 0
0 1 0
0 1 0
0 1 0
0 1 0
0 1 0
0 1 0
0 1 0
0 1 0
0 1 0
0 1 0
0 1 0
0.492271 1 0
0.648905 0.998703 0
0.719463 0.993515 0
0.772137 0.989212 0
0.816327 0.985351 0
0.855177 0.981796 0
0.888701 0.978592 0
0.917006 0.975845 0
0.942016 0.973419 0
0.963333 0.971344 0
0.980896 0.969741 0
0.995392 0.968551 0
0.997818 0.968353 0
0.997787 0.968688 0
0.997742 0.969375 0
0.99765 0.97052 0
0.997559 0.972091 0
0.997528 0.97406 0
0.99765 0.976501 0
0.976989 0.965057 0.679194
0 1 0
0 1 0
0 1 0
0 1 0
0 1 0
0 1 0
0 1 0
0 1 0
0 1 0
0 1 0
0.504265 1 0
0.593957 1 0
0.649607 1 0
0.69398 1 0
0.732998 1 0
0.769039 0.997711 0
0.803235 0.994781 0
0.835843 0.991836 0
0.866148 0.989013 0
0.893248 0.986389 0
0.917952 0.983948 0
0.940352 0.981704 0
0.959838 0.979767 0
0.976425 0.978134 0
0.990387 0.976837 0
0.996704 0.976196 0
0.996765 0.97615 0
0.996796 0.97641 0
0.99678 0.976989 0
0.996826 0.977935 0
0.996933 0.979248 0
0.997208 0.980941 0
0.976043 0.968353 0.701564
0.664958 1 0
0.669551 1 0
0.673915 1 0
0.678096 1 0
0.682155 1 0
0.686198 1 0
0.691142 1 0
0.697353 1 0
0.705043 1 0
0.714336 1 0
0.725643 1 0
0.738766 1 0
0.754299 1 0
0.771649 1 0
0.790997 1 0
0.812161 1 0
0.83447 0.998322 0
0.857176 0.996216 0
0.879377 0.994095 0
0.900771 0.992004 0
0.921553 0.989914 0
0.940932 0.987961 0
0.958206 0.986191 0
0.973419 0.984649 0
0.986587 0.983322 0
0.995865 0.982391 0
0.995941 0.982193 0
0.996017 0.982162 0
0.996109 0.982422 0
0.996246 0.982986 0
0.996475 0.983841 0
0.996872 0.985046 0
0.975036 0.971328 0.72961
0.780468 1 0
0.781949 1 0
0.783368 1 0
0.784787 1 0
0.786191 1 0
0.787625 1 0
0.789425 1 0
0.791791 1 0
0.794858 1 0
0.798764 1 0
0.803693 1 0
0.809857 1 0
0.817426 1 0
0.826566 1 0
0.837385 0.999725 0
0.849805 0.999008 0
0.8636 0.998215 0
0.87834 0.997375 0
0.894118 0.996475 0
0.910628 0.995514 0
0.927275 0.994247 0
0.943389 0.992599 0
0.958221 0.991058 0
0.971817 0.989639 0
0.983825 0.988403 0
0.993881 0.987396 0
0.995331 0.98703 0
0.995453 0.986893 0
0.995636 0.986954 0
0.995865 0.987274 0
0.996216 0.987839 0
0.977859 0.975921 0.594217
0.974151 0.973999 0.759838
0.842893 0.999512 0
0.843595 0.999466 0
0.844297 0.999435 0
0.844968 0.99939 0
0.845655 0.999359 0
0.846357 0.999313 0
0.847257 0.999252 0
0.848432 0.999191 0
0.849958 0.9991 0
