BBLuts/BB_104_0240_LUT.cube
TITLE "Generated by Resolve"
LUT_3D_SIZE 9
0 0 0
0 0 0
0.126635 0 0
0.388495 0 0
0.633234 0 0.366094
0.726329 0 0.629038
0.722988 0.438025 0.638804
0.711345 0.677043 0.518975
0.706081 0.725948 0.691035
0 0 0
0 0.00886549 0
0.135119 0 0
0.399588 0 0
0.634333 0 0.370916
0.726329 0 0.629038
0.721675 0.4925 0.63798
0.711681 0.679408 0.467872
0.706081 0.726177 0.690333
0 0.160723 0
0 0.164736 0
0.0887007 0.162112 0
0.399558 0.12932 0
0.635691 0 0.374594
0.726329 0 0.628779
0.719997 0.545098 0.636072
0.713085 0.683711 0.224674
0.706081 0.726558 0.689143
0 0.443305 0
0 0.444526 0
0 0.445212 0
0.324025 0.448112 0
0.633738 0.433875 0.353002
0.722637 0.452781 0.63711
0.715602 0.606607 0.624735
0.713756 0.692439 0.00390631
0.706065 0.72781 0.685466
0 0.65774 0
0 0.65771 0
0 0.657511 0
0 0.656275 0
0.600412 0.651896 0
0.700786 0.654154 0.44889
0.713848 0.676295 0.124636
0.7131 0.708614 0.00581369
0.706096 0.730648 0.67303
0 0.739467 0.0326696
0 0.739132 0.0324712
0 0.738567 0.0321508
0 0.736873 0.0311589
0.578347 0.726604 0.0117037
0.682231 0.721477 0.00627146
0.712474 0.722225 0.00738537
0.712169 0.729503 0.0081178
0.706447 0.737011 0.634516
0 0.763439 0.0448615
0 0.76321 0.0447547
0 0.762875 0.0446174
0.536828 0.754925 0.0218814
0.626734 0.750317 0.0105745
0.677699 0.747555 0.00895705
0.708476 0.745998 0.00933852
0.711238 0.746273 0.0093843
0.705577 0.744564 0.661692
0.663249 0.753796 0.00926223
0.66389 0.753796 0.00924697
0.664912 0.75378 0.00924697
0.667842 0.75378 0.00923171
0.675196 0.753765 0.00924697
0.688975 0.75378 0.00939956
0.705272 0.753857 0.00962844
0.711131 0.754116 0.00967422
0.704692 0.749157 0.733669
0.692515 0.749004 0.758541
0.692592 0.749004 0.758572
0.692699 0.749004 0.758602
0.693034 0.749004 0.758709
0.693996 0.749004 0.758984
0.696437 0.749004 0.759838
0.701167 0.749004 0.762158
0.705318 0.749004 0.767636
0.705821 0.748974 0.78024
0 0 0.0265965
0 0 0.027039
0.137011 0 0.0355993
0.389731 0 0.054963
0.633112 0 0.387945
0.726329 0 0.63003
0.723201 0.428946 0.639719
0.710933 0.676326 0.559472
0.70602 0.725917 0.698131
0 0 0.00720226
0.00209049 0 0.00396735
0.153002 0 0.0225071
0.395163 0 0.0370336
0.633646 0 0.378592
0.726314 0 0.62974
0.721828 0.486366 0.63888
0.711086 0.678553 0.535546
0.70602 0.726146 0.69752
0 0.1505 0
0 0.153918 0
0.105562 0.151751 0
0.397864 0.118853 0
0.634897 0 0.370626
0.726329 0 0.628809
0.720119 0.541711 0.637125
0.71162 0.682231 0.456306
0.706004 0.726513 0.696513
0 0.438682 0
0 0.439811 0
0 0.440269 0
0.337209 0.442649 0
0.633631 0.429282 0.35404
0.722774 0.447181 0.637171
0.715679 0.605661 0.625818
0.713771 0.692164 0.00387579
0.705989 0.727749 0.693355
0 0.65713 0
0 0.657084 0
0 0.656886 0
0 0.655619 0
0.601801 0.651316 0
0.700801 0.653712 0.457832
0.71371 0.676005 0.162829
0.7131 0.708537 0.00581369
0.705959 0.730556 0.683009
0 0.739345 0.0325933
0 0.73901 0.0323949
0 0.738445 0.0320745
0 0.736751 0.0310826
0.579446 0.726482 0.0115053
0.682368 0.721416 0.00627146
0.712474 0.722194 0.00738537
0.712169 0.729488 0.00810254
0.706416 0.736965 0.63653
0 0.763394 0.044831
0 0.763165 0.0447395
0 0.762829 0.0445869
0.540108 0.754818 0.0215457
0.6271 0.750286 0.0105287
0.677775 0.747539 0.00895705
0.708492 0.745983 0.00933852
0.711238 0.746273 0.0093843
0.705577 0.744564 0.661631
0.663355 0.753796 0.00926223
0.663981 0.753796 0.00924697
0.665003 0.753796 0.00924697
0.667918 0.75378 0.00923171
0.675258 0.753765 0.00924697
0.689006 0.75378 0.00939956
0.705287 0.753857 0.00962844
0.711131 0.754116 0.00967422
0.704692 0.749157 0.733654
0.692531 0.749004 0.758541
0.692592 0.749004 0.758572
0.692699 0.749004 0.758602
0.693049 0.749004 0.758694
0.694011 0.749004 0.758999
0.696452 0.749004 0.759838
0.701183 0.749004 0.762158
0.705318 0.749004 0.767636
0.705821 0.748974 0.78024
0 0 0.232456
0 0 0.232731
0.140673 0 0.235813
0.400351 0 0.241779
0.632898 0 0.428031
0.726299 0 0.631556
0.723598 0.412802 0.642084
0.710445 0.675334 0.591455
0.705959 0.725887 0.707851
0 0 0.227466
0 0 0.227893
0.1608 0 0.229786
0.398856 0 0.237263
0.633982 0 0.429648
0.726314 0 0.631464
0.722118 0.473869 0.641276
0.710475 0.677485 0.583276
0.705943 0.726116 0.707347
0 0.159533 0.1888
0 0.16141 0.187945
0.125856 0.155413 0.18584
0.382284 0.134737 0.20589
0.633371 0 0.424475
0.726314 0 0.631113
0.720394 0.534432 0.639643
0.710597 0.680842 0.565332
0.705943 0.726482 0.706523
0 0.427222 0
0 0.428534 0
0 0.429175 0
0.341573 0.430976 0
0.631479 0.418631 0.392721
0.723156 0.430976 0.63888
0.715862 0.603235 0.629648
0.713802 0.691768 0.00383001
0.705882 0.72752 0.703975
0 0.655879 0
0 0.655818 0
0 0.65565 0
0 0.655055 0
0.60296 0.650126 0
0.70071 0.65272 0.472572
0.712901 0.674861 0.337575
0.71313 0.708309 0.00578317
0.705791 0.73048 0.695872
0 0.739162 0.0324865
0 0.738842 0.0322728
0 0.738262 0.0319677
0 0.736919 0.0308537
0.580072 0.726757 0.0110628
0.682582 0.721309 0.0062562
0.712489 0.722118 0.00737011
0.712169 0.729442 0.00810254
0.705928 0.736584 0.664576
0 0.763333 0.0448157
0 0.763409 0.0445869
0 0.762798 0.0445563
0.545113 0.754635 0.0210269
0.62771 0.750225 0.0104829
0.677913 0.747509 0.00895705
0.708537 0.745968 0.00933852
0.711238 0.746258 0.0093843
0.705577 0.744564 0.661524
0.663493 0.753796 0.00924697
0.663554 0.754025 0.00903334
0.664927 0.753872 0.00917067
0.66804 0.75378 0.00923171
0.674937 0.753933 0.00909438
0.689052 0.753796 0.00939956
0.705303 0.753857 0.00962844
0.711131 0.754116 0.00967422
0.704692 0.749157 0.733654
0.692546 0.749004 0.758541
0.692424 0.749081 0.758404
0.691707 0.749416 0.757733
0.693049 0.749004 0.758679
0.69395 0.749035 0.758907
0.696361 0.74905 0.759747
0.701183 0.749004 0.762142
0.705318 0.749004 0.767636
0.705821 0.748974 0.78024
0.149203 0.184421 0.517662
0.149401 0.184649 0.5178
0.148501 0.185245 0.51635
0.388022 0.1794 0.516091
0.638529 0.127443 0.557992
0.726268 0 0.641382
0.723827 0.401999 0.657069
0.709545 0.673045 0.650797
0.705943 0.725948 0.728878
0.146487 0.181216 0.515465
0.146715 0.181521 0.515663
0.192218 0.181933 0.514092
0.400107 0.175601 0.513375
0.637613 0.123476 0.55581
0.726299 0 0.641199
0.722515 0.456031 0.656245
0.709453 0.675166 0.647959
0.705928 0.726177 0.728573
0.137926 0.221363 0.510964
0.137881 0.224506 0.511101
0.202396 0.22208 0.51165
0.40589 0.169024 0.510521
0.634791 0.119188 0.551232
0.726299 0 0.640742
0.720851 0.519066 0.654734
0.709316 0.678401 0.642969
0.705913 0.726528 0.728054
0.0756847 0.407141 0.467536
0.0757763 0.408698 0.46775
0.0764172 0.409888 0.468528
0.350317 0.412634 0.474327
0.623056 0.401129 0.533532
0.724071 0.392126 0.648234
0.71635 0.596368 0.646418
0.709133 0.686976 0.624216
0.705852 0.727749 0.726299
0 0.650477 0
0 0.650462 0
0 0.650324 0
0 0.649683 0
0.600504 0.645609 0
0.699214 0.648264 0.56231
0.711086 0.671077 0.572671
0.713237 0.707713 0.00572213
0.705715 0.730465 0.721508
0 0.738628 0.0321813
0 0.738323 0.0319677
0 0.737728 0.0316472
0 0.736034 0.0306554
0.581323 0.725765 0.0110628
0.682338 0.720867 0.0061799
0.712505 0.721752 0.00733959
0.71223 0.729244 0.00808728
0.70547 0.736278 0.706142
0 0.763119 0.0447242
0 0.762905 0.0446326
0.0964981 0.761685 0.0437629
0.558068 0.754131 0.0196231
0.627894 0.750698 0.00994888
0.677623 0.747723 0.0087129
0.708614 0.745937 0.00933852
0.711238 0.746242 0.0093843
0.705577 0.744564 0.661128
0.663981 0.753796 0.00924697
0.664607 0.753796 0.00924697
0.664836 0.754086 0.0089723
0.668437 0.75378 0.00923171
0.675349 0.753887 0.0091249
0.689006 0.753872 0.00932326
0.705348 0.753857 0.00962844
0.711131 0.754116 0.00967422
0.704692 0.749157 0.733577
0.692592 0.749004 0.758541
0.692638 0.74902 0.758541
0.691341 0.749584 0.757366
0.692912 0.749081 0.758511
0.694057 0.749004 0.758968
0.696498 0.749004 0.759823
0.701198 0.749004 0.762127
0.705318 0.749004 0.76762
0.705821 0.748974 0.78024
0.574304 0.566751 0.698131
0.574426 0.566781 0.698146
0.574563 0.566857 0.698192
0.576516 0.56643 0.696452
0.635737 0.579171 0.646342
0.716976 0.576211 0.717235
0.713588 0.587732 0.710567
0.709148 0.671595 0.736568
0.706294 0.726558 0.761501
0.573571 0.566369 0.697917
0.573693 0.5664 0.697932
0.573861 0.566491 0.697978
0.576349 0.566003 0.695888
0.637049 0.579248 0.644541
0.717113 0.575753 0.717418
0.713176 0.588785 0.708736
0.708995 0.673671 0.735897
0.706279 0.726772 0.761334
0.572274 0.565759 0.697581
0.572488 0.565805 0.697581
0.572641 0.565881 0.697627
0.574823 0.565911 0.694667
0.637552 0.579049 0.642664
0.717311 0.57496 0.717556
0.71191 0.591943 0.704067
0.708736 0.676799 0.734813
0.706233 0.727138 0.76109
0.564279 0.565484 0.696147
0.564446 0.565515 0.696147
0.564477 0.565606 0.696162
0.570901 0.564996 0.693462
0.636362 0.578073 0.639826
0.717464 0.573877 0.715724
0.701183 0.613596 0.675944
0.708156 0.685023 0.731609
0.706218 0.728328 0.760342
0.49189 0.630442 0.730816
0.491981 0.630564 0.731029
0.49218 0.63061 0.731075
0.493553 0.629984 0.730739
0.582803 0.638834 0.689311
0.694987 0.640238 0.698802
0.709545 0.665461 0.707683
0.707088 0.702083 0.721645
0.70605 0.731029 0.75816
0 0.737346 0.0314336
0 0.737041 0.0314183
0 0.736492 0.0310826
0 0.734813 0.0300908
0.573983 0.725338 0.0119173
0.678843 0.719768 0.0059205
0.707515 0.716777 0.625956
0.706203 0.723857 0.68983
0.705669 0.736706 0.752117
0 0.762829 0.0445869
0 0.762615 0.0444953
0.181933 0.760967 0.0428321
0.554696 0.753964 0.0199588
0.627237 0.749889 0.0104982
0.676417 0.747219 0.00892653
0.706813 0.745769 0.009308
0.711604 0.746395 0.00939956
0.705074 0.744335 0.736187
0.665141 0.753857 0.00929274
0.665736 0.753857 0.00927749
0.666697 0.753857 0.00927749
0.669413 0.753841 0.00926223
0.676341 0.753841 0.00929274
0.689525 0.753841 0.00943008
0.705272 0.753933 0.00965896
0.711131 0.754116 0.00967422
0.704616 0.749172 0.733455
0.692699 0.74902 0.758541
0.69276 0.74902 0.758556
0.692866 0.74902 0.758602
0.693202 0.74902 0.758694
0.694148 0.74902 0.758968
0.69633 0.749111 0.759609
0.701152 0.74905 0.762097
0.705333 0.749004 0.76759
0.705715 0.749004 0.78027
0.657237 0.663233 0.791852
0.657282 0.663233 0.791852
0.657282 0.663249 0.791852
0.657298 0.663264 0.791882
0.660243 0.66212 0.785245
0.707012 0.673259 0.742458
0.707103 0.673625 0.743114
0.700908 0.683925 0.747127
0.707759 0.72784 0.795468
0.657221 0.663203 0.791821
0.657252 0.663203 0.791806
0.657252 0.663203 0.791821
0.657267 0.663233 0.791836
0.660578 0.66215 0.784833
0.706996 0.673228 0.742397
0.707088 0.673594 0.743053
0.700191 0.685313 0.747875
0.707759 0.728069 0.795392
0.657191 0.663142 0.791745
0.657237 0.663127 0.79173
0.657237 0.663142 0.791745
0.657252 0.663157 0.79176
0.661173 0.662196 0.784085
0.706981 0.673182 0.742229
0.707073 0.673564 0.742901
0.699016 0.687648 0.749111
0.707698 0.72845 0.795254
0.657053 0.662959 0.791547
0.657099 0.662943 0.791547
0.657099 0.662959 0.791547
0.656977 0.662806 0.791394
0.662669 0.662333 0.782223
0.706935 0.673014 0.741924
0.706874 0.67277 0.741482
0.695552 0.694713 0.753262
0.707622 0.729534 0.794888
0.651576 0.659617 0.787213
0.651591 0.659617 0.787198
0.651545 0.659632 0.787198
0.651301 0.659449 0.786969
0.657267 0.659831 0.779599
0.70399 0.671931 0.737697
0.70074 0.679652 0.740826
0.687312 0.711742 0.763394
0.707439 0.732387 0.793866
0.606332 0.719265 0.825132
0.606409 0.719097 0.825116
0.606577 0.718776 0.824887
0.607217 0.717525 0.823941
0.613718 0.714824 0.817349
0.654536 0.720226 0.783917
0.706218 0.71693 0.782147
0.707271 0.725109 0.784329
0.706996 0.738231 0.791333
0.585977 0.74963 0.770932
0.587289 0.749401 0.770489
0.589868 0.749081 0.769024
0.600107 0.748226 0.762081
0.627771 0.745708 0.760464
0.667933 0.743053 0.762905
0.697429 0.741695 0.767758
0.705959 0.742473 0.774548
0.706386 0.745922 0.786297
0.658915 0.749218 0.724163
0.659388 0.749218 0.724315
0.660243 0.749218 0.724453
0.662699 0.749203 0.724895
0.669032 0.749187 0.726207
0.681407 0.749157 0.730068
0.696712 0.749126 0.738766
0.704921 0.749065 0.754803
0.705638 0.748989 0.777157
0.693156 0.74902 0.758465
0.693217 0.74902 0.758495
0.693324 0.74902 0.758511
0.693645 0.74902 0.758618
0.694545 0.74902 0.758907
0.696849 0.749035 0.759747
0.70135 0.749035 0.762051
0.705257 0.74902 0.767544
0.705715 0.749004 0.780255
0.67042 0.689204 0.809491
0.670451 0.689204 0.809461
0.670451 0.689204 0.809461
0.670451 0.689204 0.809461
0.670451 0.689204 0.809476
0.704707 0.698482 0.780011
0.706905 0.699016 0.778103
0.706905 0.699016 0.778103
0.700084 0.728405 0.808118
0.670436 0.689204 0.809476
0.670436 0.689204 0.809476
0.670436 0.689204 0.809476
0.670436 0.689204 0.809476
0.670436 0.689204 0.809476
0.704982 0.698558 0.779782
0.706905 0.699016 0.778103
0.706905 0.699016 0.778103
0.700114 0.728695 0.808438
0.670451 0.689204 0.809461
0.670451 0.689204 0.809461
0.670451 0.689204 0.809461
0.670451 0.689204 0.809461
0.670451 0.689204 0.809461
0.705409 0.698665 0.779355
0.706905 0.699031 0.778042
0.706905 0.699031 0.778042
0.700145 0.729183 0.808927
0.670451 0.689204 0.809476
0.670451 0.689204 0.809461
0.670451 0.689204 0.809461
0.670451 0.689204 0.809461
0.670451 0.689204 0.809461
0.706706 0.699001 0.778225
0.706905 0.699031 0.778042
0.706905 0.699031 0.778058
0.700328 0.73051 0.810346
0.670451 0.689204 0.809476
0.670451 0.689204 0.809461
0.670451 0.689204 0.809461
0.670451 0.689204 0.809461
0.670619 0.68925 0.809323
0.706905 0.699031 0.778058
0.706905 0.699031 0.778073
0.706966 0.698848 0.777951
0.700969 0.733959 0.813413
0.661616 0.703746 0.823972
0.661616 0.703792 0.824002
0.66157 0.703853 0.824079
0.661463 0.704067 0.824277
0.661601 0.702785 0.823606
0.685725 0.706371 0.801541
0.701503 0.71426 0.791257
0.699962 0.726024 0.805615
0.70251 0.740673 0.815869
0.634577 0.744289 0.8533
0.634607 0.744289 0.853361
0.634638 0.744289 0.853376
0.63473 0.744289 0.853391
0.638926 0.744579 0.849012
0.662943 0.745739 0.827024
0.692378 0.745556 0.81471
0.708568 0.744564 0.814008
0.7084 0.747814 0.814984
0.654093 0.749142 0.827985
0.65449 0.749187 0.82771
0.655131 0.749264 0.827176
0.657084 0.749477 0.825681
0.662531 0.74995 0.821942
0.674739 0.750515 0.815442
0.69778 0.748913 0.808423
0.707805 0.748943 0.809628
0.708019 0.748943 0.811902
0.69456 0.748913 0.800519
0.694591 0.748928 0.800549
0.694682 0.748928 0.800549
0.694987 0.748928 0.80058
0.695827 0.748928 0.800656
0.697978 0.748928 0.800885
0.70222 0.748943 0.801526
0.707225 0.748943 0.803174
0.70753 0.748943 0.806973
0.670405 0.689235 0.809506
0.670436 0.689219 0.809491
0.670436 0.689219 0.809491
0.670436 0.689219 0.809491
0.670436 0.689219 0.809491
0.670436 0.689235 0.809491
0.706905 0.699031 0.778088
0.706905 0.699031 0.778088
0.705745 0.702098 0.780438
0.67042 0.689235 0.809491
0.670436 0.689235 0.809491
0.670436 0.689235 0.809491
0.670436 0.689235 0.809491
0.670436 0.689235 0.809491
0.670436 0.689235 0.809491
0.706905 0.699031 0.778088
0.706905 0.699031 0.778088
0.705745 0.702098 0.780438
0.670451 0.689219 0.809491
0.670451 0.689219 0.809491
0.670451 0.689219 0.809491
0.670451 0.689219 0.809491
0.670451 0.689219 0.809491
0.670451 0.689219 0.809491
0.706905 0.699031 0.778042
0.706905 0.699031 0.778042
0.705745 0.702113 0.780392
0.670451 0.689219 0.809491
0.670451 0.689219 0.809491
0.670451 0.689219 0.809491
0.670451 0.689219 0.809491
0.670451 0.689219 0.809491
0.670451 0.689219 0.809476
0.706905 0.699031 0.778042
0.706905 0.699031 0.778042
0.705745 0.702098 0.780392
0.670451 0.689219 0.809491
0.670451 0.689219 0.809491
0.670451 0.689219 0.809491
0.670451 0.689219 0.809491
0.670451 0.689219 0.809491
0.670665 0.68925 0.809277
0.706905 0.699031 0.778042
0.706905 0.699031 0.778058
0.705745 0.702083 0.780377
0.670436 0.689219 0.809491
0.670436 0.689219 0.809491
0.670436 0.689219 0.809491
0.670436 0.689219 0.809491
0.670436 0.689219 0.809491
0.67924 0.69163 0.801953
0.706905 0.699031 0.778088
0.706889 0.699046 0.778119
0.700038 0.722225 0.800946
0.649546 0.740154 0.847837
0.649546 0.740154 0.847868
0.649531 0.740185 0.847868
0.649516 0.74023 0.847883
0.649439 0.740398 0.847944
0.658671 0.735668 0.838514
0.695659 0.738094 0.817472
0.703044 0.740429 0.81799
0.705196 0.746532 0.819974
0.650355 0.746227 0.84564
0.650675 0.746303 0.845319
0.651225 0.746426 0.844755
0.65301 0.746792 0.842924
0.659022 0.747845 0.837446
0.673747 0.749416 0.827787
0.69398 0.749798 0.821653
0.70602 0.749523 0.820417
0.70602 0.749523 0.820417
0.690715 0.749813 0.822232
0.690776 0.749813 0.822232
0.690898 0.749813 0.822202
0.691279 0.749813 0.822126
0.692363 0.749813 0.821927
0.69514 0.749783 0.821469
0.70042 0.749676 0.820829
0.70605 0.749523 0.820401
0.70602 0.749523 0.820417
0.670359 0.689387 0.809628
0.67039 0.689372 0.809598
0.67039 0.689372 0.809598
0.67039 0.689372 0.809598
0.67039 0.689372 0.809598
0.67039 0.689372 0.809598
0.670375 0.689372 0.809613
0.706844 0.699184 0.77821
0.705043 0.703975 0.781872
0.670375 0.689387 0.809613
0.670375 0.689372 0.809613
0.670375 0.689372 0.809613
0.670375 0.689372 0.809613
0.670375 0.689372 0.809613
0.670375 0.689372 0.809613
0.670375 0.689387 0.809613
0.706844 0.699184 0.77821
0.705043 0.703975 0.781872
0.67039 0.689372 0.809598
0.67039 0.689372 0.809598
0.67039 0.689372 0.809598
0.67039 0.689372 0.809598
0.67039 0.689372 0.809598
0.67039 0.689372 0.809598
0.67039 0.689372 0.809598
0.706844 0.699199 0.77818
0.705028 0.703975 0.781826
0.67039 0.689372 0.809598
0.67039 0.689372 0.809598
0.67039 0.689372 0.809598
0.67039 0.689372 0.809598
0.67039 0.689372 0.809598
0.67039 0.689372 0.809598
0.67039 0.689372 0.809598
0.706844 0.699199 0.77818
0.705028 0.70399 0.781842
0.67039 0.689372 0.809598
0.67039 0.689372 0.809598
0.67039 0.689372 0.809598
0.67039 0.689372 0.809598
0.67039 0.689372 0.809598
0.67039 0.689372 0.809598
0.670604 0.689418 0.8094
0.706828 0.699199 0.77818
0.705013 0.704021 0.781872
0.67039 0.689372 0.809598
0.67039 0.689372 0.809598
0.67039 0.689372 0.809598
0.67039 0.689372 0.809598
0.67039 0.689372 0.809598
0.67039 0.689372 0.809598
0.681422 0.692271 0.800092
0.706828 0.699214 0.778195
0.704997 0.704082 0.781918
0.67039 0.689372 0.809598
0.67039 0.689372 0.809598
0.67039 0.689372 0.809598
0.67039 0.689372 0.809598
0.670375 0.689372 0.809613
0.670375 0.689372 0.809613
0.706905 0.699031 0.778088
0.706828 0.699245 0.778256
0.704967 0.704173 0.781994
0.646784 0.745388 0.849546
0.646784 0.745388 0.849577
0.646784 0.745388 0.849577
0.646784 0.745388 0.849577
0.646784 0.745388 0.849577
0.646784 0.745388 0.849577
0.681254 0.749722 0.82475
0.70605 0.749523 0.820401
0.706035 0.749523 0.820417
0.675685 0.749508 0.826886
0.675898 0.749523 0.82681
0.676219 0.749538 0.826673
0.677195 0.749584 0.826261
0.679881 0.749676 0.825223
0.686229 0.749813 0.82327
0.696544 0.749752 0.821271
0.705608 0.749538 0.820432
0.70605 0.749523 0.820401
