BBLuts/BB_103_0290_LUT.cube
TITLE "Generated by Resolve"
LUT_3D_SIZE 5
0 0 0
0.185016 0 0
0.687236 0 0
0.782727 0.499779 0.0801099
0.749355 0.83212 0.588281
0 0.201297 0
0.136599 0.197879 0
0.678889 0.102846 0
0.77557 0.575143 0.0495155
0.749279 0.833249 0.587747
0 0.734478 0
0 0.73373 0
0.599832 0.721279 0
0.757778 0.758373 0
0.748791 0.840589 0.583658
0.493553 0.879728 0.152468
0.527901 0.877562 0.152209
0.640299 0.870695 0.162966
0.747753 0.864317 0.282582
0.746838 0.863798 0.602136
0.723918 0.871183 0.661463
0.724254 0.871199 0.661494
0.726757 0.871214 0.661799
0.739071 0.871321 0.664347
0.745464 0.871275 0.682109
0 0 0.132815
0.169162 0 0.129564
0.690425 0 0.125856
0.785824 0.481682 0.230655
0.749233 0.831708 0.601282
0 0.169421 0.116274
0.144549 0.163699 0.111009
0.680964 0.0501717 0.109499
0.778576 0.565393 0.21355
0.749157 0.832853 0.600824
0 0.731365 0
0 0.730587 0
0.602808 0.718471 0
0.759808 0.759228 0.0856184
0.748653 0.840238 0.597314
0.499809 0.879347 0.15169
0.532021 0.877256 0.151568
0.641443 0.870604 0.162631
0.747814 0.864286 0.282521
0.746838 0.863783 0.60206
0.723964 0.871183 0.661448
0.7243 0.871199 0.661494
0.726787 0.871214 0.661799
0.739086 0.871321 0.664347
0.745464 0.871275 0.682109
0 0 0.601755
0 0 0.601907
0.693385 0 0.590356
0.806867 0.170428 0.61207
0.748928 0.82916 0.656092
0 0 0.60058
0 0 0.600687
0.698894 0 0.589258
0.79205 0.406058 0.610162
0.748837 0.830396 0.655863
0 0.696223 0.567971
0 0.696239 0.568139
0.588861 0.684092 0.562387
0.757259 0.738094 0.578943
0.748272 0.838285 0.654154
0.490913 0.875608 0.475257
0.524666 0.873457 0.474205
0.634073 0.866346 0.476127
0.741436 0.860182 0.518715
0.746517 0.863142 0.642756
0.724376 0.871199 0.661402
0.724712 0.871199 0.661448
0.727138 0.871229 0.661753
0.739223 0.871336 0.664302
0.745464 0.871275 0.682094
0 0 0.752544
0 0 0.752544
0.0849165 0 0.749462
0.816983 0 0.751797
0.750637 0.800778 0.727977
0 0 0.752544
0 0 0.752544
0.106828 0 0.749218
0.816983 0 0.751797
0.750408 0.803754 0.727733
0 0 0.752544
0 0 0.752544
0.380407 0 0.745586
0.816983 0 0.751797
0.749111 0.820905 0.726314
0 0.890639 0.745571
0.00918593 0.888411 0.744198
0.538842 0.86302 0.723735
0.729931 0.85272 0.720516
0.746258 0.860075 0.722622
0.721767 0.871046 0.708324
0.722087 0.871046 0.708339
0.724483 0.871061 0.708415
0.736522 0.871183 0.709194
0.745296 0.871199 0.714794
0 0.250126 0.747585
0 0.250126 0.747585
0 0.250141 0.747585
0.191897 0.187518 0.7458
0.768093 0.646571 0.746654
0 0.250095 0.747585
0 0.250111 0.747585
0 0.250126 0.747585
0.191897 0.187488 0.7458
0.768078 0.646677 0.746654
0 0.249973 0.747585
0 0.249958 0.747585
0 0.249973 0.747585
0.504784 0.165255 0.744411
0.767971 0.647501 0.746578
0 0.248692 0.7476
0 0.248707 0.7476
0 0.248722 0.7476
0.816983 0 0.751797
0.767636 0.649851 0.746395
0.680537 0.870527 0.737789
0.682063 0.870542 0.737804
0.692073 0.870634 0.737819
0.726101 0.870985 0.737987
0.745388 0.871397 0.738293
