BBLuts/BB_104_0330_LUT.cube
TITLE "Generated by Resolve"
LUT_3D_SIZE 5
0.0384375 0.0384375 0.0384375
0.18819 0.0381323 0.0379339
0.714549 0.0134279 0.324941
0.866941 0.508995 0.627131
0.836316 0.886275 0.687602
0.0252689 0.219883 0.0357824
0.147753 0.223529 0.0363012
0.719265 0.0258335 0.332937
0.861708 0.605859 0.622873
0.836271 0.887236 0.685176
0 0.76199 0.0233463
0 0.761624 0.0233005
0.662562 0.759915 0.0312047
0.845151 0.801007 0.127184
0.835966 0.893538 0.664591
0 0.934173 0.0570535
0 0.933242 0.0569314
0.701274 0.920913 0.0393988
0.83328 0.914122 0.0378882
0.834562 0.916411 0.64976
0.814588 0.924529 0.772992
0.814878 0.924529 0.773053
0.816999 0.924544 0.773541
0.828656 0.924605 0.777569
0.836423 0.924697 0.801099
0.0669413 0.061799 0.23476
0.200336 0.0614786 0.236133
0.714183 0.0129091 0.37911
0.867979 0.483009 0.631373
0.836347 0.88629 0.70901
0.0492561 0.221225 0.197864
0.186496 0.21825 0.19707
0.714885 0.0129397 0.375845
0.862455 0.596323 0.627466
0.836286 0.887266 0.707301
0 0.758984 0.0229038
0 0.758572 0.0228428
0.666773 0.757015 0.0310521
0.845228 0.799908 0.295186
0.835859 0.893446 0.69366
0 0.933989 0.057023
0 0.933074 0.0569162
0.702831 0.92079 0.0393378
0.833356 0.914092 0.0378882
0.834577 0.916396 0.649546
0.814633 0.924529 0.772992
0.814939 0.924529 0.773053
0.817044 0.924544 0.773541
0.828672 0.924605 0.777569
0.836423 0.924697 0.801099
0.584512 0.64062 0.716182
0.584665 0.640787 0.71632
0.7196 0.637888 0.71574
0.858534 0.6551 0.742596
0.837674 0.887785 0.777447
0.583185 0.639124 0.715038
0.583368 0.639338 0.71519
0.725093 0.636362 0.714809
0.857893 0.660426 0.740139
0.837583 0.888731 0.776898
0.523369 0.742565 0.68191
0.52369 0.742855 0.682109
0.667903 0.735759 0.683711
0.843671 0.786786 0.710704
0.837049 0.89485 0.773022
0 0.933165 0.0569162
0.211078 0.935027 0.0605631
0.702113 0.920211 0.0393683
0.830579 0.913756 0.0379034
0.834791 0.916686 0.744381
0.814969 0.924544 0.772946
0.815259 0.924544 0.773007
0.817319 0.924544 0.773495
0.828794 0.924605 0.777523
0.836423 0.924697 0.801099
0.753658 0.833951 0.85391
0.753658 0.833951 0.85391
0.753658 0.833951 0.85391
0.847318 0.833783 0.853834
0.843793 0.884382 0.853223
0.753658 0.833951 0.85391
0.753658 0.833951 0.85391
0.753658 0.833951 0.85391
0.847318 0.833783 0.853834
0.843702 0.885832 0.853223
0.753658 0.833951 0.85391
0.753658 0.833951 0.85391
0.754086 0.833951 0.85391
0.847318 0.833783 0.853834
0.843137 0.895048 0.852689
0.721462 0.924727 0.84239
0.721523 0.924727 0.842451
0.731212 0.923522 0.842954
0.82623 0.916197 0.844221
0.841352 0.922957 0.84596
0.818479 0.924697 0.827329
0.818738 0.924712 0.827344
0.820569 0.924712 0.827482
0.830915 0.924773 0.82858
0.839643 0.924819 0.835599
0.753628 0.834241 0.85391
0.753628 0.834241 0.85391
0.753628 0.834241 0.85391
0.753628 0.834241 0.85391
0.846708 0.841794 0.853681
0.753628 0.834241 0.85391
0.753628 0.834241 0.85391
0.753628 0.834241 0.85391
0.753628 0.834241 0.85391
0.846708 0.84181 0.853681
0.753628 0.834241 0.85391
0.753628 0.834241 0.85391
0.753628 0.834241 0.85391
0.754192 0.834195 0.85391
0.846708 0.841886 0.853681
0.753628 0.834241 0.85391
0.753628 0.834241 0.85391
0.753628 0.834241 0.85391
0.847318 0.833783 0.853834
0.846693 0.84213 0.853681
0.796048 0.92462 0.852827
0.797162 0.924636 0.852827
0.802869 0.924666 0.852842
0.82739 0.924804 0.852857
0.841276 0.925078 0.853056
