BBLuts/BB_103_0500_LUT.cube
TITLE "Generated by Resolve"
LUT_3D_SIZE 5
0 0 0
0.167285 0 0
0.704707 0 0
0.8822 0.544533 0.0466773
0.847517 0.940749 0.62359
0 0.184726 0
0.113024 0.186358 0
0.714794 0.0938888 0
0.875486 0.604547 0.0176394
0.847471 0.941238 0.623285
0 0.772503 0
0 0.771847 0
0.61677 0.772732 0
0.855177 0.82472 0
0.847044 0.947906 0.61886
0.487709 0.994995 0.137331
0.487694 0.994995 0.137331
0.656718 0.985565 0.144991
0.841337 0.975967 0.267018
0.844434 0.977523 0.653223
0.811337 0.98822 0.73959
0.811337 0.98822 0.73959
0.811337 0.98822 0.73959
0.828702 0.988403 0.74258
0.842512 0.988388 0.768231
0 0 0.130159
0.139574 0 0.12575
0.7084 0 0.0954147
0.887297 0.532341 0.19176
0.847501 0.940749 0.62359
0 0.15021 0.115816
0.113146 0.14995 0.11397
0.710307 0.0343023 0.093431
0.881544 0.597772 0.177035
0.847471 0.941238 0.623285
0 0.767391 0
0 0.766766 0
0.619944 0.768124 0
0.858427 0.826474 0.0496223
0.847044 0.947906 0.61886
0.495857 0.994492 0.1364
0.495857 0.994492 0.1364
0.658717 0.985397 0.144549
0.841413 0.975906 0.266819
0.844434 0.977523 0.653223
0.811383 0.98822 0.73959
0.811383 0.98822 0.73959
0.811383 0.98822 0.73959
0.828717 0.988403 0.742565
0.842512 0.988388 0.768231
0 0 0.650446
0 0 0.650752
0.689799 0 0.615763
0.903243 0.227741 0.668818
0.84683 0.937392 0.723644
0 0 0.649332
0 0 0.649424
0.699214 0 0.614221
0.896361 0.402289 0.670375
0.846784 0.937926 0.723507
0 0.714336 0.608713
0 0.714473 0.608774
0.589715 0.717433 0.618677
0.858839 0.79762 0.635737
0.846296 0.944976 0.72163
0.476951 0.991547 0.519234
0.476951 0.991547 0.519234
0.641505 0.981353 0.518532
0.832502 0.971313 0.563165
0.844068 0.976699 0.704631
0.811948 0.98822 0.739513
0.811948 0.988235 0.739513
0.811948 0.988235 0.739513
0.828916 0.988403 0.742489
0.842527 0.988388 0.7682
0 0 0.844953
0 0 0.844953
0 0 0.844953
0.882887 0 0.821134
0.84889 0.897932 0.836774
0 0 0.844953
0 0 0.844953
0 0 0.844953
0.882887 0 0.821134
0.848768 0.899657 0.836637
0 0 0.844953
0 0 0.844953
0 0 0.844953
0.882887 0 0.821134
0.847471 0.917662 0.835218
0 0.995727 0.843778
0 0.995727 0.843778
0 0.994537 0.843854
0.815274 0.96022 0.827955
0.843641 0.971695 0.830228
0.807248 0.987961 0.812909
0.807248 0.987961 0.812909
0.807248 0.987961 0.812909
0.823758 0.988159 0.813642
0.842237 0.988251 0.820218
0 0.222446 0.849363
0 0.222446 0.849363
0 0.222446 0.849363
0 0.222538 0.849363
0.874647 0.654215 0.862852
0 0.222446 0.849363
0 0.222446 0.849363
0 0.222446 0.849363
0 0.222538 0.849363
0.874647 0.654215 0.862852
0 0.222446 0.849363
0 0.222446 0.849363
0 0.222446 0.849363
0 0.222538 0.849363
0.874647 0.654215 0.862852
0 0.221195 0.849378
0 0.221195 0.849378
0 0.221195 0.849378
0.041062 0.207996 0.851942
0.874052 0.658824 0.862547
0.747417 0.98703 0.85069
0.747417 0.98703 0.85069
0.747417 0.98703 0.85069
0.755398 0.987121 0.850736
0.842344 0.98851 0.851637
