BBLuts/BB_103_0650_LUT.cube
TITLE "Generated by Resolve"
LUT_3D_SIZE 5
0 0 0
0.223896 0 0
0.846052 0 0
0.896651 0.584451 0.0829175
0.863111 0.944701 0.637873
0 0.246342 0
0.163897 0.244877 0
0.841474 0.193713 0
0.889113 0.663127 0.0501106
0.862959 0.947051 0.63679
0 0.882094 0
0 0.879667 0
0.727764 0.862409 0
0.870405 0.890166 0
0.86186 0.963561 0.626856
0.581308 1 0.225238
0.614496 1 0.22652
0.750042 1 0.2448
0.862089 0.997971 0.357717
0.858915 0.997589 0.670771
0.824384 1 0.750332
0.825101 1 0.750408
0.830991 1 0.751186
0.850721 1 0.75613
0.857374 1 0.783276
0 0 0.158358
0.205554 0 0.151614
0.850767 0 0.148272
0.899702 0.566583 0.283528
0.862898 0.943893 0.663691
0 0.204578 0.134371
0.172549 0.202014 0.131899
0.844388 0.087602 0.138094
0.891905 0.651774 0.264164
0.86273 0.946258 0.662776
0 0.879637 0
0 0.877119 0
0.730022 0.860304 0
0.872099 0.890959 0.128542
0.861601 0.962921 0.654627
0.586862 1 0.224689
0.618723 1 0.226047
0.751125 1 0.24448
0.862104 0.997925 0.357656
0.858915 0.997574 0.670634
0.824491 1 0.750317
0.825208 1 0.750408
0.831083 1 0.751171
0.850752 1 0.75613
0.857374 1 0.783276
0 0 0.743008
0 0 0.74313
0.850843 0 0.72076
0.922255 0.204318 0.750301
0.862409 0.937743 0.769848
0 0 0.742092
0 0 0.742153
0.855589 0 0.71989
0.908812 0.445777 0.747723
0.862211 0.940444 0.769436
0 0.849058 0.705364
0 0.847745 0.705303
0.710353 0.827115 0.698619
0.868391 0.86656 0.710185
0.860868 0.958984 0.766247
0.562448 1 0.63415
0.59678 1 0.633692
0.735515 0.998749 0.636439
0.851774 0.992813 0.665339
0.858274 0.996307 0.752178
0.825513 1 0.750195
0.8262 1 0.750286
0.831846 1 0.751049
0.851026 1 0.756008
0.857374 1 0.783246
0 0 0.874434
0 0 0.874434
0.396277 0 0.863905
0.918456 0 0.863142
0.867414 0.8654 0.863172
0 0 0.874434
0 0 0.874434
0.444465 0 0.862455
0.918456 0 0.863142
0.866514 0.876249 0.862303
0 0 0.874434
0 0 0.874434
0.681376 0 0.857755
0.919326 0 0.867124
0.862364 0.929534 0.858
0 1 0.871473
0 1 0.871214
0.661662 0.993408 0.850919
0.840467 0.984619 0.850217
0.857847 0.992111 0.852232
0.81886 1 0.838636
0.819577 1 0.838651
0.825528 1 0.838773
0.845533 1 0.839582
0.856947 1 0.84448
0 0.234913 0.874006
0 0.234913 0.874022
0 0.234958 0.874006
0.851804 0 0.862928
0.888167 0.665293 0.879515
0 0.234897 0.874006
0 0.234897 0.874006
0 0.234928 0.874006
0.851881 0 0.862943
0.888151 0.665461 0.879515
0 0.234638 0.874022
0 0.234638 0.874022
0 0.234684 0.874022
0.889799 0 0.863951
0.887968 0.667033 0.879423
0 0.232883 0.874037
0 0.232883 0.874037
0 0.232914 0.874037
0.918456 0 0.863142
0.882124 0.718151 0.876707
0.745296 1 0.8692
0.750088 1 0.8692
0.779614 1 0.869245
0.833844 1 0.869474
0.856764 1 0.869596
