BBLuts/BB_103_0360_LUT.cube
TITLE "Generated by Resolve"
LUT_3D_SIZE 33
0 0 0
0 0 0
0 0 0
0 0 0
0 0 0
0.0053254 0 0
0.0675364 0 0
0.112169 0 0
0.157595 0 0
0.213123 0 0
0.27895 0 0
0.352438 0 0
0.433387 0 0
0.522881 0 0
0.60882 0 0
0.6925 0 0
0.773968 0 0
0.85034 0 0
0.916991 0 0
0.9691 0 0
0.979095 0 0
0.979095 0 0
0.981765 0.136706 0
0.976104 0.388556 0.0352178
0.965545 0.555093 0.0706188
0.957397 0.673991 0.114565
0.948653 0.773739 0.172946
0.941299 0.853468 0.265263
0.935622 0.910155 0.375799
0.931044 0.951782 0.48069
0.927214 0.982025 0.568887
0.924025 1 0.653452
0.92163 1 0.723751
0 0 0
0 0 0
0 0 0
0 0 0
0 0 0
0.0181277 0 0
0.0718242 0 0
0.115709 0 0
0.163287 0 0
0.220005 0 0
0.285985 0 0
0.358587 0 0
0.437003 0 0
0.525063 0 0
0.610391 0 0
0.693568 0 0
0.774578 0 0
0.850599 0 0
0.916915 0 0
0.96875 0 0
0.979095 0 0
0.979095 0 0
0.981186 0.183169 0
0.974624 0.407446 0.0306554
0.964782 0.565499 0.0679789
0.956832 0.679881 0.112779
0.948241 0.77763 0.170855
0.9411 0.85568 0.264057
0.935531 0.911345 0.375128
0.930999 0.952468 0.480354
0.927184 0.982406 0.568719
0.92401 1 0.653346
0.921614 1 0.72369
0 0 0
0 0 0
0 0 0
0 0 0
0 0 0
0.0256199 0 0
0.0733043 0 0
0.119081 0 0
0.169238 0 0
0.226398 0 0
0.291325 0 0
0.361883 0 0
0.44004 0 0
0.527398 0 0
0.611978 0 0
0.694606 0 0
0.775189 0 0
0.850858 0 0
0.916808 0 0
0.968383 0 0
0.979095 0 0
0.979095 0 0
0.979721 0.221134 0
0.97319 0.424826 0.0256657
0.964004 0.575433 0.0652476
0.956268 0.685649 0.110979
0.947845 0.78143 0.168826
0.940917 0.857816 0.262837
0.935439 0.91252 0.374487
0.930953 0.953155 0.480018
0.927153 0.982788 0.568521
0.923995 1 0.653223
0.921614 1 0.723613
0 0 0
0 0 0
0 0 0
0 0 0
0 0 0
0.0313268 0 0
0.0739757 0 0
0.119387 0 0
0.17026 0 0
0.228992 0 0
0.294804 0 0
0.364874 0 0
0.443 0 0
0.529747 0 0
0.613581 0 0
0.695689 0 0
0.775784 0 0
0.851087 0 0
0.916671 0 0
0.968002 0 0
0.979095 0 0
0.979095 0 0
0.979004 0.255192 0
0.971756 0.441367 0.0200809
0.963241 0.58497 0.0624247
0.955703 0.691279 0.109194
0.947478 0.785122 0.167803
0.940734 0.859937 0.261631
0.935363 0.91368 0.373816
0.930907 0.953826 0.479683
0.927138 0.983169 0.568353
0.92398 1 0.653117
0.921599 1 0.723568
0 0.00822461 0
0 0.0115358 0
0 0.014725 0
0 0.0178073 0
0 0.0190127 0
0.0169985 0.0171664 0
0.0639811 0.0140383 0
0.11191 0.0075227 0
0.165957 0 0
0.230121 0 0
0.296818 0 0
0.36759 0 0
0.445838 0 0
0.532143 0 0
0.615228 0 0
0.696757 0 0
0.776379 0 0
0.851301 0 0
0.916548 0 0
0.967605 0 0
0.979095 0 0
0.979187 0 0
0.978088 0.285359 0
0.970291 0.457099 0.0137636
0.962478 0.594095 0.0595102
0.955154 0.696803 0.107393
0.947112 0.788739 0.166796
0.940551 0.862028 0.260471
0.935271 0.914824 0.373159
0.930861 0.954498 0.479347
0.927108 0.983536 0.568154
0.923964 1 0.652995
0.921584 1 0.723491
0 0.0447242 0
0 0.0473793 0
0 0.0499733 0
0 0.0520333 0
0 0.0530251 0
0 0.0525521 0
0.0529793 0.0505837 0
0.104082 0.0476081 0
0.159701 0.0415961 0
0.223896 0.0298314 0
0.293446 0.00714122 0
0.370001 0 0
0.448737 0 0
0.534661 0 0
0.616983 0 0
0.697917 0 0
0.776989 0 0
0.85153 0 0
0.916396 0 0
0.967163 0 0
0.979095 0 0
0.979873 0.0937667 0
0.976944 0.313603 0
0.968688 0.472816 0.00595102
0.9617 0.603281 0.0563516
0.954589 0.702449 0.10547
0.946746 0.792416 0.165774
0.940368 0.864149 0.25922
0.93518 0.915999 0.372488
0.930816 0.955184 0.479011
0.927092 0.983917 0.567956
0.923949 1 0.652873
0.921584 1 0.72343
0 0.0834211 0
0 0.0856489 0
0 0.0878462 0
0 0.0890974 0
0 0.0898909 0
0 0.0901808 0
0.0326696 0.0887312 0
0.0922255 0.0870832 0
0.151461 0.0836652 0
0.218387 0.0768902 0
0.289296 0.0644236 0
0.365743 0.0445411 0
0.448051 0.00830091 0
0.537881 0 0
0.619257 0 0
0.699413 0 0
0.777798 0 0
0.851804 0 0
0.916182 0 0
0.966567 0 0
0.979095 0 0
0.980224 0.165469 0
0.975265 0.346303 0
0.966125 0.491432 0
0.960693 0.614496 0.0521553
0.953872 0.709529 0.103044
0.946288 0.797055 0.164477
0.940139 0.866835 0.257633
0.935042 0.917876 0.371618
0.930755 0.956069 0.478553
0.927047 0.984405 0.567727
0.923934 1 0.652705
0.921569 1 0.723339
0 0.127825 0
0 0.129793 0
0 0.131273 0
0 0.132235 0
0 0.132937 0
0 0.133333 0
0 0.133379 0
0.0707103 0.131838 0
0.137728 0.130007 0
0.208316 0.125277 0
0.282704 0.116335 0
0.363317 0.103182 0
0.447776 0.084123 0
0.535576 0.0537423 0
0.618891 0 0
0.701411 0 0
0.778897 0 0
0.852171 0 0
0.915862 0 0
0.965759 0 0
0.979355 0.0387427 0
0.979477 0.234409 0
0.972854 0.384573 0
0.963516 0.51426 0
0.959487 0.627207 0.0462501
0.952941 0.718624 0.0998093
0.945708 0.80296 0.162829
0.939834 0.870283 0.255573
0.934905 0.919814 0.370474
0.930678 0.957229 0.477974
0.927016 0.985061 0.567391
0.923903 1 0.652506
0.921553 1 0.723232
0 0.180819 0
0 0.182361 0
0 0.183215 0
0 0.1841 0
0 0.184695 0
0 0.185122 0
0 0.185382 0
0.022034 0.184939 0
0.112139 0.183185 0
0.189914 0.17969 0
0.270512 0.173495 0
0.357092 0.163867 0
0.447028 0.150256 0
0.536828 0.131395 0
0.618189 0.105974 0
0.698817 0.0715496 0
0.777539 0.020676 0
0.852674 0 0
0.915389 0 0
0.96466 0.0463722 0
0.980194 0.176745 0
0.97734 0.304555 0
0.969833 0.427359 0
0.961563 0.542306 0
0.957885 0.642741 0.0377508
0.951751 0.730129 0.0955062
0.944976 0.810437 0.160739
0.939467 0.874678 0.252872
0.934722 0.922332 0.368963
0.930571 0.958709 0.477195
0.926955 0.985901 0.566964
0.923873 1 0.652232
0.921538 1 0.723064
0 0.242527 0
0 0.243015 0
0 0.243488 0
0 0.24387 0
0 0.244129 0
0 0.244175 0
0 0.244053 0
0 0.243626 0
0.0632029 0.243473 0
0.159731 0.242267 0
0.249744 0.238575 0
0.343999 0.231785 0
0.441505 0.221561 0
0.53669 0.207736 0
0.619242 0.191974 0
0.699565 0.174624 0
0.777325 0.157687 0
0.851087 0.145327 0
0.91397 0.154879 0
0.963272 0.203159 0
0.978225 0.281193 0
0.973373 0.376989 0
0.966217 0.476921 0
0.959365 0.574716 0
0.955673 0.662303 0.0247807
0.950225 0.744579 0.0897993
0.944091 0.819791 0.158129
0.93901 0.880186 0.249378
0.934493 0.925536 0.366995
0.930449 0.960632 0.476188
0.926894 0.987015 0.5664
0.923827 1 0.651865
0.921508 1 0.722866
0 0.309972 0
0 0.310445 0
0 0.310948 0
0 0.311315 0
0 0.311589 0
0 0.311757 0
0 0.311818 0
0 0.311681 0
0 0.311162 0
0.107576 0.31339 0
0.215595 0.31249 0
0.320531 0.308537 0
0.427863 0.301503 0
0.531868 0.292348 0
0.618082 0.282216 0
0.699397 0.272999 0
0.776471 0.267033 0
0.849042 0.267201 0
0.910216 0.282414 0
0.95729 0.320851 0
0.97322 0.379232 0
0.968185 0.45005 0
0.96228 0.531823 0
0.956664 0.611582 0
0.952316 0.685466 0.00117494
0.948318 0.762402 0.0821851
0.943008 0.83125 0.154955
0.938445 0.887022 0.244846
0.934203 0.92961 0.364431
0.930282 0.963073 0.474876
0.926802 0.988434 0.565667
0.923766 1 0.651408
0.921477 1 0.722606
0 0.391241 0
0 0.39173 0
0 0.392187 0
0 0.392554 0
0 0.392828 0
0 0.393027 0
0 0.39321 0
0 0.393271 0
0 0.393103 0
0 0.394614 0
0.155962 0.397986 0
0.281025 0.39733 0
0.402136 0.394034 0
0.517891 0.388907 0
0.610376 0.382467 0
0.695201 0.377417 0
0.77258 0.376684 0
0.843351 0.382452 0
0.901839 0.39913 0
0.946792 0.428733 0
0.966583 0.471901 0
0.962615 0.526925 0
0.958419 0.588113 0
0.953628 0.649012 0
0.947997 0.712917 0
0.946044 0.783673 0.0722972
0.941756 0.845014 0.151217
0.937758 0.895293 0.243992
0.933837 0.934722 0.361105
0.930083 0.966171 0.473136
0.92668 0.99025 0.564675
0.92369 1 0.650782
0.921431 1 0.722255
0 0.485634 0
0 0.486091 0
0 0.486473 0
0 0.486793 0
0 0.487053 0
0 0.487282 0
0 0.487495 0
0 0.487663 0
0 0.487831 0
0 0.487938 0
0.0192874 0.492805 0
0.214801 0.497612 0
0.360586 0.497108 0
0.491691 0.494316 0
0.593378 0.490318 0
0.683619 0.487007 0
0.764111 0.487205 0
0.834348 0.493202 0
0.890898 0.50724 0
0.934691 0.530465 0
0.960266 0.561639 0
0.957534 0.600107 0
0.954147 0.642908 0
0.949874 0.692164 0
0.944869 0.747173 0
0.943496 0.807996 0.0598154
0.940337 0.861097 0.147066
0.93698 0.905074 0.243381
0.93341 0.941009 0.356802
0.929839 0.970031 0.470863
0.926543 0.992584 0.563394
0.923598 1 0.649958
0.92137 1 0.721782
0 0.585916 0
0 0.586236 0
0 0.586496 0
0 0.586709 0
0 0.586923 0
0 0.587091 0
0 0.587274 0
0 0.587457 0
0 0.587579 0
0 0.587625 0
0 0.587457 0
0.0911421 0.594049 0
0.297536 0.596262 0
0.452979 0.594476 0
0.567987 0.591821 0
0.665385 0.589395 0
0.751797 0.589548 0
0.82443 0.593912 0
0.880049 0.604089 0
0.922408 0.619821 0
0.954376 0.640101 0
0.952163 0.666239 0
0.949187 0.69984 0
0.945525 0.740124 0
0.94139 0.785489 0
0.940734 0.834821 0.0441901
0.938811 0.87924 0.14287
0.936095 0.916518 0.243183
0.932891 0.948592 0.35201
0.929534 0.974731 0.467933
0.92636 0.995514 0.561715
0.923476 1 0.648875
0.921279 1 0.721172
0 0.673869 0
0 0.674022 0
0 0.674174 0
0 0.674281 0
0 0.674372 0
0 0.674449 0
0 0.674525 0
0 0.674586 0
0 0.674601 0
0 0.67454 0
0 0.674327 0
0 0.673777 0
0.19678 0.680537 0
0.397559 0.680125 0
0.53547 0.67863 0
0.640528 0.676753 0
0.733989 0.676448 0
0.810544 0.679179 0
0.867063 0.685939 0
0.908415 0.697307 0
0.940948 0.713466 0
0.946105 0.733806 0
0.943709 0.759869 0
0.940902 0.791043 0
0.938003 0.825162 0
0.937819 0.863081 0.0248417
0.93724 0.898909 0.139361
0.935073 0.930083 0.243656
0.932235 0.957382 0.353689
0.929183 0.980377 0.464149
0.926131 0.999161 0.559503
0.923339 1 0.64744
0.921187 1 0.720378
0 0.759838 0
0 0.759915 0
0 0.75996 0
0 0.760006 0
0 0.760021 0
0 0.760052 0
0 0.760067 0
0 0.760021 0
0 0.75996 0
0 0.759793 0
0 0.759457 0
0 0.758816 0
0 0.76144 0
0.321477 0.765469 0
0.493721 0.764157 0
0.609598 0.762066 0
0.710109 0.760922 0
0.791074 0.762234 0
0.849699 0.766644 0
0.891814 0.774487 0
0.923812 0.785992 0
0.940047 0.800778 0
0.938537 0.818723 0
0.936812 0.840101 0
0.934981 0.864118 0
0.934676 0.891081 0.00151064
0.935668 0.919799 0.137652
0.933989 0.944808 0.245457
0.931487 0.967391 0.356405
0.928771 0.986893 0.460365
0.925856 1 0.556649
0.923156 1 0.645563
0.921065 1 0.719326
0 0.84332 0
0 0.843305 0
0 0.84329 0
0 0.843259 0
0 0.843229 0
0 0.843183 0
0 0.843107 0
0 0.843 0
0 0.842802 0
0 0.842512 0
0 0.842008 0
0 0.841199 0
0 0.839948 0
0.215518 0.846525 0
0.443137 0.845029 0
0.576699 0.842145 0
0.68368 0.839475 0
0.768093 0.838834 0
0.829664 0.840513 0
0.873945 0.84445 0
0.907149 0.850767 0
0.931136 0.859846 0
0.934478 0.870878 0
0.933516 0.884428 0
0.932448 0.900053 0
0.931304 0.917662 0
0.934173 0.941161 0.138827
0.93286 0.960571 0.2495
0.930663 0.978363 0.360739
0.928191 0.994278 0.463737
0.925551 1 0.552926
0.922942 1 0.643107
0.920928 1 0.717937
0 0.913207 0
0 0.913146 0
0 0.913054 0
0 0.912963 0
0 0.912856 0
0 0.912749 0
0 0.912596 0
0 0.912398 0
0 0.912077 0
0 0.911635 0
0 0.910948 0
0 0.90956 0
0 0.908141 0
0.0965438 0.912215 0
0.399207 0.911254 0
0.550912 0.906752 0
0.662272 0.902464 0
0.748104 0.900084 0
0.811032 0.899687 0
0.857389 0.900816 0
0.892226 0.903487 0
0.917403 0.907973 0
0.931502 0.914473 0
0.930983 0.922484 0
0.930358 0.932555 0
0.930007 0.9449 0
0.932738 0.962478 0.14493
0.931701 0.976669 0.256992
0.929763 0.989837 0.367453
0.92752 1 0.468467
0.925109 1 0.552834
0.922683 1 0.639918
0.920745 1 0.716106
0 0.965408 0
0 0.965286 0
0 0.965148 0
0 0.965026 0
0 0.964874 0
0 0.964721 0
0 0.964508 0
0 0.964218 0
0 0.963821 0
0 0.963256 0
0 0.962432 0
0 0.961334 0
0 0.959854 0
0.0348058 0.961456 0
0.38204 0.960388 0
0.539498 0.95523 0
0.650172 0.949966 0
0.734356 0.946548 0
0.796262 0.944961 0
0.843244 0.944564 0
0.879103 0.945235 0
0.905455 0.947219 0
0.925978 0.950561 0
0.928939 0.955184 0
0.928557 0.96141 0
0.930282 0.971557 0.0234226
0.931441 0.982589 0.158404
0.930541 0.992218 0.269459
0.928801 1 0.377325
0.926757 1 0.475074
0.924544 1 0.557397
0.922393 1 0.637095
0.920531 1 0.71371
0 1 0
0 1 0
0 1 0
0 1 0
0 1 0
0 1 0
0 1 0
0 1 0
0 1 0
0 1 0
0 1 0
0 1 0
0 0.99939 0
0.120638 1 0
0.400259 0.997726 0
0.544015 0.991974 0
0.647532 0.986343 0
0.726619 0.982467 0
0.785672 0.98024 0
0.831617 0.979019 0
0.867414 0.978576 0
0.894682 0.979004 0
0.916243 0.980285 0
0.927245 0.982528 0
0.927031 0.985885 0
0.929808 0.993912 0.0660258
0.930251 1 0.181186
0.929351 1 0.287999
0.927764 1 0.391119
0.925917 1 0.484199
0.923888 1 0.563638
0.92192 1 0.641688
0.920302 1 0.710552
0 1 0
0 1 0
0 1 0
0 1 0
0 1 0
0 1 0
0 1 0
0 1 0
0 1 0
0 1 0
0 1 0
0 1 0
0 1 0
0.263966 1 0
0.45069 1 0
0.565911 1 0
0.655665 1 0
0.726131 1 0
0.780468 1 0
0.824048 1 0
0.858412 1 0
0.88571 1 0
0.907881 1 0
0.924865 1 0
0.925719 1 0
0.929107 1 0.113924
0.929061 1 0.214099
0.928115 1 0.313039
0.92668 1 0.409445
0.925017 1 0.496406
0.923186 1 0.572122
0.921401 1 0.647761
0.919951 1 0.713451
0 1 0
0 1 0
0 1 0
0 1 0
0 1 0
0 1 0
0 1 0
0 1 0
0 1 0
0 1 0
0 1 0
0 1 0
0.237659 1 0
0.40206 1 0
0.514031 1 0
0.59939 1 0
0.67219 1 0
0.731456 1 0
0.779843 1 0
0.819867 1 0
0.851911 1 0
0.878294 1 0
0.900328 1 0
0.917693 1 0
0.927565 1 0.0700999
0.928191 1 0.168856
0.927794 1 0.257939
0.926833 1 0.3458
0.925551 1 0.432975
0.924056 1 0.510933
0.922423 1 0.583444
0.920821 1 0.655726
0.919539 1 0.718227
0 1 0
0 1 0
0 1 0
0 1 0
0 1 0
0 1 0
0 1 0
0 1 0
0 1 0
0.123507 1 0
0.247166 1 0
0.348165 1 0
0.438514 1 0
0.512978 1 0
0.578271 1 0
0.639719 1 0
0.694789 1 0
0.742031 1 0
0.783703 1 0
0.819089 1 0
0.848173 1 0
0.873091 1 0
0.894209 1 0
0.914275 1 0.0586862
0.927169 1 0.149355
0.927077 1 0.230137
0.926452 1 0.309651
0.925505 1 0.387533
0.924361 1 0.462058
0.923033 1 0.530266
0.921584 1 0.598321
0.920195 1 0.665995
0.919097 1 0.724422
0.273777 1 0
0.293507 1 0
0.310948 1 0
0.327474 1 0
0.343145 1 0
0.35877 1 0
0.37789 1 0
0.400595 1 0
0.426734 1 0
0.456245 1 0
0.489189 1 0
0.522042 1 0
0.558907 1 0
0.598825 1 0
0.640375 1 0
0.681575 1 0
0.720516 1 0
0.757275 1 0
0.791501 1 0
0.821439 1 0
0.849195 1 0.0217288
0.873045 1 0.0674449
0.893263 1 0.108263
0.909972 1 0.164263
0.923613 1 0.228504
0.925765 1 0.296925
0.925032 1 0.365164
0.924163 1 0.433158
0.92314 1 0.496544
0.921965 1 0.555001
0.920714 1 0.617441
0.919554 1 0.678981
0.918654 1 0.732311
0.539361 1 0.141878
0.544335 1 0.141817
0.549172 1 0.141756
0.553918 1 0.141695
0.558541 1 0.141665
0.563241 1 0.141634
0.569146 1 0.141604
0.576684 1 0.141588
0.586191 1 0.141588
0.598047 1 0.141665
0.612558 1 0.141833
0.629938 1 0.142199
0.650217 1 0.142916
0.673106 1 0.144152
0.697932 1 0.146212
0.724178 1 0.149401
0.751583 1 0.154025
0.779446 1 0.16051
0.805859 1 0.169253
0.829969 1 0.180774
0.852216 1 0.195666
0.872618 1 0.214618
0.890517 1 0.238239
0.905791 1 0.267247
0.918563 1 0.312078
0.9243 1 0.365881
0.923613 1 0.423896
0.92282 1 0.480034
0.921889 1 0.531868
0.920867 1 0.585168
0.919829 1 0.641154
0.918914 1 0.694865
0.918181 1 0.742123
0.658946 1 0.290303
0.661219 1 0.290333
0.663462 1 0.290394
0.66566 1 0.29044
0.667826 1 0.290501
0.670054 1 0.290547
0.672862 1 0.290639
0.676463 1 0.290745
0.681071 1 0.290913
0.686885 1 0.291157
0.694133 1 0.291508
0.703075 1 0.292012
0.714 1 0.29276
0.727047 1 0.293843
0.742473 1 0.29575
0.759625 1 0.298009
0.778592 1 0.30103
0.798062 1 0.305058
0.817441 1 0.310582
0.836393 1 0.317922
0.855009 1 0.327535
0.872541 1 0.339956
0.888258 1 0.355917
0.90219 1 0.376318
0.914244 1 0.401053
0.922805 1 0.437903
0.92221 1 0.481666
0.921492 1 0.525216
0.920668 1 0.57142
0.919799 1 0.619883
0.918975 1 0.668284
0.918288 1 0.713512
0.917739 1 0.753872
0.732021 1 0.41825
0.733166 1 0.418326
0.73431 1 0.418402
0.735439 1 0.418463
0.736553 1 0.41854
0.737697 1 0.418616
0.739162 1 0.418723
0.74107 1 0.418845
0.743542 1 0.419013
0.7467 1 0.419242
0.750744 1 0.419577
0.75584 1 0.419989
0.762158 1 0.4206
0.769863 1 0.421424
0.7794 1 0.422522
0.790097 1 0.424018
0.802075 1 0.426047
0.815045 1 0.428763
0.829023 1 0.432364
0.843778 1 0.437095
0.859022 1 0.443595
0.873579 1 0.45156
0.887083 1 0.461723
0.899535 1 0.474571
0.910521 1 0.490639
0.919676 1 0.508583
0.92079 1 0.53698
0.92018 1 0.573281
0.919493 1 0.613962
0.918807 1 0.656565
0.918196 1 0.697078
0.917708 1 0.734234
0.917311 1 0.767391
0.781949 1 0.520928
0.782559 1 0.520989
0.783169 1 0.52105
0.783764 1 0.521096
0.784344 1 0.521141
0.78497 1 0.521202
0.785748 1 0.521279
0.78677 1 0.52137
0.788098 1 0.521508
