BBLuts/BB_102_0650_LUT.cube
TITLE "Generated by Resolve"
LUT_3D_SIZE 33
0 0 0
0 0 0
0 0 0
0 0 0
0 0 0
0.00314336 0 0
0.0633097 0 0
0.106416 0 0
0.150286 0 0
0.203891 0 0
0.267781 0 0
0.339071 0 0
0.418173 0 0
0.505974 0 0
0.589075 0 0
0.663783 0 0
0.736767 0 0
0.805173 0 0
0.864881 0 0
0.911559 0 0
0.920516 0 0
0.920516 0 0
0.921798 0.129229 0
0.91548 0.372946 0.0319829
0.905028 0.536034 0.0658427
0.897307 0.648875 0.107973
0.889509 0.738186 0.164141
0.882994 0.809583 0.253178
0.877943 0.860365 0.360082
0.873854 0.897642 0.462394
0.87042 0.924727 0.544045
0.867613 0.944976 0.619287
0.865492 0.961318 0.681788
0 0 0
0 0 0
0 0 0
0 0 0
0 0 0
0.0155642 0 0
0.0674449 0 0
0.109834 0 0
0.155779 0 0
0.210575 0 0
0.274586 0 0
0.345037 0 0
0.421668 0 0
0.508095 0 0
0.590402 0 0
0.664744 0 0
0.737301 0 0
0.805402 0 0
0.864805 0 0
0.911238 0 0
0.920516 0 0
0.920516 0 0
0.921035 0.174029 0
0.914 0.391791 0.0276188
0.90428 0.546151 0.0633097
0.896788 0.654154 0.106264
0.889158 0.74165 0.162112
0.882811 0.811551 0.252003
0.877852 0.861418 0.359442
0.873808 0.898253 0.462074
0.870405 0.925078 0.543893
0.867597 0.94519 0.619196
0.865476 0.96144 0.681727
0 0 0
0 0 0
0 0 0
0 0 0
0 0 0
0.0228122 0 0
0.0688792 0 0
0.1131 0 0
0.161517 0 0
0.216785 0 0
0.279774 0 0
0.348241 0 0
0.424567 0 0
0.510369 0 0
0.591745 0 0
0.665675 0 0
0.73785 0 0
0.805631 0 0
0.864713 0 0
0.910918 0 0
0.920516 0 0
0.920516 0 0
0.919478 0.210636 0
0.912581 0.408865 0.0228428
0.903532 0.555779 0.0607004
0.896284 0.659312 0.10454
0.888792 0.745052 0.160159
0.882643 0.813474 0.250828
0.877775 0.86247 0.358831
0.873762 0.898878 0.461769
0.87039 0.925414 0.543725
0.867582 0.945388 0.619089
0.865476 0.961563 0.681666
0 0 0
0 0 0
0 0 0
0 0 0
0 0 0
0.028336 0 0
0.0695506 0 0
0.11339 0 0
0.162509 0 0
0.219303 0 0
0.283146 0 0
0.351156 0 0
0.42739 0 0
0.512657 0 0
0.593133 0 0
0.666636 0 0
0.738384 0 0
0.805844 0 0
0.864607 0 0
0.910567 0 0
0.920516 0 0
0.920516 0 0
0.918639 0.243702 0
0.911192 0.424811 0.0175326
0.902785 0.564935 0.0579995
0.895781 0.664347 0.102815
0.888457 0.748363 0.159182
0.882475 0.815366 0.249668
0.877699 0.863508 0.35819
0.873732 0.899474 0.461448
0.870359 0.92575 0.543557
0.867567 0.945602 0.618982
0.865461 0.961685 0.68162
0 0.00588998 0
0 0.00907912 0
0 0.0121614 0
0 0.0151369 0
0 0.0162966 0
0.0144808 0.0145113 0
0.0598764 0.0114748 0
0.106188 0.00517281 0
0.158373 0 0
0.220401 0 0
0.2851 0 0
0.35378 0 0
0.430106 0 0
0.514977 0 0
0.594583 0 0
0.667597 0 0
0.738933 0 0
0.806027 0 0
0.864485 0 0
0.910216 0 0
0.920516 0 0
0.920256 0 0
0.917647 0.272892 0
0.909773 0.439979 0.0115053
0.902052 0.573693 0.0552071
0.895293 0.669276 0.101106
0.888136 0.751598 0.158206
0.882307 0.817227 0.248539
0.877623 0.86453 0.357565
0.873686 0.900084 0.461128
0.870344 0.92607 0.543389
0.867552 0.945815 0.618891
0.865461 0.961807 0.681559
0 0.0411078 0
0 0.0436561 0
0 0.0461585 0
0 0.0481575 0
0 0.0491035 0
0 0.048661 0
0.0492409 0.0467231 0
0.0986191 0.0438239 0
0.152316 0.0380102 0
0.214389 0.0266423 0
0.281865 0.00474556 0
0.35613 0 0
0.432853 0 0
0.517418 0 0
0.596139 0 0
0.668635 0 0
0.739467 0 0
0.806226 0 0
0.864347 0 0
0.909819 0 0
0.920516 0 0
0.920272 0.0878309 0
0.916472 0.300267 0
0.908232 0.454978 0.00410468
0.901305 0.582437 0.0521859
0.894774 0.674327 0.0992752
0.8878 0.754879 0.157214
0.882139 0.819135 0.247333
0.877546 0.865583 0.356924
0.87364 0.900694 0.460807
0.870314 0.926421 0.543221
0.867536 0.946029 0.618769
0.865446 0.961944 0.681498
0 0.0784009 0
0 0.0805524 0
0 0.0826886 0
0 0.0838788 0
0 0.0846571 0
0 0.0849317 0
0.0296178 0.0835126 0
0.0871595 0.0818952 0
0.144366 0.078584 0
0.209064 0.0720226 0
0.277852 0.0599832 0
0.352041 0.0407874 0
0.432135 0.00581369 0
0.520531 0 0
0.598184 0 0
0.669978 0 0
0.740185 0 0
0.806485 0 0
0.864149 0 0
0.9093 0 0
0.920516 0 0
0.920211 0.15697 0
0.914794 0.331945 0
0.905791 0.472953 0
0.900359 0.593149 0.0481575
0.894133 0.680659 0.0969558
0.887388 0.75903 0.155962
0.881941 0.82153 0.245823
0.87744 0.866926 0.3561
0.873594 0.901488 0.46038
0.870283 0.926863 0.543008
0.867521 0.946303 0.618631
0.865431 0.962097 0.681422
0 0.121233 0
0 0.123125 0
0 0.124559 0
0 0.12549 0
0 0.126162 0
0 0.126528 0
0 0.126589 0
0.0663767 0.125063 0
0.13109 0.123278 0
0.199283 0.1187 0
0.271458 0.110048 0
0.349691 0.0973373 0
0.431876 0.0789502 0
0.518318 0.0496376 0
0.597482 0 0
0.671763 0 0
0.741161 0 0
0.806821 0 0
0.863874 0 0
0.908553 0 0
0.920104 0.0347753 0
0.919188 0.223514 0
0.912413 0.36907 0
0.903227 0.495827 0
0.899107 0.6065 0.0425116
0.893294 0.688777 0.093843
0.88687 0.764309 0.154376
0.881666 0.824613 0.243824
0.877317 0.868666 0.355016
0.873518 0.90251 0.459831
0.870253 0.927443 0.542718
0.867491 0.946654 0.618448
0.865415 0.962325 0.681315
0 0.172335 0
0 0.173816 0
0 0.17464 0
0 0.175494 0
0 0.176059 0
0 0.176471 0
0 0.17673 0
0.0193332 0.176272 0
0.106371 0.174563 0
0.18146 0.17116 0
0.259663 0.165164 0
0.343679 0.155856 0
0.431189 0.142718 0
0.519493 0.124514 0
0.596231 0.0999619 0
0.668605 0.0667124 0
0.739391 0.0175784 0
0.807263 0 0
0.863447 0 0
0.906889 0.0421454 0
0.920119 0.167849 0
0.916884 0.291508 0
0.909407 0.411292 0
0.901289 0.523552 0
0.897597 0.621271 0.0343786
0.89221 0.699077 0.0897231
0.886213 0.770993 0.152346
0.881331 0.828534 0.24123
0.87715 0.870924 0.353582
0.873426 0.903838 0.459098
0.870207 0.928191 0.542336
0.86746 0.947127 0.618204
0.8654 0.9626 0.681178
0 0.231998 0
0 0.232471 0
0 0.232929 0
0 0.23331 0
0 0.233555 0
0 0.2336 0
0 0.233478 0
0 0.233066 0
0.0590982 0.232898 0
0.1523 0.231678 0
0.239521 0.228077 0
0.330983 0.221454 0
0.425864 0.21149 0
0.519326 0.198093 0
0.596704 0.182864 0
0.668727 0.166094 0
0.73846 0.149691 0
0.804288 0.137697 0
0.860914 0.146838 0
0.90483 0.193301 0
0.9178 0.268864 0
0.912917 0.361715 0
0.905913 0.458885 0
0.899138 0.555032 0
0.895628 0.638254 0.0219883
0.890837 0.711986 0.0842603
0.885405 0.779355 0.149828
0.880919 0.833463 0.237858
0.876951 0.873777 0.35172
0.87332 0.905562 0.458137
0.870146 0.929183 0.541833
0.86743 0.947738 0.617884
0.86537 0.962966 0.680995
0 0.297322 0
0 0.297795 0
0 0.298283 0
0 0.298619 0
0 0.298894 0
0 0.299046 0
0 0.299107 0
0 0.298985 0
0 0.298482 0
0.10193 0.300587 0
0.206409 0.299687 0
0.308202 0.295827 0
0.412589 0.288991 0
0.514626 0.28011 0
0.595163 0.270237 0
0.66804 0.26125 0
0.737102 0.25539 0
0.801816 0.255467 0
0.856855 0.27013 0
0.898817 0.307317 0
0.912764 0.363897 0
0.90782 0.433158 0
0.901991 0.513252 0
0.896544 0.590311 0
0.892531 0.658885 0
0.889128 0.727916 0.0769818
0.884443 0.789609 0.146777
0.880415 0.839582 0.233494
0.876692 0.877424 0.349294
0.873167 0.907744 0.45687
0.870054 0.930449 0.541176
0.867369 0.948531 0.617472
0.865339 0.963455 0.680766
0 0.376135 0
0 0.376608 0
0 0.37705 0
0 0.377401 0
0 0.377661 0
0 0.377874 0
0 0.378027 0
0 0.378103 0
0 0.377935 0
0 0.379446 0
0.148547 0.383047 0
0.269825 0.38233 0
0.387884 0.378836 0
0.501152 0.373709 0
0.587686 0.367422 0
0.663691 0.362463 0
0.732998 0.361669 0
0.796063 0.367163 0
0.848676 0.383444 0
0.888747 0.41265 0
0.906279 0.454093 0
0.902342 0.508431 0
0.898222 0.567895 0
0.893645 0.626307 0
0.888594 0.683375 0
0.887068 0.746929 0.0675212
0.883314 0.801907 0.143191
0.879805 0.846967 0.23267
0.876356 0.882002 0.346136
0.872984 0.910521 0.455222
0.869963 0.932082 0.540291
0.867308 0.949569 0.616907
0.865309 0.96408 0.680461
0 0.467903 0
0 0.468345 0
0 0.468727 0
0 0.469032 0
0 0.469291 0
0 0.469505 0
0 0.469718 0
0 0.469886 0
0 0.470039 0
0 0.470146 0
0.016495 0.474998 0
0.20557 0.479744 0
0.347738 0.479194 0
0.475776 0.476356 0
0.571832 0.472328 0
0.652674 0.468971 0
0.724773 0.469078 0
0.78735 0.474891 0
0.838224 0.488869 0
0.877287 0.511955 0
0.900023 0.542382 0
0.897368 0.579355 0
0.894072 0.621118 0
0.890272 0.66482 0
0.885786 0.714031 0
0.884764 0.768673 0.0555581
0.882048 0.816297 0.139193
0.879103 0.855726 0.23209
0.875975 0.887617 0.342046
0.87277 0.91397 0.453056
0.869825 0.934173 0.539147
0.867231 0.950896 0.616175
0.865248 0.964874 0.680049
0 0.566354 0
0 0.566644 0
0 0.566903 0
0 0.567117 0
0 0.567315 0
0 0.567483 0
0 0.567651 0
0 0.567819 0
0 0.567941 0
0 0.567987 0
0 0.567819 0
0.0858167 0.574029 0
0.285771 0.576074 0
0.437934 0.574365 0
0.54844 0.571801 0
0.635676 0.569421 0
0.713069 0.569497 0
0.777829 0.573587 0
0.827924 0.583215 0
0.865751 0.598886 0
0.894286 0.618738 0
0.892332 0.641627 0
0.889662 0.671687 0
0.886366 0.707713 0
0.882658 0.748302 0
0.882261 0.79263 0.0406195
0.880659 0.832517 0.135164
0.878309 0.865965 0.231891
0.875486 0.894728 0.337469
0.872496 0.918181 0.450263
0.869657 0.936797 0.537652
0.867124 0.952575 0.615213
0.865187 0.965911 0.6795
0 0.648814 0
0 0.648951 0
0 0.649088 0
0 0.64918 0
0 0.649271 0
0 0.649332 0
0 0.649409 0
0 0.649454 0
0 0.64947 0
0 0.649424 0
0 0.649226 0
0 0.648722 0
0.188281 0.654505 0
0.383322 0.654124 0
0.519173 0.652811 0
0.613138 0.651118 0
0.696849 0.650828 0
0.765133 0.653239 0
0.816068 0.659266 0
0.853117 0.669429 0
0.882277 0.683879 0
0.886885 0.702068 0
0.884749 0.725368 0
0.882216 0.753262 0
0.879637 0.78378 0
0.879606 0.817868 0.0221408
0.879255 0.850095 0.131807
0.877409 0.877775 0.232364
0.874891 0.902602 0.339071
0.872175 0.923217 0.446647
0.869459 0.940047 0.535698
0.866987 0.954681 0.613947
0.865095 0.967224 0.678782
0 0.725719 0
0 0.72578 0
0 0.725826 0
0 0.725872 0
0 0.725887 0
0 0.725902 0
0 0.725917 0
0 0.725887 0
0 0.725826 0
0 0.725673 0
0 0.725368 0
0 0.724804 0
0 0.727092 0
0.31017 0.730465 0
0.478233 0.72932 0
0.585443 0.727443 0
0.675456 0.72639 0
0.747677 0.727535 0
0.800519 0.731472 0
0.838239 0.73846 0
0.866926 0.748745 0
0.881468 0.761959 0
0.88011 0.778012 0
0.878553 0.797131 0
0.876921 0.818616 0
0.876722 0.842832 4.57771e-05
0.877867 0.868467 0.13019
0.876448 0.890929 0.234119
0.87422 0.911559 0.34168
0.871809 0.929046 0.443
0.869215 0.94403 0.53315
0.866819 0.95729 0.612268
0.864988 0.968841 0.677852
0 0.800397 0
0 0.800381 0
0 0.800366 0
0 0.800336 0
0 0.80032 0
0 0.800275 0
0 0.800198 0
0 0.800107 0
0 0.799939 0
0 0.79968 0
0 0.799222 0
0 0.798489 0
0 0.797375 0
0.20737 0.802991 0
0.429633 0.801648 0
0.555978 0.799069 0
0.651789 0.796658 0
0.727398 0.796063 0
0.782559 0.797543 0
0.822232 0.801053 0
0.851972 0.806699 0
0.873472 0.814801 0
0.876463 0.824674 0
0.875608 0.836789 0
0.874647 0.850767 0
0.87364 0.866178 0
0.876524 0.887572 0.131319
0.87541 0.905379 0.23801
0.873487 0.92137 0.3458
0.87129 0.935653 0.44625
0.86894 0.94876 0.529839
0.866621 0.960449 0.610086
0.864851 0.970886 0.676616
0 0.862593 0
0 0.862516 0
0 0.86244 0
0 0.862364 0
0 0.862272 0
0 0.862181 0
0 0.862043 0
0 0.86186 0
0 0.86157 0
0 0.861173 0
0 0.860563 0
0 0.859648 0
0 0.858381 0
0.0925307 0.861479 0
0.386419 0.860548 0
0.532891 0.856886 0
0.632609 0.85301 0
0.709484 0.850858 0
0.765866 0.850477 0
0.807401 0.851469 0
0.838605 0.853849 0
0.861173 0.857862 0
0.873823 0.86334 0
0.873365 0.870512 0
0.872786 0.879515 0
0.872465 0.890929 0
0.875227 0.906996 0.137194
0.874372 0.919783 0.245243
0.872679 0.93164 0.352163
0.87068 0.943145 0.450782
0.868544 0.954162 0.529763
0.866407 0.964187 0.607248
0.864698 0.973358 0.674998
0 0.909636 0
0 0.909514 0
0 0.909392 0
0 0.909285 0
0 0.909148 0
0 0.90901 0
0 0.908827 0
0 0.908568 0
0 0.908217 0
0 0.907698 0
0 0.906966 0
0 0.905989 0
0 0.904646 0
0.0331579 0.905913 0
0.369818 0.904845 0
0.522683 0.900267 0
0.621775 0.895521 0
0.697169 0.892439 0
0.752316 0.89099 0
0.79472 0.890623 0
0.826841 0.891218 0
0.850462 0.892973 0
0.868833 0.895964 0
0.871504 0.900099 0
0.871153 0.905669 0
0.872847 0.9149 0.0208133
0.874067 0.924987 0.150179
0.873335 0.9337 0.257282
0.871824 0.942397 0.361593
0.870008 0.951324 0.457099
0.868025 0.960128 0.533822
0.866133 0.96846 0.60473
0.8645 0.976318 0.672862
0 0.945418 0
0 0.945266 0
0 0.945113 0
0 0.944945 0
0 0.944793 0
0 0.944625 0
0 0.944396 0
0 0.944091 0
0 0.943664 0
0 0.943099 0
0 0.942367 0
0 0.94136 0
0 0.940032 0
0.116197 0.941665 0
0.388128 0.938262 0
0.526726 0.933135 0
0.61941 0.928069 0
0.690242 0.924575 0
0.742824 0.92256 0
0.784298 0.921447 0
0.816373 0.92105 0
0.840803 0.921416 0
0.860121 0.92256 0
0.869978 0.924544 0
0.86978 0.927565 0
0.872496 0.934997 0.0615854
0.87303 0.941268 0.172168
0.872282 0.947204 0.275181
0.870893 0.953384 0.375113
0.869245 0.959915 0.465751
0.86746 0.966552 0.539376
0.865721 0.973098 0.60882
0.864286 0.979767 0.670054
0 0.971374 0
0 0.971191 0
0 0.971023 0
0 0.97084 0
0 0.970657 0
0 0.970474 0
0 0.97023 0
0 0.969909 0
0 0.969482 0
0 0.968917 0
0 0.96817 0
0 0.967193 0
0 0.965911 0
0.25539 0.966735 0
0.438071 0.961929 0
0.546334 0.95671 0
0.626688 0.951919 0
0.689799 0.948501 0
0.73817 0.946303 0
0.777523 0.944854 0
0.808301 0.943954 0
0.832761 0.943572 0
0.852628 0.94374 0
0.867842 0.944579 0
0.868605 0.946044 0
0.871931 0.952514 0.1075
0.871977 0.956329 0.203906
0.871183 0.960067 0.30013
0.869917 0.964096 0.393469
0.868437 0.968536 0.477455
0.866819 0.97319 0.546929
0.865248 0.97818 0.614221
0.863966 0.983551 0.672633
0 0.990799 0
0 0.990631 0
0 0.990448 0
0 0.99028 0
0 0.990097 0
0 0.989914 0
0 0.989685 0
0 0.989349 0
0 0.988937 0
0 0.988403 0
0 0.987686 0
0 0.98677 0
0.229984 0.987411 0
0.390387 0.983398 0
0.500435 0.978973 0
0.576303 0.974258 0
0.641489 0.97023 0
0.694575 0.967285 0
0.737606 0.965194 0
0.77377 0.963653 0
0.802487 0.96257 0
0.826123 0.961868 0
0.845853 0.961486 0
0.861418 0.961593 0
0.870497 0.965499 0.0654917
0.871168 0.967742 0.160311
0.870863 0.96965 0.246189
0.870039 0.971679 0.331533
0.86891 0.974029 0.416541
0.867582 0.976791 0.492744
0.866133 0.97995 0.557
0.864729 0.983536 0.621317
0.863615 0.98764 0.676875
0 1 0
0 1 0
0 1 0
0 1 0
0 1 0
0 1 0
0 1 0
0 1 0
0 1 0
0.119356 1 0
0.239307 1 0
0.337865 1 0
0.426459 0.997864 0
0.499489 0.994537 0
0.557397 0.990845 0
0.612421 0.987289 0
0.661723 0.984268 0
0.704051 0.981903 0
0.74107 0.980026 0
0.773068 0.978561 0
0.79913 0.977432 0
0.821454 0.976547 0
0.840375 0.975891 0
0.858564 0.978714 0.0545815
0.870222 0.979751 0.141466
0.870207 0.980316 0.219364
0.869688 0.980926 0.296727
0.868864 0.981796 0.371588
0.867857 0.983032 0.444663
0.866667 0.984619 0.509682
0.8654 0.986557 0.57023
0.864179 0.988952 0.630442
0.863218 0.991867 0.682383
0.265217 1 0
0.284459 1 0
0.302052 1 0
0.317968 1 0
0.333074 1 0
0.348058 1 0
0.366461 1 0
0.389166 1 0
0.41503 1 0
0.443717 1 0
0.475227 1 0
0.507332 1 0
0.540063 1 0
0.575799 1 0
0.613001 0.999298 0
0.649897 0.996963 0
0.684764 0.994904 0
0.717678 0.993103 0
0.748043 0.991577 0
0.775189 0.99028 0
0.800198 0.991455 0.0192721
0.821637 0.991608 0.0630045
0.839811 0.99144 0.102113
0.854841 0.991333 0.155886
0.867109 0.991104 0.217807
0.869062 0.990707 0.283833
0.868437 0.990509 0.350027
0.867658 0.9906 0.416739
0.866758 0.991012 0.477638
0.865721 0.991714 0.531685
0.864622 0.992721 0.587259
0.863615 0.994141 0.641978
0.862821 0.996078 0.689387
0.522866 1 0.134508
0.527321 1 0.134463
0.531655 1 0.134401
0.535897 1 0.13434
0.540047 1 0.13431
0.544259 1 0.134279
0.549538 1 0.134249
0.556283 1 0.134234
0.564797 1 0.134234
0.575402 1 0.134295
0.588403 1 0.134447
0.603967 1 0.134798
0.622126 1 0.13547
0.642618 1 0.136645
0.664866 1 0.138613
0.688365 1 0.141665
0.712932 1 0.146105
0.737575 1 0.152346
0.761563 1 0.1608
0.783169 1 0.171878
0.803113 1 0.186221
0.821408 1 0.204456
0.837461 1 0.227222
0.851164 1 0.255192
0.862623 0.999832 0.299214
0.867781 0.999008 0.350698
0.86717 0.998367 0.407691
0.866468 0.99794 0.46183
0.865644 0.997726 0.511086
0.864744 0.997803 0.558541
0.863844 0.998154 0.608347
0.863035 0.998901 0.656107
0.862409 1 0.698116
0.63003 1 0.277623
0.63209 1 0.277653
0.634089 1 0.277714
0.636057 1 0.27776
0.637995 1 0.277806
0.639994 1 0.277852
0.642496 1 0.277943
0.645731 1 0.278035
0.649866 1 0.278202
0.65507 1 0.278447
0.661555 1 0.278767
0.669566 1 0.279255
0.679347 1 0.279957
0.691035 1 0.28101
0.70486 1 0.282841
0.720211 1 0.285008
0.736904 1 0.288014
0.75465 1 0.29218
0.77203 1 0.29781
0.789014 1 0.304875
0.805692 1 0.314061
0.821393 1 0.325994
0.835477 1 0.341268
0.847974 1 0.360693
0.858778 1 0.385107
0.866453 1 0.421363
0.865934 1 0.463371
0.865278 1 0.505379
0.864561 1 0.546304
0.863798 1 0.589426
0.863081 1 0.632471
0.862486 1 0.672679
0.862013 1 0.708553
0.695537 1 0.402335
0.696559 1 0.402396
0.697581 1 0.402472
0.698589 1 0.402548
0.699596 1 0.402609
0.700618 1 0.402686
0.701915 1 0.402777
0.703624 1 0.402899
0.705852 1 0.403067
0.708675 1 0.403296
0.712306 1 0.403616
0.716869 1 0.404028
0.722515 1 0.404608
0.729427 1 0.405402
0.737667 1 0.40647
0.747234 1 0.407935
0.758297 1 0.409918
0.769909 1 0.412558
0.782437 1 0.416052
0.795651 1 0.420645
0.809308 1 0.426932
0.822354 1 0.434623
0.834455 1 0.444373
0.845609 1 0.456657
0.855451 1 0.471855
0.863661 1 0.490394
0.864668 1 0.515633
0.864134 1 0.547951
0.863523 1 0.584161
0.862928 1 0.622049
0.862394 1 0.658076
0.861967 1 0.691112
0.861631 1 0.720577
0.739956 1 0.501793
0.740505 1 0.501839
0.741039 1 0.501884
0.741573 1 0.50193
0.742107 1 0.501961
0.742657 1 0.502007
0.743358 1 0.502083
0.744274 1 0.502144
0.745464 1 0.502266
