BBLuts/BB_102_0530_LUT.cube
TITLE "Generated by Resolve"
LUT_3D_SIZE 9
0 0 0
0.00132753 0 0
0.168414 0 0
0.392126 0 0
0.749752 0 0
1 0 0
1 0.5449 0.0487831
0.981857 0.928084 0.307546
0.971252 1 0.688319
0 0.0464027 0
0 0.055375 0
0.171695 0.0357824 0
0.399756 0 0
0.752544 0 0
1 0 0
1 0.573465 0.0381323
0.981659 0.930861 0.306508
0.971237 1 0.688197
0 0.193515 0
0 0.196887 0
0.11902 0.196704 0
0.398383 0.176333 0
0.755184 0.0889448 0
1 0.211994 0
0.999573 0.609918 0.0171054
0.981308 0.935393 0.304906
0.971206 1 0.687999
0 0.450019 0
0 0.451041 0
0 0.452155 0
0.314244 0.453483 0
0.73843 0.443214 0
1 0.500969 0
0.9906 0.711315 0
0.980117 0.951736 0.303197
0.971084 1 0.687022
0 0.81915 0
0 0.819135 0
0 0.81883 0
0 0.816159 0
0.632212 0.813779 0
0.938094 0.820829 0
0.978027 0.88423 0
0.977081 0.993835 0.311543
0.970657 1 0.683207
0 1 0
0 1 0
0 1 0
0 1 0
0.570611 1 0
0.865248 1 0
0.967544 1 0
0.972549 1 0.353307
0.969436 1 0.68574
0.474586 1 0.128832
0.474586 1 0.128832
0.474586 1 0.128832
0.474556 1 0.128832
0.677424 1 0.142
0.852888 1 0.178332
0.956664 1 0.270924
0.968704 1 0.477073
0.967453 1 0.722484
0.822248 1 0.569024
0.822248 1 0.569039
0.822248 1 0.569039
0.822248 1 0.569039
0.822232 1 0.569039
0.882322 1 0.577981
0.944778 1 0.604044
0.966491 1 0.671672
0.965866 1 0.798398
0.923766 1 0.8421
0.923766 1 0.8421
0.923766 1 0.8421
0.923766 1 0.8421
0.923766 1 0.8421
0.923751 1 0.8421
0.946075 1 0.845838
0.965484 1 0.856245
0.965316 1 0.882567
0 0 0.0293584
0 0 0.0296635
0.166995 0 0.0260014
0.392676 0 0.0226444
0.750362 0 0.0175021
1 0 0.0161746
1 0.542718 0.0688334
0.981857 0.928038 0.307576
0.971252 1 0.688334
0 0.0226596 0.0244602
0.0260929 0.033875 0.0230106
0.179324 0 0.0211948
0.39498 0 0.0158236
0.750393 0 0
1 0 0
1 0.571756 0.0542763
0.981659 0.930816 0.306523
0.971237 1 0.688197
0 0.183688 0
0 0.186709 0
0.135424 0.186862 0
0.396551 0.166094 0
0.751842 0.0595254 0
1 0.198535 0
1 0.608652 0.0302281
0.981308 0.935393 0.304906
0.971206 1 0.687999
0 0.444739 0
0 0.44567 0
0 0.446662 0
0.324636 0.447593 0
0.737804 0.43827 0
1 0.497261 0
0.990677 0.710216 0
0.980117 0.951736 0.303197
0.971084 1 0.687022
0 0.817136 0
0 0.817121 0
0 0.816785 0
0 0.814084 0
0.635187 0.812131 0
0.938186 0.819715 0
0.978058 0.883848 0
0.977081 0.993835 0.311543
0.970657 1 0.683207
0 1 0
0 1 0
0 1 0
0 1 0
0.573037 1 0
0.865522 1 0
0.967559 1 0
0.972549 1 0.353307
0.969436 1 0.68574
0.478676 1 0.128679
0.478676 1 0.128679
0.47866 1 0.128679
0.478645 1 0.128679
0.678569 1 0.141817
0.853086 1 0.17818
0.956695 1 0.270909
0.968704 1 0.477073
0.967453 1 0.722484
0.822522 1 0.569009
0.822522 1 0.569009
0.822522 1 0.569009
0.822522 1 0.569009
0.822507 1 0.569009
0.882429 1 0.577966
0.944808 1 0.604013
0.966491 1 0.671672
0.965866 1 0.798398
0.923781 1 0.8421
0.923781 1 0.8421
0.923781 1 0.8421
0.923781 1 0.8421
0.923781 1 0.8421
0.923781 1 0.8421
0.94609 1 0.845838
0.965484 1 0.856245
0.965316 1 0.882567
0 0.000167849 0.135348
0 0.00015259 0.135592
0.1411 0 0.131991
0.402914 0 0.124743
0.751919 0 0.122271
1 0 0.134188
1 0.532097 0.184573
0.98204 0.927382 0.337255
0.971252 1 0.688334
0 0.000167849 0.133257
0 0.000167849 0.133608
0.160861 0 0.129259
0.401907 0 0.122057
0.753323 0 0.11899
1 0 0.127977
1 0.562707 0.178714
0.981842 0.930205 0.336187
0.971237 1 0.688197
0 0.15845 0.122881
0 0.160998 0.12285
0.125307 0.156756 0.118898
0.385412 0.139345 0.118029
0.75201 0.00373846 0.11162
1 0.152132 0.124681
1 0.601694 0.170016
0.981491 0.934783 0.334386
0.971206 1 0.687999
0 0.432105 0.0618448
0 0.433509 0.0620737
0 0.43444 0.063035
0.325994 0.435279 0.06421
0.734737 0.426963 0.0646067
1 0.487495 0.0737926
0.99585 0.709148 0.136645
0.98027 0.951263 0.327489
0.971084 1 0.687022
0 0.813321 0
0 0.813321 0
0 0.81297 0
0 0.810285 0
0.637964 0.808042 0
0.93817 0.816434 0
0.97995 0.88394 0.0153658
0.977096 0.993652 0.312871
0.970657 1 0.683207
0 1 0
0 1 0
0 1 0
0 1 0
0.577249 1 0
0.866163 1 0
0.96759 1 0
0.972549 1 0.353109
0.969436 1 0.68574
0.484154 1 0.12845
0.484154 1 0.12845
0.484154 1 0.12845
0.484138 1 0.12845
0.68011 1 0.141558
0.853574 1 0.177981
0.956741 1 0.27071
0.968704 1 0.476997
0.967453 1 0.722484
0.822904 1 0.568963
0.822904 1 0.568963
0.822904 1 0.568963
0.822904 1 0.568963
0.822904 1 0.568963
0.882567 1 0.577905
0.944869 1 0.603983
0.966491 1 0.671656
0.965866 1 0.798398
0.923827 1 0.8421
0.923827 1 0.8421
0.923827 1 0.8421
0.923827 1 0.8421
0.923827 1 0.8421
0.923827 1 0.8421
0.946105 1 0.845808
0.965484 1 0.856245
0.965316 1 0.882567
0 0 0.348608
0 0 0.348699
0 0 0.348943
0.363638 0 0.34078
0.775509 0 0.335698
1 0 0.34696
1 0.486427 0.398718
0.982696 0.921355 0.502556
0.971206 1 0.703685
0 0 0.347112
0 0 0.347234
0.0157931 0 0.34696
0.377905 0 0.338552
0.773602 0 0.333837
1 0 0.344289
1 0.522759 0.395743
0.982483 0.924376 0.501839
0.971191 1 0.703578
0 0.0402838 0.344472
0 0.0424506 0.344594
0.0180514 0.0429389 0.34432
0.384512 0 0.335149
0.76704 0 0.330373
1 0 0.341039
1 0.567697 0.391302
0.982132 0.929229 0.500664
0.97116 1 0.70341
0 0.381659 0.319158
0 0.382544 0.319234
0 0.384558 0.319799
0.310124 0.385245 0.321324
0.719539 0.376684 0.322835
1 0.440375 0.334279
0.999069 0.687694 0.375937
0.98088 0.9467 0.4963
0.971038 1 0.702556
0 0.803815 0.239628
0 0.803815 0.239628
0 0.804074 0.240299
0 0.801495 0.243076
0.635889 0.799832 0.254337
0.941497 0.810788 0.276814
0.985321 0.881941 0.335546
0.977646 0.991302 0.481651
0.970596 1 0.699214
0 1 0.0390784
0 1 0.0390784
0 1 0.0390784
0 1 0.0403143
0.574914 1 0.0466011
0.869688 1 0.139025
0.973632 1 0.258671
0.972808 1 0.443626
0.969421 1 0.689616
0.500648 1 0.127275
0.500648 1 0.127275
0.500648 1 0.127275
0.500648 1 0.127275
0.68484 1 0.140734
0.854826 1 0.177325
0.957 1 0.270405
0.968704 1 0.476509
0.967453 1 0.722377
0.824247 1 0.568826
0.824247 1 0.568826
0.824247 1 0.568826
0.824247 1 0.568826
0.824247 1 0.568826
0.883085 1 0.577737
0.945052 1 0.603845
0.966491 1 0.671504
0.965866 1 0.798337
0.923964 1 0.842069
0.923964 1 0.842069
0.923964 1 0.842069
0.923964 1 0.842069
0.923964 1 0.842069
0.923964 1 0.842069
0.946151 1 0.845792
0.965499 1 0.856214
0.965316 1 0.882567
0 0 0.693584
0 0 0.693584
0 0 0.69369
0.0791485 0 0.692134
0.735882 0 0.676936
1 0 0.67602
1 0.250645 0.70132
0.983444 0.899229 0.729747
0.97084 1 0.808316
0 0 0.693477
0 0 0.693477
0 0 0.693568
0.0852522 0 0.691493
0.740383 0 0.676326
1 0 0.675547
1 0.327764 0.700679
0.983185 0.902968 0.729305
0.970825 1 0.80824
0 0 0.69221
0 0 0.69221
0 0 0.692302
0.166903 0 0.68864
0.747112 0 0.67483
1 0 0.674189
1 0.412192 0.699031
0.982788 0.908675 0.728603
0.970794 1 0.808133
0 0.165347 0.687617
0 0.165347 0.687617
0 0.169009 0.687602
0.16437 0.162463 0.685878
0.746685 0.0776989 0.675258
1 0.149752 0.676402
1 0.596109 0.691844
0.981323 0.929488 0.725948
0.970657 1 0.80766
0 0.745281 0.643061
0 0.745281 0.643061
0 0.745357 0.643091
0 0.745098 0.64358
0.607156 0.743435 0.648402
0.934493 0.76228 0.653315
0.987076 0.852384 0.670634
0.977676 0.981231 0.717922
0.970199 1 0.80589
0 1 0.589364
0 1 0.589364
0 1 0.589303
0 1 0.590051
0.522454 1 0.599161
0.857282 1 0.611399
0.973175 1 0.640558
0.972534 1 0.700526
0.968963 1 0.799573
0.47776 1 0.508598
0.47776 1 0.508598
0.47776 1 0.508598
0.47776 1 0.508598
0.667155 1 0.514702
0.846113 1 0.530709
0.950057 1 0.573007
0.968429 1 0.66041
0.967178 1 0.781735
0.828519 1 0.567971
0.828519 1 0.567971
0.828519 1 0.567971
0.828519 1 0.567971
0.828519 1 0.567971
0.884703 1 0.577157
0.945556 1 0.603342
0.966491 1 0.67126
0.965866 1 0.798077
0.924498 1 0.842008
0.924498 1 0.842008
0.924498 1 0.842008
0.924498 1 0.842008
0.924498 1 0.842008
0.924483 1 0.842008
0.946349 1 0.845731
0.965499 1 0.856168
0.965316 1 0.882536
0 0 0.931197
0 0 0.931334
0 0 0.931334
0 0 0.93138
0.495659 0 0.918883
1 0 0.902739
1 0 0.903471
0.989548 0.792905 0.903426
0.970748 1 0.905943
0 0 0.931334
0 0 0.931334
0 0 0.931334
0 0 0.93138
0.49485 0 0.918914
1 0 0.902739
1 0 0.903365
0.988998 0.801038 0.902922
0.970733 1 0.905898
0 0 0.931273
0 0 0.931273
0 0 0.931273
0 0 0.931289
0.507103 0 0.918471
1 0 0.902617
1 0 0.903212
0.988159 0.813474 0.902159
0.970703 1 0.905821
0 0 0.930709
0 0 0.930709
0 0 0.930709
0 0 0.930724
0.57348 0 0.915953
1 0 0.901976
1 0 0.901457
0.985351 0.854429 0.899458
0.97055 1 0.905577
0 0.429328 0.917433
0 0.429328 0.917433
0 0.429328 0.917433
0 0.433494 0.91722
0.53959 0.431998 0.913649
0.997696 0.454704 0.905638
0.996704 0.686809 0.899397
0.979324 0.941253 0.892958
0.970001 1 0.904555
0 1 0.867124
0 1 0.867124
0 1 0.867124
0 1 0.867124
0.268009 1 0.87097
0.835874 0.997909 0.87422
0.967712 1 0.876402
0.972274 1 0.883207
0.968582 1 0.901503
0.280034 1 0.849928
0.280034 1 0.849928
0.281086 1 0.849897
0.281086 1 0.849897
0.565606 1 0.852308
0.817395 1 0.855024
0.93492 1 0.860029
0.967483 1 0.872038
0.966567 1 0.894972
0.81181 1 0.815732
0.81181 1 0.815732
0.81181 1 0.815732
0.81181 1 0.815732
0.81181 1 0.815732
0.868696 1 0.818402
0.933669 1 0.826108
0.96553 1 0.845335
0.965331 1 0.880278
0.926192 1 0.84181
0.926192 1 0.84181
0.926192 1 0.84181
0.926192 1 0.84181
0.926192 1 0.84181
0.926192 1 0.84181
0.946975 1 0.845487
0.965499 1 0.855985
0.965316 1 0.88246
0 0 0.99762
0 0 0.99762
0 0 0.99762
0 0 0.99762
0 0 0.99762
0.911742 0 0.984649
1 0 0.983001
1 0 0.983001
0.972961 1 0.975296
0 0 0.99762
0 0 0.99762
0 0 0.99762
0 0 0.99762
0 0 0.99762
0.911742 0 0.984649
1 0 0.983001
1 0 0.983001
0.972915 1 0.975265
0 0 0.99762
0 0 0.99762
0 0 0.99762
0 0 0.99762
0 0 0.99762
0.911742 0 0.984649
1 0 0.983001
1 0 0.983001
0.972824 1 0.975174
0 0 0.99762
0 0 0.99762
0 0 0.99762
0 0 0.99762
0 0 0.99762
0.918181 0 0.984558
1 0 0.983001
1 0 0.983001
0.972519 1 0.974807
0 0 0.99762
0 0 0.99762
0 0 0.99762
0 0 0.99762
0 0 0.99762
0.963531 0 0.983902
1 0 0.983001
1 0.379522 0.993301
0.97145 1 0.973556
0 0.782589 0.983459
0 0.782589 0.983459
0 0.782589 0.983459
0 0.782589 0.983459
0 0.786938 0.983261
0.831144 0.785046 0.985321
0.984741 0.852674 0.981262
0.975937 0.979278 0.974304
0.969131 1 0.970748
0 1 0.955322
0 1 0.955322
0 1 0.955322
0 1 0.955322
0 1 0.955322
0.755016 1 0.96228
0.925856 1 0.962997
0.967346 1 0.963882
0.966339 1 0.966705
0.770977 1 0.95465
0.770977 1 0.95465
0.770977 1 0.95465
0.770977 1 0.95465
0.770977 1 0.95465
0.833967 1 0.954925
0.92079 1 0.955749
0.963592 1 0.957748
0.964706 1 0.962448
0.918654 1 0.940383
0.918654 1 0.940383
0.918654 1 0.940383
0.918654 1 0.940383
0.918654 1 0.940383
0.918654 1 0.940383
0.939635 1 0.94139
0.962631 1 0.944472
0.964782 1 0.951873
0 0.0590219 1
0 0.0590219 1
0 0.0590219 1
0 0.0590219 1
0 0.0590219 1
0 0.0590982 1
1 0 0.983001
1 0.00108339 0.98555
0.998108 0.650431 0.999451
0 0.0590219 1
0 0.0590219 1
0 0.0590219 1
0 0.0590219 1
0 0.0590219 1
0 0.0590982 1
1 0 0.983001
1 0.00108339 0.98555
0.998108 0.650431 0.999451
0 0.0590219 1
0 0.0590219 1
0 0.0590219 1
0 0.0590219 1
0 0.0590219 1
0 0.0590982 1
1 0 0.983001
1 0.00108339 0.98555
0.998108 0.65037 0.999451
0 0.0590219 1
0 0.0590219 1
0 0.0590219 1
0 0.0590219 1
0 0.0590219 1
0 0.0590982 1
1 0 0.983001
1 0.00108339 0.98555
0.998108 0.650233 0.999451
0 0.0589151 1
0 0.0589151 1
0 0.0589151 1
0 0.0589151 1
0 0.0589151 1
0 0.0589914 1
1 0 0.983001
1 0.00294499 0.985718
0.998138 0.649821 0.999451
0 0.057496 1
0 0.057496 1
0 0.057496 1
0 0.057496 1
0 0.057496 1
0 0.0575723 1
1 0 0.983001
1 0.0378882 0.988357
0.984802 0.84921 0.999191
0 1 0.988937
0 1 0.988937
0 1 0.988937
0 1 0.988937
0 1 0.988937
0 1 0.988891
0.928237 0.994553 0.998276
0.971359 1 0.998184
0.967819 1 0.997848
0.385428 1 0.993057
0.385428 1 0.993057
0.385428 1 0.993057
0.385428 1 0.993057
0.385428 1 0.993057
0.385428 1 0.993057
0.896666 1 0.996002
0.960739 1 0.996277
0.964523 1 0.996506
0.903456 1 0.993851
0.903456 1 0.993851
0.903456 1 0.993851
0.903456 1 0.993851
0.903456 1 0.993851
0.903456 1 0.993851
0.92697 1 0.993957
0.95787 1 0.994202
0.964431 1 0.99472
0 0.269261 1
0 0.269261 1
0 0.269261 1
0 0.269261 1
0 0.269261 1
0 0.269261 1
0 0.269322 1
1 0.0934005 0.991333
0.995163 0.695598 0.999481
0 0.269261 1
0 0.269261 1
0 0.269261 1
0 0.269261 1
0 0.269261 1
0 0.269261 1
0 0.269322 1
1 0.0934005 0.991333
0.995163 0.695598 0.999481
0 0.269261 1
0 0.269261 1
0 0.269261 1
0 0.269261 1
0 0.269261 1
0 0.269261 1
0 0.269322 1
1 0.0934005 0.991333
0.995163 0.695598 0.999481
0 0.269261 1
0 0.269261 1
0 0.269261 1
0 0.269261 1
0 0.269261 1
0 0.269261 1
0 0.269322 1
1 0.0934005 0.991333
0.995163 0.695598 0.999481
0 0.269261 1
0 0.269261 1
0 0.269261 1
0 0.269261 1
0 0.269261 1
0 0.269261 1
0 0.269322 1
1 0.0934005 0.991333
0.995163 0.695598 0.999481
0 0.269184 1
0 0.269184 1
0 0.269184 1
0 0.269184 1
0 0.269184 1
0 0.269184 1
0 0.26923 1
1 0.0942855 0.991379
0.995026 0.697475 0.999481
0 0.268101 1
0 0.268101 1
0 0.268101 1
0 0.268101 1
0 0.268101 1
0 0.268101 1
0 0.268147 1
1 0.208728 0.995163
0.994812 0.700862 0.999481
0 1 0.986984
0 1 0.986984
0 1 0.986984
0 1 0.986984
0 1 0.986984
0 1 0.986984
0 1 0.986984
0.958648 1 0.997635
0.965637 1 0.99762
0.835325 1 0.996719
0.835325 1 0.996719
0.835325 1 0.996719
0.835325 1 0.996719
0.835325 1 0.996719
0.835325 1 0.996719
0.835325 1 0.996719
0.950973 1 0.997421
0.964416 1 0.997497
