BBLuts/BB_103_0630_LUT.cube
TITLE "Generated by Resolve"
LUT_3D_SIZE 5
0 0 0
0.208133 0 0
0.819135 0 0
0.864164 0.520623 0.0822003
0.836805 0.901335 0.584009
0 0.232029 0
0.157198 0.227131 0
0.802869 0.182422 0
0.858167 0.597269 0.0546273
0.836606 0.903975 0.582879
0 0.828626 0
0 0.826185 0
0.681941 0.805982 0
0.839506 0.834211 0.00329595
0.835294 0.922484 0.572671
0.523613 0.9673 0.198932
0.558251 0.967269 0.20058
0.705089 0.963149 0.216754
0.83238 0.957137 0.314778
0.832242 0.960616 0.61799
0.793698 0.969528 0.703563
0.794507 0.969543 0.703655
0.801144 0.969604 0.704509
0.823362 0.969818 0.709941
0.830854 0.969802 0.73994
0 0 0.153079
0.193118 0 0.146853
0.823423 0 0.154192
0.866682 0.503395 0.246494
0.836728 0.900603 0.610666
0 0.195132 0.1346
0.163394 0.189822 0.129793
0.809094 0.0955215 0.13843
0.860655 0.585611 0.231724
0.83653 0.903273 0.609705
0 0.826154 0
0 0.823651 0
0.684459 0.803708 0
0.841596 0.835248 0.121935
0.835187 0.921996 0.60119
0.529351 0.967285 0.198596
0.562722 0.967254 0.200259
0.706279 0.963058 0.216495
0.832395 0.957076 0.314702
0.832242 0.960601 0.617853
0.79382 0.969528 0.703548
0.794629 0.969543 0.703639
0.801236 0.969604 0.704494
0.823392 0.969818 0.709941
0.830854 0.969802 0.73994
0 0 0.700664
0 0 0.700801
0.825788 0 0.687922
0.887251 0.185565 0.695201
0.836561 0.894102 0.725155
0 0 0.699672
0 0 0.699733
0.831006 0 0.686854
0.873838 0.39086 0.689494
0.836347 0.897154 0.724697
0 0.793378 0.652323
0 0.792035 0.652338
0.666972 0.771786 0.647822
0.842847 0.814313 0.659785
0.834821 0.918029 0.721172
0.508431 0.967483 0.577157
0.543999 0.967422 0.577569
0.693462 0.961547 0.582284
0.824186 0.9552 0.612299
0.83183 0.959518 0.705592
0.794965 0.969543 0.703426
0.795727 0.969558 0.703502
0.802106 0.969619 0.704356
0.823682 0.969818 0.709804
0.830854 0.969802 0.73991
0 0 0.846494
0 0 0.846494
0.365728 0 0.841611
0.898924 0 0.842527
0.841901 0.813153 0.82858
0 0 0.846494
0 0 0.846494
0.411749 0 0.841443
0.898924 0 0.842527
0.841016 0.825223 0.827726
0 0 0.846494
0 0 0.846494
0.643931 0 0.84123
0.896925 0.00700389 0.842771
0.836606 0.884947 0.823209
0 0.969711 0.821485
0 0.969329 0.821088
0.613672 0.955489 0.81442
0.811948 0.947005 0.814481
0.831464 0.954894 0.816724
0.787579 0.969131 0.801556
0.788403 0.969146 0.801587
0.795087 0.969207 0.801709
0.817609 0.969436 0.802609
0.830427 0.969558 0.808057
0 0.22295 0.845441
0 0.22295 0.845426
0 0.222995 0.845441
0.824231 0 0.8421
0.857908 0.599893 0.83975
0 0.222934 0.845441
0 0.222934 0.845441
0 0.222965 0.845441
0.824308 0 0.8421
0.857893 0.600092 0.83975
0 0.222721 0.845441
0 0.222721 0.845441
0 0.222751 0.845426
0.866087 0 0.842374
0.857771 0.601709 0.839719
0 0.221241 0.845441
0 0.221241 0.845441
0 0.221271 0.845441
0.898924 0 0.842527
0.853788 0.654276 0.839109
0.704982 0.968277 0.835523
0.710338 0.968322 0.835538
0.743404 0.968597 0.83563
0.804486 0.969177 0.835859
0.830243 0.969436 0.835981
