BBLuts/BB_103_0590_LUT.cube
TITLE "Generated by Resolve"
LUT_3D_SIZE 5
0 0 0
0.107042 0 0
1 0 0
1 0.542138 0
1 1 0.824552
0 0.254353 0
0.149157 0.233783 0.00103761
0.84358 0.202075 0
1 0.631724 0.0184787
1 1 0.827283
0.369299 0.887495 0.206516
0.36524 0.884627 0.204532
0.827619 0.843351 0.290806
1 0.904952 0.283146
1 1 0.842725
0.851316 1 0.470176
0.88333 1 0.487938
0.995926 1 0.62739
1 1 0.723278
1 1 0.853727
1 1 0.864958
1 1 0.86508
1 1 0.866392
1 1 0.872114
1 1 0.881224
0 0 0
0.057145 0 0.0690318
0.817014 0 0.223606
1 0.489677 0.21088
1 1 0.832273
0 0.213413 0.17525
0.11809 0.202792 0.167605
0.862013 0.0483253 0.175402
1 0.609827 0.186206
1 1 0.834638
0.361669 0.882124 0.202792
0.357595 0.879255 0.200809
0.82681 0.839353 0.282078
1 0.90219 0.411826
1 1 0.848875
0.85684 1 0.471305
0.887541 1 0.490288
0.997055 1 0.630213
1 1 0.72311
1 1 0.853697
1 1 0.864973
1 1 0.865064
1 1 0.866423
1 1 0.872114
1 1 0.881224
0 0 0.424659
0 0 0.424964
0.731548 0.0715343 0.720119
0.882322 0.245136 0.700282
1 1 0.859831
0 0 0.420661
0 0 0.420661
0.742443 0.0714427 0.717678
0.937514 0.479683 0.700114
1 1 0.861295
0.320638 0.826352 0.735775
0.318944 0.825132 0.735576
0.769635 0.795148 0.716777
1 0.879637 0.722957
1 1 0.869993
0.858274 1 0.746777
0.882689 1 0.750607
0.978958 1 0.770535
1 1 0.83621
1 1 0.870237
1 1 0.865064
1 1 0.865248
1 1 0.866529
1 1 0.872145
1 1 0.881224
0 0 0.827008
0 0 0.827008
0 0 0.902434
0.850217 0.0563058 0.934691
1 0.955688 0.889204
0 0 0.827008
0 0 0.827008
0 0 0.912016
0.850217 0.0563058 0.934691
1 0.963836 0.890074
0 0 0.827008
0 0 0.827008
0.317556 0.0514382 0.940932
0.8533 0.0777142 0.934539
1 1 0.897398
0.734585 1 0.909422
0.732433 1 0.906371
0.933608 1 0.894804
1 1 0.903899
1 1 0.907195
1 1 0.896803
1 1 0.896864
1 1 0.897246
1 1 0.899687
1 1 0.903548
0 0.284001 0.927321
0 0.284001 0.927321
0 0.284001 0.927321
0.379294 0.130037 0.94136
0.978256 0.712764 0.88719
0 0.284001 0.927321
0 0.284001 0.927321
0 0.284001 0.927321
0.379461 0.129961 0.94136
0.978347 0.713039 0.88719
0 0.283726 0.927321
0 0.283726 0.927321
0 0.283864 0.927321
0.613123 0.133562 0.943694
0.978882 0.714534 0.887144
0 0.282185 0.927352
0 0.282185 0.927352
0 0.282185 0.927352
0.850217 0.0563058 0.934691
0.980575 0.720867 0.8869
1 1 0.911315
1 1 0.911482
1 1 0.912352
1 1 0.913451
1 1 0.915999
