BBLuts/BB_103_0200_LUT.cube
TITLE "Generated by Resolve"
LUT_3D_SIZE 5
0 0 0.00141909
0.166247 0 0
0.799741 0 0
1 0.454765 0.0526741
1 0.957061 0.549386
0 0.160052 0
0.127291 0.160388 0
0.809186 0 0
1 0.545113 0.0330053
1 0.958572 0.548898
0 0.775296 0.00428778
0 0.774762 0.00424201
0.733593 0.759258 0
1 0.813245 0
1 0.968261 0.545373
0.573968 1 0.134936
0.629114 1 0.133532
0.822614 1 0.13727
1 0.993637 0.241352
1 1 0.565591
0.998962 1 0.634424
0.999481 1 0.634455
1 1 0.634668
1 1 0.636896
1 1 0.656443
0 0 0.106249
0.148333 0 0.0999466
0.804181 0 0.0547646
1 0.439124 0.167559
1 0.956878 0.562493
0.0274662 0.118227 0.0835126
0.140795 0.126604 0.0874037
0.804959 0 0.0445869
1 0.537453 0.15761
1 0.958404 0.562081
0 0.770977 0.00393683
0 0.770413 0.00392157
0.740139 0.754986 0
1 0.814847 0.0422827
1 0.9682 0.558938
0.58349 1 0.134081
0.636118 1 0.13283
0.824475 1 0.136934
1 0.993576 0.241306
1 1 0.565515
0.999023 1 0.634424
0.999557 1 0.634455
1 1 0.634653
1 1 0.636881
1 1 0.656443
0 0 0.525567
0 0 0.525734
0.814069 0 0.477882
1 0.123735 0.51191
1 0.955139 0.619577
0 0 0.524315
0 0 0.524514
0.82385 0 0.475914
1 0.372412 0.525048
1 0.956771 0.619394
0 0.731807 0.507118
0 0.732296 0.507347
0.734142 0.718059 0.497185
1 0.798733 0.512749
1 0.967208 0.618158
0.5906 1 0.406836
0.641245 1 0.404837
0.824887 1 0.402197
1 0.994904 0.446677
1 1 0.606607
0.999634 1 0.634363
1 1 0.634394
1 1 0.634592
1 1 0.636835
1 1 0.656443
0 0 0.711711
0 0 0.711711
0 0 0.711711
1 0 0.66601
1 0.919264 0.702083
0 0 0.711711
0 0 0.711711
0 0 0.711711
1 0 0.66601
1 0.922652 0.70193
0 0 0.711711
0 0 0.711711
0.326528 0 0.697505
1 0 0.66601
1 0.944472 0.701976
0 1 0.736522
0 1 0.736263
0.660899 1 0.710628
1 0.990616 0.697826
1 1 0.700175
0.997345 1 0.68426
0.997833 1 0.68426
1 1 0.684276
1 1 0.684688
1 1 0.691371
0 0.251637 0.717205
0 0.251637 0.717205
0 0.251652 0.717205
0 0.251835 0.717205
1 0.691493 0.713588
0 0.251621 0.717205
0 0.251621 0.717205
0 0.251637 0.717205
0 0.251804 0.717205
1 0.691615 0.713603
0 0.251484 0.717205
0 0.251484 0.717205
0 0.251499 0.717205
0.375723 0.231083 0.711727
1 0.692622 0.71368
0 0.250141 0.717174
0 0.250141 0.717174
0 0.250156 0.717174
1 0 0.66601
1 0.696025 0.713649
0.928237 1 0.722042
0.930587 1 0.721981
0.945556 1 0.72166
1 1 0.720378
1 1 0.719875
