BBLuts/BB_103_0110_LUT.cube
TITLE "Generated by Resolve"
LUT_3D_SIZE 9
0 0 0
0.0384222 0 0
0.297124 0 0
0.645579 0 0
1 0 0
1 0 0
1 0.877104 0.0928511
1 1 0.519783
1 1 1
0 0.07364 0
0.0015259 0.0816663 0
0.295476 0.0474403 0
0.655543 0 0
1 0 0
1 0.0543832 0
1 0.910567 0.0760052
1 1 0.518486
1 1 1
0 0.330114 0
0 0.332784 0
0.195727 0.331304 0
0.649332 0.291646 0
1 0.178897 0
1 0.457557 0
1 0.965774 0.0322881
1 1 0.515831
1 1 1
0 0.730068 0
0 0.731365 0
0 0.732647 0
0.526711 0.74522 0
1 0.743389 0
1 0.845792 0
1 1 0
1 1 0.514488
1 1 1
0 1 0
0 1 0
0 1 0
0 1 0
0.965896 1 0
1 1 0
1 1 0
1 1 0.528588
1 1 1
0 1 0
0 1 0
0 1 0
0 1 0
0.916823 1 0
1 1 0
1 1 0.051133
1 1 0.592691
1 1 1
0.768994 1 0.272541
0.768994 1 0.272541
0.768978 1 0.272541
0.768933 1 0.272557
1 1 0.285725
1 1 0.34374
1 1 0.490089
1 1 0.768841
1 1 1
1 1 0.894331
1 1 0.894331
1 1 0.894331
1 1 0.894331
1 1 0.894331
1 1 0.90837
1 1 0.945068
1 1 1
1 1 1
1 1 1
1 1 1
1 1 1
1 1 1
1 1 1
1 1 1
1 1 1
1 1 1
1 1 1
0 0 0.0487984
0.00865187 0 0.0481117
0.296437 0 0.044358
0.646159 0 0.0307774
1 0 0.016144
1 0 0.0333867
1 0.873899 0.154879
1 1 0.519814
1 1 1
0 0.0384527 0.0406348
0.0166934 0.04448 0.0381628
0.298497 0.0024567 0.0363622
0.649668 0 0.0196689
1 0 0
1 0.0240787 0.0104829
1 0.907988 0.134447
1 1 0.518486
1 1 1
0 0.313909 0
0 0.316732 0
0.212909 0.315053 0
0.645304 0.274144 0
1 0.144976 0
1 0.437858 0
1 0.964584 0.0914931
1 1 0.515831
1 1 1
0 0.722683 0
0 0.723918 0
0 0.72488 0
0.53875 0.737377 0
1 0.736629 0
1 0.840742 0
1 1 0
1 1 0.514488
1 1 1
0 1 0
0 1 0
0 1 0
0.00471504 1 0
0.969192 1 0
1 1 0
1 1 0
1 1 0.528572
1 1 1
0 1 0
0 1 0
0 1 0
0 1 0
0.919417 1 0
1 1 0
1 1 0.0510109
1 1 0.592691
1 1 1
0.773968 1 0.272053
0.773968 1 0.272053
0.773953 1 0.272068
0.773922 1 0.272068
1 1 0.285435
1 1 0.343542
1 1 0.490043
1 1 0.768841
1 1 1
1 1 0.894316
1 1 0.894316
1 1 0.894316
1 1 0.894316
1 1 0.894316
1 1 0.908324
1 1 0.945022
1 1 1
1 1 1
1 1 1
1 1 1
1 1 1
1 1 1
1 1 1
1 1 1
1 1 1
1 1 1
1 1 1
0 0 0.248981
0 0 0.249317
0.246265 0 0.242802
0.663325 0 0.22005
1 0 0.208972
1 0 0.246769
1 0.857435 0.36846
1 1 0.590311
1 1 1
0 0 0.24596
0 0 0.246326
0.275074 0 0.238453
0.6607 0 0.215656
1 0 0.203098
1 0 0.243107
1 0.89337 0.359319
1 1 0.589029
1 1 1
0 0.265415 0.221729
0 0.269215 0.221836
0.193683 0.263615 0.21738
0.631464 0.222263 0.209155
1 0.0635386 0.19707
1 0.372519 0.261723
1 0.952819 0.342184
1 1 0.586175
1 1 1
0 0.706737 0.0926986
0 0.708431 0.0931868
0 0.709636 0.094667
0.54023 0.721843 0.111238
1 0.722026 0.122789
1 0.829358 0.172091
1 1 0.281575
1 1 0.57583
1 1 1
0 1 0
0 1 0
0 1 0
0.00460822 1 0
0.970718 1 0
1 1 0
1 1 0.0985275
1 1 0.551354
1 1 1
0 1 0
0 1 0
0 1 0
0 1 0
0.924529 1 0
1 1 0
1 1 0.0506447
1 1 0.592248
1 1 1
0.781292 1 0.270771
0.781292 1 0.270771
0.781292 1 0.270771
0.781628 1 0.271199
1 1 0.284916
1 1 0.343145
1 1 0.489784
1 1 0.768673
1 1 1
1 1 0.89424
1 1 0.89424
1 1 0.89424
1 1 0.89424
1 1 0.89424
1 1 0.908248
1 1 0.944961
1 1 1
1 1 1
1 1 1
1 1 1
1 1 1
1 1 1
1 1 1
1 1 1
1 1 1
1 1 1
1 1 1
0 0 0.616709
0 0 0.616907
0 0 0.616861
0.608148 0 0.598077
1 0 0.585534
1 0 0.614893
1 0.787625 0.709941
1 1 0.830777
1 1 1
0 0 0.614679
0 0 0.614908
0.0294041 0 0.613275
0.625116 0 0.594751
1 0 0.58323
1 0 0.611337
1 0.830762 0.705547
1 1 0.829877
1 1 1
0 0.0555428 0.608194
0 0.058793 0.608392
0.0245365 0.0577554 0.606897
0.631464 0 0.590051
1 0 0.577844
1 0.0631418 0.617502
1 0.899733 0.696864
1 1 0.827893
1 1 1
0 0.634516 0.560433
0 0.635691 0.56054
0 0.638514 0.561517
0.508705 0.649516 0.574197
1 0.647974 0.5841
1 0.764462 0.619593
1 1 0.667445
1 1 0.820661
1 1 1
0 1 0.46421
0 1 0.464195
0 1 0.465614
0 1 0.473838
0.964523 1 0.487541
1 1 0.527535
1 1 0.608621
1 1 0.799207
1 1 1
0 1 0.241199
0 1 0.241199
0 1 0.241199
0 1 0.247135
0.919432 1 0.243595
1 1 0.335821
1 1 0.511437
1 1 0.746349
1 1 1
0.803876 1 0.267796
0.803876 1 0.267796
0.803876 1 0.267796
0.803876 1 0.267796
1 1 0.283009
1 1 0.341985
1 1 0.491264
1 1 0.767941
1 1 1
1 1 0.893996
1 1 0.893996
1 1 0.893996
1 1 0.893996
1 1 0.893996
1 1 0.907973
1 1 0.944717
1 1 1
1 1 1
1 1 1
1 1 1
1 1 1
1 1 1
1 1 1
1 1 1
1 1 1
1 1 1
1 1 1
0 0 1
0 0 1
0 0 1
0.199359 0 1
1 0 1
1 0 1
1 0.415473 1
1 1 1
1 1 1
0 0 1
0 0 1
0 0 1
0.22565 0 1
1 0 1
1 0 1
1 0.518547 1
1 1 1
1 1 1
0 0 1
0 0 1
0 0 1
0.297017 0 1
1 0 1
1 0 1
1 0.672602 1
1 1 1
1 1 1
0 0.279988 1
0 0.279988 1
0 0.285527 1
0.266819 0.275471 1
1 0.164614 1
1 0.358221 1
1 0.942931 1
1 1 1
1 1 1
0 1 1
0 1 1
0 1 1
0 1 1
0.916808 1 1
1 1 1
1 1 1
1 1 1
1 1 1
0 1 0.998367
0 1 0.998367
0 1 0.998337
0 1 0.998932
0.83978 1 0.983673
1 1 0.991821
1 1 1
1 1 1
1 1 1
0.748455 1 0.872984
0.748455 1 0.872984
0.748455 1 0.872984
0.748455 1 0.872984
0.997986 1 0.871138
1 1 0.891356
1 1 0.944945
1 1 1
1 1 1
1 1 0.892714
1 1 0.892714
1 1 0.892714
1 1 0.892714
1 1 0.892714
1 1 0.906905
1 1 0.943969
1 1 1
1 1 1
1 1 1
1 1 1
1 1 1
1 1 1
1 1 1
1 1 1
1 1 1
1 1 1
1 1 1
0 0 1
0 0 1
0 0 1
0 0 1
0.77261 0 1
1 0 1
1 0 1
1 1 1
1 1 1
0 0 1
0 0 1
0 0 1
0 0 1
0.771984 0 1
1 0 1
1 0 1
1 1 1
1 1 1
0 0 1
0 0 1
0 0 1
0 0 1
0.79115 0 1
1 0 1
1 0 1
1 1 1
1 1 1
0 0 1
0 0 1
0 0 1
0 0 1
0.8851 0 1
1 0 1
1 0.0741588 1
1 1 1
1 1 1
0 0.697902 1
0 0.697902 1
0 0.697902 1
0 0.70338 1
0.828656 0.710231 1
1 0.773037 1
1 1 1
1 1 1
1 1 1
0 1 1
0 1 1
0 1 1
0 1 1
0.537484 1 1
1 1 1
1 1 1
1 1 1
1 1 1
0.474876 1 1
0.474922 1 1
0.475608 1 1
0.475608 1 1
0.876707 1 1
1 1 1
1 1 1
1 1 1
1 1 1
1 1 1
1 1 1
1 1 1
1 1 1
1 1 1
1 1 1
1 1 1
1 1 1
1 1 1
1 1 1
1 1 1
1 1 1
1 1 1
1 1 1
1 1 1
1 1 1
1 1 1
1 1 1
0 0 1
0 0 1
0 0 1
0 0 1
0 0 1
1 0 1
1 0 1
1 0 1
1 1 1
0 0 1
0 0 1
0 0 1
0 0 1
0 0 1
1 0 1
1 0 1
1 0 1
1 1 1
0 0 1
0 0 1
0 0 1
0 0 1
0 0 1
1 0 1
1 0 1
1 0 1
1 1 1
0 0 1
0 0 1
0 0 1
0 0 1
0 0 1
1 0 1
1 0 1
1 0 1
1 1 1
0 0 1
0 0 1
0 0 1
0 0 1
0 0 1
1 0 1
1 0 1
1 0.662928 1
1 1 1
0 1 1
0 1 1
0 1 1
0 1 1
0 1 1
1 1 1
1 1 1
1 1 1
1 1 1
0 1 1
0 1 1
0 1 1
0 1 1
0 1 1
1 1 1
1 1 1
1 1 1
1 1 1
1 1 1
1 1 1
1 1 1
1 1 1
1 1 1
1 1 1
1 1 1
1 1 1
1 1 1
1 1 1
1 1 1
1 1 1
1 1 1
1 1 1
1 1 1
1 1 1
1 1 1
1 1 1
0 0.0572518 1
0 0.0572518 1
0 0.0572518 1
0 0.0572518 1
0 0.0572518 1
0 0.0574197 1
1 0 1
1 0.0248722 1
1 0.97702 1
0 0.0572518 1
0 0.0572518 1
0 0.0572518 1
0 0.0572518 1
0 0.0572518 1
0 0.0574197 1
1 0 1
1 0.0248722 1
1 0.977005 1
0 0.0572518 1
0 0.0572518 1
0 0.0572518 1
0 0.0572518 1
0 0.0572518 1
0 0.0574197 1
1 0 1
1 0.0248722 1
1 0.976944 1
0 0.0572518 1
0 0.0572518 1
0 0.0572518 1
0 0.0572518 1
0 0.0572518 1
0 0.0574197 1
1 0 1
1 0.0248722 1
1 0.976761 1
0 0.0569162 1
0 0.0569162 1
0 0.0569162 1
0 0.0569162 1
0 0.0569162 1
0 0.0570687 1
1 0 1
1 0.0293431 1
1 0.976013 1
0 0.0545815 1
0 0.0545815 1
0 0.0545815 1
0 0.0545815 1
0 0.0545815 1
0 0.04448 1
1 0 1
1 0.0908827 1
1 1 1
0 1 1
0 1 1
0 1 1
0 1 1
0 1 1
0 1 1
1 1 1
1 1 1
1 1 1
0.579828 1 1
0.579828 1 1
0.579828 1 1
0.579828 1 1
0.579828 1 1
0.687205 1 1
1 1 1
1 1 1
1 1 1
1 1 1
1 1 1
1 1 1
1 1 1
1 1 1
1 1 1
1 1 1
1 1 1
1 1 1
0 0.397375 1
0 0.397375 1
0 0.397375 1
0 0.397375 1
0 0.397375 1
0 0.397375 1
0 0.397498 1
1 0.17847 1
1 1 1
0 0.397375 1
0 0.397375 1
0 0.397375 1
0 0.397375 1
0 0.397375 1
0 0.397375 1
0 0.397498 1
1 0.17847 1
1 1 1
0 0.397375 1
0 0.397375 1
0 0.397375 1
0 0.397375 1
0 0.397375 1
0 0.397375 1
0 0.397498 1
1 0.17847 1
1 1 1
0 0.397375 1
0 0.397375 1
0 0.397375 1
0 0.397375 1
0 0.397375 1
0 0.397375 1
0 0.397498 1
1 0.17847 1
1 1 1
0 0.397375 1
0 0.397375 1
0 0.397375 1
0 0.397375 1
0 0.397375 1
0 0.397375 1
0 0.397498 1
1 0.178378 1
1 1 1
0 0.397147 1
0 0.397147 1
0 0.397147 1
0 0.397147 1
0 0.397147 1
0 0.397131 1
0 0.397253 1
1 0.210437 1
1 1 1
0 0.395346 1
0 0.395346 1
0 0.395346 1
0 0.395346 1
0 0.395346 1
0 0.395346 1
0.0602274 0.370428 1
1 0.371603 1
1 1 1
0 1 1
0 1 1
0 1 1
0 1 1
0 1 1
0 1 1
0.136751 1 1
1 1 1
1 1 1
1 1 1
1 1 1
1 1 1
1 1 1
1 1 1
1 1 1
1 1 1
1 1 1
1 1 1
