BBLuts/BB_103_0830_LUT.cube
TITLE "Generated by Resolve"
LUT_3D_SIZE 33
0.0336004 0.0256504 0.0273442
0.0336004 0.0256504 0.0273442
0.0336004 0.0256504 0.0273442
0.0336004 0.0256504 0.0273442
0.0336004 0.0256504 0.0273442
0.0868696 0.0262608 0.0278782
0.147112 0.0272831 0.0287785
0.189914 0.0281376 0.0295262
0.232258 0.0290379 0.0303197
0.281926 0.0301518 0.0312963
0.339086 0.0314946 0.0324865
0.399969 0.0330053 0.0337987
0.466545 0.0347448 0.0353246
0.538537 0.0367895 0.0371099
0.614786 0.0391089 0.0391394
0.694667 0.0416571 0.0413519
0.776181 0.0442664 0.0436255
0.857496 0.0469215 0.0459297
0.931136 0.0493324 0.0480201
0.988602 0.0512245 0.0496529
0.999649 0.0515755 0.049958
0.999649 0.0515755 0.049958
0.976776 0.230961 0.0780499
0.955184 0.42063 0.0995804
0.941039 0.547036 0.128939
0.929885 0.647288 0.16701
0.919997 0.737026 0.217227
0.911711 0.813397 0.291661
0.905516 0.871809 0.373419
0.900816 0.916793 0.449958
0.897322 0.951171 0.521111
0.894682 0.977935 0.58996
0.892668 0.999054 0.649805
0.0336004 0.0256504 0.0273442
0.0336004 0.0256504 0.0273442
0.0336004 0.0256504 0.0273442
0.0336004 0.0256504 0.0273442
0.0336004 0.0256504 0.0273442
0.0991379 0.0264439 0.0280461
0.151263 0.0273594 0.0288548
0.193271 0.0282139 0.0295872
0.237461 0.02916 0.0304265
0.287953 0.0302892 0.0314183
0.345068 0.031632 0.0326085
0.404883 0.0331273 0.0339055
0.469505 0.0348211 0.0353857
0.540352 0.0368353 0.0371557
0.616266 0.0391546 0.0391852
0.695705 0.0416876 0.0413825
0.776806 0.0442969 0.0436408
0.857786 0.0469215 0.0459297
0.93106 0.0493172 0.0480049
0.98822 0.0512093 0.0496529
0.999649 0.0515755 0.049958
0.999649 0.0515755 0.049958
0.972595 0.267445 0.0569772
0.953552 0.435187 0.0922103
0.940108 0.555306 0.125063
0.92929 0.652552 0.164828
0.919585 0.740673 0.215076
0.911467 0.815579 0.290501
0.905379 0.873045 0.372808
0.90074 0.917525 0.449638
0.897276 0.951583 0.520928
0.894652 0.978195 0.589837
0.892653 0.99968 0.649729
0.0336004 0.0256504 0.0273442
0.0336004 0.0256504 0.0273442
0.0336004 0.0256504 0.0273442
0.0336004 0.0256504 0.0273442
0.0336004 0.0256504 0.0273442
0.106401 0.0265507 0.0281376
0.152682 0.0273899 0.0288701
0.196445 0.028275 0.0296483
0.242878 0.0292668 0.030518
0.293553 0.0304265 0.0315404
0.349599 0.031754 0.0327001
0.407507 0.0332036 0.0339666
0.471977 0.0348974 0.0354467
0.54229 0.0368963 0.0372015
0.617761 0.0392004 0.0392157
0.696712 0.0417182 0.0413977
0.777432 0.0443122 0.0436561
0.858076 0.0469368 0.0459449
0.930938 0.0493172 0.0480049
0.987823 0.051194 0.0496376
0.999649 0.0515755 0.049958
0.999649 0.0515755 0.049958
0.969268 0.297536 0.0203708
0.952026 0.44892 0.0842756
0.939223 0.563256 0.121111
0.92871 0.657725 0.162631
0.919188 0.744259 0.213001
0.911238 0.817716 0.289342
0.905241 0.874266 0.372213
0.900664 0.918257 0.449302
0.897231 0.95198 0.520714
0.894636 0.978424 0.589731
0.892638 0.999832 0.649653
0.0336004 0.0256504 0.0273442
0.0336004 0.0256504 0.0273442
0.0336004 0.0256504 0.0273442
0.0331273 0.032517 0.0269169
0.0579843 0.0388495 0.0267033
0.11194 0.0266575 0.0282292
0.153353 0.0274052 0.0288853
0.196735 0.028275 0.0296483
0.243793 0.0292973 0.0305486
0.295827 0.0304723 0.0315862
0.352529 0.0318303 0.0327611
0.409903 0.0332647 0.0340276
0.474342 0.0349584 0.0355077
0.544244 0.0369573 0.0372473
0.619287 0.0392615 0.0392615
0.697765 0.0417487 0.0414282
0.778058 0.0443275 0.0436866
0.85832 0.0469368 0.0459449
0.9308 0.0493172 0.0480049
0.987396 0.0511788 0.0496223
0.999649 0.0515755 0.049958
0.999649 0.0515755 0.049958
0.966339 0.32343 0.0175631
0.950576 0.461952 0.0755474
0.938369 0.570932 0.117113
0.928145 0.662806 0.160464
0.918791 0.747738 0.211841
0.910994 0.819821 0.288197
0.905104 0.875471 0.371603
0.900572 0.918975 0.448966
0.897185 0.952392 0.520531
0.894606 0.978683 0.589593
0.892622 0.999969 0.649592
0.0290837 0.0878614 0.0233616
0.0288243 0.0912947 0.0231327
0.0285649 0.0946059 0.0229038
0.0283207 0.0977951 0.0226902
0.0282292 0.0990311 0.0226139
0.0974899 0.0985275 0.0228428
0.142596 0.0964218 0.0234226
0.188174 0.090959 0.0244144
0.238163 0.0778363 0.0262608
0.296818 0.0305028 0.0316014
0.354238 0.0318608 0.0328069
0.412055 0.0333257 0.0340734
0.476616 0.0350195 0.0355535
0.546227 0.0370184 0.0373083
0.620844 0.0393072 0.0393072
0.698817 0.0417792 0.0414588
0.778668 0.044358 0.0437018
0.858549 0.046952 0.0459602
0.930648 0.0493172 0.0480049
0.986969 0.0511635 0.0496071
0.999649 0.0515755 0.049958
0.991531 0.109224 0.0421302
0.963745 0.346395 0.0150912
0.949203 0.474372 0.0655528
0.937545 0.578332 0.113024
0.927596 0.667796 0.158282
0.91841 0.751156 0.210697
0.910765 0.821912 0.287068
0.904967 0.876646 0.371008
0.900496 0.919676 0.448646
0.897139 0.952773 0.520333
0.894575 0.978927 0.589487
0.892607 1 0.649516
0.0261845 0.125399 0.020798
0.0259709 0.128084 0.0205997
0.0257725 0.130724 0.0204166
0.0256046 0.132815 0.0202792
0.0255283 0.133822 0.0202029
0.0742809 0.133761 0.0201419
0.131792 0.133196 0.0204929
0.18024 0.131243 0.0211032
0.231373 0.126726 0.0220951
0.287968 0.117449 0.0237125
0.348074 0.0984665 0.0264134
0.413977 0.0333715 0.0341192
0.47892 0.0350805 0.0356146
0.548333 0.0370794 0.0373541
0.622492 0.039353 0.039353
0.699947 0.041825 0.0414893
0.779293 0.0443732 0.0437171
0.858793 0.046952 0.0459602
0.93048 0.0493019 0.0479896
0.986496 0.0511482 0.0495918
0.999649 0.0515755 0.049958
0.980606 0.199237 0.0313115
0.961334 0.36788 0.0128023
0.947829 0.486763 0.0528115
0.936706 0.58584 0.108629
0.927016 0.672892 0.155978
0.918029 0.754635 0.209522
0.910521 0.824018 0.285878
0.90483 0.877882 0.370367
0.90042 0.920409 0.44831
0.897093 0.953201 0.520134
0.894545 0.979187 0.589349
0.892592 1 0.649439
0.0230869 0.16437 0.0180209
0.0229038 0.166583 0.0178683
0.0227207 0.168795 0.0177005
0.0226291 0.170016 0.0176242
0.0225528 0.170809 0.0175631
0.0225376 0.171099 0.0175479
0.112352 0.170748 0.0174868
0.168673 0.170001 0.0178988
0.223056 0.16788 0.0186007
0.281697 0.163394 0.0196841
0.342214 0.154482 0.0213321
0.404501 0.139605 0.0237125
0.47335 0.110033 0.027863
0.551034 0.0371557 0.0374304
0.624659 0.0394293 0.0394141
0.701396 0.0418555 0.0415351
0.780133 0.0444038 0.0437324
0.859098 0.0469673 0.0459754
0.930236 0.0493019 0.0479896
0.98584 0.051133 0.0495766
0.999649 0.0515755 0.049958
0.974105 0.255238 0.0250095
0.958541 0.392721 0.0101625
0.946227 0.5019 0.0256504
0.935668 0.595148 0.102831
0.926299 0.679316 0.153048
0.91754 0.759045 0.208042
0.910231 0.826703 0.284367
0.904662 0.879438 0.369589
0.900313 0.92134 0.447868
0.897032 0.953719 0.51989
0.894514 0.979522 0.589181
0.892561 1 0.649332
0.0195163 0.208011 0.0148318
0.0193637 0.209918 0.0146944
0.0192416 0.211337 0.0145876
0.0191653 0.212268 0.0145266
0.0191043 0.21294 0.0144656
0.0190738 0.213321 0.014435
0.0535286 0.213107 0.0142061
0.148409 0.212757 0.0143435
0.210025 0.211841 0.014847
0.271702 0.208988 0.0157015
0.334737 0.203265 0.016968
0.399649 0.194812 0.0186465
0.468696 0.181827 0.0209964
0.541024 0.158968 0.0245975
0.619577 0.108019 0.0316167
0.703349 0.0419318 0.0415808
0.781262 0.0444343 0.0437629
0.85951 0.0469825 0.0459754
0.9299 0.0492866 0.0479744
0.984955 0.0511025 0.0495613
0.985916 0.154757 0.0365148
0.968139 0.307607 0.0192721
0.955337 0.421347 0.00712596
0.944305 0.520317 0
0.934356 0.606989 0.0947127
0.925383 0.687587 0.149157
0.916915 0.764675 0.206134
0.909834 0.830167 0.282399
0.904433 0.881453 0.368551
0.900175 0.922576 0.447288
0.896956 0.954421 0.519539
0.894453 0.97995 0.588968
0.892531 1 0.64921
0.0153048 0.258335 0.0110628
0.0151827 0.25977 0.0109407
0.0151064 0.260578 0.0108797
0.0150454 0.261387 0.0108186
0.0149996 0.261936 0.0107881
0.0149538 0.262333 0.0107576
0.0149386 0.262577 0.0107271
0.103685 0.261875 0.0103151
0.186877 0.260487 0.0106813
0.25507 0.258167 0.011368
0.322911 0.254505 0.0123598
0.392111 0.248997 0.0136873
0.464454 0.240787 0.0154879
0.537453 0.22826 0.0179141
0.61207 0.210559 0.0211337
0.689555 0.184604 0.0254826
0.770977 0.14258 0.0319677
0.860044 0.0469978 0.0459907
0.929381 0.0492714 0.0479591
0.969604 0.161379 0.0352941
0.973114 0.26389 0.0240482
0.962112 0.360998 0.0135348
0.951659 0.454231 0.00366217
0.941894 0.54197 0
0.932692 0.621897 0.0830396
0.924208 0.698116 0.143984
0.916121 0.771847 0.203708
0.909346 0.834577 0.279805
0.904143 0.884077 0.367163
0.899992 0.924147 0.44654
0.896849 0.955322 0.519097
0.894392 0.980514 0.588663
0.8925 1 0.649027
0.0104677 0.314656 0.00671397
0.0104372 0.315099 0.00668345
0.0103914 0.315526 0.00665293
0.0103609 0.315877 0.00662242
0.0103456 0.316106 0.00660716
0.0103456 0.316152 0.0065919
0.0103456 0.316045 0.00660716
0.0103914 0.315648 0.00663767
0.143496 0.313939 0.00611887
0.229221 0.312535 0.00657664
0.304692 0.310216 0.00733959
0.379828 0.306493 0.00842298
0.457099 0.30071 0.00991836
0.533608 0.292103 0.0118715
0.608469 0.28217 0.0141299
0.683574 0.270191 0.0167849
0.760281 0.256855 0.0197757
0.837156 0.245335 0.0227207
0.90428 0.250111 0.0238346
0.953429 0.284688 0.0213474
0.964111 0.343221 0.0154421
0.955962 0.415732 0.00772107
0.947448 0.492134 0
0.939055 0.567391 0
0.930724 0.63978 0.0650492
0.922728 0.711406 0.137102
0.915114 0.78085 0.200671
0.908721 0.840146 0.276463
0.903761 0.887404 0.365362
0.899763 0.926192 0.445563
0.896712 0.956512 0.518502
0.894316 0.981247 0.588281
0.892439 1 0.648814
0.00526436 0.374243 0.00201419
0.00521859 0.374655 0.00198367
0.00518807 0.375097 0.00195315
0.00515755 0.375402 0.00192264
0.00514229 0.375647 0.00190738
0.00512703 0.375784 0.00189212
0.00511177 0.37583 0.00189212
0.00512703 0.375723 0.00189212
0.00517281 0.37528 0.0019379
0.185229 0.373266 0.00125124
0.276371 0.371908 0.00177005
0.360342 0.369558 0.00262455
0.444114 0.365591 0.00384527
0.526528 0.359915 0.00544747
0.603876 0.353536 0.00724804
0.678782 0.347112 0.00918593
0.753445 0.341634 0.0111391
0.827466 0.339193 0.0128939
0.892103 0.347646 0.0133974
0.940673 0.374258 0.0116884
0.955779 0.417395 0.00755322
0.949722 0.471702 0.00183108
0.942794 0.533837 0
0.93576 0.597055 0
0.928389 0.661585 0.0290379
0.920897 0.727993 0.127886
0.913878 0.791974 0.196902
0.907942 0.847074 0.272099
0.903288 0.891661 0.363027
0.899474 0.928786 0.444282
0.896544 0.958022 0.517739
0.894209 0.982208 0.587793
0.892378 1 0.648524
0 0.441321 0
0 0.441718 0
0 0.442069 0
0 0.442359 0
0 0.442588 0
0 0.442756 0
0 0.442893 0
0 0.442954 0
0 0.442817 0
0.053727 0.441596 0
0.228244 0.440238 0
0.329107 0.438972 0
0.422751 0.436912 0
0.512978 0.433707 0
0.59469 0.429725 0
0.672129 0.426123 0.00141909
0.746532 0.424308 0.00283818
0.81828 0.425956 0.0039826
0.880293 0.435523 0.00418097
0.927733 0.456306 0.00299077
0.94786 0.488365 9.15541e-05
0.943221 0.530037 0
0.937881 0.578058 0
0.93196 0.631388 0
0.925673 0.688136 0
0.918685 0.748043 0.115709
0.912383 0.805447 0.192386
0.907012 0.855497 0.270665
0.902678 0.897017 0.359976
0.899107 0.932082 0.442603
0.896315 0.959976 0.516732
0.894057 0.983459 0.587137
0.892287 1 0.648127
0 0.517693 0
0 0.518029 0
0 0.518334 0
0 0.518578 0
0 0.518761 0
0 0.518929 0
0 0.519097 0
0 0.519219 0
0 0.519341 0
0 0.519432 0
0.112993 0.517998 0
0.276066 0.517388 0
0.388815 0.516548 0
0.490013 0.514687 0
0.577966 0.512169 0
0.659953 0.509773 0
0.737209 0.508736 0
0.808331 0.510719 0
0.868162 0.518517 0
0.914214 0.53402 0
0.940215 0.557076 0
0.936812 0.587701 0
0.932555 0.625986 0
0.927733 0.669535 0
0.922255 0.719219 0
0.916106 0.771389 0.0999008
0.910628 0.821378 0.187213
0.905898 0.865568 0.269276
0.901946 0.903609 0.356054
0.898634 0.936187 0.440452
0.89604 0.962478 0.515404
0.893874 0.985031 0.586267
0.89218 1 0.647623
0 0.596109 0
0 0.596353 0
0 0.596582 0
0 0.59675 0
0 0.596918 0
0 0.597055 0
0 0.597208 0
0 0.597345 0
0 0.597452 0
0 0.597482 0
0 0.597345 0
0.174105 0.595285 0
0.338552 0.594446 0
0.45742 0.593164 0
0.553948 0.591333 0
0.641749 0.589319 0
0.723857 0.588022 0
0.796918 0.588952 0
0.8551 0.594507 0
0.900008 0.605936 0
0.93283 0.623468 0
0.930282 0.646479 0
0.92697 0.676402 0
0.922957 0.712779 0
0.918349 0.754696 0
0.913222 0.797681 0.0793469
0.908614 0.839582 0.181704
0.904585 0.877424 0.268009
0.901045 0.911589 0.351568
0.89807 0.941207 0.437675
0.895689 0.965606 0.513695
0.893645 0.987045 0.585153
0.892042 1 0.646952
0 0.673136 0
0 0.673289 0
0 0.673411 0
0 0.673503 0
0 0.673594 0
0 0.673655 0
0 0.673732 0
0 0.673793 0
0 0.673808 0
0 0.673747 0
0 0.673548 0
0 0.67306 0
0.258457 0.670222 0
0.412787 0.669032 0
0.522805 0.667521 0
0.616876 0.665721 0
0.704646 0.664103 0
0.78114 0.664042 0
0.840223 0.667552 0
0.884337 0.675761 0
0.918578 0.688823 0
0.923598 0.707027 0
0.920974 0.730861 0
0.917769 0.759915 0
0.914199 0.792401 0
0.91014 0.826139 0.0523995
0.906401 0.859571 0.176577
0.903059 0.891218 0.267109
0.900008 0.920974 0.351965
0.897398 0.947204 0.434134
0.895247 0.969512 0.511467
0.893355 0.989593 0.583688
0.891859 1 0.646067
0 0.750149 0
0 0.750225 0
0 0.750271 0
0 0.750301 0
0 0.750317 0
0 0.750332 0
0 0.750347 0
0 0.750317 0
0 0.750271 0
0 0.750118 0
0 0.749798 0
0 0.749233 0
0.0639048 0.746838 0
0.349905 0.744579 0
0.483146 0.743099 0
0.585748 0.741329 0
0.679057 0.739528 0
0.75938 0.738705 0
0.820752 0.740566 0
0.86598 0.746105 0
0.900008 0.755627 0
0.916762 0.7691 0
0.914885 0.786206 0
0.912612 0.806867 0
0.910033 0.830457 0
0.907012 0.855436 0.0154726
0.904067 0.880766 0.172961
0.90135 0.906722 0.267124
0.898833 0.931716 0.353017
0.896605 0.954192 0.430518
0.894697 0.974273 0.508629
0.893004 0.992706 0.581765
0.89163 1 0.644938
0 0.825147 0
0 0.825147 0
0 0.825132 0
0 0.825101 0
0 0.825071 0
0 0.825025 0
0 0.824964 0
0 0.824857 0
0 0.824689 0
0 0.824414 0
0 0.823972 0
0 0.82324 0
0 0.822095 0
0.261143 0.81799 0
0.436454 0.816129 0
0.551141 0.814115 0
0.649668 0.811902 0
0.733089 0.810254 0
0.797269 0.810254 0
0.845151 0.812696 0
0.880827 0.817899 0
0.906355 0.82623 0
0.909285 0.837186 0
0.907805 0.850752 0
0.906065 0.86659 0
0.904128 0.884276 0
0.90161 0.903105 0.171878
0.899519 0.923491 0.268818
0.897536 0.943542 0.355184
0.89572 0.962234 0.432349
0.894011 0.980362 0.504906
0.892576 0.99649 0.579309
0.891356 1 0.643458
0 0.888502 0
0 0.888426 0
0 0.88835 0
0 0.888258 0
0 0.888167 0
0 0.888075 0
0 0.887938 0
0 0.887739 0
0 0.887449 0
0 0.887037 0
0 0.886412 0
0 0.885466 0
0 0.884169 0
0.155245 0.880018 0
0.394766 0.877394 0
0.522454 0.874952 0
0.624689 0.872282 0
0.708949 0.869917 0
0.774395 0.868589 0
0.824414 0.868711 0
0.862638 0.87068 0
0.889799 0.874815 0
0.904479 0.880995 0
0.903578 0.889281 0
0.902434 0.899763 0
0.900969 0.912062 0
0.899123 0.925628 0.175448
0.897612 0.940749 0.273304
0.896162 0.956008 0.359075
0.894728 0.971374 0.435142
0.893278 0.986908 0.504204
0.892058 1 0.57615
0.89102 1 0.641535
0 0.93698 0
0 0.936858 0
0 0.936736 0
0 0.936614 0
0 0.936461 0
0 0.936324 0
0 0.936126 0
0 0.935851 0
0 0.935485 0
0 0.934951 0
0 0.934188 0
0 0.93315 0
0 0.931762 0
0.0938582 0.927825 0
0.375128 0.924544 0
0.507591 0.921889 0
0.609232 0.91899 0
0.691569 0.91632 0
0.755764 0.914366 0
0.806592 0.913329 0
0.846235 0.913497 0
0.874998 0.915236 0
0.897154 0.918578 0
0.899825 0.923522 0
0.899107 0.930114 0
0.897887 0.937774 0.039292
0.896773 0.947036 0.185977
0.895781 0.957549 0.281819
0.894743 0.969116 0.365225
0.893584 0.981842 0.439277
0.892485 0.994263 0.507301
0.891478 1 0.573236
0.890608 1 0.639033
0 0.975204 0
0 0.975036 0
0 0.974884 0
0 0.974716 0
0 0.974548 0
0 0.974365 0
0 0.974121 0
0 0.9738 0
0 0.973342 0
0 0.972747 0
0 0.971954 0
0 0.970886 0
0 0.969482 0
0.159701 0.964508 0
0.384466 0.961639 0
0.508019 0.958968 0
0.603586 0.956085 0
0.681041 0.953384 0
0.742153 0.951186 0
0.791852 0.949554 0
0.831586 0.948745 0
0.861555 0.948928 0
0.8851 0.950164 0
0.896651 0.952605 0
0.896254 0.956207 0
0.895293 0.960433 0.0895552
0.894652 0.966522 0.205081
0.894011 0.973983 0.294743
0.893233 0.983032 0.374258
0.892439 0.992432 0.445365
0.891615 1 0.511772
0.890852 1 0.576608
0.890135 1 0.635813
0 1 0
0 1 0
0 1 0
0 1 0
0 1 0
0 1 0
0 1 0
0 1 0
0 1 0
0 1 0
0 1 0
0 0.998535 0
0 0.997162 0
0.27306 0.992111 0
0.422263 0.989731 0
0.525414 0.987182 0
0.609125 0.984497 0
0.678614 0.981933 0
0.734905 0.979706 0
0.782071 0.977844 0
0.820264 0.976547 0
0.850385 0.975921 0
0.874739 0.976013 0
0.893233 0.976989 0
0.893767 0.978851 0
0.893004 0.981094 0.139284
0.892653 0.985122 0.232547
0.892256 0.990219 0.313024
0.891798 0.996292 0.386954
0.891279 1 0.454078
0.89073 1 0.518074
0.890181 1 0.581201
0.889632 1 0.637964
0 1 0
0 1 0
0 1 0
0 1 0
0 1 0
0 1 0
0 1 0
0 1 0
0 1 0
0 1 0
0 1 0
0 1 0
0.24892 1 0
0.380148 1 0
0.475883 1 0
0.554589 1 0
0.62356 1 0
0.682719 1 0
0.733043 1 0
0.776394 1 0
0.811673 0.998947 0
0.84123 0.997955 0
0.865522 0.997436 0
0.88455 0.997528 0
0.891203 0.997604 0.090425
0.891066 0.999023 0.190494
0.890913 1 0.268025
0.89073 1 0.33756
0.890486 1 0.403891
0.890181 1 0.466163
0.889845 1 0.526757
0.889479 1 0.587411
0.889097 1 0.641779
0 1 0
0 1 0
0 1 0
0 1 0
0 1 0
0 1 0
0 1 0
0 1 0
0 1 0
0.151492 1 0
0.254566 1 0
0.335668 1 0
0.408377 1 0
0.47361 1 0
0.533852 1 0
0.591287 1 0
0.644755 1 0
0.692699 1 0
0.736355 1 0
0.774777 1 0
0.80679 1 0
0.834775 1 0
0.858122 1 0
0.8766 1 0.0754559
0.889433 1 0.170779
0.889464 1 0.243503
0.889464 1 0.307851
0.889403 1 0.3682
0.889311 1 0.425422
0.889158 1 0.48188
0.888975 1 0.538445
0.888777 1 0.595636
0.888548 1 0.64686
0.274632 1 0
0.29015 1 0
0.304463 1 0
0.317815 1 0
0.330388 1 0
0.342779 1 0
0.357839 1 0
0.37612 1 0
0.397543 1 0
0.422141 1 0
0.449958 1 0
0.481422 1 0
0.515175 1 0
0.552071 1 0
0.59115 1 0
0.631006 1 0
0.669947 1 0
0.707988 1 0
0.744183 1 0
0.776822 1 0
0.804791 1 0.0273289
0.830472 1 0.0840467
0.852308 1 0.128603
0.870451 1 0.183276
0.885542 1 0.240787
0.888136 1 0.296483
0.888228 1 0.350332
0.888258 1 0.402121
0.888258 1 0.451606
0.888228 1 0.50164
0.888167 1 0.553811
0.888106 1 0.606317
0.887999 1 0.653513
0.492912 1 0.149187
0.497414 1 0.149401
0.501808 1 0.14963
0.506127 1 0.149859
0.510384 1 0.150088
0.514702 1 0.150332
0.52015 1 0.150652
0.527092 1 0.15108
0.535897 1 0.151614
0.546883 1 0.152361
0.560418 1 0.153323
0.576745 1 0.15462
0.596017 1 0.156329
0.618112 1 0.158602
0.642557 1 0.161593
0.668971 1 0.165545
0.697246 1 0.170703
0.726345 1 0.177371
0.754879 1 0.185931
0.781292 1 0.196811
0.80589 1 0.210452
0.828946 1 0.227344
0.84889 1 0.247715
0.86595 1 0.271901
0.88043 1 0.307546
0.887083 1 0.34992
0.887221 1 0.39408
0.887312 1 0.437705
0.887388 1 0.481712
0.887434 1 0.526162
0.88748 1 0.573281
0.88751 1 0.619715
0.887495 1 0.661982
0.60499 1 0.284962
0.607187 1 0.285084
0.609354 1 0.285206
0.61149 1 0.285313
0.613596 1 0.285451
0.615763 1 0.285557
0.618479 1 0.285725
0.622003 1 0.285939
0.62652 1 0.286229
0.632242 1 0.28661
0.639399 1 0.287098
0.648325 1 0.28777
0.659312 1 0.28864
0.672557 1 0.289799
0.688182 1 0.291356
0.706142 1 0.293477
0.725978 1 0.296239
0.747005 1 0.299855
0.768215 1 0.30457
0.789151 1 0.310674
0.810254 1 0.318486
0.829816 1 0.328435
0.847425 1 0.341039
0.863081 1 0.35671
0.876677 1 0.375586
0.886305 1 0.404166
0.886442 1 0.438239
0.88658 1 0.475502
0.886702 1 0.514061
0.886809 1 0.554726
0.886915 1 0.596048
0.886992 1 0.635798
0.887037 1 0.672358
0.679301 1 0.386633
0.680476 1 0.386709
0.681651 1 0.386786
0.682811 1 0.386862
0.68397 1 0.386938
0.685161 1 0.38703
0.686671 1 0.387121
0.68864 1 0.387259
0.691203 1 0.387442
0.694499 1 0.387686
0.698726 1 0.388006
0.704082 1 0.388403
0.710735 1 0.388968
0.718929 1 0.3897
0.728771 1 0.390661
0.740276 1 0.391928
0.753307 1 0.393591
0.767483 1 0.395789
0.782879 1 0.398642
0.799222 1 0.40238
0.816281 1 0.407263
0.832532 1 0.413596
0.847639 1 0.421622
0.861585 1 0.431754
0.873945 1 0.44445
0.884352 1 0.460197
0.885878 1 0.484688
0.88603 1 0.515053
0.886183 1 0.549218
0.88632 1 0.585458
0.886458 1 0.620783
0.886564 1 0.654047
0.886641 1 0.68452
0.733364 1 0.470359
0.73402 1 0.47042
0.734676 1 0.470466
0.735317 1 0.470527
0.735958 1 0.470558
0.736614 1 0.470619
0.737453 1 0.470695
0.738567 1 0.470771
0.740001 1 0.470893
