BBLuts/BB_103_0480_LUT.cube
TITLE "Generated by Resolve"
LUT_3D_SIZE 9
0 0 0
0.0205386 0 0
0.172885 0 0
0.423774 0 0
0.761486 0 0
0.944717 0 0
0.952514 0.528496 0.0666667
0.923919 0.883635 0.343587
0.910262 1 0.690669
0 0.0411231 0
0.00805676 0.0452735 0
0.178912 0.0222324 0
0.432456 0 0
0.763088 0 0
0.948882 0 0
0.949599 0.563561 0.0576791
0.923506 0.888167 0.341329
0.910216 1 0.690379
0 0.190051 0
0 0.191531 0
0.128069 0.191485 0
0.442802 0.160616 0
0.773404 0.0702678 0
0.962051 0.232929 0
0.943938 0.621271 0.0369573
0.923003 0.897078 0.337362
0.91017 1 0.689845
0 0.475608 0
0 0.476417 0
0 0.47686 0
0.362066 0.490639 0
0.76228 0.483818 0
0.944671 0.555795 0
0.930694 0.735164 0
0.921462 0.9187 0.325994
0.909926 1 0.688426
0 0.828626 0
0 0.828367 0
0 0.827497 0
0.0161746 0.832456 0
0.679301 0.82916 0
0.893004 0.839277 0
0.918196 0.884047 0
0.918425 0.959167 0.324468
0.909331 1 0.683589
0 1 0
0 1 0
0 1 0
0.133867 1 0
0.655161 0.993957 0
0.844999 0.985977 0
0.913878 0.991241 0.0220951
0.914443 1 0.372412
0.908263 1 0.67982
0.52517 1 0.142687
0.542351 1 0.142641
0.5729 1 0.143206
0.639063 1 0.145083
0.740383 1 0.156634
0.839673 1 0.193362
0.906065 1 0.294957
0.909667 1 0.500053
0.906325 1 0.711879
0.795834 1 0.57702
0.797253 1 0.577188
0.799771 1 0.577585
0.807126 1 0.578653
0.825147 1 0.581552
0.857008 1 0.589929
0.89395 1 0.613504
0.905516 1 0.673152
0.904631 1 0.772351
0.871 1 0.803449
0.871153 1 0.803479
0.871519 1 0.803525
0.872572 1 0.803647
0.875471 1 0.804013
0.882216 1 0.805142
0.894286 1 0.807828
0.904418 1 0.815656
0.904326 1 0.83624
0 0 0.0221103
0.0105135 0 0.0213321
0.175341 0 0.0172885
0.425452 0 0.00584421
0.763256 0 0
0.948165 0 0.0103304
0.954894 0.523522 0.12903
0.923781 0.882414 0.378103
0.910124 1 0.697627
0 0.0260471 0.0171664
0.022446 0.0285496 0.0153658
0.181613 0.00357061 0.0132296
0.429221 0 0.000167849
0.763119 0 0
0.950668 0 0.00343328
0.952117 0.559899 0.120684
0.923354 0.886976 0.376226
0.910079 1 0.697337
0 0.181964 0
0 0.18352 0
0.141207 0.182757 0
0.439872 0.151446 0
0.770047 0.0517739 0
0.962966 0.218769 0
0.946807 0.61973 0.102556
0.922835 0.895979 0.372503
0.910109 1 0.696956
0 0.470924 0
0 0.471855 0
0 0.472221 0
0.372396 0.485512 0
0.762112 0.479332 0
0.945022 0.552438 0
0.932891 0.735302 0.0231479
0.921279 0.917784 0.361852
0.909865 1 0.695598
0 0.827344 0
0 0.82707 0
0 0.826185 0
0.0272831 0.831693 0
0.681834 0.828 0
0.893187 0.838483 0
0.918151 0.883528 0
0.918364 0.958862 0.335256
0.90927 1 0.691005
0 1 0
0 1 0
0 1 0
0.141314 1 0
0.656794 0.993729 0
0.845273 0.98584 0
0.913878 0.991135 0.0219883
0.914443 1 0.372198
0.908263 1 0.681315
0.527718 1 0.142458
0.544884 1 0.142412
0.575036 1 0.142992
0.640375 1 0.14493
0.740963 1 0.156527
0.839841 1 0.193256
0.906081 1 0.294942
0.909667 1 0.499977
0.906325 1 0.711849
0.796048 1 0.576989
0.797452 1 0.577157
0.799985 1 0.577554
0.807294 1 0.578622
0.825299 1 0.581521
0.857084 1 0.589899
0.893965 1 0.613474
0.905516 1 0.673136
0.904631 1 0.772335
0.871031 1 0.803449
0.871183 1 0.803479
0.87155 1 0.803525
0.872587 1 0.803647
0.875486 1 0.804013
0.882231 1 0.805142
0.894301 1 0.807813
0.904418 1 0.815656
0.904326 1 0.83624
0 0 0.125185
0 0 0.125246
0.155764 0 0.118883
0.440314 0 0.0995499
0.766384 0 0.0850385
0.950713 0 0.108415
0.957351 0.509316 0.231586
0.923262 0.879652 0.436744
0.909957 1 0.710491
0 0 0.122652
0 0 0.122957
0.174456 0 0.115572
0.437552 0 0.0970626
0.767285 0 0.0816205
0.950637 0 0.103014
0.954696 0.548119 0.22594
0.923049 0.884565 0.435218
0.909926 1 0.710246
0 0.157824 0.107286
0 0.159518 0.107134
0.137743 0.156146 0.105226
0.428565 0.127642 0.0982528
0.770748 0.0169223 0.0834516
0.968704 0.175387 0.12726
0.949752 0.611185 0.213977
0.922271 0.893462 0.43212
0.910002 1 0.709957
0 0.460304 0.0275273
0 0.461433 0.0279698
0 0.462013 0.0287022
0.376791 0.475044 0.0399939
0.763043 0.469566 0.0455024
0.951843 0.546258 0.0826581
0.937606 0.733867 0.175845
0.920562 0.915694 0.423239
0.909773 1 0.708522
0 0.82414 0
0 0.823896 0
0 0.823011 0
0.0349737 0.828779 0
0.683742 0.824964 0
0.893263 0.836118 0
0.922759 0.887129 0.073991
0.917891 0.957626 0.40087
0.909148 1 0.704585
0 1 0
0 1 0
0 1 0
0.155428 1 0
0.660014 0.993301 0
0.845838 0.985565 0
0.913893 0.990936 0.0218051
0.914458 1 0.372168
0.908156 1 0.693202
0.532921 1 0.141726
0.54963 1 0.14197
0.578912 1 0.142473
0.642985 1 0.14461
0.742138 1 0.156329
0.840177 1 0.193057
0.906157 1 0.294881
0.909667 1 0.499825
0.906325 1 0.711788
0.79646 1 0.576944
0.797848 1 0.577111
0.800381 1 0.577493
0.80766 1 0.578561
0.825559 1 0.581476
0.857221 1 0.589853
0.894011 1 0.613443
0.905516 1 0.673136
0.904631 1 0.77232
0.871077 1 0.803449
0.871229 1 0.803464
0.871595 1 0.80351
0.872648 1 0.803632
0.875532 1 0.804013
0.882277 1 0.805142
0.894316 1 0.807813
0.904418 1 0.815656
0.904326 1 0.83624
0 0 0.362509
0 0 0.362707
0.0257267 0 0.361532
0.416846 0 0.341176
0.783581 0 0.323339
0.950225 0 0.343771
0.96112 0.453925 0.449104
0.922271 0.871931 0.559426
0.909789 1 0.740581
0 0 0.360494
0 0 0.360708
0.0700999 0 0.358282
0.42945 0 0.338247
0.782269 0 0.321172
0.950225 0 0.341344
0.958389 0.501549 0.446372
0.921996 0.877134 0.558389
0.909758 1 0.740398
0 0.0522011 0.356222
0 0.0551919 0.35642
0.0766461 0.0514229 0.355291
0.436484 0 0.336339
0.775784 0 0.316686
0.957427 0 0.347936
0.95314 0.575799 0.439979
0.921157 0.886564 0.556023
0.909728 1 0.740078
0 0.414008 0.316381
0 0.415381 0.316487
0 0.416526 0.317174
0.369177 0.428168 0.330694
0.755245 0.422843 0.336172
0.958099 0.505287 0.364523
0.939834 0.714305 0.417914
0.919341 0.909926 0.550072
0.909606 1 0.739101
0 0.822431 0.231113
0 0.822278 0.231769
0 0.821591 0.232792
0.0178225 0.825833 0.244129
0.686732 0.82237 0.258503
0.897398 0.83444 0.293248
0.923812 0.882658 0.37145
0.916106 0.953552 0.535241
0.908949 1 0.736065
0 1 0.0634775
0 1 0.0637827
0 1 0.0646982
0.157061 1 0.0740673
0.662318 0.996979 0.0727398
0.849851 0.99057 0.143679
0.916396 0.993118 0.293935
0.912886 1 0.50193
0.907912 1 0.727611
0.547707 1 0.140398
0.563195 1 0.140703
0.590448 1 0.141131
0.650568 1 0.143648
0.745342 1 0.155673
0.841062 1 0.192447
0.906355 1 0.294713
0.909682 1 0.499352
0.90634 1 0.712886
0.797696 1 0.576776
0.798901 1 0.576989
0.801556 1 0.57734
0.808713 1 0.578408
0.826352 1 0.581308
0.857633 1 0.5897
0.894148 1 0.613291
0.905516 1 0.673106
0.904631 1 0.772244
0.871214 1 0.803433
0.871397 1 0.803449
0.871748 1 0.803494
0.872801 1 0.803616
0.875669 1 0.803983
0.882383 1 0.805112
0.894362 1 0.807797
0.904418 1 0.815625
0.904326 1 0.83624
0 0 0.688182
0 0 0.688243
0 0 0.688411
0.241276 0 0.679225
0.765515 0 0.649165
0.947051 0 0.655863
0.967391 0.138048 0.705272
0.922377 0.848417 0.734005
0.909651 0.998138 0.795132
0 0 0.687587
0 0 0.687663
0 0 0.687816
0.269413 0 0.67689
0.769833 0 0.648508
0.947051 0 0.655222
0.969467 0.251499 0.713939
0.921752 0.854994 0.733166
0.909606 0.998825 0.794995
0 0 0.686397
0 0 0.686473
0 0 0.686564
0.308934 0 0.673411
0.773587 0 0.647242
0.947051 0 0.653727
0.962753 0.41857 0.715511
0.92076 0.866468 0.731701
0.909514 1 0.794766
0 0.206119 0.680461
0 0.209033 0.680385
0 0.213199 0.680323
0.311849 0.196262 0.682353
0.784283 0.123201 0.671275
0.969528 0.255329 0.691966
0.946273 0.638315 0.705074
0.918227 0.893996 0.727947
0.909255 1 0.794018
0 0.77644 0.639689
0 0.776654 0.639811
0 0.776471 0.639979
0 0.775586 0.642237
0.667491 0.778714 0.651499
0.889921 0.797375 0.660227
0.921996 0.858793 0.67628
0.914168 0.943954 0.719982
0.908751 1 0.792142
0 1 0.61387
0 1 0.613977
0 1 0.61416
0 1 0.618601
0.630701 0.991302 0.612085
0.836133 0.981949 0.621027
0.911254 0.984756 0.649058
0.910094 1 0.705333
0.907408 1 0.78706
0.524514 1 0.522499
0.54136 1 0.522255
0.570397 1 0.521691
0.634714 1 0.521767
0.733516 1 0.525582
0.831296 1 0.542168
0.897871 1 0.58616
0.907423 1 0.672633
0.905974 1 0.774563
0.801099 1 0.576333
0.802411 1 0.576501
0.804944 1 0.576837
0.811765 1 0.57792
0.828519 1 0.580865
0.85864 1 0.589395
0.894545 1 0.612894
0.905516 1 0.67303
0.904631 1 0.772061
0.871687 1 0.803372
0.871885 1 0.803403
0.872236 1 0.803449
0.873259 1 0.803555
0.876081 1 0.803922
0.882689 1 0.805066
0.89453 1 0.807736
0.904418 1 0.815579
0.904326 1 0.836225
0 0 0.86656
0 0 0.866575
0 0 0.86659
0 0 0.866514
0.656107 0 0.830014
0.94725 0 0.828046
0.94725 0 0.82884
0.934264 0.740764 0.864164
0.909743 0.989899 0.858228
0 0 0.866499
0 0 0.866499
0 0 0.866514
0 0 0.866407
0.663386 0 0.829435
0.947234 0 0.82797
0.94725 0 0.828779
0.932265 0.75494 0.862303
0.909682 0.990723 0.858137
0 0 0.866346
0 0 0.866361
0 0 0.866377
0 0 0.866133
0.677485 0 0.828626
0.94725 0 0.827802
0.94725 0 0.828489
0.929335 0.780118 0.859632
0.909575 0.992279 0.857969
0 0 0.865904
0 0 0.865919
0 0 0.865934
0 0 0.865064
0.704738 0 0.827008
0.947234 0 0.827314
0.962661 0.0624094 0.852384
0.923018 0.834958 0.853529
0.909316 0.996399 0.857527
0 0.543084 0.850095
0 0.544488 0.850172
0 0.547372 0.850034
0 0.54992 0.84889
0.669718 0.552575 0.860548
0.940993 0.596307 0.866865
0.932631 0.753582 0.854398
0.915404 0.916411 0.845548
0.908644 1 0.856352
0 0.996368 0.839872
0 0.995804 0.839796
0 0.994476 0.839612
0 0.989899 0.839185
0.555261 0.977462 0.833753
0.822858 0.964691 0.829099
0.906523 0.97113 0.831235
0.909636 0.993088 0.837552
0.907149 1 0.853666
0.355749 1 0.825132
0.394659 1 0.823804
0.453147 1 0.821729
0.558511 1 0.817746
0.694942 1 0.814008
0.811734 1 0.814618
0.885725 1 0.818921
0.906172 1 0.828458
0.905531 1 0.848386
0.78761 1 0.780346
0.788876 1 0.780423
0.791424 1 0.780499
0.798444 1 0.780636
0.815961 1 0.781598
0.847868 1 0.783856
0.885161 1 0.790585
0.904448 1 0.806943
0.904311 1 0.837064
0.873091 1 0.80322
0.873259 1 0.803235
0.873594 1 0.803265
0.874571 1 0.803403
0.877256 1 0.803769
0.883574 1 0.804898
0.894987 1 0.807584
0.904418 1 0.815442
0.904326 1 0.836194
0 0 0.916274
0 0 0.916274
0 0 0.916274
0 0 0.916274
0.0494545 0 0.915129
0.92987 0 0.889723
0.947219 0 0.890089
0.950805 0 0.895598
0.912108 0.953979 0.908476
0 0 0.916274
0 0 0.916274
0 0 0.916274
0 0 0.916274
0.0572366 0 0.915068
0.930816 0 0.889693
0.947219 0 0.890089
0.950805 0 0.895598
0.911894 0.955489 0.908232
0 0 0.916274
0 0 0.916274
0 0 0.916274
0 0 0.916274
0.0711833 0 0.914611
0.932677 0 0.889601
0.947219 0 0.890089
0.951385 0 0.896513
0.911543 0.958419 0.907835
0 0 0.916274
0 0 0.916274
0 0 0.916274
0 0 0.916274
0.105852 0 0.914122
0.938018 0 0.88983
0.947219 0 0.890089
0.955001 0 0.901946
0.911055 0.966552 0.907286
0 0 0.916274
0 0 0.916274
0 0 0.916274
0 0 0.916274
0.367269 0 0.902419
0.944762 0 0.890135
0.947219 0 0.890089
0.952224 0.585061 0.936126
0.909743 0.985245 0.905791
0 0.870161 0.913298
0 0.870512 0.913314
0 0.871244 0.913375
0 0.873121 0.913649
0.121553 0.874876 0.920745
0.838331 0.862318 0.911742
0.916869 0.89395 0.908873
0.911788 0.956237 0.904707
0.907469 1 0.903181
0 1 0.913268
0 1 0.913664
0 1 0.914015
0.0805371 1 0.914397
0.591821 1 0.899855
0.79118 1 0.896483
0.880354 1 0.896819
0.906218 1 0.897551
0.905516 1 0.900114
0.757336 1 0.889647
0.758953 1 0.889586
0.762585 1 0.889555
0.772259 1 0.889601
0.79501 1 0.889754
0.834089 1 0.889876
0.876936 1 0.890608
0.903517 1 0.892348
0.903838 1 0.89633
0.867781 1 0.87747
0.867948 1 0.877485
0.868269 1 0.87747
0.86923 1 0.877455
0.871748 1 0.877501
0.878401 1 0.877852
0.890486 1 0.878904
0.903349 1 0.881209
0.903883 1 0.887572
0 0.0115511 0.918868
0 0.0115511 0.918868
0 0.0115663 0.918868
0 0.0115816 0.918853
0 0.0116426 0.918868
0.180117 0 0.915663
0.947219 0 0.890089
0.954345 0 0.901564
0.943099 0.668238 0.939406
0 0.0115206 0.918853
0 0.0115206 0.918853
0 0.0115206 0.918853
0 0.0115511 0.918868
0 0.0116121 0.918868
0.182101 0 0.915572
0.947219 0 0.890089
0.954345 0 0.901595
0.943099 0.668208 0.939406
0 0.0114748 0.918853
0 0.0114748 0.918853
0 0.0114748 0.918853
0 0.0115053 0.918868
0 0.0115663 0.918853
0.185718 0 0.915328
0.947219 0 0.890089
0.954391 0 0.901656
0.943114 0.668147 0.939422
0 0.0113222 0.918853
0 0.0113222 0.918853
0 0.0113222 0.918853
0 0.0113527 0.918853
0 0.0114137 0.918853
0.195987 0 0.913298
0.947219 0 0.890089
0.954543 0 0.901869
0.94313 0.667964 0.939422
0 0.0108644 0.918837
0 0.0108644 0.918837
0 0.0108797 0.918837
0 0.0108949 0.918837
0 0.010956 0.918837
0.502068 0 0.897063
0.947219 0 0.890089
0.954818 0 0.902281
0.943206 0.667414 0.939467
0 0.00946059 0.918807
0 0.00946059 0.918807
0 0.00946059 0.918807
0 0.00947585 0.918807
0 0.00953689 0.918807
0.767208 0 0.887037
0.947219 0 0.890089
0.960494 0.0378576 0.912657
0.915785 0.905577 0.926452
0 1 0.936996
0 1 0.937011
0 1 0.937011
0 1 0.937026
0 1 0.937041
0.690272 1 0.925505
0.88574 0.996658 0.925216
0.907881 1 0.925139
0.906249 1 0.925048
0.538705 1 0.928267
0.546426 1 0.927977
0.58468 1 0.926467
0.638529 1 0.924437
0.718761 1 0.922789
0.803586 1 0.92256
0.868864 1 0.923033
0.902541 1 0.923247
0.904067 1 0.9234
0.856382 1 0.920501
0.856611 1 0.920485
0.857053 1 0.920455
0.858412 1 0.92047
0.862119 1 0.920485
0.870451 1 0.920653
0.885344 1 0.920806
0.900374 1 0.920897
0.903716 1 0.921294
0 0.232914 0.922072
0 0.232914 0.922072
0 0.232914 0.922072
0 0.232914 0.922072
0 0.232944 0.922057
0 0.232975 0.922072
0.179294 0.171069 0.926635
0.970413 0.260288 0.939941
0.936522 0.721172 0.935973
0 0.232914 0.922072
0 0.232914 0.922072
0 0.232914 0.922072
0 0.232914 0.922072
0 0.232929 0.922072
0 0.232975 0.922072
0.179294 0.171069 0.926635
0.970413 0.260609 0.939956
0.936522 0.721248 0.935973
0 0.232883 0.922057
0 0.232883 0.922057
0 0.232898 0.922072
0 0.232898 0.922072
0 0.232914 0.922072
0 0.232959 0.922057
0.179294 0.171038 0.926635
0.970413 0.261234 0.940002
0.936507 0.72134 0.935973
0 0.232868 0.922072
0 0.232868 0.922072
0 0.232868 0.922072
0 0.232868 0.922072
0 0.232883 0.922072
0 0.232929 0.922057
0.179294 0.171008 0.926635
0.970382 0.263096 0.940108
0.936446 0.721645 0.935927
0 0.232731 0.922072
0 0.232731 0.922072
0 0.232731 0.922057
0 0.232746 0.922072
0 0.232746 0.922072
0 0.232792 0.922057
0.535927 0.142687 0.920882
0.97026 0.268162 0.940337
0.936187 0.722423 0.935699
0 0.232364 0.922072
0 0.232364 0.922072
0 0.232364 0.922072
0 0.23238 0.922072
0 0.23238 0.922072
0 0.232425 0.922072
0.836454 0 0.89633
0.96994 0.283406 0.941085
0.935973 0.723522 0.935546
0 0.23125 0.922072
0 0.23125 0.922072
0 0.231266 0.922072
0 0.231266 0.922072
0 0.231281 0.922072
0 0.231327 0.922072
0.947219 0 0.890089
0.969284 0.309438 0.942275
0.935836 0.725887 0.935561
0 1 0.938018
0 1 0.938018
0 1 0.938018
0 1 0.938018
0 1 0.938018
0 1 0.939086
0.834241 1 0.924605
0.904067 1 0.92491
0.904799 1 0.924971
0.804044 1 0.923934
0.804868 1 0.923934
0.80647 1 0.923949
0.810742 1 0.924025
0.822019 1 0.923903
0.844327 1 0.924239
0.874327 1 0.924437
0.897795 1 0.924498
0.904051 1 0.924941
