BBLuts/BB_102_0110_LUT.cube
TITLE "Generated by Resolve"
LUT_3D_SIZE 5
0 0 0
0.253132 0 0
0.958877 0 0
1 0.675212 0.0700389
0.976287 1 0.683436
0 0.278965 0
0.168078 0.274754 0
0.932342 0.23473 0
1 0.736217 0.0412909
0.976211 1 0.682857
0 0.976623 0
0 0.974807 0
0.782254 0.951782 0
0.980529 0.985519 0.00123598
0.975158 1 0.67512
0.61355 1 0.249348
0.613535 1 0.249348
0.797787 1 0.266835
0.970245 1 0.381735
0.971786 1 0.737774
0.926711 1 0.84303
0.926711 1 0.84303
0.926711 1 0.84303
0.956954 1 0.849104
0.969985 1 0.885664
0 0 0.203662
0.215885 0 0.198184
0.963149 0 0.20734
1 0.659693 0.278843
0.976287 1 0.683436
0 0.224613 0.181964
0.164538 0.220966 0.177111
0.940627 0.121248 0.186297
1 0.724941 0.263737
0.976211 1 0.682857
0 0.973159 0
0 0.97145 0
0.784421 0.948623 0
0.982849 0.986633 0.116258
0.975158 1 0.675105
0.620203 1 0.248676
0.620295 1 0.248798
0.799451 1 0.266423
0.97026 1 0.381521
0.971786 1 0.737774
0.926802 1 0.843015
0.926802 1 0.843015
0.926802 1 0.843015
0.95697 1 0.849088
0.969985 1 0.885664
0 0 0.854597
0 0 0.854856
0.946822 0 0.841917
1 0.262623 0.842344
0.975586 1 0.863432
0 0 0.853819
0 0 0.853864
0.954894 0 0.840833
1 0.4654 0.836011
0.975509 1 0.863233
0 0.926329 0.79707
0 0.926329 0.79707
0.749142 0.904219 0.791821
0.984054 0.958083 0.802899
0.974289 1 0.859953
0.586786 1 0.71902
0.586786 1 0.71902
0.775006 1 0.722927
0.958602 1 0.75256
0.971176 1 0.840925
0.928145 1 0.842817
0.928145 1 0.842817
0.928145 1 0.842817
0.957351 1 0.848905
0.969985 1 0.885588
0 0 1
0 0 1
0 0 1
1 0 1
0.981903 0.966613 0.994324
0 0 1
0 0 1
0 0 1
1 0 1
0.981353 0.974151 0.993957
0 0 1
0 0 1
0 0 1
1 0 1
0.976547 1 0.989868
0 1 0.986465
0 1 0.986465
0.19765 1 0.981064
0.942367 1 0.980194
0.970489 1 0.982223
0.917891 1 0.966888
0.917891 1 0.966888
0.917891 1 0.966888
0.948348 1 0.967651
0.969299 1 0.973037
0 0.268284 1
0 0.268284 1
0 0.268284 1
0.0417639 0.240574 1
1 0.688991 1
0 0.268284 1
0 0.268284 1
0 0.268284 1
0.0417639 0.240574 1
1 0.688991 1
0 0.268284 1
0 0.268284 1
0 0.268284 1
0.0397955 0.240986 1
1 0.688975 1
0 0.266392 1
0 0.266392 1
0 0.266392 1
0.646494 0.0718853 1
0.998962 0.731762 1
0.815763 1 1
0.815763 1 1
0.815763 1 1
0.885222 1 1
0.969039 1 1
