BBLuts/BB_101_0110_LUT.cube
TITLE "Generated by Resolve"
LUT_3D_SIZE 9
0 0 0
0.000869764 0 0
0.198001 0 0
0.418769 0 0.00112917
0.7411 0.00914015 0.0125124
0.982818 0.0188754 0.0211185
0.909285 0.547555 0.0588998
0.870771 0.867445 0.303822
0.857877 0.984604 0.600458
0 0.0494087 0
0 0.0607919 0
0.197375 0.0419013 0
0.425711 0 0.00137331
0.743587 0.00923171 0.012604
0.982666 0.0188754 0.0211185
0.906371 0.572335 0.0410468
0.870497 0.869749 0.302708
0.857847 0.984787 0.600351
0 0.219486 0
0 0.223102 0
0.137667 0.221088 0
0.406912 0.204654 0
0.729427 0.12604 0
0.945418 0.258717 0
0.902739 0.604517 0.00460822
0.870039 0.873487 0.300954
0.857816 0.985092 0.600168
0 0.468528 0
0 0.469444 0
0 0.470451 0
0.323598 0.465888 0
0.692744 0.461006 0
0.911772 0.514229 0
0.893248 0.694194 0
0.868452 0.886961 0.298207
0.857649 0.98645 0.599298
0 0.796643 0
0 0.796628 0
0 0.796368 0
0 0.794049 0
0.589395 0.779644 0
0.845212 0.786526 0
0.876097 0.83975 0
0.864363 0.921431 0.30222
0.857038 0.991485 0.595941
0 0.985214 0
0 0.985214 0
0 0.985214 0
0 0.980865 0
0.531319 0.962234 0
0.778393 0.953216 0
0.862303 0.955566 0
0.858305 0.973022 0.332967
0.855451 1 0.596582
0.441291 1 0.114565
0.441291 1 0.114565
0.441291 1 0.114565
0.44126 1 0.114565
0.614145 1 0.12842
0.759411 1 0.1673
0.843778 1 0.257542
0.853284 1 0.430747
0.853193 1 0.622324
0.733272 1 0.50312
0.733272 1 0.503136
0.733272 1 0.503136
0.733272 1 0.503136
0.733257 1 0.503136
0.78233 1 0.510216
0.833448 1 0.530709
0.851484 1 0.582818
0.851926 1 0.677119
0.818082 1 0.708721
0.818082 1 0.708721
0.818082 1 0.708721
0.818082 1 0.708721
0.818082 1 0.708721
0.818067 1 0.708721
0.836286 1 0.711421
0.852155 1 0.718929
0.852262 1 0.737392
0 0 0.0528878
0 0 0.0534066
0.195117 0 0.0584421
0.417762 0 0.0662089
0.739849 0.00868238 0.0769513
0.982422 0.0183413 0.0886091
0.909483 0.545037 0.0862593
0.870771 0.867414 0.303838
0.857877 0.984588 0.600473
0 0.0165713 0.0433204
0.0326848 0.0320439 0.0413214
0.208225 0 0.0509194
0.420005 0 0.0547494
0.740902 0.00888075 0.0375677
0.982422 0.0185397 0.0500801
0.906508 0.570245 0.0641947
0.870497 0.869718 0.302724
0.857847 0.984787 0.600351
0 0.208499 0
0 0.21178 0
0.154559 0.210407 0
0.405646 0.193668 0
0.729793 0.0948806 0
0.947082 0.245838 0
0.9028 0.602716 0.0260777
0.870039 0.873487 0.300954
0.857816 0.985077 0.600168
0 0.463798 0
0 0.464637 0
0 0.465522 0
0.333074 0.460746 0
0.692393 0.456748 0
0.911986 0.511116 0
0.893355 0.693263 0
0.868452 0.886961 0.298207
0.857649 0.98645 0.599298
0 0.794903 0
0 0.794888 0
0 0.794598 0
0 0.792248 0
0.591989 0.778241 0
0.845335 0.785595 0
0.876143 0.839429 0
0.864363 0.921431 0.30222
0.857038 0.991485 0.595941
0 0.984802 0
0 0.984878 0
0 0.984878 0
0 0.980575 0
0.533394 0.961975 0
0.778622 0.953063 0
0.862318 0.955489 0
0.858305 0.973022 0.332967
0.855451 1 0.596582
0.44477 1 0.114366
0.44477 1 0.114366
0.44477 1 0.114366
0.444755 1 0.114366
0.615106 1 0.128222
0.759594 1 0.167147
0.843793 1 0.257527
0.853284 1 0.430747
0.853193 1 0.622324
0.733501 1 0.50312
0.733501 1 0.50312
0.733501 1 0.50312
0.733501 1 0.50312
0.733486 1 0.50312
0.782422 1 0.510201
0.833463 1 0.530678
0.851484 1 0.582818
0.851926 1 0.677119
0.818097 1 0.708721
0.818097 1 0.708721
0.818097 1 0.708721
0.818097 1 0.708721
0.818097 1 0.708721
0.818097 1 0.708721
0.836286 1 0.711421
0.852155 1 0.718929
0.852262 1 0.737392
0 0 0.196109
0 0 0.196384
0.167437 0 0.198642
0.426505 0 0.203082
0.739971 0.00906386 0.217029
0.982666 0.018555 0.243366
0.910719 0.533852 0.220508
0.870893 0.866712 0.329366
0.857877 0.984588 0.600473
0 0 0.193637
0 0 0.194034
0.188769 0 0.196429
0.425574 0 0.199893
0.741222 0.00907912 0.213291
0.982391 0.0185092 0.236378
0.90753 0.559915 0.211688
0.870619 0.869047 0.328237
0.857847 0.984787 0.600351
0 0.177554 0.170001
0 0.180346 0.169802
0.141497 0.174441 0.165637
0.394644 0.161074 0.171832
0.735988 0.0289921 0.199283
0.95317 0.194675 0.19707
0.903487 0.59324 0.199145
0.870161 0.872831 0.326345
0.857816 0.985077 0.600168
0 0.448722 0.0790875
0 0.449973 0.0793317
0 0.450782 0.0805829
0.331106 0.445975 0.0798962
0.686931 0.442725 0.0861219
0.912245 0.498253 0.0975509
0.892332 0.685985 0.153628
0.868544 0.886412 0.319188
0.857649 0.98645 0.599298
0 0.791577 0
0 0.791577 0
0 0.791287 0
0 0.788937 0
0.594461 0.774777 0
0.845441 0.782834 0
0.875212 0.837018 0
0.864393 0.921279 0.303395
0.857038 0.991485 0.595941
0 0.984283 0
0 0.984283 0
0 0.984283 0
0 0.979965 0
0.537011 0.961578 0
0.779171 0.952773 0
0.862348 0.955291 0
0.85832 0.972961 0.332815
0.855451 1 0.596582
0.449454 1 0.114076
0.449454 1 0.114076
0.449454 1 0.114076
0.449439 1 0.114076
0.616403 1 0.127932
0.759991 1 0.166949
0.843839 1 0.257343
0.853284 1 0.430686
0.853193 1 0.622324
0.733806 1 0.503075
0.733806 1 0.503075
0.733806 1 0.503075
0.733806 1 0.503075
0.733806 1 0.503075
0.782528 1 0.510155
0.833509 1 0.530663
0.851484 1 0.582803
0.851926 1 0.677119
0.818128 1 0.708721
0.818128 1 0.708721
0.818128 1 0.708721
0.818128 1 0.708721
0.818128 1 0.708721
0.818128 1 0.708721
0.836301 1 0.711406
0.852155 1 0.718929
0.852262 1 0.737392
0.0027924 0 0.408698
0.0027924 0 0.408774
0.0027924 0 0.408988
0.393561 0 0.414313
0.762127 0.0117189 0.426307
0.983993 0.0201114 0.446113
0.916152 0.494743 0.418341
0.871916 0.861509 0.466041
0.857954 0.984436 0.61207
0.00276188 0 0.407385
0.00276188 0 0.407492
0.0277104 0 0.407477
0.406394 0 0.412924
0.760418 0.0116426 0.424628
0.983825 0.0200961 0.443824
0.912367 0.525124 0.412558
0.871626 0.863996 0.465232
0.857939 0.984619 0.611963
0 0.0443427 0.399924
0 0.047013 0.399817
0.0269932 0.0473182 0.399435
0.412314 0 0.410224
0.754604 0.0113985 0.421378
0.980713 0.0320745 0.437522
0.907652 0.563149 0.404807
0.871138 0.867979 0.46389
0.857893 0.984924 0.611811
0 0.40206 0.353323
0 0.402838 0.353323
0 0.404639 0.353704
0.316793 0.400122 0.352804
0.674861 0.396582 0.359747
0.917632 0.456001 0.368643
0.895079 0.665797 0.38146
0.869413 0.882353 0.459007
0.857725 0.986282 0.611048
0 0.776211 0.257603
0 0.776211 0.257603
0 0.77644 0.258228
0 0.774182 0.261006
0.586984 0.760098 0.263798
0.842374 0.769924 0.285527
0.875364 0.829145 0.331487
0.865003 0.918868 0.443671
0.857114 0.991333 0.608042
0 0.981765 0.0191196
0 0.981765 0.0191196
0 0.981765 0.0191196
0 0.9776 0.0210117
0.531411 0.958938 0.017792
0.776547 0.949371 0.131502
0.860456 0.952056 0.25211
0.858564 0.972229 0.407614
0.855467 1 0.599527
0.463508 1 0.112657
0.463508 1 0.112657
0.463508 1 0.112657
0.463508 1 0.112657
0.620401 1 0.127031
0.761028 1 0.166278
0.844068 1 0.257069
0.8533 1 0.430304
0.853193 1 0.622263
0.73492 1 0.502968
0.73492 1 0.502968
0.73492 1 0.502968
0.73492 1 0.502968
0.73492 1 0.502968
0.782956 1 0.510018
0.833661 1 0.530556
0.851484 1 0.582696
0.851926 1 0.677073
0.81825 1 0.708705
0.81825 1 0.708705
0.81825 1 0.708705
0.81825 1 0.708705
0.81825 1 0.708705
0.81825 1 0.708705
0.836347 1 0.711406
0.852155 1 0.718914
0.852262 1 0.737392
0.00933852 0 0.693599
0.00933852 0 0.693599
0.00935378 0 0.69369
0.114565 0 0.693431
0.732799 0.0145113 0.702281
0.98764 0.0234684 0.711788
0.944854 0.29163 0.684764
0.874907 0.844266 0.645121
0.858625 0.982544 0.689632
0.00933852 0 0.693523
0.00933852 0 0.693523
0.00933852 0 0.693584
0.121355 0 0.693049
0.736767 0.0146334 0.701961
0.98764 0.0234684 0.711421
0.9355 0.361517 0.675425
0.87454 0.847349 0.644495
0.85861 0.982727 0.68957
0.00932326 0 0.692531
0.00932326 0 0.692531
0.00932326 0 0.692592
0.209277 0 0.692882
0.742657 0.0148165 0.701045
0.987625 0.0234531 0.710384
0.925505 0.434546 0.665415
0.87396 0.852049 0.643503
0.858564 0.983047 0.689464
0 0.19411 0.669673
0 0.19411 0.669673
0 0.197971 0.669337
0.189914 0.188495 0.667964
0.725612 0.114015 0.681987
0.956878 0.195224 0.679072
0.905959 0.58883 0.642741
0.8719 0.869139 0.639857
0.858396 0.984482 0.688975
0 0.726635 0.596155
0 0.726635 0.596155
0 0.726696 0.59617
0 0.726482 0.596567
0.565713 0.712734 0.593973
0.839994 0.729458 0.598169
0.879362 0.805142 0.604379
0.866758 0.911467 0.62974
0.85774 0.989822 0.687175
0 0.977447 0.536538
0 0.977447 0.536538
0 0.977554 0.536477
0 0.97435 0.537285
0.483757 0.954116 0.534661
0.766201 0.944198 0.544854
0.860807 0.947982 0.567468
0.859693 0.969772 0.611078
0.856031 1 0.681224
0.442603 1 0.455894
0.442603 1 0.455894
0.442603 1 0.455894
0.442603 1 0.455894
0.604318 1 0.460487
0.753445 1 0.474098
0.838529 1 0.508324
0.853925 1 0.576181
0.853468 1 0.666209
0.73843 1 0.502297
0.73843 1 0.502297
0.73843 1 0.502297
0.73843 1 0.502297
0.73843 1 0.502297
0.784268 1 0.50956
0.834073 1 0.530159
0.851484 1 0.582513
0.851926 1 0.67689
0.818677 1 0.708659
0.818677 1 0.708659
0.818677 1 0.708659
0.818677 1 0.708659
0.818677 1 0.708659
0.818662 1 0.708659
0.8365 1 0.71136
0.852155 1 0.718868
0.852262 1 0.737377
0.0136416 0.00317388 0.871061
0.0136416 0.00317388 0.871168
0.0136416 0.00317388 0.871168
0.0136416 0.00317388 0.871199
0.524147 0.0110781 0.873518
0.985183 0.0258946 0.879057
0.989792 0.0260624 0.879759
0.886366 0.75761 0.779873
0.859831 0.976318 0.759945
0.0136416 0.00317388 0.871168
0.0136416 0.00317388 0.871168
0.0136416 0.00317388 0.871168
0.0136416 0.00317388 0.871199
0.52343 0.0110628 0.873503
0.985183 0.0258946 0.879057
0.989792 0.0260624 0.879683
0.885527 0.764385 0.77882
0.8598 0.976562 0.759899
0.0136416 0.00317388 0.871122
0.0136416 0.00317388 0.871122
0.0136416 0.00317388 0.871122
0.0136416 0.00317388 0.871122
0.534295 0.011368 0.873564
0.98555 0.0259098 0.878981
0.989792 0.0260624 0.879576
0.88426 0.774746 0.777218
0.859754 0.976944 0.759808
0.0136263 0.00315862 0.87071
0.0136263 0.00315862 0.87071
0.0136263 0.00315862 0.87071
0.0136263 0.00315862 0.870726
0.593317 0.0130922 0.873838
0.986511 0.0259403 0.878569
0.989334 0.0277867 0.877775
0.880095 0.808713 0.771862
0.859556 0.978637 0.759472
0 0.452979 0.819272
0 0.452979 0.819272
0 0.452979 0.819272
0 0.456641 0.818845
0.522026 0.448463 0.814267
0.910811 0.472572 0.8121
0.897337 0.668345 0.786282
0.871382 0.880156 0.760128
0.858793 0.984909 0.758144
0 0.960906 0.745693
0 0.960906 0.745693
0 0.960906 0.745693
0 0.960906 0.745693
0.270619 0.940291 0.740307
0.751583 0.926375 0.741772
0.859068 0.933577 0.743069
0.86157 0.960998 0.745281
0.856855 1 0.754437
0.278553 1 0.717662
0.278553 1 0.717662
0.279438 1 0.717632
0.279438 1 0.717632
0.520821 1 0.717571
0.732204 1 0.719783
0.828443 1 0.723918
0.854994 1 0.732097
0.854093 1 0.747631
0.726406 1 0.689647
0.726406 1 0.689647
0.726406 1 0.689647
0.726406 1 0.689647
0.726406 1 0.689647
0.772854 1 0.691585
0.826001 1 0.6972
0.852079 1 0.711101
0.852247 1 0.735775
0.82005 1 0.708522
0.82005 1 0.708522
0.82005 1 0.708522
0.82005 1 0.708522
0.82005 1 0.708522
0.82005 1 0.708522
0.837003 1 0.711177
0.852155 1 0.718746
0.852262 1 0.737316
0.0148013 0.00450141 0.919066
0.0148013 0.00450141 0.919066
0.0148013 0.00450141 0.919066
0.0148013 0.00450141 0.919066
0.0148013 0.00450141 0.919066
0.892042 0.0236515 0.933974
0.990555 0.0270085 0.936507
0.990555 0.0270085 0.936507
0.86389 0.945556 0.811627
0.0148013 0.00450141 0.919066
0.0148013 0.00450141 0.919066
0.0148013 0.00450141 0.919066
0.0148013 0.00450141 0.919066
0.0148013 0.00450141 0.919066
0.892042 0.0236515 0.933974
0.990555 0.0270085 0.936507
0.990555 0.0270085 0.936507
0.863828 0.946075 0.811536
0.0148013 0.00450141 0.919066
0.0148013 0.00450141 0.919066
0.0148013 0.00450141 0.919066
0.0148013 0.00450141 0.919066
0.0148013 0.00450141 0.919066
0.892042 0.0236515 0.933974
0.990555 0.0270085 0.936507
0.990555 0.0270085 0.936507
0.863722 0.947005 0.811383
0.0148013 0.00450141 0.919066
0.0148013 0.00450141 0.919066
0.0148013 0.00450141 0.919066
0.0148013 0.00450141 0.919066
0.0148013 0.00450141 0.919066
0.897551 0.0238499 0.934112
0.990555 0.0270085 0.936507
0.990555 0.0270085 0.936507
0.863279 0.950576 0.810788
0.0148013 0.00450141 0.919066
0.0148013 0.00450141 0.919066
0.0148013 0.00450141 0.919066
0.0148013 0.00450141 0.919066
0.0148013 0.00450141 0.919066
0.935851 0.0251469 0.935103
0.990555 0.0270085 0.936507
0.931212 0.411139 0.881407
0.861799 0.962768 0.808728
0 0.763287 0.842283
0 0.763287 0.842283
0 0.763287 0.842283
0 0.763287 0.842283
0 0.76704 0.841871
0.757382 0.751492 0.836912
0.880629 0.808133 0.829435
0.867948 0.912016 0.814221
0.85861 0.989075 0.804211
0 1 0.801526
0 1 0.801526
0 1 0.801526
0 1 0.801526
0 1 0.801526
0.681941 1 0.79585
0.822477 1 0.79704
0.856123 1 0.797452
0.854826 1 0.798383
0.694057 1 0.788174
0.694057 1 0.788174
0.694057 1 0.788174
0.694057 1 0.788174
0.694057 1 0.788174
0.746059 1 0.788327
0.8168 1 0.788922
0.851621 1 0.790372
0.852583 1 0.793652
0.814893 1 0.778164
0.814893 1 0.778164
0.814893 1 0.778164
0.814893 1 0.778164
0.814893 1 0.778164
0.814893 1 0.778164
0.831983 1 0.778897
0.850706 1 0.781094
0.852537 1 0.786267
0.00334173 0.087953 0.909804
0.00334173 0.087953 0.909804
0.00334173 0.087953 0.909804
0.00334173 0.087953 0.909804
0.00334173 0.087953 0.909804
0.00332647 0.0880446 0.909804
0.990555 0.0270085 0.936507
0.985031 0.0517128 0.931624
0.901671 0.638682 0.859754
0.00334173 0.087953 0.909804
0.00334173 0.087953 0.909804
0.00334173 0.087953 0.909804
0.00334173 0.087953 0.909804
0.00334173 0.087953 0.909804
0.00332647 0.0880446 0.909804
0.990555 0.0270085 0.936507
0.985031 0.0517128 0.931624
0.901671 0.638682 0.859754
0.00334173 0.087953 0.909804
0.00334173 0.087953 0.909804
0.00334173 0.087953 0.909804
0.00334173 0.087953 0.909804
0.00334173 0.087953 0.909804
0.00332647 0.0880446 0.909804
0.990555 0.0270085 0.936507
0.985031 0.0517128 0.931624
0.901671 0.638636 0.85977
0.00334173 0.087953 0.909804
0.00334173 0.087953 0.909804
0.00334173 0.087953 0.909804
0.00334173 0.087953 0.909804
0.00334173 0.087953 0.909804
0.00332647 0.0880446 0.909804
0.990555 0.0270085 0.936507
0.985031 0.0517128 0.931624
0.901686 0.638514 0.859785
0.00335698 0.0878309 0.909819
0.00335698 0.0878309 0.909819
0.00335698 0.0878309 0.909819
0.00335698 0.0878309 0.909819
0.00335698 0.0878309 0.909819
0.00334173 0.0879072 0.909819
0.990555 0.0270085 0.936507
0.984634 0.0536812 0.931273
0.901732 0.638163 0.859815
0.00354009 0.0862287 0.909987
0.00354009 0.0862287 0.909987
0.00354009 0.0862287 0.909987
0.00354009 0.0862287 0.909987
0.00354009 0.0862287 0.909987
0.00354009 0.086305 0.909972
0.990555 0.0270085 0.936507
0.977829 0.0900435 0.925307
0.881056 0.805478 0.842145
0 0.956924 0.831983
0 0.956924 0.831983
0 0.956924 0.831983
0 0.956924 0.831983
0 0.956924 0.831983
0 0.959106 0.831785
0.828672 0.924712 0.829419
0.862074 0.961547 0.82594
0.857298 1 0.821836
0.368536 1 0.81677
0.368536 1 0.81677
0.368536 1 0.81677
0.368536 1 0.81677
0.368536 1 0.81677
0.368536 1 0.81677
0.797574 1 0.816861
0.849821 1 0.817273
0.852857 1 0.81738
0.803098 1 0.815381
0.803098 1 0.815381
0.803098 1 0.815381
0.803098 1 0.815381
0.803098 1 0.815381
0.803098 1 0.815381
0.822248 1 0.815457
0.847395 1 0.815671
0.85272 1 0.816037
0 0.307393 0.889738
0 0.307393 0.889738
0 0.307393 0.889738
0 0.307393 0.889738
0 0.307393 0.889738
0 0.307393 0.889738
0 0.307469 0.889723
0.968566 0.145922 0.917266
0.896895 0.676997 0.85568
0 0.307393 0.889738
0 0.307393 0.889738
0 0.307393 0.889738
0 0.307393 0.889738
0 0.307393 0.889738
0 0.307393 0.889738
0 0.307469 0.889723
0.968566 0.145922 0.917266
0.896895 0.676997 0.85568
0 0.307393 0.889738
0 0.307393 0.889738
0 0.307393 0.889738
0 0.307393 0.889738
0 0.307393 0.889738
0 0.307393 0.889738
0 0.307469 0.889723
0.968566 0.145922 0.917266
0.896895 0.676997 0.85568
0 0.307393 0.889738
0 0.307393 0.889738
0 0.307393 0.889738
0 0.307393 0.889738
0 0.307393 0.889738
0 0.307393 0.889738
0 0.307469 0.889723
0.968566 0.145922 0.917266
0.896895 0.676997 0.85568
0 0.307393 0.889738
0 0.307393 0.889738
0 0.307393 0.889738
0 0.307393 0.889738
0 0.307393 0.889738
0 0.307393 0.889738
0 0.307469 0.889723
0.968566 0.145922 0.917266
0.896895 0.676997 0.85568
0 0.307332 0.889738
0 0.307332 0.889738
0 0.307332 0.889738
0 0.307332 0.889738
0 0.307332 0.889738
0 0.307332 0.889738
0 0.307378 0.889738
0.968429 0.146792 0.917144
0.896696 0.678584 0.855512
0 0.306264 0.88983
0 0.306264 0.88983
0 0.306264 0.88983
0 0.306264 0.88983
0 0.306264 0.88983
0 0.306264 0.88983
0 0.306325 0.88983
0.952087 0.257542 0.903029
0.896345 0.681453 0.855207
0 1 0.824063
0 1 0.824063
0 1 0.824063
0 1 0.824063
0 1 0.824063
0 1 0.824063
0 1 0.824048
0.848966 1 0.819913
0.854368 1 0.819348
0.747646 1 0.817349
0.747646 1 0.817349
0.747646 1 0.817349
0.747646 1 0.817349
0.747646 1 0.817349
0.747646 1 0.817349
0.747646 1 0.817349
0.84181 1 0.817884
0.852735 1 0.81796
