BBLuts/BB_102_0170_LUT.cube
TITLE "Generated by Resolve"
LUT_3D_SIZE 5
0.00502022 0.00601205 0.00225834
0.192767 0.00228885 0
0.745312 0 0
0.936477 0.527932 0.0883955
0.905455 0.995895 0.685069
0 0.221454 0.000320439
0.152163 0.223835 0
0.747723 0.0875715 0
0.93019 0.610971 0.0574197
0.905333 0.997513 0.684382
0 0.803433 0
0 0.802976 0
0.650172 0.797742 0
0.910246 0.852338 0
0.904601 1 0.679255
0.506233 1 0.150072
0.548058 1 0.152651
0.708751 1 0.17113
0.895796 1 0.31107
0.901747 1 0.703639
0.866621 1 0.796857
0.867109 1 0.796918
0.870588 1 0.797345
0.889586 1 0.80116
0.900053 1 0.829801
0.00640879 0.00790417 0.147997
0.173373 0.00521859 0.144686
0.748241 0 0.13576
0.939391 0.509407 0.239307
0.905394 0.995453 0.702083
0 0.188663 0.132067
0.164874 0.184375 0.126879
0.749065 0 0.121614
0.933196 0.600748 0.222538
0.905287 0.997086 0.701473
0 0.799603 0
0 0.799084 0
0.655543 0.793866 0
0.913054 0.853498 0.0602426
0.90454 1 0.69691
0.51284 1 0.149676
0.553552 1 0.152255
0.710552 1 0.170764
0.895918 1 0.311025
0.901747 1 0.703548
0.866682 1 0.796857
0.867185 1 0.796918
0.870665 1 0.79733
0.889616 1 0.801144
0.900053 1 0.829801
0 0.002533 0.664286
0 0.002533 0.6645
0.752331 0 0.65066
0.957397 0.195727 0.672618
0.905196 0.992172 0.780774
0 0.00256352 0.662562
0 0.00256352 0.662806
0.760967 0 0.648692
0.943725 0.431678 0.670741
0.905058 0.993927 0.780423
0 0.753735 0.619379
0 0.754131 0.619654
0.644541 0.750088 0.623026
0.917464 0.831189 0.645899
0.904265 1 0.77792
0.516609 1 0.495079
0.556008 1 0.496162
0.708888 1 0.503136
0.891478 1 0.558389
0.901503 1 0.759274
0.867262 1 0.796796
0.867735 1 0.796841
0.871138 1 0.797253
0.889815 1 0.801099
0.900053 1 0.829801
0 0 0.922881
0 0 0.922881
0 0 0.922881
0.962737 0 0.91133
0.907164 0.952361 0.900862
0 0 0.922881
0 0 0.922881
0 0 0.922881
0.962737 0 0.91133
0.906905 0.956161 0.900557
0 0 0.922881
0 0 0.922881
0.340612 0 0.918929
0.962737 0 0.91133
0.905287 0.978943 0.898726
0 1 0.88426
0 1 0.884123
0.5673 1 0.887617
0.873823 1 0.888914
0.900954 1 0.892836
0.863691 1 0.867582
0.864149 1 0.867597
0.867475 1 0.86775
0.885863 1 0.869078
0.899702 1 0.879377
0 0.30518 0.923217
0 0.30518 0.923217
0 0.305196 0.923217
0 0.305364 0.923217
0.922988 0.721401 0.921004
0 0.30515 0.923217
0 0.30515 0.923217
0 0.30518 0.923217
0 0.305348 0.923217
0.922988 0.721523 0.921004
0 0.305028 0.923217
0 0.305028 0.923217
0 0.305043 0.923217
0.363165 0.284459 0.922011
0.922927 0.722484 0.921004
0 0.303716 0.923232
0 0.303716 0.923232
0 0.303731 0.923232
0.962737 0 0.91133
0.922713 0.725567 0.921004
0.798428 1 0.918853
0.80058 1 0.918853
0.814664 1 0.918944
0.868284 1 0.919234
0.899397 1 0.919402
