BBLuts/BB_103_0160_LUT.cube
TITLE "Generated by Resolve"
LUT_3D_SIZE 33
0.00233463 0.00335698 0.000961318
0.00233463 0.00335698 0.000961318
0.00233463 0.00335698 0.000961318
0.00561532 0.00265507 0.000579843
0.0752575 0.00216678 0
0.137423 0.00248722 0
0.184176 0.00277714 0
0.230961 0.00288396 0
0.284642 0.00257877 0
0.347097 0.00155642 0
0.41442 0 0
0.487724 0 0
0.56231 0 0
0.633417 0 0
0.711254 0 0
0.790097 0 0
0.864912 0 0
0.931487 0 0
0.987732 0 0
1 0 0
1 0.0033875 0
1 0.12755 0
1 0.4365 0.0184176
1 0.6056 0.05037
0.99501 0.715526 0.111788
0.986709 0.811902 0.171511
0.979309 0.891966 0.242573
0.973754 0.951461 0.334157
0.969162 0.993225 0.443519
0.965255 1 0.53431
0.961852 1 0.618708
0.958907 1 0.699748
0.95671 1 0.768475
0.00233463 0.00335698 0.000961318
0.00233463 0.00335698 0.000961318
0.00233463 0.00335698 0.000961318
0.0170443 0.00247196 0.000320439
0.0825055 0.00218204 0
0.139223 0.00250248 0
0.186465 0.00277714 0
0.23537 0.0028687 0
0.289326 0.002533 0
0.35082 0.00146487 0
0.416464 0 0
0.489357 0 0
0.563958 0 0
0.634821 0 0
0.712291 0 0
0.7906 0 0
0.865156 0 0
0.931548 0 0
0.987533 0 0
1 0 0
1 0.0282902 0
1 0.190875 0.00134279
1 0.463264 0.0148775
1 0.616114 0.0390173
0.99443 0.721218 0.108293
0.986358 0.815274 0.169802
0.979156 0.893767 0.241993
0.973678 0.952331 0.334005
0.969131 0.993667 0.443259
0.96524 1 0.534173
0.961837 1 0.618631
0.958907 1 0.699702
0.95671 1 0.76846
0.00213626 0.00341802 0.000885023
0.00209049 0.00352483 0.000869764
0.00201419 0.00502022 0.000885023
0.0330205 0.00585946 0.000228885
0.0861982 0.00424201 0
0.13576 0.00407416 0
0.183795 0.0043946 0
0.234852 0.00425727 0
0.290822 0.00292973 0
0.353094 0.00144961 0
0.418616 0 0
0.491341 0 0
0.565713 0 0
0.636179 0 0
0.713359 0 0
0.791318 0 0
0.865538 0 0
0.931624 0 0
0.98732 0 0
1 0 0
1 0.0593881 0
1 0.265904 0.0056611
1 0.485725 0.0121004
1 0.624201 0.030518
0.993927 0.726284 0.105211
0.986038 0.818357 0.168246
0.979004 0.89543 0.241443
0.973617 0.95317 0.333852
0.9691 0.994125 0.442985
0.965225 1 0.534035
0.961837 1 0.61854
0.958907 1 0.699657
0.956695 1 0.768429
0 0.0619364 0.000747692
0 0.0650797 0.000747692
0 0.0682689 0.000747692
0.00263981 0.069749 0.000549325
0.0656443 0.0679484 0
0.121889 0.0655985 0
0.172869 0.0605325 0
0.227512 0.0485389 0
0.288716 0.0208591 0
0.354314 0.00637827 0
0.42092 0.000869764 0
0.493614 0 0
0.567605 0 0
0.637629 0 0
0.714519 0 0
0.792126 0 0
0.865934 0 0
0.931685 0 0
0.987091 0 0
1 0 0
1 0.079057 0
1 0.314458 0.00827039
1 0.505196 0.011841
0.999741 0.632059 0.0283665
0.993393 0.731411 0.101534
0.985733 0.821363 0.166613
0.978851 0.897017 0.24094
0.973541 0.953979 0.333715
0.96907 0.994553 0.442725
0.965209 1 0.533913
0.961822 1 0.618479
0.958907 1 0.699611
0.956695 1 0.768399
0 0.109071 0.000732433
0 0.112245 0.000732433
0 0.114946 0.000732433
0 0.116243 0.000732433
0.0451362 0.115099 0
0.10573 0.113527 0
0.161532 0.110353 0
0.21883 0.103365 0
0.281086 0.0885176 0
0.348363 0.0696574 0
0.419089 0.0309606 0
0.494865 0.00602731 0
0.569543 0 0
0.63946 0 0
0.715785 0 0
0.792782 0 0
0.866163 0 0
0.931655 0 0
0.986847 0 0
1 0.00549325 0
1 0.111803 0
1 0.351492 0.00993362
1 0.521599 0.0116426
0.999176 0.639475 0.0274357
0.992874 0.736339 0.0978103
0.985397 0.824491 0.164782
0.978698 0.898726 0.240391
0.97348 0.954757 0.333577
0.969039 0.994965 0.442481
0.965194 1 0.533776
0.961822 1 0.618402
0.958907 1 0.699565
0.956695 1 0.768383
0 0.152056 0.000671397
0 0.154772 0.000671397
0 0.156558 0.000656138
0 0.157534 0.000656138
0.00140383 0.157641 0.000244144
0.0744182 0.155932 0
0.145068 0.154391 0
0.208225 0.151278 0
0.273167 0.144945 0
0.342229 0.132753 0
0.41323 0.108675 0
0.489952 0.0793469 0
0.567926 0.033814 0
0.640238 0.0011902 0
0.717052 0 0
0.793881 0 0
0.86659 0 0
0.931609 0 0
0.986374 0 0
1 0.0297246 0
1 0.17171 0.000396735
1 0.387381 0.0111543
1 0.538506 0.0113985
0.998535 0.6477 0.0263981
0.992309 0.741604 0.0937972
0.985031 0.828016 0.162707
0.978531 0.900694 0.23975
0.973404 0.955779 0.33344
0.969009 0.995453 0.442191
0.965179 1 0.533639
0.961807 1 0.618311
0.958892 1 0.699504
0.956695 1 0.768353
0 0.199893 0.000457771
0 0.201877 0.000442512
0 0.203281 0.000427253
0 0.204089 0.000427253
0 0.2047 0.000411994
0.0365606 0.203372 0
0.115618 0.202274 0
0.1906 0.200595 0
0.261479 0.196887 0
0.333913 0.189151 0
0.407736 0.176654 0
0.486152 0.157321 0
0.563317 0.124407 0
0.635538 0.080705 0
0.714565 0.0318456 0
0.792966 0.00283818 0
0.866331 0 0
0.931838 0 0
0.98436 0.0104067 0
1 0.0946822 0
1 0.255146 0.005066
1 0.42652 0.0120089
1 0.558923 0.0111086
0.99765 0.658442 0.0245212
0.991531 0.748653 0.0868849
0.984573 0.832486 0.160037
0.978302 0.903304 0.238911
0.973297 0.957153 0.333257
0.968963 0.996216 0.441779
0.965164 1 0.53344
0.961807 1 0.618189
0.958892 1 0.699443
0.956695 1 0.768322
0 0.254688 0
0 0.255985 0
0 0.256992 0
0 0.257664 0
0 0.258305 0
0 0.258381 0
0.0668498 0.25687 0
0.157504 0.255665 0
0.240558 0.253071 0
0.319692 0.247776 0
0.399283 0.239307 0
0.482139 0.2271 0
0.560464 0.209369 0
0.632258 0.181323 0
0.709438 0.143587 0
0.786633 0.106416 0
0.861341 0.0603037 0
0.92784 0.030457 0
0.979065 0.0800488 0
1 0.200336 0.0011902
1 0.340566 0.00950637
1 0.470802 0.0121767
1 0.583581 0.0107576
0.996429 0.672541 0.0214694
0.990433 0.758083 0.0758679
0.983932 0.838621 0.156222
0.977966 0.907118 0.237812
0.973144 0.95903 0.332998
0.968887 0.997269 0.441184
0.965118 1 0.53315
0.961791 1 0.618021
0.958877 1 0.699336
0.95668 1 0.768261
0 0.315908 0
0 0.316747 0
0 0.317327 0
0 0.317739 0
0 0.318029 0
0 0.31812 0
0 0.317586 0
0.0939651 0.315648 0
0.202136 0.314458 0
0.29572 0.311482 0
0.384253 0.305806 0
0.474098 0.297078 0
0.556878 0.285283 0
0.630564 0.270497 0
0.707332 0.252613 0
0.783093 0.231327 0
0.855726 0.204211 0
0.92018 0.193759 0
0.973159 0.235935 0.000640879
1 0.321675 0.00767529
1 0.420172 0.0119326
1 0.52076 0.0116426
1 0.612848 0.0104372
0.994827 0.690364 0.0171206
0.988937 0.770459 0.060441
0.983078 0.846891 0.150881
0.977554 0.911833 0.236301
0.972946 0.961532 0.332677
0.968795 0.998718 0.440375
0.965072 1 0.532723
0.961761 1 0.617731
0.958862 1 0.699199
0.95668 1 0.768185
0 0.383154 0
0 0.383688 0
0 0.384085 0
0 0.384543 0
0 0.384756 0
0 0.384817 0
0 0.384756 0
0 0.38381 0
0.122774 0.382788 0
0.252049 0.382391 0
0.35874 0.379263 0
0.458412 0.373404 0
0.549386 0.365332 0
0.627207 0.356023 0
0.705577 0.346578 0
0.780911 0.33904 0
0.852049 0.336278 0
0.915114 0.344945 0.00148013
0.967025 0.374716 0.0065919
1 0.426993 0.0108797
1 0.496681 0.0119631
1 0.572152 0.0109255
0.998245 0.643137 0.0102998
0.992676 0.712886 0.0113832
0.986999 0.786053 0.040528
0.981994 0.857603 0.144289
0.977005 0.91812 0.234333
0.972686 0.96492 0.33228
0.968673 1 0.439323
0.965011 1 0.532128
0.96173 1 0.617319
0.958846 1 0.698955
0.956664 1 0.768078
0 0.457359 0
0 0.457771 0
0 0.458167 0
0 0.458549 0
0 0.458961 0
0 0.459174 0
0 0.459251 0
0 0.459159 0
0.0327306 0.45803 0
0.17496 0.459251 0
0.312413 0.45922 0
0.430304 0.456367 0
0.534463 0.451728 0
0.618494 0.446418 0
0.700404 0.441535 0
0.776913 0.43949 0
0.847288 0.442756 0
0.908537 0.454658 0.00344854
0.95848 0.480217 0.00769055
0.991531 0.520088 0.0103609
1 0.569375 0.010956
0.999664 0.623728 0.0103609
0.995422 0.679255 0.00991836
0.990097 0.740673 0.00863661
0.984863 0.806058 0.0302892
0.980697 0.870878 0.136706
0.976333 0.926177 0.231861
0.972335 0.969451 0.33196
0.96849 1 0.438605
0.96492 1 0.531365
0.961669 1 0.616754
0.958816 1 0.698589
0.956649 1 0.767895
0 0.543175 0
0 0.543511 0
0 0.543847 0
0 0.544106 0
0 0.544442 0
0 0.544686 0
0 0.544991 0
0 0.545113 0
0 0.545129 0
0.0695201 0.545205 0
0.229404 0.547875 0
0.380453 0.548196 0
0.507073 0.546181 0
0.601251 0.543526 0
0.688548 0.540978 0
0.768322 0.540734 0
0.839277 0.544869 0
0.899245 0.555398 0.00241093
0.94786 0.57438 0.00616464
0.982284 0.602152 0.00901808
0.997269 0.634394 0.0102998
0.99588 0.673503 0.0100099
0.991897 0.720562 0.0091249
0.987076 0.773358 0.00772107
0.982483 0.830427 0.026688
0.979156 0.886992 0.126696
0.975525 0.936065 0.228946
0.971893 0.975265 0.331868
0.968246 1 0.438697
0.964797 1 0.530404
0.961608 1 0.616022
0.95877 1 0.698085
0.956619 1 0.76762
0 0.627359 0
0 0.627588 0
0 0.627802 0
0 0.627985 0
0 0.628168 0
0 0.628336 0
0 0.628595 0
0 0.628763 0
0 0.628977 0
0 0.629129 0
0.111284 0.629923 0
0.299504 0.63241 0
0.463783 0.631922 0
0.575662 0.630381 0
0.669856 0.628672 0
0.755108 0.62858 0
0.829313 0.631647 0
0.889998 0.6392 0.00157168
0.937896 0.652323 0.0053254
0.973587 0.67155 0.00828565
0.991775 0.696803 0.00956741
0.990906 0.728359 0.00903334
0.987686 0.766781 0.00791943
0.983581 0.810697 0.00663767
0.979843 0.858381 0.0229801
0.977386 0.906264 0.113725
0.974563 0.947997 0.225467
0.971359 0.982498 0.332021
0.96791 1 0.439338
0.96463 1 0.529198
0.961517 1 0.61503
0.958724 1 0.697459
0.956588 1 0.766918
0 0.708141 0
0 0.708293 0
0 0.708461 0
0 0.708598 0
0 0.708721 0
0 0.708858 0
0 0.70898 0
0 0.709102 0
0 0.709239 0
0 0.709316 0
0 0.709255 0
0.168811 0.710582 0
0.38761 0.71136 0
0.539498 0.709941 0
0.643656 0.7084 0
0.736446 0.707942 0
0.815778 0.710201 0
0.878523 0.716136 0.000640879
0.926238 0.72639 0.00399786
0.962112 0.741558 0.0065919
0.9832 0.761456 0.00781262
0.985351 0.786191 0.00743114
0.983047 0.816449 0.00646983
0.979858 0.851118 0.00552377
0.977142 0.888731 0.0186007
0.975525 0.92723 0.0973983
0.97351 0.961822 0.222034
0.970703 0.991333 0.33257
0.967498 1 0.440452
0.964416 1 0.528511
0.961395 1 0.613718
0.958648 1 0.696574
0.956558 1 0.76643
0 0.790234 0
0 0.79028 0
0 0.790372 0
0 0.790448 0
0 0.790509 0
0 0.79057 0
0 0.790631 0
0 0.790646 0
0 0.7906 0
0 0.790539 0
0 0.790204 0
0.037583 0.789425 0
0.269902 0.791501 0
0.485405 0.79057 0
0.609705 0.788983 0
0.711192 0.787869 0
0.796521 0.788891 0
0.862562 0.792966 0
0.911513 0.800351 0.00222782
0.947677 0.811414 0.00445563
0.971496 0.826246 0.00567636
0.979324 0.844678 0.00573739
0.978195 0.866819 0.00527962
0.976364 0.892119 0.00477607
0.974517 0.920256 0.0131533
0.973602 0.949416 0.0757916
0.972381 0.977157 0.219303
0.96994 1 0.334157
0.966995 1 0.442344
0.964096 1 0.52929
0.961227 1 0.612558
0.958556 1 0.695399
0.956497 1 0.765759
0 0.870298 0
0 0.870298 0
0 0.870314 0
0 0.870329 0
0 0.870344 0
0 0.870344 0
0 0.870329 0
0 0.870253 0
0 0.8701 0
0 0.869825 0
0 0.869307 0
0 0.868666 0
0.145144 0.868818 0
0.405463 0.869139 0
0.569345 0.866819 0
0.681575 0.864561 0
0.773342 0.863966 0
0.843137 0.865843 0
0.894286 0.870237 0.00108339
0.931731 0.87718 0.00291447
0.958572 0.88687 0.00415045
0.972656 0.899245 0.004654
0.974212 0.914351 0.00462348
0.973358 0.931441 0.00445563
0.972152 0.950637 0.00741588
0.97171 0.971893 0.0520333
0.971222 0.993744 0.218479
0.969085 1 0.337575
0.9664 1 0.445518
0.963699 1 0.531304
0.960998 1 0.612146
0.958419 1 0.694011
0.956405 1 0.764813
0 0.94258 0.00209049
0 0.94258 0.00209049
0 0.94258 0.00207523
0 0.942565 0.00207523
0 0.94255 0.00207523
0 0.942489 0.00207523
0 0.942397 0.00205997
0 0.942229 0.00204471
0 0.941955 0.00201419
0 0.941512 0.00196841
0 0.94081 0.00189212
0 0.939773 0.00178531
0.0629435 0.93846 0.00128176
0.316304 0.939208 0.00292973
0.527184 0.935805 0.000701915
0.652735 0.93193 0
0.750072 0.929351 0
0.823392 0.92903 0
0.876814 0.930678 0.00111391
0.916152 0.934081 0.00256352
0.945357 0.939345 0.00364691
0.964202 0.946563 0.00430304
0.970764 0.955596 0.00453193
0.970687 0.966506 0.00459297
0.970245 0.979278 0.00637827
0.970199 0.9944 0.0476844
0.970047 1 0.222629
0.968154 1 0.343557
0.965713 1 0.450416
0.963211 1 0.534401
0.960678 1 0.613352
0.958251 1 0.692592
0.956298 1 0.763592
0 0.999649 0.00996414
0 0.999649 0.00996414
0 0.999649 0.00996414
0 0.999649 0.00996414
0 0.999634 0.00996414
0 0.999588 0.00996414
0 0.999451 0.00993362
0 0.999207 0.0099031
0 0.998795 0.00984207
0 0.998199 0.00973526
0 0.997345 0.00961318
0 0.996139 0.00941482
0.0222477 0.994095 0.0087129
0.246082 0.993957 0.0100252
0.492119 0.989776 0.00662242
0.630915 0.984405 0.00292973
0.731991 0.980224 0.0010071
0.806821 0.978271 0.00103761
0.861433 0.978058 0.00198367
0.902266 0.97911 0.00302129
0.932815 0.98146 0.00386053
0.954711 0.985214 0.00444038
0.966964 0.990387 0.00474556
0.968688 0.99704 0.00483711
0.968826 1 0.0129854
0.969177 1 0.0766766
0.968872 1 0.234852
0.967178 1 0.353048
0.964935 1 0.457404
0.962631 1 0.53901
0.960266 1 0.616632
0.958022 1 0.692882
0.956176 1 0.762127
0 1 0.0171817
0 1 0.0171817
0 1 0.0171817
0 1 0.0171817
0 1 0.0171817
0 1 0.0171817
0 1 0.0171664
0 1 0.0171359
0 1 0.0170443
0 1 0.0169223
0 1 0.0167544
0 1 0.0165408
0.00746166 1 0.0157626
0.217288 1 0.0162051
0.474479 1 0.0117037
0.619623 1 0.00654612
0.720562 1 0.00349432
0.794614 1 0.00267033
0.84892 1 0.00300603
0.890135 1 0.00366217
0.921538 1 0.00427253
0.945296 1 0.0047303
0.961395 1 0.00502022
0.966705 1 0.00512703
0.96762 1 0.0229496
0.968231 1 0.120836
0.967697 1 0.255543
0.966125 1 0.367575
0.96408 1 0.467033
0.961959 1 0.545403
0.959762 1 0.621576
0.957687 1 0.696101
0.955978 1 0.761822
0 1 0.0226749
0 1 0.0226749
0 1 0.0226749
0 1 0.0226749
0 1 0.0226749
0 1 0.0226749
0 1 0.0226749
0 1 0.0226749
0 1 0.0226291
0 1 0.0224918
0 1 0.0223087
0 1 0.0220798
0 1 0.0214237
0.224384 1 0.0208591
0.488258 1 0.0146487
0.620813 1 0.00889601
0.716625 1 0.00527962
0.787289 1 0.00392157
0.839857 1 0.00384527
0.880339 1 0.00422675
0.911742 1 0.004654
0.936187 1 0.00500496
0.954604 1 0.0052491
0.964584 1 0.00541695
0.966262 1 0.0339055
0.967224 1 0.164157
0.966491 1 0.283909
0.964981 1 0.388388
0.963134 1 0.480034
0.961212 1 0.55404
0.959197 1 0.628275
0.957275 1 0.700877
0.955718 1 0.764065
0 1 0.0265049
0 1 0.0265049
0 1 0.0265049
0 1 0.0265049
0 1 0.0265049
0 1 0.0265049
0 1 0.0265049
0 1 0.0265049
0 1 0.0265049
0 1 0.0264286
0 1 0.0262608
0 1 0.026154
0.0209964 1 0.0248417
0.275029 1 0.0235599
0.521096 1 0.0153506
0.634821 1 0.00975052
0.720668 1 0.00619516
0.785336 1 0.00471504
0.834684 1 0.00442512
0.873426 1 0.00462348
0.90399 1 0.00492866
0.92842 1 0.00520333
0.948074 1 0.00541695
0.96144 1 0.0155337
0.965438 1 0.0771649
0.966125 1 0.214725
0.965209 1 0.319966
0.963775 1 0.414664
0.962112 1 0.496895
0.960388 1 0.565621
0.958556 1 0.637125
0.956817 1 0.707149
0.955413 1 0.768093
0 1 0.029221
0 1 0.029221
0 1 0.029221
0 1 0.029221
0 1 0.029221
0 1 0.029221
0 1 0.029221
0 1 0.029221
0 1 0.029221
0 1 0.029221
0 1 0.0291447
0 1 0.0289006
0.140383 1 0.0270237
0.406195 1 0.022034
0.564279 1 0.014435
0.658259 1 0.00947585
0.73138 1 0.00646983
0.78819 1 0.00514229
0.833005 1 0.00477607
0.869139 1 0.00488289
0.898222 1 0.00515755
0.922011 1 0.00575265
0.941787 1 0.0144808
0.956939 1 0.0644999
0.964294 1 0.175051
0.964569 1 0.276692
0.963821 1 0.364279
0.962493 1 0.446326
0.961044 1 0.515816
0.959503 1 0.581094
0.957855 1 0.648692
0.956298 1 0.715221
0.955062 1 0.773037
0.0956588 1 0.0297246
0.0956588 1 0.0297246
0.0956588 1 0.0297246
0.0956588 1 0.0297246
0.0956588 1 0.0297246
0.0956588 1 0.0297246
0.0956588 1 0.0297246
0.0956588 1 0.0297398
0.0956436 1 0.0297398
0.0956436 1 0.0297246
0.0956436 1 0.0297246
0.0967727 1 0.0296483
0.298604 1 0.0273899
0.514321 1 0.0185397
0.612116 1 0.0130159
0.687358 1 0.00914015
0.747112 1 0.00689708
0.795377 1 0.00588998
0.834943 1 0.00561532
0.867796 1 0.010605
0.895033 1 0.0256657
0.917922 1 0.041886
0.937255 1 0.0764782
0.952728 1 0.166796
0.962158 1 0.258534
0.963058 1 0.338628
0.962356 1 0.41474
0.961166 1 0.482399
0.959915 1 0.540383
0.958526 1 0.600763
0.957076 1 0.663828
0.955734 1 0.725429
0.954665 1 0.779324
0.444938 1 0.0738994
0.444938 1 0.0738994
0.444938 1 0.0738994
0.444938 1 0.0738994
0.444938 1 0.0738994
0.444938 1 0.0738994
0.444923 1 0.0738994
0.444923 1 0.0738994
0.444907 1 0.0738994
0.444907 1 0.0738994
0.444892 1 0.0738994
0.444862 1 0.0738994
0.499687 1 0.0706951
0.58378 1 0.065568
0.659602 1 0.0616159
0.718914 1 0.0596628
0.766903 1 0.0593576
0.806638 1 0.0603342
0.840696 1 0.0624552
0.869734 1 0.0800336
0.894423 1 0.126925
0.915572 1 0.177905
0.933425 1 0.224079
0.948043 1 0.278233
0.958465 1 0.338735
0.961242 1 0.403708
0.960876 1 0.464485
0.959854 1 0.517815
0.958724 1 0.570016
0.957519 1 0.625071
0.956268 1 0.682582
0.955139 1 0.738308
0.954269 1 0.787106
0.62858 1 0.255177
0.62858 1 0.255177
0.62858 1 0.255177
0.62858 1 0.255177
0.62858 1 0.255177
0.62858 1 0.255177
0.62858 1 0.255177
0.62858 1 0.255177
0.628565 1 0.255177
0.628565 1 0.255177
0.628565 1 0.255177
0.62855 1 0.255177
0.62855 1 0.255177
0.653056 1 0.255024
0.701671 1 0.255802
0.748379 1 0.258808
0.786923 1 0.263905
0.819471 1 0.271168
0.847929 1 0.280995
0.872557 1 0.293584
0.894133 1 0.308736
0.913191 1 0.327474
0.92958 1 0.350744
0.943358 1 0.380789
0.95407 1 0.420706
0.959197 1 0.466438
0.959411 1 0.511269
0.958511 1 0.556359
0.957519 1 0.604227
0.956466 1 0.653986
0.955444 1 0.70515
0.954543 1 0.753689
0.953841 1 0.796872
0.728069 1 0.400305
0.728069 1 0.400305
0.728069 1 0.400305
0.728069 1 0.400305
0.728069 1 0.400305
0.728069 1 0.400305
0.728069 1 0.400305
0.728069 1 0.400305
0.728069 1 0.400305
0.728054 1 0.400305
0.728054 1 0.400305
0.728054 1 0.400305
0.728054 1 0.400305
0.728038 1 0.400305
0.742351 1 0.400809
0.773556 1 0.403037
0.805005 1 0.406378
0.8318 1 0.41088
0.855116 1 0.416724
0.875822 1 0.424247
0.894621 1 0.433616
0.911604 1 0.445167
0.926513 1 0.459403
0.939361 1 0.476646
0.950118 1 0.497688
0.957031 1 0.524025
0.957671 1 0.558663
0.957198 1 0.598474
0.956329 1 0.641733
0.955459 1 0.686351
0.95465 1 0.730434
0.953964 1 0.771756
0.953429 1 0.808255
0.790372 1 0.508782
0.790372 1 0.508782
0.790372 1 0.508782
0.790372 1 0.508782
0.790372 1 0.508782
0.790372 1 0.508782
0.790372 1 0.508782
0.790372 1 0.508782
0.790372 1 0.508782
0.790372 1 0.508782
0.790372 1 0.508782
0.790372 1 0.508782
0.790372 1 0.508782
0.790356 1 0.508782
0.790356 1 0.508782
0.799832 1 0.509361
0.821271 1 0.511116
0.843488 1 0.513817
0.862699 1 0.517205
0.880308 1 0.521721
0.896483 1 0.527169
0.911284 1 0.534051
0.924575 1 0.542718
0.936324 1 0.553674
0.946517 1 0.567514
0.95404 1 0.585351
0.956024 1 0.611231
0.955901 1 0.644221
0.9552 1 0.681529
0.954513 1 0.720073
0.953918 1 0.756909
0.953429 1 0.791043
0.953033 1 0.821225
0.832685 1 0.596353
0.832685 1 0.596353
0.832685 1 0.596353
0.832685 1 0.596353
0.832685 1 0.596353
0.832685 1 0.596353
0.832685 1 0.596353
0.832685 1 0.596353
0.832685 1 0.596353
