BBLuts/BB_103_0100_LUT.cube
TITLE "Generated by Resolve"
LUT_3D_SIZE 5
0 0 0
0.185595 0 0
0.746288 0 0
0.904921 0.58761 0.0591135
0.868528 0.969085 0.656229
0 0.20531 0
0.127504 0.205676 0
0.750179 0.118059 0
0.898466 0.645777 0.0265049
0.868498 0.969558 0.65594
0 0.816342 0
0 0.815686 0
0.648829 0.809522 0
0.878874 0.860578 0
0.868086 0.975937 0.651621
0.523491 1 0.156191
0.523476 1 0.156191
0.687312 1 0.163241
0.864195 1 0.290883
0.865553 1 0.685191
0.834318 1 0.768978
0.834318 1 0.768978
0.834318 1 0.768978
0.850874 1 0.771862
0.863645 1 0.796597
0 0 0.145388
0.156527 0 0.141573
0.749538 0 0.121767
0.909194 0.574166 0.21239
0.868528 0.969085 0.656229
0 0.168322 0.130663
0.126925 0.166964 0.127886
0.747356 0.0547036 0.115328
0.903273 0.638437 0.196536
0.868498 0.969558 0.65594
0 0.811307 0
0 0.810697 0
0.651911 0.805035 0
0.881315 0.861479 0.0618296
0.868086 0.975937 0.651621
0.53106 1 0.155169
0.53106 1 0.155169
0.68925 1 0.162783
0.864271 1 0.290684
0.865553 1 0.685191
0.834363 1 0.768978
0.834363 1 0.768978
0.834363 1 0.768978
0.850889 1 0.771847
0.863645 1 0.796597
0 0 0.687434
0 0 0.687739
0.73283 0 0.66212
0.929824 0.256962 0.706996
0.86775 0.965743 0.753552
0 0 0.686336
0 0 0.686427
0.742123 0 0.660777
0.919585 0.435355 0.705379
0.86772 0.966262 0.753414
0 0.756573 0.648234
0 0.75671 0.64828
0.619684 0.752636 0.65124
0.879545 0.831006 0.668254
0.867247 0.972992 0.751614
0.512184 1 0.554467
0.512184 1 0.554467
0.67097 1 0.552956
0.854734 0.998428 0.596933
0.865141 1 0.735149
0.834913 1 0.768902
0.834897 1 0.768917
0.834897 1 0.768917
0.851087 1 0.771786
0.863645 1 0.796567
0 0 0.877943
0 0 0.877943
0 0 0.877943
0.922271 0 0.866011
0.869749 0.927504 0.862867
0 0 0.877943
0 0 0.877943
0 0 0.877943
0.922271 0 0.866011
0.869627 0.929152 0.86273
0 0 0.877943
0 0 0.877943
0 0 0.877943
0.922271 0 0.866011
0.86836 0.94641 0.861341
0 1 0.878416
0 1 0.878416
0 1 0.878248
0.837995 0.987488 0.854353
0.864637 0.998444 0.856519
0.830365 1 0.839948
0.830365 1 0.839948
0.830365 1 0.839948
0.846113 1 0.840635
0.86334 1 0.846937
0 0.248478 0.879652
0 0.248478 0.879652
0 0.248478 0.879652
0 0.248554 0.879652
0.895491 0.691752 0.888487
0 0.248478 0.879652
0 0.248478 0.879652
0 0.248478 0.879652
0 0.248554 0.879652
0.895491 0.691752 0.888487
0 0.248478 0.879652
0 0.248478 0.879652
0 0.248478 0.879652
0 0.248554 0.879652
0.895491 0.691752 0.888487
0 0.247196 0.879667
0 0.247196 0.879667
0 0.247196 0.879667
0.05449 0.232074 0.880903
0.894881 0.696254 0.888136
0.772732 1 0.875746
0.772732 1 0.875746
0.772732 1 0.875746
0.780392 1 0.875776
0.863432 1 0.8766
