BBLuts/BB_106_0470_LUT.cube
TITLE "Generated by Resolve"
LUT_3D_SIZE 5
0.0129702 0.00956741 0.00527962
0.21355 0.0171817 0.0129702
0.624521 0.0332341 0.0289616
0.848219 0.529595 0.208881
0.913756 0.838468 0.678264
0.0552987 0.241077 0.037171
0.2327 0.250767 0.0446784
0.645533 0.134813 0.043473
0.857282 0.586435 0.184237
0.913924 0.839475 0.678096
0.143587 0.679469 0.0928359
0.143526 0.679164 0.0928054
0.710216 0.697368 0.114977
0.882643 0.738369 0.125246
0.915007 0.84593 0.676677
0.661494 0.855817 0.302174
0.68806 0.856168 0.305058
0.788724 0.856703 0.32401
0.906981 0.858274 0.441901
0.919539 0.869566 0.691035
0.90103 0.878202 0.731914
0.90135 0.878218 0.73196
0.903517 0.878325 0.732235
0.915862 0.878859 0.73434
0.922911 0.879515 0.74696
0.0180362 0.0138552 0.162448
0.197467 0.0212406 0.169741
0.629007 0.0381628 0.188418
0.849546 0.518456 0.343282
0.91397 0.838422 0.685939
0.0539101 0.209476 0.176455
0.236301 0.212802 0.179706
0.629236 0.0377813 0.174929
0.860105 0.581827 0.337392
0.914153 0.839445 0.685817
0.143038 0.676966 0.092546
0.142977 0.676631 0.0925154
0.712978 0.695018 0.114809
0.884733 0.739269 0.205631
0.915251 0.845975 0.684672
0.665797 0.855817 0.301869
0.691508 0.856153 0.304753
0.789822 0.856657 0.32372
0.907042 0.858244 0.441871
0.919539 0.869551 0.69099
0.901076 0.878202 0.731914
0.901381 0.878218 0.73196
0.903563 0.878325 0.732219
0.915877 0.878859 0.73434
0.922911 0.879515 0.74696
0.0323186 0.0255131 0.52253
0.0323339 0.0255131 0.522622
0.643549 0.0497444 0.547936
0.814328 0.264073 0.592996
0.914824 0.837522 0.719966
0.0322881 0.0254826 0.521737
0.0322881 0.0254826 0.521843
0.649042 0.0499123 0.547311
0.84831 0.467735 0.620386
0.915007 0.838621 0.719982
0.154574 0.656489 0.595285
0.154635 0.656748 0.595453
0.709529 0.67538 0.620493
0.894591 0.733898 0.645747
0.916228 0.845594 0.719875
0.674647 0.861891 0.567163
0.699474 0.862181 0.568658
0.795026 0.862409 0.576761
0.908965 0.862181 0.619181
0.920317 0.869932 0.715373
0.901442 0.878218 0.731914
0.901732 0.878233 0.731945
0.903853 0.87834 0.732204
0.915984 0.878859 0.734325
0.922911 0.879515 0.74696
0.0380102 0.0297856 0.636332
0.0380102 0.0297856 0.636332
0.0380102 0.0297856 0.636332
0.783551 0.0590524 0.669596
0.9122 0.814343 0.768032
0.0380102 0.0297856 0.636332
0.0380102 0.0297856 0.636332
0.0380102 0.0297856 0.636332
0.783551 0.0590524 0.669596
0.912612 0.816724 0.768231
0.0380102 0.0297856 0.636332
0.0380102 0.0297856 0.636332
0.377951 0.0437629 0.65182
0.783551 0.0590524 0.669596
0.915145 0.831006 0.769451
0.201053 0.846479 0.740063
0.200778 0.845197 0.739803
0.712367 0.8607 0.761761
0.902419 0.860197 0.768811
0.921798 0.868818 0.772274
0.900557 0.879026 0.762234
0.900847 0.879042 0.762249
0.902907 0.879133 0.762402
0.914641 0.879667 0.763455
0.923644 0.880125 0.768154
0.0960098 0.341543 0.681804
0.0960098 0.341543 0.681804
0.0960098 0.341558 0.681804
0.0960403 0.341711 0.681834
0.886336 0.668162 0.756481
0.0960098 0.341527 0.681804
0.0960098 0.341527 0.681804
0.0960098 0.341543 0.681804
0.0960403 0.341695 0.681819
0.886351 0.668238 0.756497
0.0959945 0.341405 0.681788
0.0959945 0.341405 0.681788
0.0959945 0.341421 0.681788
0.45951 0.336248 0.695567
0.886458 0.668864 0.756573
0.0957656 0.340215 0.68162
0.0957656 0.340215 0.68162
0.0957809 0.340246 0.68162
0.783551 0.0590524 0.669596
0.886809 0.670817 0.756848
0.860868 0.877836 0.782513
0.862211 0.877897 0.782574
0.871 0.878294 0.782971
0.904387 0.879789 0.784482
0.924208 0.880598 0.785321
