BBLuts/BB_102_0270_LUT.cube
TITLE "Generated by Resolve"
LUT_3D_SIZE 33
0 0 0
0 0 0
0 0 0
0 0 0
0 0 0
0.0717327 0 0
0.170031 0 0
0.246174 0 0
0.323781 0 0
0.414054 0 0
0.513115 0 0
0.623819 0 0
0.751247 0 0
0.90103 0 0
1 0 0
1 0 0
1 0 0
1 0 0
1 0 0
1 0 0
1 0 0
1 0 0
1 0.329763 0
1 0.696757 0
1 0.892363 0
1 0.987167 0
1 1 0.146975
1 1 0.278309
1 1 0.446357
1 1 0.622782
1 1 0.803098
1 1 0.982773
1 1 1
0 0 0
0 0 0
0 0 0
0 0 0
0 0 0
0.0894026 0 0
0.176165 0 0
0.251713 0 0
0.332174 0 0
0.423987 0 0
0.522835 0 0
0.631601 0 0
0.753841 0 0
0.904295 0 0
1 0 0
1 0 0
1 0 0
1 0 0
1 0 0
1 0 0
1 0 0
1 0 0
1 0.390738 0
1 0.729122 0
1 0.89984 0
1 0.988647 0
1 1 0.145373
1 1 0.277882
1 1 0.445533
1 1 0.6224
1 1 0.802899
1 1 0.982696
1 1 1
0 0 0
0 0 0
0 0 0
0 0 0
0 0 0
0.0991836 0 0
0.17702 0 0
0.256031 0 0
0.34052 0 0
0.430869 0 0
0.527138 0 0
0.633494 0 0
0.757443 0 0
0.908309 0 0
1 0 0
1 0 0
1 0 0
1 0 0
1 0 0
1 0 0
1 0 0
1 0.00563058 0
1 0.457389 0
1 0.753063 0
1 0.905272 0
1 0.990875 0
1 1 0.144076
1 1 0.277485
1 1 0.444755
1 1 0.622034
1 1 0.802686
1 1 0.982589
1 1 1
0 0 0
0 0 0
0 0 0
0 0 0
0.014435 0 0
0.101595 0 0
0.173053 0 0
0.25185 0 0
0.33817 0 0
0.432563 0 0
0.530785 0 0
0.636988 0 0
0.761456 0 0
0.911925 0 0
1 0 0
1 0 0
1 0 0
1 0 0
1 0 0
1 0 0
1 0 0
1 0.126787 0
1 0.512016 0
1 0.769924 0
1 0.909026 0
1 0.992645 0
1 1 0.142794
1 1 0.277104
1 1 0.444144
1 1 0.621653
1 1 0.802457
1 1 0.982513
1 1 1
0 0.0677348 0
0 0.0732738 0
0 0.0786755 0
0 0.0832837 0
0 0.085481 0
0.06009 0.0868696 0
0.138796 0.0823072 0
0.171725 0.0914321 0
0.308629 0.0504921 0
0.4309 0 0
0.532753 0 0
0.641169 0 0
0.765713 0 0
0.915846 0 0
1 0 0
1 0 0
1 0 0
1 0 0
1 0 0
1 0 0
1 0 0
1 0.194293 0
1 0.557488 0
1 0.784939 0
1 0.911131 0
1 0.99498 0
1 1 0.141863
1 1 0.276753
1 1 0.443534
1 1 0.621347
1 1 0.802274
1 1 0.982391
1 1 1
0 0.128054 0
0 0.132387 0
0 0.136919 0
0 0.14049 0
0 0.142306 0
0.0171359 0.14461 0
0.112016 0.143114 0
0.201587 0.137469 0
0.238407 0.14931 0
0.329458 0.136736 0
0.502266 0.0763714 0
0.639582 0 0
0.769024 0 0
0.921096 0 0
1 0 0
1 0 0
1 0 0
1 0 0
1 0 0
1 0 0
1 0 0
1 0.254841 0
1 0.594354 0
1 0.796643 0
1 0.91249 0
1 0.997864 0
1 1 0.140414
1 1 0.276738
1 1 0.442954
1 1 0.621057
1 1 0.802045
1 1 0.9823
1 1 1
0 0.19144 0
0 0.195163 0
0 0.198245 0
0 0.200381 0
0 0.201984 0
0 0.202502 0
0.0661479 0.205188 0
0.173297 0.201373 0
0.274769 0.194614 0
0.338018 0.199847 0
0.383566 0.205127 0
0.549157 0.158541 0
0.745418 0.0815137 0
0.921538 0 0
1 0 0
1 0 0
1 0 0
1 0 0
1 0 0
1 0 0
1 0.0137942 0
1 0.323308 0
1 0.631586 0
1 0.809476 0
1 0.912169 0
1 1 0
1 1 0.138186
1 1 0.27631
1 1 0.442267
1 1 0.620783
1 1 0.801785
1 1 0.982208
1 1 1
0 0.262425 0
0 0.265385 0
0 0.267292 0
0 0.269017 0
0 0.270085 0
0 0.271046 0
0 0.272404 0
0.121874 0.27274 0
0.243763 0.267079 0
0.35938 0.258228 0
0.451423 0.251621 0
0.46511 0.272999 0
0.601068 0.246921 0
0.861936 0.162814 0
1 0.063859 0
1 0 0
1 0 0
1 0 0
1 0 0
1 0 0
1 0.153277 0
1 0.413321 0
1 0.67483 0
1 0.824765 0
1 0.910338 0
1 1 0
1 1 0.136202
1 1 0.275731
1 1 0.441184
1 1 0.620493
1 1 0.80145
1 1 0.98204
1 1 1
0 0.341802 0
0 0.343938 0
0 0.34548 0
0 0.346716 0
0 0.347616 0
0 0.348562 0
0 0.348989 0
0.0389258 0.35108 0
0.189899 0.346502 0
0.321935 0.338445 0
0.4448 0.327062 0
0.566415 0.314244 0
0.579904 0.342763 0
0.698131 0.332372 0
0.956298 0.265385 0
1 0.178073 0
1 0.0983749 0
1 0 0
1 0 0
1 0.117632 0
1 0.291035 0
1 0.524132 0
1 0.721798 0
1 0.839963 0
1 0.906722 0
1 1 0
1 1 0.133364
1 1 0.27454
1 1 0.440024
1 1 0.61976
1 1 0.801068
1 1 0.981781
1 1 1
0 0.426688 0
0 0.427649 0
0 0.428244 0
0 0.428733 0
0 0.429435 0
0 0.429557 0
0 0.429465 0
0 0.428977 0
0.0886397 0.430167 0
0.264042 0.423224 0
0.405768 0.414145 0
0.544503 0.401816 0
0.694423 0.386648 0
0.725124 0.415656 0
0.823377 0.422202 0
1 0.386709 0
1 0.318853 0
1 0.263188 0
1 0.256916 0
1 0.317189 0
1 0.454871 0
1 0.634638 0
1 0.773098 0
1 0.852934 0
1 0.910063 0
1 1 0
1 1 0.129107
1 1 0.273838
1 1 0.437995
1 1 0.618128
1 1 0.800366
1 1 0.981338
1 1 1
0 0.513451 0
0 0.514412 0
0 0.515007 0
0 0.515511 0
0 0.515846 0
0 0.516075 0
0 0.516197 0
0 0.516457 0
0 0.515984 0
0.147662 0.515129 0
0.346593 0.506813 0
0.501747 0.496208 0
0.665766 0.481849 0
0.845075 0.463737 0
0.898177 0.493996 0
0.964691 0.519539 0
1 0.510903 0
1 0.48864 0
1 0.48217 0
1 0.526146 0
1 0.62269 0
1 0.729976 0
1 0.822049 0
1 0.862608 0
1 0.929549 0
1 1 0
1 1 0.123293
1 1 0.272465
1 1 0.435248
1 1 0.616312
1 1 0.79913
1 1 0.980529
1 1 1
0 0.615167 0
0 0.615518 0
0 0.615991 0
0 0.616815 0
0 0.617151 0
0 0.617441 0
0 0.617716 0
0 0.617838 0
0 0.617716 0
0 0.617594 0
0.224231 0.615106 0
0.43357 0.605005 0
0.616953 0.592828 0
0.812665 0.576898 0
1 0.558526 0
1 0.576165 0
1 0.624186 0
1 0.641825 0
1 0.658259 0
1 0.692226 0
1 0.74725 0
1 0.810605 0
1 0.853269 0
1 0.882322 0
1 0.970489 0
1 1 0
1 1 0.116274
1 1 0.270924
1 1 0.433799
1 1 0.613977
1 1 0.797482
1 1 0.9794
1 1 1
0 0.735409 0
0 0.735637 0
0 0.736156 0
0 0.736568 0
0 0.736919 0
0 0.737804 0
0 0.738125 0
0 0.738399 0
0 0.738643 0
0 0.738796 0
0.0292973 0.740566 0
0.312261 0.734035 0
0.54052 0.72221 0
0.755383 0.707515 0
0.9691 0.690745 0
1 0.673335 0
1 0.670985 0
1 0.716152 0
1 0.761501 0
1 0.79794 0
1 0.834012 0
1 0.855314 0
1 0.873579 0
1 0.928374 0
1 1 0
1 1 0
1 1 0.107561
1 1 0.269154
1 1 0.434089
1 1 0.611307
1 1 0.795254
1 1 0.977905
1 1 1
0 0.871916 0
0 0.872038 0
0 0.872435 0
0 0.872816 0
0 0.873121 0
0 0.873426 0
0 0.873716 0
0 0.874067 0
0 0.874876 0
0 0.875013 0
0 0.874846 0
0.104616 0.87538 0
0.419104 0.864012 0
0.673274 0.84892 0
0.905089 0.832197 0
1 0.814527 0
1 0.797726 0
1 0.786892 0
1 0.801404 0
1 0.83328 0
1 0.866285 0
1 0.889158 0
1 0.932631 0
1 1 0
1 1 0
1 1 0
1 1 0.097322
1 1 0.26775
1 1 0.43476
1 1 0.607385
1 1 0.791775
1 1 0.975921
1 1 1
0 1 0
0 1 0
0 1 0
0 1 0
0 1 0
0 1 0
0 1 0
0 1 0
0 1 0
0 1 0
0 1 0
0 1 0
0.217304 1 0
0.559762 0.995926 0
0.821805 0.978622 0
1 0.960464 0
1 0.942107 0
1 0.928145 0
1 0.922988 0
1 0.929747 0
1 0.948745 0
1 0.983307 0
1 1 0
1 1 0
1 1 0
1 1 0
1 1 0.0872511
1 1 0.266331
1 1 0.436057
1 1 0.606485
1 1 0.788647
1 1 0.972808
1 1 1
0 1 0
0 1 0
0 1 0
0 1 0
0 1 0
0 1 0
0 1 0
0 1 0
0 1 0
0 1 0
0 1 0
0 1 0
0 1 0
0.375982 1 0
0.715785 1 0
0.977142 1 0
1 1 0
1 1 0
1 1 0
1 1 0
1 1 0
1 1 0
1 1 0
1 1 0
1 1 0
1 1 0
1 1 0.0779583
1 1 0.267643
1 1 0.438727
1 1 0.609644
1 1 0.785977
1 1 0.969375
1 1 1
0 1 0
0 1 0
0 1 0
0 1 0
0 1 0
0 1 0
0 1 0
0 1 0
0 1 0
0 1 0
0 1 0
0 1 0
0 1 0
0.18468 1 0
0.585977 1 0
0.882155 1 0
1 1 0
1 1 0
1 1 0
1 1 0
1 1 0
1 1 0
1 1 0
1 1 0
1 1 0
1 1 0
1 1 0.074052
1 1 0.271305
1 1 0.443671
1 1 0.613931
1 1 0.785306
1 1 0.965881
1 1 1
0 1 0
0 1 0
0 1 0
0 1 0
0 1 0
0 1 0
0 1 0
0 1 0
0 1 0
0 1 0
0 1 0
0 1 0
0 1 0
0.0243687 1 0
0.453132 1 0
0.800076 1 0
1 1 0
1 1 0
1 1 0
1 1 0
1 1 0
1 1 0
1 1 0
1 1 0
1 1 0
1 1 0
1 1 0.0840467
1 1 0.280781
1 1 0.452369
1 1 0.621332
1 1 0.790372
1 1 0.962127
1 1 1
0 1 0
0 1 0
0 1 0
0 1 0
0 1 0
0 1 0
0 1 0
0 1 0
0 1 0
0 1 0
0 1 0
0 1 0
0 1 0
0 1 0
0.357595 1 0
0.748547 1 0
1 1 0
1 1 0
1 1 0
1 1 0
1 1 0
1 1 0
1 1 0
1 1 0
1 1 0
1 1 0
1 1 0.112596
1 1 0.296757
1 1 0.465873
1 1 0.631739
1 1 0.798886
1 1 0.966674
1 1 1
0 1 0
0 1 0
0 1 0
0 1 0
0 1 0
0 1 0
0 1 0
0 1 0
0 1 0
0 1 0
0 1 0
0 1 0
0 1 0
0 1 0
0.362509 1 0
0.734539 1 0
1 1 0
1 1 0
1 1 0
1 1 0
1 1 0
1 1 0
1 1 0
1 1 0
1 1 0
1 1 0
1 1 0.152819
1 1 0.323232
1 1 0.484932
1 1 0.646967
1 1 0.810636
1 1 0.976287
1 1 1
0 1 0
0 1 0
0 1 0
0 1 0
0 1 0
0 1 0
0 1 0
0 1 0
0 1 0
0 1 0
0 1 0
0 1 0
0 1 0
0 1 0
0.446555 1 0
0.763119 1 0
1 1 0
1 1 0
1 1 0
1 1 0
1 1 0
1 1 0
1 1 0
1 1 0
1 1 0
1 1 0.013489
1 1 0.204776
1 1 0.360708
1 1 0.513054
1 1 0.66836
1 1 0.827207
1 1 0.988266
1 1 1
0 1 0
0 1 0
0 1 0
0 1 0
0 1 0
0 1 0
0 1 0
0 1 0
0 1 0
0 1 0
0 1 0
0 1 0
0 1 0
0.102083 1 0
0.564446 1 0
0.826551 1 0
1 1 0
1 1 0
1 1 0
1 1 0
1 1 0
1 1 0
1 1 0
1 1 0
1 1 0
1 1 0.123598
1 1 0.271
1 1 0.410636
1 1 0.5514
1 1 0.698146
1 1 0.849332
1 1 1
1 1 1
0 1 0
0 1 0
0 1 0
0 1 0
0 1 0
0 1 0
0 1 0
0 1 0
0 1 0
0 1 0
0 1 0
0 1 0
0 1 0
0.423545 1 0
0.697307 1 0
0.911269 1 0
1 1 0
1 1 0
1 1 0
1 1 0
1 1 0
1 1 0
1 1 0
1 1 0
1 1 0.0834974
1 1 0.223941
1 1 0.349065
1 1 0.472984
1 1 0.601846
1 1 0.736965
1 1 0.880613
1 1 1
1 1 1
0.359243 1 0
0.359243 1 0
0.359243 1 0
0.359243 1 0
0.359243 1 0
0.359243 1 0
0.359243 1 0
0.359243 1 0
0.359197 1 0
0.359167 1 0
0.359167 1 0
0.359106 1 0
0.35903 1 0
0.611093 1 0
0.83415 1 0
1 1 0
1 1 0
1 1 0
1 1 0
1 1 0
1 1 0
1 1 0
1 1 0.0180972
1 1 0.11667
1 1 0.219577
1 1 0.326299
1 1 0.435691
1 1 0.547219
1 1 0.663539
1 1 0.787488
1 1 0.920089
1 1 1
1 1 1
0.802121 1 0.125597
0.802121 1 0.125597
0.802121 1 0.125597
0.802121 1 0.125597
0.802121 1 0.125597
0.802121 1 0.125597
0.802121 1 0.125597
0.802121 1 0.125597
0.802121 1 0.125597
0.80209 1 0.125612
0.80209 1 0.125612
0.80209 1 0.125612
0.80206 1 0.125612
0.802029 1 0.125612
0.943999 1 0.124987
1 1 0.126406
1 1 0.131258
1 1 0.138491
1 1 0.149599
1 1 0.16492
1 1 0.184756
1 1 0.211063
1 1 0.245838
1 1 0.28716
1 1 0.351797
1 1 0.435096
1 1 0.528557
1 1 0.630243
1 1 0.7364
1 1 0.849119
1 1 0.969848
1 1 1
1 1 1
1 1 0.3635
1 1 0.3635
1 1 0.3635
1 1 0.3635
1 1 0.3635
1 1 0.3635
1 1 0.3635
1 1 0.3635
1 1 0.3635
1 1 0.3635
1 1 0.3635
1 1 0.3635
1 1 0.3635
1 1 0.3635
1 1 0.3635
1 1 0.362448
1 1 0.363668
1 1 0.366354
1 1 0.371679
1 1 0.379568
1 1 0.391287
1 1 0.407736
1 1 0.429404
1 1 0.458488
1 1 0.495201
1 1 0.553368
1 1 0.631189
1 1 0.720668
1 1 0.818097
1 1 0.92195
1 1 1
1 1 1
1 1 1
1 1 0.56051
1 1 0.56051
1 1 0.56051
1 1 0.56051
1 1 0.56051
1 1 0.56051
1 1 0.56051
1 1 0.56051
1 1 0.56051
1 1 0.56051
1 1 0.56051
1 1 0.56051
1 1 0.56051
1 1 0.56051
1 1 0.560525
1 1 0.560525
1 1 0.560433
1 1 0.56173
1 1 0.564965
1 1 0.569741
1 1 0.578332
1 1 0.589593
1 1 0.605127
1 1 0.626337
1 1 0.653788
1 1 0.688792
1 1 0.745968
1 1 0.820798
1 1 0.907347
1 1 1
1 1 1
1 1 1
1 1 1
1 1 0.747189
1 1 0.747189
1 1 0.747189
1 1 0.747189
1 1 0.747189
1 1 0.747189
1 1 0.747189
1 1 0.747189
1 1 0.747189
