BBLuts/BB_104_0130_LUT.cube
TITLE "Generated by Resolve"
LUT_3D_SIZE 5
0 0 0
0.114946 0 0
0.698848 0.190051 0.210834
0.899016 0.579355 0.515785
0.859556 0.907012 0.622568
0 0.107195 0
0.0694133 0.110704 0
0.70547 0.232151 0.22063
0.895979 0.607767 0.511025
0.859373 0.908415 0.620676
0 0.720485 0
0 0.719966 0
0.601755 0.720317 0
0.875349 0.789929 0.413687
0.858152 0.917433 0.606012
0 0.973068 0
0 0.971695 0
0.442771 0.963806 0
0.852338 0.948653 0
0.852827 0.949752 0.610636
0.817334 0.961959 0.726864
0.817838 0.961975 0.726955
0.821469 0.962036 0.727596
0.841001 0.962402 0.732738
0.852689 0.963409 0.762158
0 0 0.0897231
0.113512 0 0.0913252
0.698726 0.196918 0.251728
0.899443 0.575006 0.520989
0.859586 0.906737 0.644327
0 0.0905013 0.0684977
0.105318 0.0854658 0.0781567
0.699748 0.197894 0.249485
0.896559 0.602655 0.516457
0.859373 0.908125 0.642802
0 0.716091 0
0 0.715496 0
0.609583 0.716182 0
0.875471 0.78819 0.420188
0.858091 0.917144 0.631205
0 0.972793 0
0 0.97145 0
0.467491 0.96286 0
0.852476 0.948592 0
0.852842 0.949722 0.610483
0.817395 0.961975 0.726864
0.817929 0.961975 0.726955
0.821546 0.962036 0.727581
0.841031 0.962402 0.732723
0.852689 0.963409 0.762158
0.432059 0.421866 0.634104
0.432303 0.422156 0.634318
0.701808 0.444556 0.633982
0.898558 0.592721 0.674891
0.860731 0.90576 0.727733
0.429999 0.41944 0.63241
0.430274 0.419776 0.632639
0.710246 0.445121 0.632654
0.897536 0.60116 0.671305
0.860502 0.90721 0.727108
0 0.668818 0.571984
0 0.669261 0.57229
0.608896 0.672145 0.585428
0.876402 0.767254 0.632151
0.859068 0.916487 0.722637
0 0.971435 0
0 0.970153 0
0.455146 0.962219 0
0.848005 0.947723 0
0.853147 0.949416 0.691707
0.81799 0.96199 0.726818
0.818494 0.96199 0.726909
0.822034 0.962036 0.727535
0.841215 0.962402 0.732677
0.852689 0.963409 0.762158
0.69868 0.73959 0.85362
0.69868 0.73959 0.85362
0.69868 0.73959 0.85362
0.887938 0.756451 0.856428
0.86978 0.885176 0.832563
0.69868 0.73959 0.85362
0.69868 0.73959 0.85362
0.69868 0.73959 0.85362
0.887938 0.756451 0.856428
0.869413 0.887831 0.832151
0.69868 0.73959 0.85362
0.69868 0.73959 0.85362
0.699931 0.73962 0.853635
0.887938 0.756451 0.856428
0.867048 0.904295 0.829618
0 0.97966 0.832563
0 0.977874 0.832532
0.44033 0.959884 0.824765
0.835004 0.940078 0.818128
0.85919 0.951354 0.820798
0.819516 0.964446 0.796277
0.819974 0.964446 0.796292
0.82324 0.964492 0.796475
0.841245 0.964828 0.798016
0.855329 0.96556 0.807401
0.698466 0.74078 0.853574
0.698466 0.74078 0.853574
0.698466 0.74078 0.853574
0.698466 0.74078 0.853574
0.884535 0.781857 0.854536
0.698466 0.74078 0.853574
0.698466 0.74078 0.853574
0.698466 0.74078 0.853574
0.698466 0.74078 0.853574
0.884535 0.781903 0.854536
0.698466 0.74078 0.853574
0.698466 0.74078 0.853574
0.698466 0.74078 0.853574
0.70013 0.740673 0.853574
0.884489 0.782116 0.854505
0.698466 0.74078 0.853574
0.698466 0.74078 0.853574
0.698466 0.74078 0.853574
0.887938 0.756451 0.856428
0.884413 0.782834 0.854459
0.766094 0.967071 0.840604
0.768093 0.967071 0.840604
0.781064 0.967163 0.840681
0.83006 0.967742 0.841184
0.858549 0.9682 0.841627
