BBLuts/BB_103_0870_LUT.cube
TITLE "Generated by Resolve"
LUT_3D_SIZE 9
0 0 0
0 0 0
0.188952 0 0
0.470054 0 0
0.74612 0 0
0.904494 0 0
0.866331 0.563897 0.193057
0.840238 0.820523 0.620493
0.828183 0.899718 0.963348
0 0.0249027 0
0 0.0377661 0
0.193744 0.0119783 0
0.481514 0 0
0.748012 0 0
0.904494 0 0
0.864454 0.59472 0.17438
0.840055 0.823911 0.617578
0.828168 0.900114 0.963119
0 0.217487 0
0 0.221576 0
0.1402 0.218204 0
0.470207 0.188159 0
0.738155 0.0639963 0
0.887083 0.22771 0
0.862165 0.629709 0.135882
0.839811 0.829114 0.612894
0.828138 0.90074 0.962753
0 0.516091 0
0 0.517281 0
0 0.517937 0
0.393408 0.519646 0
0.71986 0.512505 0
0.867445 0.574014 0
0.857282 0.710887 0
0.8392 0.843015 0.598672
0.828046 0.902556 0.961654
0 0.790417 0
0 0.790356 0
0 0.790036 0
0 0.787945 0
0.662577 0.779629 0
0.830411 0.78703 0
0.84979 0.822797 0
0.837552 0.869841 0.604379
0.827832 0.907362 0.958297
0 0.927947 0.02916
0 0.927382 0.0289158
0 0.926436 0.0285191
0 0.923583 0.0272984
0.6439 0.905425 0
0.796139 0.898146 0
0.846143 0.89958 0
0.834562 0.903609 0.660822
0.827298 0.917464 0.954528
0.549187 0.95404 0.318578
0.563851 0.952941 0.317937
0.584909 0.951385 0.317388
0.633417 0.947784 0.318425
0.709392 0.942565 0.333486
0.783536 0.937682 0.391974
0.830518 0.933181 0.544335
0.830213 0.929534 0.785092
0.826078 0.930587 0.98085
0.750774 0.940627 0.860182
0.751766 0.940627 0.860334
0.753353 0.940612 0.860578
0.757885 0.940597 0.861357
0.769421 0.940566 0.863706
0.791318 0.940505 0.870909
0.817411 0.940246 0.891417
0.82594 0.939483 0.944305
0.82472 0.938704 1
0.802075 0.938567 1
0.802197 0.938567 1
0.802396 0.938567 1
0.802991 0.938567 1
0.804685 0.938567 1
0.808957 0.938582 1
0.817151 0.938598 1
0.824338 0.938537 1
0.824186 0.938476 1
0 0 0.0258793
0 0 0.0263066
0.188098 0 0.0354772
0.469184 0 0.0374456
0.744564 0 0.0377966
0.90251 0 0.108629
0.865995 0.557839 0.292317
0.83949 0.819196 0.665324
0.828107 0.89955 0.969421
0 0 0.0125277
0.00723278 0.00823987 0.010132
0.208911 0 0.0226139
0.475319 0 0.0180972
0.746242 0 0
0.902968 0 0.0655375
0.864012 0.590341 0.275425
0.839292 0.822614 0.663005
0.828077 0.899947 0.969223
0 0.207004 0
0 0.210498 0
0.161517 0.207614 0
0.468757 0.176791 0
0.738903 0.0243534 0
0.887785 0.206989 0
0.86157 0.626429 0.243748
0.839017 0.827832 0.659251
0.828046 0.900572 0.968872
0 0.511528 0
0 0.512657 0
0 0.513115 0
0.406332 0.514412 0
0.719799 0.508125 0
0.867628 0.571054 0
0.856397 0.708736 0.0711681
0.838331 0.84181 0.648157
0.827955 0.902403 0.967819
0 0.789395 0
0 0.789303 0
0 0.788968 0
0 0.786831 0
0.664775 0.778637 0
0.830518 0.786374 0
0.849805 0.822446 0
0.837339 0.869535 0.616053
0.827726 0.90721 0.96466
0 0.927764 0.0290837
0 0.927184 0.0288396
0 0.926238 0.0284276
0 0.923384 0.0272068
0.64538 0.905241 0
0.796368 0.898039 0
0.846159 0.899504 0
0.834562 0.903578 0.660563
0.827283 0.917433 0.955093
0.551446 0.953857 0.317983
0.565896 0.952789 0.317388
0.586694 0.951232 0.316899
0.634592 0.947692 0.318029
0.70988 0.942519 0.333242
0.783658 0.937667 0.391791
0.830533 0.93315 0.544305
0.830213 0.929519 0.785031
0.826078 0.930571 0.980804
0.750927 0.940627 0.860151
0.751919 0.940627 0.860304
0.753491 0.940612 0.860548
0.758007 0.940597 0.861326
0.769512 0.940566 0.863676
0.791363 0.940505 0.870878
0.817441 0.940246 0.891386
0.82594 0.939483 0.944289
0.824704 0.938704 1
0.80209 0.938567 1
0.802213 0.938567 1
0.802411 0.938567 1
0.803006 0.938567 1
0.8047 0.938567 1
0.808972 0.938582 1
0.817166 0.938598 1
0.824338 0.938537 1
0.824186 0.938476 1
0 0 0.236133
0 0 0.236469
0.16141 0 0.240513
0.479408 0 0.236713
0.742351 0 0.243336
0.900679 0 0.305043
0.865522 0.54519 0.441199
0.838529 0.817197 0.721782
0.82797 0.89929 0.978531
0 0 0.230045
0 0 0.230625
0.192538 0 0.235203
0.477867 0 0.230854
0.744213 0 0.236912
0.900786 0 0.294438
0.863325 0.580087 0.431327
0.838315 0.820661 0.720012
0.827955 0.899702 0.978347
0 0.174258 0.214817
0 0.176898 0.214374
0.147311 0.167834 0.206378
0.450843 0.143465 0.205829
0.743343 0 0.218952
0.887327 0.136477 0.27306
0.860609 0.619165 0.413947
0.83801 0.825956 0.717144
0.827924 0.900343 0.978027
0 0.496574 0.0838941
0 0.497932 0.0855268
0 0.498589 0.0877394
0.405554 0.499657 0.102556
0.715206 0.49398 0.12105
0.86656 0.560052 0.194308
0.853956 0.703243 0.355367
0.837247 0.840085 0.708812
0.827832 0.902159 0.977066
0 0.787243 0
0 0.787152 0
0 0.786816 0
0 0.784649 0
0.666712 0.776623 0
0.830518 0.784802 0
0.8477 0.820066 0.136812
0.836042 0.868025 0.685679
0.827588 0.906996 0.974197
0 0.927428 0.0289464
0 0.926863 0.028687
0 0.925917 0.0282902
0 0.923064 0.0270695
0.647761 0.904921 0
0.796704 0.897871 0
0.846159 0.899382 0
0.834577 0.903517 0.660151
0.827131 0.917235 0.965515
0.555108 0.953582 0.317052
0.569207 0.952529 0.316518
0.589532 0.951003 0.316091
0.636484 0.94754 0.317418
0.710674 0.942443 0.33283
0.783871 0.937636 0.391501
0.830594 0.933135 0.544259
0.830228 0.929519 0.784894
0.826078 0.930571 0.980758
0.751171 0.940627 0.860105
0.752163 0.940627 0.860273
0.753719 0.940612 0.860517
0.758221 0.940597 0.86128
0.76968 0.940566 0.863645
0.79144 0.940505 0.870848
0.817456 0.940246 0.891371
0.82594 0.939483 0.944289
0.824704 0.938704 1
0.802121 0.938567 1
0.802243 0.938567 1
0.802441 0.938567 1
0.803037 0.938567 1
0.80473 0.938567 1
0.808988 0.938582 1
0.817166 0.938598 1
0.824338 0.938537 1
0.824186 0.938476 1
0 0 0.586511
0 0 0.586725
0 0 0.586831
0.450065 0 0.58648
0.752911 0 0.591318
0.897429 0 0.631479
0.866011 0.498192 0.711788
0.836698 0.811673 0.824109
0.82768 0.898619 1
0 0 0.583398
0 0 0.583688
0.057023 0 0.583169
0.467155 0 0.582971
0.751431 0 0.587793
0.897475 0 0.62797
0.862852 0.543252 0.70808
0.836439 0.815305 0.823026
0.827665 0.899016 1
0 0.0435798 0.573495
0 0.0503395 0.5738
0.082002 0.0423133 0.571649
0.473854 0 0.577234
0.746853 0 0.581811
0.897536 0 0.621286
0.859236 0.595819 0.702007
0.836057 0.820844 0.821317
0.827634 0.899657 1
0 0.442512 0.53904
0 0.444541 0.539498
0 0.44596 0.54049
0.392309 0.446952 0.549615
0.702113 0.441627 0.563134
0.865538 0.519554 0.610101
0.851209 0.686854 0.679728
0.835126 0.835538 0.816495
0.827527 0.901534 1
0 0.776028 0.435706
0 0.775998 0.436744
0 0.775738 0.438285
0 0.773724 0.442374
0.658305 0.765316 0.45275
0.822599 0.773953 0.504829
0.840864 0.811307 0.621241
0.83357 0.864424 0.803922
0.827268 0.906401 0.997803
0 0.926528 0.0285496
0 0.925963 0.0283055
0 0.925002 0.0279088
0 0.922148 0.0266728
0.647684 0.904112 0
0.792416 0.894545 0.248631
0.838209 0.893248 0.502235
0.832181 0.90103 0.773159
0.826749 0.916732 0.991257
0.565713 0.952743 0.314275
0.578851 0.951766 0.313924
0.597848 0.950347 0.313726
0.642039 0.947097 0.315587
0.713054 0.94226 0.331624
0.784527 0.93756 0.390616
0.830732 0.933074 0.544106
0.830228 0.929473 0.784527
0.826078 0.930556 0.980606
0.751904 0.940627 0.859983
0.75288 0.940627 0.860136
0.754437 0.940612 0.860395
0.758862 0.940597 0.861158
0.770169 0.940566 0.863523
0.791699 0.940505 0.870726
0.817533 0.940261 0.891264
0.82594 0.939483 0.944259
0.82472 0.938704 1
0.802213 0.938567 1
0.802335 0.938567 1
0.802533 0.938567 1
0.803128 0.938567 1
0.804807 0.938567 1
0.809049 0.938582 1
0.817212 0.938598 1
0.824338 0.938537 1
0.824186 0.938476 1
0 0 0.922011
0 0 0.922103
0 0 0.922225
0.266819 0 0.921645
0.740078 0 0.919219
0.895109 0 0.93373
0.880095 0.211109 0.953796
0.835233 0.796628 0.981811
0.827253 0.89688 1
0 0 0.921386
0 0 0.921462
0 0 0.921599
0.299062 0 0.920882
0.744274 0 0.918746
0.895109 0 0.933059
0.874388 0.345632 0.958099
0.834836 0.801053 0.981109
0.827222 0.897307 1
0 0 0.920348
0 0 0.920439
0 0 0.920577
0.342245 0 0.919539
0.746822 0 0.917708
0.895109 0 0.931914
0.8663 0.469978 0.957321
0.834257 0.80763 0.980087
0.827176 0.897978 1
0 0.237446 0.913115
0 0.240818 0.913191
0 0.245167 0.913252
0.32488 0.235157 0.913436
0.731594 0.111116 0.910811
0.878096 0.269902 0.934401
0.853452 0.632975 0.949569
0.832929 0.824277 0.977386
0.82707 0.899947 1
0 0.739712 0.8972
0 0.739971 0.897368
0 0.740047 0.897536
0 0.738674 0.897749
0.641215 0.73051 0.898329
0.812634 0.744396 0.908339
0.836408 0.792538 0.925475
0.830671 0.85713 0.971283
0.826795 0.905043 1
0 0.917418 0.879408
0 0.916884 0.879499
0 0.915953 0.879652
0 0.913146 0.880079
0.611231 0.891783 0.865629
0.774929 0.882673 0.872694
0.830259 0.884153 0.90103
0.828473 0.896178 0.958953
0.8262 0.915694 1
0.548669 0.946395 0.779431
0.562249 0.945357 0.778851
0.581857 0.943847 0.778134
0.627344 0.940398 0.777142
0.70016 0.935378 0.779629
0.77319 0.930877 0.794965
0.821347 0.92755 0.839124
0.827222 0.926482 0.928283
0.825483 0.929854 1
0.754116 0.940627 0.859586
0.755047 0.940627 0.859754
0.756527 0.940627 0.859998
0.760769 0.940612 0.860761
0.771634 0.940581 0.863142
0.792462 0.94052 0.870359
0.817792 0.940261 0.890944
0.82594 0.939483 0.944198
0.82472 0.938704 1
0.802502 0.938567 1
0.802609 0.938567 1
0.802808 0.938567 1
0.803388 0.938567 1
0.805051 0.938567 1
0.809232 0.938582 1
0.817304 0.938598 1
0.824338 0.938537 1
0.824186 0.938476 1
0 0 1
0 0 1
0 0 1
0 0 1
0.653269 0 1
0.895354 0 1
0.895354 0 1
0.841382 0.732692 1
0.827008 0.892027 1
0 0 1
0 0 1
0 0 1
0 0 1
0.65977 0 1
0.895354 0 1
0.895354 0 1
0.840269 0.741955 1
0.826978 0.892531 1
0 0 1
0 0 1
0 0 1
0 0 1
0.669963 0 1
0.895354 0 1
0.895354 0 1
0.838697 0.755428 1
0.826917 0.893339 1
0 0 1
0 0 1
0 0 1
0 0 1
0.69192 0 1
0.895354 0 1
0.895354 0 1
0.835218 0.786999 1
0.826795 0.895644 1
0 0.575433 1
0 0.576715 1
0 0.57879 1
0 0.581994 1
0.636286 0.575097 1
0.854124 0.60293 1
0.843336 0.717006 1
0.830686 0.838499 1
0.826444 0.901595 1
0 0.906706 1
0 0.906355 1
0 0.905684 1
0 0.903059 1
0.546349 0.883192 1
0.764096 0.870512 1
0.825635 0.874403 1
0.827298 0.890105 1
0.825757 0.913527 1
0.415641 0.948394 1
0.451484 0.946578 1
0.494072 0.944137 1
0.565896 0.938567 1
0.668223 0.930983 1
0.756619 0.92575 1
0.810498 0.923186 1
0.82536 0.923919 1
0.824903 0.928786 1
0.744747 0.938598 1
0.745708 0.938598 1
0.747234 0.938598 1
0.751629 0.938598 1
0.762829 0.938598 1
0.784329 0.938628 1
0.810681 0.938689 1
0.824491 0.938598 1
0.824216 0.938491 1
0.803326 0.938567 1
0.803433 0.938567 1
0.803616 0.938567 1
0.804181 0.938567 1
0.805753 0.938567 1
0.809781 0.938582 1
0.817594 0.938598 1
0.824338 0.938537 1
0.824186 0.938476 1
0 0 1
0 0 1
0 0 1
0 0 1
0 0 1
0.882719 0 1
0.895598 0 1
0.895598 0 1
0.827878 0.871656 1
0 0 1
0 0 1
0 0 1
0 0 1
0 0 1
0.88368 0 1
0.895598 0 1
0.895598 0 1
0.827802 0.872587 1
0 0 1
0 0 1
0 0 1
0 0 1
0 0 1
0.885222 0 1
0.895598 0 1
0.895598 0 1
0.82771 0.874067 1
0 0 1
0 0 1
0 0 1
0 0 1
0 0 1
0.889738 0 1
0.895598 0 1
0.895598 0 1
0.827451 0.878218 1
0 0 1
0 0 1
0 0 1
0 0 1
0.361624 0 1
0.895598 0 1
0.895598 0 1
0.853254 0.637369 1
0.826841 0.888472 1
0 0.825299 1
0 0.825528 1
0 0.825925 1
0 0.827405 1
0 0.822812 1
0.771282 0.804349 1
0.831449 0.82295 1
0.82826 0.866178 1
0.825772 0.906645 1
0 0.959777 1
0 0.959258 1
0 0.958434 1
0 0.955993 1
0.586664 0.931975 1
0.741024 0.921691 1
0.806439 0.918746 1
0.825025 0.920378 1
0.824628 0.926619 1
0.723629 0.938277 1
0.724941 0.938262 1
0.726986 0.938262 1
0.732845 0.938216 1
0.747433 0.938186 1
0.774151 0.938216 1
0.804379 0.938338 1
0.823804 0.938338 1
0.823774 0.938323 1
0.799954 0.938354 1
0.800061 0.938354 1
0.800259 0.938354 1
0.800809 0.938354 1
0.802441 0.938369 1
0.806531 0.938384 1
0.814511 0.938415 1
0.823636 0.93843 1
0.82385 0.938354 1
0 0.0288853 1
0 0.0288853 1
0 0.0288853 1
0 0.0289006 1
0 0.0289921 1
0 0.0292058 1
0.895598 0 1
0.895598 0 1
0.848478 0.676341 1
0 0.0288396 1
0 0.0288396 1
0 0.0288548 1
0 0.0288853 1
0 0.0289616 1
0 0.0291752 1
0.895598 0 1
0.895598 0 1
0.848478 0.676326 1
0 0.0287785 1
0 0.0287785 1
0 0.0287938 1
0 0.0288243 1
0 0.0288853 1
0 0.0291142 1
0.895598 0 1
0.895598 0 1
0.848493 0.676295 1
0 0.0285954 1
0 0.0285801 1
0 0.0285954 1
0 0.0286259 1
0 0.0287022 1
0 0 1
0.895598 0 1
0.895598 0 1
0.848508 0.676173 1
0 0.0280003 1
0 0.0280003 1
0 0.0280308 1
0 0.0280461 1
0 0.0281071 1
0.400839 0 1
0.895598 0 1
0.895598 0 1
0.848539 0.675822 1
0 0.0261692 1
0 0.0261692 1
0 0.0261692 1
0 0.0261845 1
0 0.026276 1
0.753872 0 1
0.895598 0 1
0.88719 0.0430915 1
0.829847 0.841001 1
0 0.934585 1
0 0.9346 1
0 0.934646 1
0 0.934783 1
0 0.935164 1
0.661097 0.900252 1
0.809216 0.894209 1
0.82591 0.900984 1
0.824964 0.917189 1
0.602167 0.941588 1
0.608804 0.941283 1
0.618723 0.940841 1
0.644007 0.939864 1
0.693111 0.938537 1
0.751965 0.938079 1
0.798245 0.938216 1
0.822812 0.937392 1
0.823789 0.937728 1
0.79234 0.938201 1
0.792508 0.938201 1
0.792752 0.938201 1
0.793515 0.938201 1
0.795651 0.938216 1
0.800961 0.938231 1
0.810697 0.938277 1
0.821195 0.938323 1
0.82359 0.938262 1
0 0.312032 1
0 0.312032 1
0 0.312032 1
0 0.312047 1
0 0.312047 1
0 0.312123 1
0 0.312245 1
0.8766 0.327276 1
0.84361 0.713878 1
0 0.312032 1
0 0.312032 1
0 0.312032 1
0 0.312032 1
0 0.312047 1
0 0.312093 1
0 0.312245 1
0.87657 0.327626 1
0.84361 0.713909 1
0 0.312001 1
0 0.312001 1
0 0.312001 1
0 0.312032 1
0 0.312032 1
0 0.312093 1
0 0.31223 1
0.876554 0.328161 1
0.843595 0.71397 1
0 0.311986 1
0 0.311986 1
0 0.311986 1
0 0.311986 1
0 0.312001 1
0 0.312047 1
0 0.312184 1
0.876463 0.329824 1
0.84358 0.714153 1
0 0.311849 1
0 0.311849 1
0 0.311849 1
0 0.311849 1
0 0.311879 1
0 0.311925 1
0.378668 0.290242 1
0.876204 0.334874 1
0.843503 0.714687 1
0 0.311498 1
0 0.311498 1
0 0.311498 1
0 0.311513 1
0 0.311513 1
0 0.311559 1
0.761227 0.0621805 1
0.875395 0.349783 1
0.843397 0.715496 1
0 0.310369 1
0 0.310369 1
0 0.310369 1
0 0.310399 1
0 0.310399 1
0 0.310445 1
0.895598 0 1
0.873732 0.378592 1
0.843198 0.717006 1
0 0.961273 1
0 0.961273 1
0 0.961273 1
0 0.961273 1
0 0.961273 1
0 0.961273 1
0.771191 0.930144 1
0.824079 0.928222 1
0.82417 0.930755 1
0.756863 0.938048 1
0.757412 0.938048 1
0.758282 0.938048 1
0.760845 0.938064 1
0.767605 0.938064 1
0.782132 0.938125 1
0.802823 0.938216 1
0.819303 0.938277 1
0.823789 0.938521 1
