BBLuts/BB_106_0050_LUT.cube
TITLE "Generated by Resolve"
LUT_3D_SIZE 9
0.0184176 0.0175479 0.0163119
0.0184176 0.0175479 0.0163119
0.179187 0.0174716 0.0160067
0.381903 0.0178683 0.0154726
0.70135 0.0184634 0.0146487
0.922942 0.0187839 0.0140993
0.916167 0.475914 0.125444
0.919936 0.778561 0.379004
0.922881 0.889128 0.656001
0.0176089 0.0657511 0.0158083
0.0177462 0.0743725 0.0157626
0.188434 0.0582132 0.015671
0.391608 0.0178683 0.0154574
0.703944 0.0184482 0.0146334
0.923049 0.0187686 0.0140993
0.915724 0.502403 0.11722
0.919738 0.782391 0.377615
0.922835 0.88957 0.655818
0.0162509 0.196231 0.0145876
0.0146029 0.200137 0.014374
0.158633 0.197436 0.0145418
0.400092 0.179492 0.0139773
0.707012 0.0822156 0.013962
0.919921 0.210208 0.0120699
0.915084 0.537972 0.103395
0.916045 0.78912 0.37409
0.923598 0.889937 0.656046
0.0134127 0.411414 0.0124971
0.00936904 0.414191 0.0120546
0.0117189 0.413626 0.0122988
0.35285 0.411185 0.0117647
0.708675 0.402609 0.0106203
0.916243 0.45127 0.00953689
0.914061 0.624063 0.00773632
0.916442 0.803952 0.368338
0.921523 0.892638 0.653986
0.0081178 0.71368 0.00941482
0.00314336 0.715663 0.00889601
0.00227359 0.715648 0.00880446
0.00588998 0.711543 0.00920119
0.645594 0.703838 0.00755322
0.885801 0.709087 0.00682078
0.912917 0.758648 0.00640879
0.916487 0.836408 0.367437
0.922026 0.897963 0.651881
0.00759899 0.884581 0.00793469
0.00326543 0.885634 0.00747692
0.000457771 0.885603 0.007187
0.00241093 0.881041 0.00743114
0.626291 0.871809 0.00607309
0.841108 0.86302 0.00560006
0.915572 0.864408 0.103456
0.91957 0.882292 0.399512
0.920821 0.910826 0.645426
0.560952 0.935699 0.217884
0.568704 0.938354 0.216403
0.584405 0.939574 0.215946
0.635081 0.937346 0.218875
0.730953 0.932052 0.228504
0.838331 0.926329 0.255314
0.914046 0.922301 0.330419
0.924147 0.920439 0.494621
0.92752 0.926253 0.669779
0.816159 0.938369 0.560967
0.808957 0.941588 0.556527
0.808942 0.94229 0.555688
0.815167 0.942 0.556634
0.833097 0.940795 0.560052
0.865324 0.940002 0.566598
0.90428 0.939757 0.583215
0.92665 0.935866 0.634287
0.925368 0.936675 0.714183
0.903685 0.934615 0.743862
0.901778 0.935393 0.742489
0.901579 0.935546 0.742245
0.895949 0.937942 0.738048
0.900252 0.937041 0.739834
0.907683 0.936233 0.741878
0.918883 0.936065 0.744106
0.936309 0.932677 0.755978
0.929946 0.935149 0.767788
0.0185855 0.0176547 0.0582742
0.0185855 0.0176547 0.0586099
0.179202 0.0175479 0.0597086
0.382895 0.0179904 0.0589914
0.701732 0.0185702 0.0610819
0.923964 0.0189364 0.0891127
0.917769 0.47068 0.176669
0.921126 0.777401 0.403204
0.926482 0.887709 0.662486
0.0183261 0.0455177 0.0510109
0.0556954 0.0554055 0.0496681
0.195132 0.0175479 0.0526436
0.388251 0.0178836 0.0498054
0.704479 0.018265 0.0376593
0.926909 0.0184787 0.0692607
0.923293 0.495964 0.170047
0.928344 0.778653 0.405264
0.931243 0.886366 0.665293
0.0166323 0.188296 0.0146944
0.0153658 0.191577 0.0145266
0.174105 0.189548 0.0145571
0.398505 0.171176 0.0140841
0.705715 0.0183566 0.0146639
0.921828 0.197009 0.012314
0.91873 0.533562 0.155291
0.92079 0.786786 0.400046
0.927092 0.888548 0.662455
0.0149538 0.407004 0.0126955
0.0110018 0.409674 0.0122683
0.0124208 0.409415 0.0124056
0.362768 0.40679 0.0118105
0.708064 0.399084 0.0106661
0.916365 0.448402 0.00956741
0.914778 0.622293 0.0981003
0.917525 0.803052 0.393164
0.92253 0.89218 0.658885
0.0093843 0.711925 0.00956741
0.00393683 0.714092 0.00898756
0.00225834 0.714397 0.00880446
0.0056611 0.710338 0.00918593
0.648569 0.702541 0.00756847
0.886748 0.707942 0.00691234
0.914321 0.757717 0.00653086
0.918898 0.83534 0.378119
0.923064 0.897505 0.656901
0.00825513 0.884062 0.00801099
0.00354009 0.885267 0.00750744
0.000686656 0.885252 0.00721752
0.0024567 0.880766 0.00743114
0.628138 0.871595 0.00607309
0.841627 0.862806 0.00563058
0.916014 0.864164 0.103044
0.91957 0.882246 0.399374
0.921218 0.910658 0.6486
0.562661 0.935912 0.217624
0.571145 0.938201 0.216403
0.586999 0.939193 0.216068
0.636469 0.93724 0.218799
0.731594 0.932006 0.228412
0.838499 0.926314 0.255238
0.914336 0.922179 0.330495
0.924254 0.920394 0.494621
0.927901 0.926101 0.669993
0.816541 0.938293 0.561059
0.809766 0.941344 0.556848
0.809232 0.942245 0.555734
0.815549 0.941909 0.556741
0.833249 0.94078 0.560052
0.8654 0.940002 0.566567
0.904494 0.939696 0.583307
0.92726 0.935637 0.634638
0.925475 0.936629 0.71426
0.903731 0.9346 0.743877
0.902083 0.935286 0.742687
0.902159 0.935347 0.742611
0.896239 0.937835 0.738216
0.900298 0.937041 0.739834
0.907698 0.936233 0.741878
0.919066 0.936004 0.744213
0.936919 0.932448 0.75639
0.929976 0.935134 0.767788
0.019028 0.0179294 0.162997
0.019028 0.0179751 0.16199
0.160143 0.0179599 0.163333
0.392844 0.0182498 0.158968
0.702052 0.0188754 0.161532
0.924376 0.0192264 0.18529
0.918593 0.461753 0.248539
0.92285 0.775647 0.436149
0.927001 0.887373 0.668879
0.0190127 0.0179141 0.160098
0.019028 0.0179446 0.15938
0.184207 0.0178683 0.161059
0.392645 0.0180819 0.156817
0.706233 0.018616 0.15903
0.927367 0.0187839 0.180987
0.923888 0.48809 0.245487
0.930068 0.776944 0.438514
0.931762 0.88603 0.671717
0.0175174 0.167483 0.149081
0.0161898 0.170108 0.147402
0.161837 0.164843 0.144839
0.388403 0.149035 0.148577
0.703655 0.0187381 0.149432
0.923064 0.159808 0.167727
0.919722 0.526711 0.235996
0.922515 0.785153 0.433341
0.928344 0.887953 0.669337
0.0155642 0.396643 0.0795148
0.0114748 0.399527 0.0791638
0.0107729 0.40032 0.0801099
0.363516 0.396246 0.0829938
0.703868 0.389258 0.085481
0.917006 0.439261 0.111955
0.915404 0.617899 0.208515
0.918608 0.801846 0.426703
0.924071 0.891478 0.665965
0.00970474 0.709499 0.00961318
0.00396735 0.711772 0.00900282
0.00192264 0.712215 0.0087892
0.00723278 0.707332 0.0093843
0.652308 0.699779 0.00770581
0.886748 0.706065 0.00694286
0.914961 0.756741 0.116258
0.919661 0.834653 0.413443
0.924605 0.896819 0.664103
0.00900282 0.88336 0.00808728
0.0037232 0.884794 0.00753796
0.000610361 0.884901 0.00721752
0.109255 0.880598 0.00715648
0.631128 0.871214 0.00608835
0.842329 0.862516 0.00564584
0.916197 0.863935 0.102281
0.920073 0.881971 0.39939
0.922576 0.910079 0.656168
0.565713 0.936019 0.21735
0.573587 0.938445 0.216037
0.590051 0.938949 0.215991
0.638331 0.937163 0.218616
0.732723 0.931868 0.228321
0.838788 0.926268 0.255116
0.914961 0.92195 0.330694
0.924468 0.920287 0.494621
0.9281 0.926024 0.670085
0.817212 0.93814 0.561242
0.810666 0.9411 0.557153
0.810025 0.942046 0.555993
0.815915 0.941863 0.556771
0.833494 0.940764 0.560037
0.865492 0.940002 0.566552
0.905104 0.939467 0.583597
0.928466 0.93518 0.63534
0.92575 0.936522 0.714412
0.903975 0.934524 0.744015
0.895262 0.937896 0.738033
0.90428 0.934539 0.74403
0.896803 0.937636 0.738582
0.900359 0.937026 0.739864
0.907729 0.936233 0.741878
0.919631 0.93579 0.744595
0.938125 0.931991 0.757214
0.927626 0.936034 0.766171
0.019791 0.0184024 0.343145
0.019791 0.0185245 0.340078
0.019791 0.0185245 0.340063
0.373297 0.0188907 0.338216
0.720974 0.0194553 0.338811
0.925185 0.0197299 0.35462
0.921904 0.430076 0.399023
0.928756 0.769711 0.518532
0.928466 0.886381 0.686625
0.019791 0.0184176 0.3411
0.019791 0.0184634 0.340032
0.0834211 0.0185245 0.339391
0.387549 0.0187076 0.338582
0.720623 0.0191501 0.33901
0.92813 0.0192721 0.355169
0.926467 0.460395 0.398978
0.936019 0.77113 0.52166
0.933074 0.8851 0.689479
0.0193027 0.0752728 0.338552
0.0186465 0.080827 0.335271
0.11075 0.076524 0.333959
0.392142 0.0188144 0.334432
0.713542 0.0193027 0.334936
0.925994 0.0195926 0.349386
0.921691 0.50341 0.392203
0.929641 0.779202 0.51696
0.931762 0.886244 0.688426
0.0174716 0.359609 0.317891
0.0132753 0.363088 0.313848
0.0120241 0.36463 0.313069
0.352148 0.361303 0.31548
0.690181 0.353368 0.317357
0.918685 0.406485 0.329091
0.917205 0.60238 0.3776
0.924544 0.796979 0.510567
0.928756 0.889342 0.685893
0.0128786 0.698482 0.244495
0.00277714 0.70277 0.240482
0.00308232 0.702327 0.241428
0.00486763 0.699138 0.244602
0.649653 0.690059 0.251331
0.886183 0.698054 0.275013
0.916793 0.75198 0.345937
0.923934 0.831632 0.500114
0.929458 0.894667 0.684443
0.0115053 0.881209 0.00836194
0.00325017 0.883894 0.00749218
0.000518807 0.883833 0.00720226
0.132326 0.879942 0.00700389
0.634928 0.869017 0.00639353
0.843641 0.861341 0.126009
0.917617 0.86331 0.280858
0.923033 0.880507 0.473274
0.927565 0.908003 0.677546
0.578714 0.93492 0.217624
0.581521 0.938628 0.215061
0.596948 0.939147 0.215015
0.644388 0.936797 0.218143
0.73608 0.931502 0.227955
0.841001 0.925643 0.255161
0.917266 0.920653 0.331395
0.925475 0.919875 0.494789
0.931716 0.924636 0.67219
0.820783 0.937118 0.5626
0.810712 0.941421 0.556619
0.809842 0.942428 0.555352
0.816403 0.94197 0.556527
0.834211 0.940719 0.560021
0.866316 0.939818 0.566735
0.908782 0.93814 0.585473
0.93164 0.933989 0.637171
0.927764 0.93576 0.715694
0.905303 0.934066 0.744839
0.895689 0.937774 0.738262
0.89572 0.937835 0.738155
0.89659 0.937743 0.738369
0.900542 0.93698 0.739925
0.90808 0.936126 0.742061
0.923384 0.934386 0.747097
0.941283 0.9308 0.759335
0.930816 0.934813 0.768383
0.0209506 0.019089 0.615869
0.0209506 0.0193332 0.609537
0.0209506 0.0194247 0.607172
0.233967 0.0196536 0.60647
0.710338 0.0202029 0.602594
0.927489 0.0203098 0.607416
0.929534 0.284077 0.624842
0.939864 0.751873 0.662699
0.933318 0.883131 0.727001
0.0209354 0.0190585 0.616251
0.0209506 0.0192264 0.611688
0.0209506 0.0193179 0.609644
0.259846 0.0194553 0.609491
0.718593 0.0196994 0.607111
0.930587 0.0197452 0.611612
0.93373 0.340093 0.627375
0.94638 0.754177 0.66656
0.935256 0.882856 0.728237
0.0209354 0.0190433 0.615564
0.0209354 0.0193027 0.608881
0.0209506 0.0193942 0.606653
0.291707 0.0196689 0.605203
0.720485 0.0199893 0.603281
0.928756 0.0200809 0.607752
0.930251 0.405768 0.621759
0.943084 0.762051 0.663539
0.937224 0.882811 0.729427
0.0202487 0.208484 0.61001
0.0174716 0.212634 0.601175
0.0166476 0.216266 0.598733
0.295293 0.208591 0.59762
0.719066 0.0948196 0.598688
0.926986 0.225605 0.60058
0.927565 0.540215 0.61297
0.939956 0.781476 0.659144
0.936538 0.88513 0.728527
0.0177768 0.657252 0.577661
0.00799573 0.661952 0.568566
0.00579843 0.663005 0.566629
0.00657664 0.661036 0.567651
0.637766 0.650965 0.571099
0.890318 0.662898 0.578759
0.930648 0.729442 0.598733
0.941299 0.819898 0.654169
0.937881 0.890425 0.72813
0.0184024 0.876753 0.537026
0.00622568 0.881346 0.529046
0.00292973 0.88159 0.527077
0.00343328 0.877592 0.52813
0.606012 0.867338 0.530465
0.843366 0.855024 0.544381
0.928069 0.856916 0.573632
0.94078 0.872175 0.641108
0.936538 0.90396 0.723445
0.581094 0.932189 0.448295
0.579034 0.937865 0.441123
0.593683 0.93872 0.43975
0.641123 0.93637 0.441917
0.732113 0.93135 0.448035
0.845197 0.922377 0.46772
0.925475 0.915801 0.514885
0.942702 0.913191 0.611215
0.941711 0.920195 0.716396
0.829572 0.934798 0.565576
0.814923 0.940841 0.557137
0.81294 0.942245 0.555322
0.819379 0.941756 0.556542
0.836469 0.940581 0.55993
0.870954 0.93846 0.568399
0.920974 0.9337 0.591699
0.945251 0.928893 0.645029
0.93666 0.932418 0.721325
0.91046 0.932219 0.748089
0.896849 0.937453 0.738796
0.895247 0.938125 0.737591
0.89688 0.937758 0.738323
0.901152 0.936858 0.740108
0.908629 0.936004 0.742245
0.930816 0.931609 0.751995
0.948394 0.928115 0.764141
0.934737 0.933333 0.771084
0.0216983 0.01944 0.79675
0.0216983 0.0198825 0.78526
0.0216983 0.0200198 0.781445
0.0216983 0.0200198 0.781552
0.593805 0.0206149 0.776699
0.927749 0.0209201 0.772671
0.932525 0.0199741 0.783108
0.948333 0.683864 0.783429
0.940658 0.87541 0.782834
0.0216983 0.019379 0.798001
0.0216983 0.0196994 0.789837
0.0216983 0.0198367 0.786297
0.0216983 0.0198215 0.78648
0.603555 0.0202182 0.781796
0.931502 0.0201724 0.780163
0.934096 0.0196536 0.786206
0.949859 0.691981 0.784054
0.940978 0.875822 0.783001
0.0216983 0.0194095 0.797101
0.0216983 0.0198215 0.786297
0.0216983 0.0199588 0.783078
0.0216983 0.0199588 0.783139
0.614801 0.0204318 0.778973
0.930877 0.0202945 0.77879
0.932586 0.0199588 0.783078
0.940612 0.707393 0.775601
0.939239 0.877256 0.781643
0.0216983 0.0193484 0.798535
0.0216983 0.0198215 0.786084
0.0216983 0.0199741 0.782162
0.0216983 0.0199741 0.781964
0.643763 0.0205844 0.77644
0.931762 0.0201267 0.780194
0.933242 0.0198215 0.782391
0.93933 0.738613 0.772381
0.937728 0.880186 0.780285
0.0204013 0.452964 0.782071
0.0135195 0.45771 0.769284
0.0112764 0.460746 0.765148
0.0112154 0.464332 0.764614
0.617411 0.453819 0.761517
0.928252 0.474281 0.76611
0.93637 0.629526 0.768414
0.944045 0.796292 0.771298
0.938155 0.886625 0.779782
0.0204776 0.863828 0.753582
0.00816358 0.868864 0.742092
0.00451667 0.869596 0.738628
0.00476081 0.865843 0.738552
0.524666 0.854994 0.737011
0.830488 0.840986 0.742962
0.945464 0.8392 0.75903
0.949142 0.862348 0.767941
0.938872 0.900893 0.778225
0.476753 0.930678 0.737606
0.481971 0.937118 0.724834
0.507469 0.938003 0.721798
0.578424 0.935393 0.722652
0.696056 0.930129 0.724025
0.820325 0.923278 0.726421
0.929671 0.908186 0.749355
0.955627 0.906966 0.763821
0.947326 0.917281 0.77969
0.825498 0.934173 0.697917
0.807233 0.94168 0.685237
0.803983 0.943603 0.682033
0.809186 0.943587 0.682277
0.823178 0.943603 0.682933
0.856031 0.942123 0.687648
0.919982 0.932189 0.711391
0.957534 0.924575 0.743023
0.941314 0.930816 0.764874
0.91693 0.930144 0.75169
0.899519 0.936797 0.739834
0.897642 0.937591 0.73846
0.899046 0.937285 0.73904
0.902617 0.936645 0.740398
0.908507 0.936309 0.741604
0.928649 0.93257 0.750195
0.962707 0.922713 0.77377
0.942046 0.930571 0.77612
0.0218814 0.0195163 0.843305
0.0218967 0.0200198 0.83003
0.0218967 0.0201724 0.826246
0.0218967 0.0201877 0.825925
0.0218967 0.0201724 0.826139
0.916609 0.0213169 0.824842
0.928008 0.021088 0.827359
0.93492 0.0196689 0.842268
0.940948 0.852506 0.826154
0.0218814 0.0195163 0.843153
0.0218967 0.0200198 0.830274
0.0218967 0.0201724 0.826246
0.0218967 0.0201877 0.825925
0.0218967 0.0201572 0.826429
0.91873 0.0211643 0.826474
0.92961 0.0207523 0.830854
0.935393 0.0195773 0.843305
0.941115 0.853407 0.8262
0.0218814 0.0196536 0.839582
0.0218967 0.0200046 0.830564
0.0218967 0.0201724 0.826261
0.0218967 0.0201877 0.825956
0.0218967 0.0201419 0.826993
0.922194 0.0208743 0.829541
0.929854 0.0207065 0.831373
0.931746 0.020325 0.835431
0.93434 0.857343 0.820844
0.0218967 0.0195773 0.841535
0.0218967 0.0200046 0.830701
0.0218967 0.0201724 0.826261
0.0218967 0.0201877 0.825925
0.0218967 0.0201877 0.825956
0.927291 0.0211185 0.827115
0.930556 0.0205692 0.832868
0.932265 0.0202182 0.836561
0.928649 0.86363 0.816159
0.0218967 0.0196841 0.839109
0.0218967 0.0199741 0.831205
0.0218967 0.0201724 0.826276
0.0218967 0.0201877 0.825925
0.214908 0.0204166 0.825483
0.927398 0.02121 0.826062
0.932769 0.0201114 0.837629
0.932372 0.551186 0.833036
0.929702 0.87425 0.816144
0.0140993 0.753674 0.825467
0.00328069 0.758938 0.812741
0.0030518 0.759503 0.812451
0.00297551 0.761028 0.812314
0.00326543 0.756481 0.811383
0.830488 0.74287 0.811704
0.938781 0.764889 0.826566
0.944396 0.830182 0.827054
0.931563 0.895079 0.815839
0.0133516 0.936065 0.810346
0.00157168 0.941588 0.79881
0 0.942733 0.795682
0 0.93933 0.795438
0.581033 0.931823 0.793561
0.78468 0.92311 0.792706
0.898573 0.912291 0.804135
0.94696 0.905913 0.82211
0.935592 0.919249 0.816312
0.795575 0.935546 0.803326
0.780087 0.942229 0.790433
0.778119 0.943893 0.787228
0.784863 0.943908 0.787198
0.80293 0.943923 0.787137
0.838499 0.943969 0.787076
0.887129 0.941894 0.791348
0.947387 0.928679 0.81799
0.937881 0.932311 0.815045
0.903502 0.934249 0.792157
0.882826 0.942199 0.777234
0.87834 0.943984 0.773877
0.87895 0.943984 0.773907
0.880842 0.943954 0.774029
0.886366 0.943755 0.774655
0.911665 0.938048 0.786206
0.949233 0.927947 0.807767
0.942718 0.930434 0.809964
0.0213169 0.104585 0.838956
0.0201572 0.105577 0.827329
0.0199435 0.105776 0.825147
0.0199283 0.105776 0.825055
0.0199435 0.105806 0.825208
0.0199741 0.105867 0.825498
0.926528 0.0213931 0.82417
0.923964 0.236545 0.823911
0.927886 0.623743 0.830518
0.0212558 0.104631 0.838376
0.0202335 0.105501 0.828061
0.0199435 0.105745 0.825193
0.0199283 0.10576 0.825055
0.0199283 0.105791 0.825055
0.0199435 0.105882 0.825208
0.927001 0.0212863 0.825208
0.924315 0.236713 0.82443
0.930739 0.622721 0.833234
0.0205844 0.10518 0.831601
0.0202792 0.10544 0.828595
0.0199435 0.105714 0.825238
0.0199283 0.105745 0.825055
0.0199283 0.105776 0.825055
0.0200198 0.105791 0.82594
0.927321 0.0212253 0.825895
0.92369 0.237339 0.823514
0.920638 0.62623 0.823621
0.0205692 0.105104 0.831556
0.020325 0.105318 0.829053
0.0199588 0.105638 0.825345
0.0199283 0.105684 0.825055
0.0199283 0.105714 0.825055
0.0200809 0.105669 0.826627
0.929046 0.0208743 0.829618
0.92462 0.238407 0.824903
0.915816 0.627817 0.819013
0.0201724 0.105241 0.827359
0.0201877 0.105226 0.827512
0.0199741 0.105409 0.825391
0.0199435 0.10544 0.825055
0.0199283 0.105486 0.825055
0.0199283 0.105577 0.825055
0.92665 0.0213626 0.824445
0.926757 0.240223 0.828122
0.917021 0.627024 0.820157
0.0201877 0.104509 0.827405
0.0200504 0.104631 0.825986
0.0199741 0.104692 0.825284
0.0199588 0.104723 0.825071
0.0199588 0.104753 0.825071
0.667399 0.0210422 0.824414
0.928603 0.0209659 0.828656
0.930205 0.243153 0.833219
0.916594 0.81297 0.820935
0.00411994 0.905608 0.821653
0 0.907698 0.817121
0 0.907988 0.816617
0 0.908156 0.816602
0 0.90869 0.816602
0.650172 0.887892 0.815305
0.891798 0.878462 0.818601
0.936797 0.880949 0.836774
0.919982 0.91249 0.823804
0.642512 0.939284 0.823835
0.638621 0.943481 0.815412
0.646937 0.943816 0.81471
0.672129 0.943862 0.814649
0.727626 0.943923 0.814511
0.805798 0.944015 0.814328
0.873152 0.94406 0.814252
0.908797 0.94345 0.815457
0.916869 0.940368 0.821485
0.886381 0.937285 0.8262
0.870405 0.943481 0.814023
0.869093 0.944091 0.812833
0.869871 0.944091 0.812818
0.872251 0.944091 0.812818
0.87863 0.944091 0.812802
0.891325 0.94406 0.812879
0.917601 0.939529 0.821836
0.933577 0.93402 0.833021
0.0177005 0.306447 0.830518
0.0155642 0.307668 0.824018
0.0152438 0.307851 0.823072
0.0152285 0.307866 0.82298
0.0152132 0.307881 0.82298
0.0152285 0.307912 0.82298
0.0153048 0.307958 0.82324
0.923095 0.341863 0.824018
0.92549 0.668833 0.828275
0.0156405 0.307622 0.824247
0.0154116 0.307744 0.82356
0.0152438 0.307836 0.823072
0.0152285 0.307866 0.82298
0.0152132 0.307866 0.82298
0.0153811 0.30782 0.823453
0.0153811 0.307897 0.823484
0.921462 0.34255 0.821912
0.916014 0.672236 0.819608
0.0171969 0.306722 0.828992
0.0159304 0.307454 0.825116
0.0152438 0.307836 0.823056
0.0152285 0.307851 0.82298
0.0152285 0.307866 0.82298
0.0152132 0.307897 0.82298
0.0153964 0.307881 0.823529
0.921538 0.342763 0.822003
0.916426 0.672145 0.819974
0.0162814 0.307225 0.8262
0.0157778 0.307515 0.824674
0.0152743 0.307805 0.823133
0.0152285 0.307836 0.82298
0.0152285 0.307836 0.82298
0.0152132 0.307866 0.82298
0.0152438 0.307958 0.823041
0.921355 0.343557 0.82179
0.916442 0.672312 0.819989
0.0159915 0.307317 0.825299
0.0154269 0.307637 0.82359
0.0152285 0.307744 0.823026
0.0152285 0.307759 0.82298
0.0152285 0.307759 0.82298
0.0152132 0.30779 0.82298
0.01738 0.306661 0.829557
0.924071 0.345052 0.825315
0.916442 0.672831 0.820005
0.0160067 0.307073 0.82533
0.01561 0.307286 0.824155
0.0153048 0.307469 0.823209
0.0152285 0.307515 0.82298
0.0152285 0.307515 0.82298
0.0152285 0.307546 0.82298
0.0152743 0.305653 0.823011
0.921981 0.35317 0.822705
0.917067 0.673533 0.820584
0.0161746 0.306188 0.825833
0.0155642 0.306538 0.823957
0.015259 0.306706 0.823041
0.0152438 0.306722 0.822995
0.0152438 0.306737 0.822995
0.0152438 0.306767 0.822995
0.926345 0.0214237 0.823789
0.919921 0.370901 0.82034
0.916152 0.675425 0.81976
0.00444038 0.940414 0.822019
0 0.942809 0.816907
0 0.94313 0.816236
0 0.94313 0.81622
0 0.94313 0.81622
0 0.94313 0.81622
0.824903 0.934585 0.814389
0.937743 0.919432 0.837156
0.928923 0.92723 0.830488
0.823606 0.94313 0.816083
0.822904 0.943633 0.815091
0.822766 0.944045 0.814282
0.825528 0.944045 0.814282
0.833432 0.944045 0.814267
0.851972 0.944076 0.814221
0.87982 0.944106 0.814145
0.902541 0.944137 0.814099
0.91194 0.942245 0.817807
