BBLuts/BB_103_0850_LUT.cube
TITLE "Generated by Resolve"
LUT_3D_SIZE 5
0.0399176 0.0326238 0.033875
0.264942 0.0352789 0.0362097
0.843748 0.0462501 0.0458076
1 0.0772717 0.0547646
1 0.770672 0.224125
0.0175326 0.296651 0.0137789
0.212879 0.300023 0.0140536
0.839536 0.160815 0.0347601
1 0.421759 0.0128786
1 0.81529 0.204303
0 0.900267 0
0 0.899794 0
0.709957 0.889769 0
0.989151 0.906874 0
0.984771 0.980987 0.0936446
0 1 0
0 1 0
0.684169 1 0
0.920272 1 0
0.97232 1 0.275074
0.709392 1 0.388998
0.726711 1 0.390112
0.810941 1 0.398627
0.910567 1 0.427359
0.967132 1 0.502297
0.0413062 0.0341344 0.254139
0.241276 0.0361486 0.255802
0.844297 0.046952 0.267277
1 0.0526589 0.319524
1 0.761166 0.37763
0.0219883 0.256107 0.218875
0.225513 0.252262 0.215183
0.845167 0.0483711 0.249378
1 0.379416 0.262608
1 0.807874 0.359915
0 0.89604 0
0 0.895506 0
0.715953 0.885573 0
0.989288 0.903944 0
0.985412 0.979736 0.254673
0 1 0
0 1 0
0.688472 1 0
0.920821 1 0
0.972335 1 0.274357
0.712108 1 0.388815
0.729076 1 0.389929
0.812055 1 0.398474
0.910842 1 0.427222
0.967147 1 0.502251
0.0470741 0.0404974 0.777783
0.0470741 0.0404974 0.777981
0.853773 0.0513313 0.781765
1 0.0561532 0.791943
1 0.664942 0.752544
0.0470588 0.0404669 0.776059
0.0470588 0.0404822 0.776287
0.86334 0.0514992 0.780056
1 0.0561227 0.789639
1 0.731502 0.742382
0 0.841901 0.66833
0 0.842374 0.668574
0.70338 0.833646 0.673106
0.991165 0.863981 0.680278
0.989761 0.961471 0.699825
0 1 0.583093
0 1 0.58381
0.668711 1 0.590417
0.914397 1 0.610269
0.974395 1 0.656001
0.725155 1 0.450599
0.740444 1 0.451591
0.817151 1 0.458946
0.911482 1 0.482811
0.967254 1 0.555978
0.0500649 0.0438087 0.99826
0.0500649 0.0438087 0.998276
0.657176 0.0502174 0.998978
1 0.05832 0.998062
1 0.05832 0.998672
0.0500649 0.0438087 0.998138
0.0500649 0.0438087 0.998154
0.684672 0.0506905 0.99884
1 0.05832 0.997925
1 0.05832 0.99826
0.0169985 0.381292 0.963867
0.016434 0.386923 0.963226
0.724407 0.371527 0.963928
1 0.458274 0.952316
1 0.820218 0.907195
0 1 0.857786
0 1 0.857832
0.556222 1 0.858946
0.902098 1 0.861814
0.976684 1 0.863447
0.649073 1 0.838743
0.672892 1 0.838834
0.778943 1 0.839658
0.892546 1 0.841794
0.959503 1 0.846387
0.0504616 0.0442359 1
0.0504616 0.0442359 1
0.0504616 0.0442359 1
1 0.0587472 1
1 0.0587472 1
0.0504616 0.0442359 1
0.0504616 0.0442359 1
0.0504616 0.0442359 1
1 0.0587472 1
1 0.0587472 1
0.0504616 0.0442359 1
0.0504616 0.0442359 1
0.0504616 0.0442359 1
1 0.0587472 1
1 0.0587472 1
0 0.947692 0.941024
0 0.948699 0.940917
0 0.952331 0.940169
0.935653 0.943038 0.943084
0.987533 0.996185 0.936965
0.0997635 1 0.909056
0.236973 1 0.90901
0.654551 1 0.909819
0.872053 1 0.91133
0.955505 1 0.9122
