BBLuts/BB_103_0650_LUT.cube
TITLE "Generated by Resolve"
LUT_3D_SIZE 33
0 0 0
0 0 0
0 0 0
0 0 0
0.0292821 0 0
0.0770581 0 0
0.117433 0 0
0.165591 0 0
0.223896 0 0
0.289296 0 0
0.360998 0 0
0.43595 0 0
0.522454 0 0
0.613443 0 0
0.699809 0 0
0.778912 0 0
0.846052 0 0
0.898085 0 0
0.913268 0 0
0.916182 0 0
0.915724 0.0265507 0
0.917494 0.218677 0
0.910338 0.375509 0.0125582
0.90338 0.486976 0.0425422
0.896651 0.584451 0.0829175
0.889708 0.671046 0.134508
0.883482 0.743252 0.198917
0.878325 0.800977 0.275669
0.874113 0.845487 0.353811
0.870573 0.880476 0.431449
0.867567 0.907271 0.5066
0.86508 0.927947 0.577722
0.863111 0.944701 0.637873
0 0 0
0 0 0
0 0 0
0 0 0
0.0329442 0 0
0.0782788 0 0
0.121645 0 0
0.171496 0 0
0.229374 0 0
0.292943 0 0
0.363531 0 0
0.437964 0 0
0.524086 0 0
0.614511 0 0
0.700404 0 0
0.779171 0 0
0.845945 0 0
0.897719 0 0
0.913161 0 0
0.916182 0 0
0.915434 0.0417639 0
0.91577 0.248524 0
0.909087 0.390494 0.00779736
0.902617 0.496468 0.0397955
0.896025 0.591134 0.0801404
0.889281 0.675593 0.132403
0.883223 0.746258 0.197528
0.878172 0.802808 0.27483
0.874037 0.846601 0.353338
0.870527 0.881178 0.431174
0.867536 0.907683 0.506416
0.865064 0.928222 0.5776
0.863096 0.944884 0.637797
0 0 0
0 0 0
0 0 0
0 0 0
0.0326696 0 0
0.0756542 0 0
0.121401 0 0
0.17319 0 0
0.232181 0 0
0.295705 0 0
0.365911 0 0
0.440055 0 0
0.525765 0 0
0.615595 0 0
0.701015 0 0
0.779416 0 0
0.845823 0 0
0.897322 0 0
0.913039 0 0
0.916136 0 0
0.915587 0.0572366 0
0.91458 0.274891 0
0.907881 0.40415 0.0024567
0.901854 0.505623 0.0369573
0.895415 0.59762 0.0773327
0.888853 0.680064 0.130327
0.882963 0.749203 0.196139
0.878035 0.804639 0.274006
0.87396 0.8477 0.352865
0.870481 0.881849 0.430869
0.867521 0.90808 0.506218
0.865049 0.928481 0.577478
0.863096 0.945052 0.63772
0 0.00427253 0
0 0.00747692 0
0 0.0101015 0
0 0.010544 0
0.0197604 0.00801099 0
0.0659953 0.00370794 0
0.114977 0 0
0.171191 0 0
0.233021 0 0
0.297749 0 0
0.368231 0 0
0.442283 0 0
0.527565 0 0
0.616739 0 0
0.70164 0 0
0.779644 0 0
0.845685 0 0
0.89691 0 0
0.912902 0 0
0.915816 0 0
0.916075 0.0975967 0
0.913207 0.298344 0
0.906737 0.416571 0
0.901106 0.514565 0.0340276
0.89482 0.603983 0.074464
0.888426 0.684459 0.128222
0.882719 0.752117 0.194781
0.877882 0.806439 0.273182
0.873869 0.848798 0.352392
0.870436 0.882536 0.430579
0.867491 0.908476 0.50602
0.865019 0.928756 0.577356
0.863081 0.945235 0.637629
0 0.0415351 0
0 0.0440528 0
0 0.0456855 0
0 0.0462348 0
0 0.0449378 0
0.054963 0.0429847 0
0.106981 0.0391852 0
0.164706 0.0314031 0
0.228672 0.0157778 0
0.297017 0 0
0.369696 0 0
0.444541 0 0
0.529641 0 0
0.618036 0 0
0.702342 0 0
0.779889 0 0
0.845518 0 0
0.896437 0 0
0.912749 0 0
0.915297 0.0225071 0
0.916365 0.175982 0
0.911574 0.32137 0
0.905425 0.429603 0
0.900267 0.524056 0.0306554
0.894163 0.610803 0.0712291
0.887968 0.689204 0.125887
0.882445 0.755261 0.193271
0.877729 0.808377 0.272267
0.873777 0.849989 0.351873
0.870375 0.883268 0.430243
0.86746 0.908934 0.505821
0.865003 0.929046 0.577203
0.863066 0.945434 0.637552
0 0.0818494 0
0 0.0837568 0
0 0.0847944 0
0 0.0853742 0
0 0.0853285 0
0.0329595 0.0834821 0
0.0949416 0.0814832 0
0.156756 0.0772564 0
0.223484 0.0689097 0
0.293019 0.0547799 0
0.367208 0.0297246 0
0.44506 0 0
0.53138 0 0
0.619715 0 0
0.703288 0 0
0.780209 0 0
0.845273 0 0
0.895766 0 0
0.912352 0 0
0.915785 0.074464 0
0.91545 0.229129 0
0.909407 0.34847 0
0.903548 0.44567 0
0.899199 0.53608 0.0259861
0.893309 0.619532 0.0673075
0.887404 0.695277 0.122911
0.882109 0.759289 0.191302
0.877531 0.810895 0.271061
0.873671 0.851545 0.351186
0.870314 0.884245 0.429831
0.867414 0.909499 0.505531
0.864973 0.929427 0.57702
0.86305 0.945678 0.63743
0 0.12874 0
0 0.129885 0
0 0.130785 0
0 0.131334 0
0 0.131548 0
0 0.130571 0
0.0713207 0.129335 0
0.142016 0.126574 0
0.213779 0.12076 0
0.288273 0.111406 0
0.365957 0.0978561 0
0.444266 0.0767987 0
0.530694 0.0353857 0
0.619455 0 0
0.703166 0 0
0.780606 0 0
0.844923 0 0
0.894209 0 0
0.911467 0.0439612 0
0.916442 0.162493 0
0.913405 0.281636 0
0.906889 0.380941 0
0.901457 0.466224 0
0.897765 0.551431 0.0192874
0.892241 0.630823 0.0632334
0.886656 0.703166 0.119295
0.881666 0.764553 0.188647
0.877287 0.814206 0.269459
0.873533 0.85359 0.350271
0.870222 0.885527 0.429252
0.867369 0.910277 0.505165
0.864942 0.929946 0.576776
0.86302 0.946014 0.637278
0 0.184115 0
0 0.184802 0
0 0.185412 0
0 0.185779 0
0 0.185977 0
0 0.185977 0
0.0151522 0.184466 0
0.113954 0.182757 0
0.19559 0.178958 0
0.277836 0.172442 0
0.362249 0.162875 0
0.444968 0.149569 0
0.53225 0.131792 0
0.619501 0.107912 0
0.702373 0.0742504 0
0.77882 0.0190433 0
0.842618 0.0191806 0
0.892714 0.0868238 0
0.911955 0.167285 0
0.914687 0.252613 0
0.910033 0.33669 0
0.90425 0.416693 0
0.899489 0.492653 0
0.895857 0.570687 0.00901808
0.890852 0.645274 0.0579232
0.88571 0.713268 0.114549
0.881102 0.771298 0.185107
0.876951 0.818479 0.267323
0.873335 0.856275 0.349035
0.8701 0.887205 0.428489
0.867292 0.911315 0.504662
0.864897 0.930632 0.57644
0.862989 0.946456 0.637064
0 0.246342 0
0 0.246799 0
0 0.24715 0
0 0.247349 0
0 0.247425 0
0 0.247303 0
0 0.247028 0
0.0426032 0.246021 0
0.163897 0.244877 0
0.257893 0.241001 0
0.351934 0.234455 0
0.44213 0.225467 0
0.533318 0.214801 0
0.621012 0.203204 0
0.703075 0.19234 0
0.77847 0.185504 0
0.841474 0.193713 0
0.889937 0.226017 0
0.908675 0.273106 0
0.91043 0.330846 0
0.905867 0.39469 0
0.901396 0.45774 0
0.896925 0.524605 0
0.893202 0.594278 0
0.889113 0.663127 0.0501106
0.88455 0.725994 0.108217
0.880385 0.779797 0.180407
0.876539 0.823957 0.264485
0.873075 0.859754 0.347402
0.869947 0.889418 0.427466
0.867201 0.912673 0.50399
0.864836 0.931533 0.575998
0.862959 0.947051 0.63679
0 0.317052 0
0 0.317464 0
0 0.317784 0
0 0.318029 0
0 0.318166 0
0 0.318242 0
0 0.318105 0
0 0.318273 0
0.0964828 0.319066 0
0.22211 0.318151 0
0.330632 0.314427 0
0.431357 0.309041 0
0.528984 0.302602 0
0.619623 0.296651 0
0.701457 0.2934 0
0.775036 0.294926 0
0.835538 0.306325 0
0.88159 0.331197 0
0.9019 0.365164 0
0.905028 0.40621 0
0.901747 0.452461 0
0.898024 0.505379 0
0.893706 0.562142 0
0.889433 0.622248 0
0.886931 0.684932 0.0390326
0.883146 0.741619 0.101732
0.87953 0.790326 0.175326
0.87602 0.830823 0.260792
0.87277 0.864225 0.34522
0.869764 0.892271 0.426093
0.867094 0.914458 0.503075
0.864759 0.932723 0.575387
0.862898 0.947845 0.636408
0 0.398474 0
0 0.398795 0
0 0.399054 0
0 0.399283 0
0 0.399451 0
0 0.399588 0
0 0.399649 0
0 0.399908 0
0 0.40116 0
0.151202 0.403738 0
0.291936 0.403037 0
0.408759 0.400458 0
0.514885 0.396918 0
0.611414 0.39379 0
0.695537 0.393179 0
0.767819 0.396628 0
0.825864 0.406577 0
0.87039 0.424613 0
0.894575 0.448371 0
0.899947 0.478721 0
0.897246 0.515785 0
0.893889 0.558541 0
0.890028 0.605646 0
0.885878 0.656153 0
0.884428 0.710857 0.0277409
0.881544 0.760235 0.0957198
0.878523 0.802976 0.170077
0.87541 0.839261 0.255985
0.872374 0.869856 0.342367
0.86952 0.895903 0.424292
0.866941 0.916777 0.501869
0.864652 0.934295 0.574578
0.862837 0.948882 0.635889
0 0.487129 0
0 0.487388 0
0 0.487633 0
0 0.487816 0
0 0.487984 0
0 0.488167 0
0 0.488304 0
0 0.488396 0
0 0.489006 0
0.0357366 0.491569 0
0.224521 0.493767 0
0.372519 0.491981 0
0.490028 0.48925 0
0.595163 0.486671 0
0.685069 0.486152 0
0.759014 0.489311 0
0.815625 0.497749 0
0.858473 0.512154 0
0.886946 0.53077 0
0.894255 0.554009 0
0.891936 0.582483 0
0.889128 0.616175 0
0.885939 0.653971 0
0.882582 0.695171 0
0.881682 0.7402 0.0151217
0.879759 0.781552 0.0889601
0.877379 0.817761 0.165713
0.874678 0.849378 0.251347
0.8719 0.876768 0.338598
0.869215 0.900435 0.421912
0.866743 0.919753 0.500252
0.86453 0.936294 0.573495
0.862745 0.95021 0.635203
0 0.58114 0
0 0.581308 0
0 0.581445 0
0 0.581567 0
0 0.581659 0
0 0.58175 0
0 0.581827 0
0 0.581827 0
0 0.581674 0
0 0.582071 0
0.0996262 0.585443 0
0.316396 0.585275 0
0.453895 0.583368 0
0.569863 0.581155 0
0.667445 0.58027 0
0.745251 0.582223 0
0.802319 0.588266 0
0.844068 0.598871 0
0.874098 0.612757 0
0.885618 0.630167 0
0.886152 0.651514 0
0.884016 0.676722 0
0.881636 0.705592 0
0.879194 0.737194 0
0.878752 0.771969 0
0.877867 0.805081 0.0813001
0.876112 0.834638 0.163958
0.873808 0.861326 0.248203
0.871336 0.885115 0.333791
0.868849 0.905974 0.418769
0.866499 0.923506 0.498116
0.864363 0.938872 0.572061
0.862623 0.951934 0.634302
0 0.673457 0
0 0.673533 0
0 0.673579 0
0 0.673609 0
0 0.67364 0
0 0.67364 0
0 0.673594 0
0 0.673487 0
0 0.673243 0
0 0.672709 0
0 0.674174 0
0.214664 0.67689 0
0.406882 0.675288 0
0.536492 0.673091 0
0.642329 0.671626 0
0.724956 0.672312 0
0.784268 0.676005 0
0.826703 0.683009 0
0.856687 0.692607 0
0.874815 0.704936 0
0.880476 0.71986 0
0.879103 0.737423 0
0.877577 0.757458 0
0.87599 0.77966 0
0.875669 0.804471 0
0.875959 0.829953 0.0728008
0.874739 0.8533 0.164034
0.872816 0.875029 0.248646
0.870649 0.89482 0.331792
0.868421 0.912642 0.414649
0.866194 0.928191 0.495247
0.864149 0.942107 0.570123
0.862486 0.954147 0.633051
0 0.760357 0
0 0.760342 0
0 0.760311 0
0 0.760266 0
0 0.76022 0
0 0.760128 0
0 0.759991 0
0 0.759747 0
0 0.759335 0
0 0.758633 0
0 0.757641 0
0.106615 0.76141 0
0.349981 0.760128 0
0.49929 0.757259 0
0.613916 0.754635 0
0.700664 0.753689 0
0.76286 0.754925 0
0.807553 0.758389 0
0.838743 0.763684 0
0.86244 0.771084 0
0.873823 0.780316 0
0.87512 0.791318 0
0.874235 0.804059 0
0.873259 0.818463 0
0.872282 0.834379 0
0.874113 0.854734 0.0630961
0.873365 0.872755 0.166415
0.871748 0.889662 0.252155
0.869871 0.90544 0.333013
0.867918 0.920211 0.411704
0.865843 0.933715 0.491554
0.86389 0.946014 0.567605
0.862303 0.956832 0.631449
0 0.830518 0
0 0.830427 0
0 0.830335 0
0 0.830228 0
0 0.830106 0
0 0.829923 0
0 0.829664 0
0 0.829282 0
0 0.828687 0
0 0.827771 0
0 0.826429 0
0.026215 0.828214 0
0.296895 0.827543 0
0.469749 0.823529 0
0.590875 0.819577 0
0.679347 0.817212 0
0.743053 0.816602 0
0.789883 0.817502 0
0.822705 0.819715 0
0.847913 0.823362 0
0.864805 0.828412 0
0.87219 0.834806 0
0.871687 0.842588 0
0.871107 0.851972 0
0.87068 0.863218 0
0.872572 0.878431 0.0687877
0.872038 0.891646 0.17232
0.87068 0.904158 0.258183
0.869047 0.916335 0.33785
0.867292 0.928435 0.413718
0.865461 0.93991 0.487083
0.863615 0.950439 0.564431
0.862104 0.959976 0.629419
0 0.882094 0
0 0.881956 0
0 0.881804 0
0 0.881651 0
0 0.881483 0
0 0.881239 0
0 0.880903 0
0 0.880385 0
0 0.879667 0
0 0.878614 0
0 0.87718 0
0 0.877699 0
0.27071 0.876982 0
0.456092 0.871962 0
0.577844 0.867201 0
0.664942 0.864027 0
0.727764 0.862409 0
0.775235 0.861952 0
0.809018 0.862501 0
0.835325 0.864073 0
0.855848 0.866712 0
0.868009 0.87042 0
0.869627 0.875166 0
0.869307 0.881178 0
0.870405 0.890166 0
0.871305 0.900099 0.0894484
0.870787 0.909163 0.183032
0.869612 0.918181 0.267353
0.868177 0.927489 0.344778
0.866606 0.937102 0.419013
0.864942 0.946471 0.490364
0.86331 0.955337 0.560983
0.86186 0.963561 0.626856
0 0.921248 0
0 0.921065 0
0 0.920882 0
0 0.920699 0
0 0.920485 0
0 0.92018 0
0 0.919768 0
0 0.919188 0
0 0.91841 0
0 0.917342 0
0 0.915892 0
0.0247044 0.916701 0
0.289891 0.914168 0
0.45922 0.90869 0
0.57435 0.903655 0
0.65687 0.90013 0
0.717037 0.897993 0
0.763531 0.896788 0
0.797284 0.896391 0
0.824201 0.896696 0
0.845853 0.897734 0
0.861189 0.89955 0
0.867948 0.902144 0
0.867826 0.905684 0
0.869688 0.912612 0.0241093
0.870161 0.919081 0.11397
0.869612 0.925292 0.199451
0.868544 0.931762 0.280232
0.867292 0.938704 0.354223
0.865858 0.946059 0.426261
0.864363 0.953384 0.495857
0.862898 0.960555 0.563134
0.861601 0.967559 0.624903
0 0.948226 0
0 0.947997 0
0 0.947799 0
0 0.947585 0
0 0.947341 0
0 0.947021 0
0 0.946593 0
0 0.945998 0
0 0.945205 0
0 0.944137 0
0 0.942702 0
0.0978561 0.943908 0
0.335882 0.9393 0
0.477729 0.933883 0
0.580301 0.92903 0
0.655604 0.925521 0
0.711818 0.923201 0
0.756329 0.92163 0
0.789059 0.920775 0
0.815778 0.920439 0
0.837812 0.920607 0
0.855329 0.921355 0
0.866255 0.922744 0
0.866636 0.92488 0
0.868971 0.930678 0.0565347
0.869123 0.934981 0.141878
0.868513 0.939208 0.22031
0.867536 0.943771 0.296071
0.866438 0.948852 0.365957
0.865156 0.954314 0.435142
0.863783 0.959915 0.502739
0.862455 0.965682 0.567971
0.861295 0.971572 0.626047
0 0.96936 0
0 0.969146 0
0 0.968933 0
0 0.968719 0
0 0.96846 0
0 0.968154 0
0 0.967712 0
0 0.967147 0
0 0.966354 0
0 0.965316 0
0 0.965606 0
0.228763 0.963867 0
0.394232 0.958694 0
0.506432 0.953658 0
0.593072 0.94931 0
0.659068 0.94609 0
0.710323 0.943786 0
0.751965 0.942107 0
0.782971 0.941024 0
0.808896 0.940322 0
0.830777 0.940002 0
0.848981 0.940093 0
0.862287 0.940993 0
0.867262 0.943725 0.00332647
0.868223 0.946822 0.0995041
0.868055 0.949371 0.175387
0.86743 0.952026 0.246647
0.866545 0.955032 0.315175
0.865568 0.958526 0.381125
0.864408 0.962417 0.446571
0.863172 0.966598 0.511574
0.861982 0.971084 0.574411
0.860929 0.97583 0.629725
0 0.985885 0
0 0.985672 0
0 0.985473 0
0 0.98526 0
0 0.985016 0
0 0.984726 0
0 0.984298 0
0 0.984665 0
0 0.984421 0
0.0396124 0.983871 0
0.203601 0.982162 0
0.357351 0.977646 0
0.456641 0.973465 0
0.541497 0.969223 0
0.611124 0.965606 0
0.666758 0.962829 0
0.712337 0.960693 0
0.750332 0.959014 0
0.779095 0.957855 0
0.803738 0.95697 0
0.824964 0.956359 0
0.843366 0.956497 0
0.858549 0.957931 0
0.867216 0.959625 0.0775311
0.867338 0.9608 0.148516
0.866972 0.96202 0.214313
0.866331 0.96347 0.278035
0.865553 0.965347 0.338811
0.864668 0.967605 0.399451
0.86363 0.97026 0.461036
0.862531 0.973236 0.522683
0.861463 0.976577 0.582452
0.860548 0.980255 0.635081
0 1 0
0 0.999985 0
0 0.999832 0
0 0.999649 0
0.00299077 0.999481 0
0.00914015 0.999237 0
0.0168154 0.998917 0
0.0962539 0.998795 0
0.231708 0.99675 0
0.315633 0.994125 0
0.38703 0.990967 0
0.453849 0.98793 0
0.518624 0.984649 0
0.57911 0.981445 0
0.632731 0.978622 0
0.678233 0.976333 0
0.717662 0.974426 0
0.751324 0.972885 0
0.777844 0.972168 0
0.801312 0.97174 0
0.82179 0.971298 0
0.839811 0.971496 0.0053254
0.854978 0.972244 0.0735027
0.865827 0.972519 0.13959
0.866239 0.972671 0.198611
0.865858 0.972992 0.256825
0.865248 0.973632 0.312459
0.864576 0.974655 0.366842
0.863767 0.975998 0.421714
0.862837 0.977691 0.478889
0.861875 0.979675 0.536248
0.860945 0.98201 0.592355
0.860136 0.98471 0.641703
0.284077 1 0
0.299229 1 0
0.312764 1 0
0.325307 1 0
0.338354 1 0
0.354437 1 0
0.374395 1 0
0.398184 1 0
0.426154 1 0
0.458518 1 0
0.494987 0.999146 0
0.5346 0.99704 0
0.575692 0.994812 0
0.617731 0.992554 0
0.657359 0.990021 0
0.693812 0.988205 0
0.726787 0.986618 0
0.755703 0.98526 0
0.779736 0.985138 0.00770581
0.801312 0.984833 0.0449531
0.820432 0.98439 0.0774395
0.837018 0.983932 0.111559
0.851057 0.98352 0.153277
0.862669 0.983078 0.200656
0.864897 0.982666 0.25066
0.864744 0.982452 0.300847
0.86421 0.982544 0.349081
0.863584 0.98291 0.39826
0.862852 0.983551 0.447868
0.862028 0.984482 0.500267
0.861204 0.985672 0.552697
0.86041 0.987182 0.604257
0.859724 0.989044 0.649729
0.477913 1 0.10959
0.483207 1 0.109651
0.488365 1 0.109712
0.493416 1 0.109789
0.498833 1 0.109865
0.505791 1 0.109987
0.514733 1 0.110155
0.526116 1 0.11043
0.540215 1 0.110826
0.557168 1 0.111452
0.577523 1 0.112398
0.600961 1 0.113848
0.626932 1 0.116014
0.655085 1 0.119219
0.684184 1 0.123644
0.712474 0.999741 0.129458
0.738918 0.998413 0.136934
0.762737 0.997238 0.146365
0.782956 0.996231 0.157275
0.80177 0.99527 0.170657
0.818875 0.994385 0.186831
0.834043 0.993576 0.20618
0.847196 0.992859 0.230228
0.858396 0.992142 0.263951
0.863432 0.991012 0.303792
0.863661 0.990509 0.345113
0.863172 0.990188 0.388449
0.862593 0.990051 0.432364
0.861936 0.990158 0.477867
0.861234 0.990494 0.525338
0.860533 0.991089 0.572473
0.859876 0.992462 0.618341
0.859312 0.993713 0.659342
0.581308 1 0.225238
0.584024 1 0.225299
0.586694 1 0.225391
0.589319 1 0.225467
0.592157 1 0.225574
0.595819 1 0.225696
0.600595 1 0.225879
0.606729 1 0.226139
0.614496 1 0.22652
0.624231 1 0.227054
0.636271 1 0.227817
0.650782 1 0.228901
0.667903 1 0.230457
0.687541 1 0.23267
0.708614 1 0.235706
0.729732 1 0.239689
0.750042 1 0.2448
0.769345 1 0.251301
0.786557 1 0.258885
0.80296 1 0.268254
0.818143 1 0.279698
0.831876 1 0.293492
0.844114 0.999359 0.309102
0.854887 0.998642 0.328588
0.862089 0.997971 0.357717
0.862623 0.997314 0.392416
0.862165 0.996735 0.429511
0.861646 0.996323 0.469352
0.861051 0.996094 0.510979
0.860456 0.996094 0.553384
0.859892 0.996323 0.595178
0.859358 0.996811 0.634821
0.858915 0.997589 0.670771
0.649332 1 0.324376
0.650858 1 0.324453
0.652369 1 0.324529
0.653849 1 0.324605
0.655482 1 0.324681
0.657588 1 0.324804
0.660365 1 0.324941
0.664012 1 0.325154
0.668711 1 0.32546
0.674723 1 0.325872
0.682292 1 0.326436
0.69163 1 0.327214
0.702922 1 0.328298
0.716258 1 0.329824
0.730922 1 0.331868
0.746059 1 0.334539
0.761471 1 0.337957
0.777005 1 0.342306
0.791302 1 0.347433
0.805249 1 0.353826
0.818418 1 0.361776
0.830655 1 0.371572
0.84184 1 0.383444
0.85185 1 0.397284
0.859892 1 0.415824
0.861341 1 0.442145
0.861189 1 0.47361
0.860716 1 0.508736
0.860227 1 0.545357
0.859739 1 0.583108
0.859281 1 0.619211
0.858869 1 0.652995
0.858518 1 0.68368
0.698573 1 0.410636
0.699474 1 0.410712
0.700343 1 0.410773
0.701213 1 0.410834
0.702174 1 0.41091
0.703441 1 0.411002
0.705089 1 0.411139
0.707286 1 0.411307
0.71014 1 0.411551
0.713832 1 0.411872
0.718547 1 0.412314
0.724437 1 0.412924
0.731701 1 0.413748
0.740536 1 0.414862
0.750637 1 0.416358
0.761593 1 0.418296
0.773281 1 0.420752
0.785519 1 0.423911
0.79704 1 0.427634
0.808515 1 0.432288
0.819669 1 0.438117
0.83032 1 0.445304
0.840284 1 0.454108
0.849378 1 0.464866
0.857099 1 0.478264
0.859876 1 0.496391
0.860212 1 0.520745
0.859861 1 0.54931
0.85948 1 0.580514
0.859083 1 0.612634
0.858747 1 0.643198
0.858442 1 0.671763
0.858167 1 0.697688
0.734844 1 0.491005
0.735378 1 0.491066
0.735897 1 0.491112
0.736416 1 0.491157
0.736996 1 0.491218
0.737743 1 0.491295
0.73875 1 0.491402
0.740078 1 0.491539
0.741817 1 0.491737
