BBLuts/BB_103_0360_LUT.cube
TITLE "Generated by Resolve"
LUT_3D_SIZE 5
0 0 0
0.157595 0 0
0.773968 0 0
0.965545 0.555093 0.0706188
0.92163 1 0.723751
0 0.180819 0
0.112139 0.183185 0
0.777539 0.020676 0
0.957885 0.642741 0.0377508
0.921538 1 0.723064
0 0.84332 0
0 0.842802 0
0.68368 0.839475 0
0.932448 0.900053 0
0.920928 1 0.717937
0.539361 1 0.141878
0.586191 1 0.141588
0.751583 1 0.154025
0.918563 1 0.312078
0.918181 1 0.742123
0.886061 1 0.829068
0.886488 1 0.829129
0.889586 1 0.829511
0.906432 1 0.832975
0.91606 1 0.858534
0 0 0.116899
0.137316 0 0.113283
0.777798 0 0.0877699
0.969726 0.536171 0.238422
0.921447 1 0.740581
0 0.146365 0.0995956
0.127062 0.141192 0.0935988
0.778561 0 0.073167
0.962371 0.633936 0.217975
0.921355 1 0.739986
0 0.839002 0
0 0.838422 0
0.689204 0.835386 0
0.935317 0.901305 0.0355993
0.920729 1 0.735515
0.547066 1 0.140917
0.592233 1 0.140764
0.753292 1 0.153582
0.918669 1 0.312032
0.918196 1 0.742031
0.886122 1 0.829068
0.886564 1 0.829129
0.889632 1 0.829496
0.906462 1 0.832959
0.91606 1 0.858534
0 0 0.700038
0 0 0.700252
0.779873 0 0.673671
0.986694 0.170565 0.721584
0.920928 1 0.814725
0 0 0.698238
0 0 0.698497
0.788571 0 0.671763
0.975555 0.449989 0.725383
0.920821 1 0.814404
0 0.789715 0.652934
0 0.790158 0.653269
0.675746 0.787579 0.658381
0.934554 0.873747 0.685359
0.920119 1 0.812116
0.546639 1 0.5243
0.590173 1 0.523323
0.747066 1 0.525795
0.910597 1 0.588495
0.917708 1 0.795316
0.886625 1 0.829007
0.887053 1 0.829068
0.890074 1 0.829435
0.90663 1 0.832914
0.91606 1 0.858534
0 0 0.941787
0 0 0.941787
0 0 0.941787
0.982712 0 0.929213
0.922683 0.983734 0.921996
0 0 0.941787
0 0 0.941787
0 0 0.941787
0.982712 0 0.929213
0.922423 0.987091 0.921706
0 0 0.941787
0 0 0.941787
0.322988 0 0.934051
0.982712 0 0.929213
0.920943 1 0.920027
0 1 0.935897
0 1 0.935683
0.599405 1 0.916426
0.892714 1 0.911421
0.917128 1 0.914809
0.883452 1 0.892164
0.883864 1 0.89218
0.886809 1 0.892317
0.90312 1 0.893507
0.915755 1 0.902571
0 0.276539 0.942657
0 0.276539 0.942657
0 0.276555 0.942657
0 0.276753 0.942657
0.946197 0.76556 0.949966
0 0.276509 0.942657
0 0.276509 0.942657
0 0.276539 0.942657
0 0.276738 0.942657
0.946181 0.765698 0.94995
0 0.276356 0.942657
0 0.276356 0.942657
0 0.276387 0.942657
0.361654 0.259266 0.945586
0.946044 0.76669 0.949874
0 0.27483 0.942672
0 0.27483 0.942672
0 0.274861 0.942672
0.982712 0 0.929213
0.945617 0.769863 0.949645
0.825574 1 0.938109
0.827497 1 0.938125
0.840024 1 0.938186
0.88748 1 0.938521
0.915801 1 0.93901
