BBLuts/BB_103_0350_LUT.cube
TITLE "Generated by Resolve"
LUT_3D_SIZE 33
0 0 0
0 0 0
0 0 0
0 0 0
0 0 0
0 0 0
0.0466468 0 0
0.0817884 0 0
0.117525 0 0
0.161074 0 0
0.213993 0 0
0.273655 0 0
0.342016 0 0
0.418189 0 0
0.502663 0 0
0.583093 0 0
0.651667 0 0
0.716304 0 0
0.772457 0 0
0.816571 0 0
0.82504 0 0
0.82504 0 0
0.828199 0.0989395 0
0.824262 0.299306 0.0208591
0.81529 0.44033 0.0471962
0.807202 0.557031 0.0800336
0.799405 0.647425 0.123995
0.793347 0.714778 0.19588
0.788739 0.762768 0.285374
0.785061 0.797742 0.375296
0.781918 0.823392 0.461692
0.779339 0.842557 0.534798
0.777401 0.85803 0.592798
0 0 0
0 0 0
0 0 0
0 0 0
0 0 0
0.00758373 0 0
0.0500191 0 0
0.0845655 0 0
0.121981 0 0
0.166506 0 0
0.219699 0 0
0.27866 0 0
0.345083 0 0
0.420157 0 0
0.50425 0 0
0.584009 0 0
0.652186 0 0
0.716533 0 0
0.772381 0 0
0.816281 0 0
0.82504 0 0
0.82504 0 0
0.827955 0.13521 0
0.823011 0.315084 0.0174716
0.814572 0.449714 0.0452125
0.806653 0.562783 0.0786908
0.799054 0.650706 0.122377
0.793179 0.71664 0.194934
0.788647 0.763775 0.28484
0.785016 0.798321 0.374975
0.781903 0.823713 0.461524
0.779324 0.842756 0.534707
0.777386 0.858137 0.592737
0 0 0
0 0 0
0 0 0
0 0 0
0 0 0
0.01355 0 0
0.0511788 0 0
0.0872206 0 0
0.126665 0 0
0.171557 0 0
0.224048 0 0
0.281346 0 0
0.347631 0 0
0.422278 0 0
0.505852 0 0
0.584909 0 0
0.652705 0 0
0.716747 0 0
0.77229 0 0
0.815976 0 0
0.82504 0 0
0.82504 0 0
0.826932 0.164736 0
0.821775 0.329961 0.0137636
0.81387 0.458824 0.0431525
0.806119 0.568353 0.0773327
0.798718 0.653895 0.120821
0.793011 0.718456 0.193973
0.788571 0.764767 0.284321
0.784985 0.798901 0.374655
0.781872 0.824033 0.461357
0.779309 0.842954 0.534615
0.777386 0.858259 0.592676
0 0 0
0 0 0
0 0 0
0 0 0
0 0 0
0.0180667 0 0
0.0517281 0 0
0.0874647 0 0
0.127474 0 0
0.173617 0 0
0.226871 0 0
0.283787 0 0
0.350103 0 0
0.424414 0 0
0.507469 0 0
0.585824 0 0
0.653208 0 0
0.71696 0 0
0.772198 0 0
0.815641 0 0
0.82504 0 0
0.82504 0 0
0.826444 0.191699 0
0.820523 0.344015 0.00965896
0.813138 0.467735 0.0410315
0.8056 0.573785 0.0759594
0.798398 0.657008 0.120043
0.792844 0.720226 0.193042
0.788495 0.765743 0.283787
0.784939 0.799466 0.37435
0.781857 0.824338 0.461189
0.779293 0.843153 0.534524
0.777371 0.858366 0.59263
0 0 0
0 0.00221256 0
0 0.00471504 0
0 0.0071107 0
0 0.00805676 0
0.00668345 0.00657664 0
0.0438392 0.00401312 0
0.08159 0 0
0.124102 0 0
0.174533 0 0
0.228489 0 0
0.286 0 0
0.352483 0 0
0.426581 0 0
0.509133 0 0
0.586725 0 0
0.653712 0 0
0.717128 0 0
0.772076 0 0
0.815305 0 0
0.82504 0 0
0.825437 0 0
0.825742 0.215961 0
0.819257 0.357321 0.00505074
0.812421 0.476417 0.0388342
0.805081 0.57908 0.0746014
0.798093 0.66006 0.119265
0.792691 0.721996 0.192126
0.788434 0.76669 0.283253
0.784909 0.800031 0.374029
0.781842 0.824659 0.461006
0.779278 0.843336 0.534432
0.777371 0.858488 0.592584
0 0.0281376 0
0 0.0301976 0
0 0.0322271 0
0 0.0338293 0
0 0.0345922 0
0 0.0342412 0
0.0351415 0.0325475 0
0.0753948 0.0301213 0
0.119158 0.02533 0
0.169619 0.0160525 0
0.22591 0 0
0.287968 0 0
0.35491 0 0
0.428885 0 0
0.510887 0 0
0.587701 0 0
0.654231 0 0
0.717311 0 0
0.771954 0 0
0.814939 0 0
0.82504 0 0
0.82649 0.0654459 0
0.824842 0.238758 0
0.817868 0.370413 0
0.811673 0.485237 0.0364691
0.804547 0.584436 0.073167
0.797772 0.663157 0.118471
0.792538 0.723781 0.19115
0.788357 0.767697 0.282704
0.784863 0.80061 0.373724
0.781811 0.824979 0.460822
0.779263 0.843534 0.534325
0.777356 0.85861 0.592523
0 0.05832 0
0 0.0600595 0
0 0.0617838 0
0 0.0627451 0
0 0.0633707 0
0 0.0635996 0
0.019089 0.0623636 0
0.066041 0.0609445 0
0.112657 0.0581826 0
0.165255 0.052781 0
0.222614 0.0429541 0
0.284733 0.0273136 0
0.35462 0 0
0.431846 0 0
0.513161 0 0
0.588952 0 0
0.654902 0 0
0.717556 0 0
0.771771 0 0
0.814435 0 0
0.82504 0 0
0.8271 0.121401 0
0.823499 0.265095 0
0.815793 0.385931 0
0.810712 0.496101 0.0333104
0.803891 0.59115 0.0713359
0.797375 0.667063 0.117494
0.792325 0.72604 0.189914
0.788266 0.768963 0.282017
0.784817 0.801343 0.373297
0.781796 0.825391 0.460609
0.779248 0.843793 0.534188
0.777356 0.858763 0.592447
0 0.0929732 0
0 0.0945144 0
0 0.0956588 0
0 0.0964218 0
0 0.0969711 0
0 0.097261 0
0 0.0972915 0
0.0490883 0.0959182 0
0.101839 0.0943618 0
0.157259 0.0905623 0
0.21735 0.0834669 0
0.282872 0.0730755 0
0.354635 0.0581064 0
0.431128 0.0343328 0
0.51397 0 0
0.5906 0 0
0.655833 0 0
0.717876 0 0
0.771496 0 0
0.813748 0 0
0.825818 0.0225071 0
0.82678 0.175158 0
0.821546 0.29604 0
0.813626 0.405005 0
0.809461 0.50956 0.0288853
0.803021 0.59968 0.0688792
0.796887 0.672038 0.116228
0.792081 0.728939 0.188296
0.788128 0.770596 0.281102
0.784741 0.802319 0.372763
0.78175 0.82594 0.460304
0.779232 0.844144 0.534035
0.77734 0.858976 0.592355
0 0.134325 0
0 0.135531 0
0 0.136202 0
0 0.136873 0
0 0.137346 0
0 0.137682 0
0 0.137881 0
0.0106203 0.137453 0
0.0816815 0.135897 0
0.142763 0.133043 0
0.207553 0.128084 0
0.277913 0.120439 0
0.354253 0.109728 0
0.433249 0.0949264 0
0.515023 0.0751049 0
0.588891 0.0482338 0
0.655207 0.00848402 0
0.718288 0 0
0.771099 0 0
0.813413 0.0284733 0
0.827131 0.130205 0
0.825147 0.231479 0
0.818967 0.332189 0
0.811917 0.429129 0
0.807843 0.525963 0.0225223
0.801923 0.610422 0.0656443
0.796262 0.67834 0.114626
0.79176 0.732631 0.186191
0.787976 0.772717 0.279881
0.784665 0.803571 0.37203
0.781704 0.826658 0.459892
0.779202 0.844572 0.533791
0.77731 0.859236 0.592218
0 0.182574 0
0 0.182956 0
0 0.183337 0
0 0.183642 0
0 0.183841 0
0 0.183886 0
0 0.183795 0
0 0.183459 0
0.0431373 0.183169 0
0.119081 0.18204 0
0.190768 0.178973 0
0.267369 0.173434 0
0.349905 0.165255 0
0.434104 0.154406 0
0.517296 0.142184 0
0.589883 0.128664 0
0.655634 0.115404 0
0.717708 0.10573 0
0.770993 0.113161 0
0.812924 0.150759 0
0.825849 0.212604 0
0.821958 0.289906 0
0.815885 0.373907 0
0.809918 0.458412 0
0.805722 0.545632 0.0128939
0.80058 0.623163 0.0613413
0.795499 0.686213 0.112657
0.791363 0.73727 0.183459
0.787778 0.775402 0.278294
0.784543 0.805188 0.371099
0.781643 0.827588 0.459358
0.779156 0.845167 0.533501
0.777295 0.859586 0.59205
0 0.236851 0
0 0.237247 0
0 0.237644 0
0 0.237934 0
0 0.238148 0
0 0.238285 0
0 0.238331 0
0 0.238224 0
0 0.237812 0
0.0778973 0.239368 0
0.163073 0.238468 0
0.248249 0.235142 0
0.338643 0.229328 0
0.430472 0.221836 0
0.517327 0.213657 0
0.590127 0.20618 0
0.655344 0.201312 0
0.716472 0.201404 0
0.768292 0.213642 0
0.808225 0.244602 0
0.821836 0.291722 0
0.817563 0.351446 0
0.812558 0.419959 0
0.807309 0.493629 0
0.802533 0.568292 0
0.798993 0.637781 0.0556191
0.794583 0.695872 0.110246
0.790875 0.743038 0.179919
0.787533 0.778836 0.276234
0.784405 0.807248 0.369863
0.781567 0.828779 0.458671
0.77911 0.845899 0.53312
0.777264 0.860029 0.591836
0 0.30251 0
0 0.302907 0
0 0.303273 0
0 0.303563 0
0 0.303792 0
0 0.30396 0
0 0.304097 0
0 0.304158 0
0 0.304021 0
0 0.305257 0
0.115679 0.308049 0
0.216083 0.307286 0
0.317281 0.304204 0
0.418112 0.299809 0
0.511009 0.294591 0
0.586816 0.290455 0
0.652293 0.289799 0
0.711925 0.294423 0
0.761456 0.308049 0
0.799451 0.333394 0
0.816205 0.369741 0
0.812848 0.415747 0
0.809003 0.471046 0
0.804166 0.532769 0
0.798795 0.594659 0
0.79704 0.65565 0.0482032
0.793515 0.707469 0.107424
0.790295 0.749996 0.179248
0.787213 0.783139 0.273548
0.784237 0.809857 0.368261
0.781476 0.83032 0.45774
0.779049 0.846891 0.532601
0.777218 0.860624 0.591562
0 0.382239 0
0 0.38262 0
0 0.38294 0
0 0.383215 0
0 0.383429 0
0 0.383612 0
0 0.383795 0
0 0.383932 0
0 0.38407 0
0 0.384161 0
0.0074464 0.388296 0
0.16199 0.392004 0
0.281834 0.391363 0
0.394247 0.3888 0
0.495476 0.385382 0
0.577005 0.382544 0
0.645121 0.382635 0
0.704295 0.387579 0
0.752163 0.399268 0
0.789212 0.418814 0
0.810758 0.446418 0
0.808148 0.482536 0
0.804669 0.526589 0
0.800534 0.575021 0
0.796002 0.625238 0
0.794858 0.676143 0.0388342
0.792309 0.721004 0.10428
0.789624 0.758236 0.178775
0.786847 0.788434 0.270054
0.784009 0.813107 0.366171
0.781338 0.832288 0.45655
0.778973 0.848127 0.531914
0.777173 0.861372 0.591165
0 0.47042 0
0 0.470726 0
0 0.470985 0
0 0.471183 0
0 0.471382 0
0 0.47155 0
0 0.471717 0
0 0.471885 0
0 0.472007 0
0 0.472053 0
0 0.471885 0
0.0632944 0.478355 0
0.228504 0.480156 0
0.359564 0.478141 0
0.471092 0.475425 0
0.561227 0.472953 0
0.634363 0.472908 0
0.695537 0.476921 0
0.742519 0.486564 0
0.77818 0.502358 0
0.804913 0.523751 0
0.802716 0.549905 0
0.799893 0.582315 0
0.796551 0.619394 0
0.793072 0.657191 0
0.792493 0.698726 0.0271611
0.790997 0.736294 0.101122
0.788876 0.76788 0.178607
0.786389 0.794797 0.266148
0.783749 0.81706 0.36347
0.781186 0.834745 0.454963
0.778866 0.849699 0.531029
0.777111 0.862348 0.590661
0 0.558892 0
0 0.559045 0
0 0.559182 0
0 0.559289 0
0 0.55938 0
0 0.559457 0
0 0.559533 0
0 0.559594 0
0 0.559609 0
0 0.559548 0
0 0.559335 0
0 0.558801 0
0.145312 0.565347 0
0.311635 0.564569 0
0.43769 0.562875 0
0.539483 0.560937 0
0.618219 0.560433 0
0.682704 0.562875 0
0.73048 0.569253 0
0.765393 0.580011 0
0.792813 0.595178 0
0.797055 0.613962 0
0.795041 0.635599 0
0.79266 0.66186 0
0.790204 0.690623 0
0.78999 0.722515 0.0128176
0.789654 0.752865 0.0984817
0.788037 0.779004 0.178973
0.78584 0.802213 0.267506
0.783444 0.821805 0.359991
0.781003 0.837812 0.452888
0.778729 0.851698 0.529854
0.77702 0.863569 0.590005
0 0.636744 0
0 0.636805 0
0 0.636851 0
0 0.636881 0
0 0.636896 0
0 0.636912 0
0 0.636927 0
0 0.636896 0
0 0.636851 0
0 0.636698 0
0 0.636408 0
0 0.635874 0
0 0.638086 0
0.24654 0.640955 0
0.39617 0.639612 0
0.511421 0.637797 0
0.597589 0.636728 0
0.665843 0.637751 0
0.71548 0.641413 0
0.75111 0.647959 0
0.778195 0.657618 0
0.791943 0.670069 0
0.790661 0.685191 0
0.789197 0.703212 0
0.78764 0.723445 0
0.787228 0.746029 0
0.788357 0.770153 0.0972
0.787121 0.791409 0.180377
0.785199 0.810666 0.269718
0.783093 0.827298 0.356558
0.780758 0.84155 0.450202
0.778576 0.854154 0.528298
0.776913 0.86511 0.589136
0 0.707088 0
0 0.707073 0
0 0.707057 0
0 0.707042 0
0 0.707012 0
0 0.706966 0
0 0.706905 0
0 0.706813 0
0 0.706645 0
0 0.706401 0
0 0.705974 0
0 0.705303 0
0 0.704234 0
0.159716 0.709438 0
0.350011 0.707805 0
0.48069 0.705303 0
0.575204 0.702953 0
0.646662 0.702327 0
0.698497 0.70367 0
0.735973 0.70695 0
0.76408 0.71223 0
0.784375 0.719844 0
0.787213 0.729152 0
0.786389 0.740566 0
0.785489 0.753735 0
0.784527 0.768261 0
0.787076 0.788159 0.0980697
0.78616 0.804715 0.18352
0.784512 0.819913 0.273243
0.782605 0.833524 0.359625
0.780484 0.846006 0.446662
0.778393 0.857114 0.526268
0.776791 0.867018 0.587991
0 0.765652 0
0 0.765591 0
0 0.76553 0
0 0.765454 0
0 0.765362 0
0 0.76527 0
0 0.765148 0
0 0.764965 0
0 0.764706 0
0 0.764324 0
0 0.763745 0
0 0.76289 0
0 0.7617 0
0.0644694 0.764691 0
0.312535 0.763348 0
0.456046 0.759747 0
0.557061 0.756054 0
0.629725 0.753964 0
0.682704 0.753552 0
0.72195 0.754467 0
0.751431 0.75668 0
0.772747 0.760433 0
0.78471 0.765576 0
0.784268 0.772335 0
0.783719 0.780819 0
0.783413 0.791211 0
0.78587 0.806134 0.102632
0.785183 0.81828 0.189364
0.783764 0.829602 0.278645
0.78204 0.840589 0.363958
0.780118 0.851102 0.446586
0.77818 0.860639 0.523644
0.776638 0.869352 0.58648
0 0.809644 0
0 0.809537 0
0 0.809415 0
0 0.809308 0
0 0.809186 0
0 0.809049 0
0 0.808881 0
0 0.808637 0
0 0.808301 0
0 0.807813 0
0 0.807126 0
0 0.80621 0
0 0.804944 0
0.0153658 0.806332 0
0.298024 0.804776 0
0.445197 0.80029 0
0.546838 0.795773 0
0.618097 0.792813 0
0.670222 0.791409 0
0.709987 0.791028 0
0.740337 0.791562 0
0.762646 0.793194 0
0.780011 0.796002 0
0.782528 0.799878 0
0.782193 0.805142 0
0.783612 0.813626 0.0117342
0.784787 0.823102 0.112795
0.784237 0.831418 0.199115
0.782971 0.83975 0.28658
0.781399 0.84831 0.370108
0.779644 0.856733 0.450919
0.77792 0.864668 0.521309
0.776455 0.872145 0.584497
0 0.843336 0
0 0.843183 0
0 0.843061 0
0 0.842893 0
0 0.842756 0
0 0.842603 0
0 0.842374 0
0 0.842084 0
0 0.841688 0
0 0.841154 0
0 0.840467 0
0 0.839521 0
0 0.83827 0
0.0829175 0.839857 0
0.313344 0.83621 0
0.450095 0.83125 0
0.544579 0.826444 0
0.611551 0.823102 0
0.66125 0.821164 0
0.70013 0.820066 0
0.730434 0.819669 0
0.753521 0.819989 0
0.771771 0.821057 0
0.781079 0.822934 0
0.780896 0.825757 0
0.783261 0.832517 0.0434119
0.783825 0.838453 0.130251
0.783261 0.84416 0.213657
0.782116 0.850111 0.29781
0.780713 0.856428 0.378622
0.779095 0.862791 0.456809
0.777523 0.869032 0.525093
0.776242 0.875395 0.581903
0 0.867781 0
0 0.867613 0
0 0.867445 0
0 0.867277 0
0 0.867109 0
0 0.866941 0
0 0.866712 0
0 0.866407 0
0 0.866011 0
0 0.865476 0
0 0.864775 0
0 0.863844 0
0 0.862638 0
0.19855 0.863249 0
0.357458 0.858427 0
0.471763 0.853452 0
0.551461 0.848905 0
0.611124 0.845624 0
0.65684 0.843534 0
0.693736 0.84213 0
0.72282 0.84126 0
0.745922 0.840879 0
0.764675 0.841016 0
0.779065 0.841794 0
0.779782 0.843168 0
0.782727 0.849027 0.0793469
0.782864 0.852674 0.155901
0.782254 0.856306 0.233967
0.781216 0.860243 0.312642
0.779965 0.864561 0.390234
0.778515 0.869062 0.464744
0.777096 0.873838 0.530098
0.775952 0.87895 0.584298
0 0.886076 0
0 0.885924 0
0 0.885756 0
0 0.885588 0
0 0.885405 0
0 0.885237 0
0 0.885023 0
0 0.884718 0
0 0.884321 0
0 0.883818 0
0 0.883146 0
0 0.882277 0
0.177066 0.882765 0
0.314733 0.878721 0
0.420294 0.874418 0
0.503624 0.869993 0
0.565454 0.866148 0
0.615625 0.863325 0
0.656306 0.861326 0
0.690181 0.859831 0
0.717311 0.858793 0
0.739635 0.858106 0
0.758282 0.85774 0
0.772976 0.857832 0
0.781369 0.86125 0.0464332
0.78204 0.863386 0.120745
0.781872 0.865278 0.190082
0.781231 0.867292 0.261036
0.780301 0.869627 0.332433
0.779171 0.872358 0.405447
0.777874 0.875425 0.475242
0.776608 0.878889 0.536675
0.775616 0.882811 0.588235
0 0.899565 0
0 0.899413 0
0 0.89926 0
0 0.899107 0
0 0.898939 0
0 0.898772 0
0 0.898573 0
0 0.898299 0
0 0.897932 0
0.0848096 0.899046 0
0.184741 0.897734 0
0.269551 0.895247 0
0.346563 0.892287 0
0.41944 0.889082 0
0.483879 0.885618 0
0.537957 0.882231 0
0.584573 0.879347 0
0.624582 0.877089 0
0.659571 0.875303 0
0.689509 0.873884 0
0.714122 0.872801 0
0.735225 0.871946 0
0.753109 0.871321 0
0.770092 0.873732 0.0379034
0.78114 0.874693 0.105913
0.781216 0.875288 0.168399
0.780835 0.875959 0.231174
0.780179 0.876875 0.294865
0.779355 0.878157 0.358129
0.778332 0.879759 0.424811
0.777188 0.881682 0.488884
0.776104 0.884001 0.545144
0.77525 0.886809 0.593347
0.206378 0.90901 0
0.222583 0.908537 0
0.23772 0.908064 0
0.251896 0.907576 0
0.265263 0.907103 0
0.278447 0.906645 0
0.294408 0.906035 0
0.313481 0.905272 0
0.33608 0.904326 0
0.36286 0.903197 0
0.394415 0.901808 0
0.428931 0.900099 0
0.465446 0.8981 0
0.503288 0.895872 0
0.538506 0.893538 0
0.573388 0.89131 0
0.606348 0.889357 0
0.637461 0.887633 0
0.666148 0.886168 0
0.691508 0.884916 0
0.714946 0.885801 0.0104829
0.735195 0.885893 0.0444648
0.752377 0.885725 0.0750896
0.766613 0.885618 0.11722
0.778271 0.885451 0.167117
0.780224 0.885145 0.220661
0.779751 0.885054 0.276783
0.779126 0.885237 0.332601
0.778363 0.88574 0.390417
0.777447 0.886473 0.448676
0.776471 0.887495 0.505486
0.77557 0.888899 0.555856
0.774884 0.890791 0.599847
0.446067 0.912352 0.100526
0.450996 0.912077 0.100481
0.455772 0.911803 0.100435
0.46041 0.911543 0.100389
0.464912 0.911284 0.100359
0.469459 0.911009 0.100328
0.475135 0.910689 0.100298
0.482322 0.910262 0.100298
0.491341 0.909728 0.100282
0.502449 0.909041 0.100328
0.515496 0.908217 0.100435
0.529839 0.907225 0.10071
0.546975 0.906081 0.101228
0.566339 0.904845 0.102144
0.587381 0.903532 0.10367
0.609583 0.90222 0.10605
0.632807 0.900923 0.109529
0.656107 0.899702 0.114427
0.678477 0.898573 0.121111
0.698924 0.897581 0.129976
0.717784 0.896666 0.141543
0.735088 0.895827 0.156329
0.750271 0.895079 0.174716
0.763256 0.894392 0.197375
0.774166 0.893767 0.233188
0.779126 0.893065 0.277363
0.778653 0.892546 0.324681
0.778073 0.892241 0.374762
0.777356 0.892119 0.426398
0.776562 0.892256 0.476844
0.775753 0.892638 0.524651
0.775051 0.8934 0.568963
0.774502 0.894606 0.607935
0.55462 0.910048 0.215641
0.556558 0.909987 0.215671
0.558465 0.909941 0.215717
0.560327 0.90988 0.215747
0.562158 0.909819 0.215793
0.564034 0.909773 0.215824
0.566415 0.909697 0.2159
0.569467 0.909621 0.215976
0.573373 0.909514 0.216114
0.578286 0.909377 0.216297
0.584421 0.909239 0.216556
0.591989 0.909056 0.216953
0.601236 0.908873 0.217533
0.612284 0.90869 0.218372
0.625345 0.908248 0.219867
0.639872 0.907423 0.221622
0.65565 0.906554 0.224063
0.672129 0.905653 0.227466
0.688563 0.904768 0.232044
0.704616 0.903899 0.238117
0.720394 0.903014 0.246036
0.735256 0.902159 0.256275
0.748592 0.901335 0.269337
0.760418 0.900572 0.285786
0.770672 0.89987 0.305806
0.777996 0.899092 0.336706
0.777569 0.89839 0.376287
0.777005 0.897765 0.419867
0.776364 0.897307 0.464118
0.775692 0.897063 0.507439
0.775067 0.897093 0.547036
0.774548 0.897475 0.584344
0.774136 0.898161 0.617624
0.616739 0.90779 0.320134
0.617716 0.907774 0.320195
0.618677 0.907759 0.320256
0.619623 0.907759 0.320317
0.620569 0.907744 0.320363
0.621546 0.907729 0.320439
0.622782 0.907713 0.320516
0.624399 0.907698 0.320623
0.62649 0.907668 0.32076
0.629175 0.907637 0.320958
0.632593 0.907607 0.321233
0.636912 0.907561 0.321569
0.642252 0.907515 0.322072
0.648783 0.907485 0.322759
0.656565 0.907439 0.323674
0.665614 0.907423 0.324941
0.675776 0.907423 0.32665
0.686748 0.907454 0.328954
0.698589 0.907485 0.332021
0.711086 0.907546 0.336095
0.72401 0.907164 0.341741
0.736339 0.906416 0.348775
0.747784 0.905684 0.357885
0.758343 0.904952 0.369711
0.767666 0.904265 0.38471
0.775464 0.903609 0.403021
0.776425 0.902815 0.431403
0.775952 0.902083 0.465843
0.775418 0.901473 0.502632
0.774899 0.901061 0.537362
0.774441 0.900877 0.570779
0.774075 0.900969 0.601434
0.773785 0.90132 0.628779
0.658885 0.906386 0.415885
0.659388 0.906386 0.41593
0.659907 0.906386 0.415991
0.66041 0.906386 0.416037
0.660914 0.906386 0.416083
0.661433 0.906386 0.416144
0.662089 0.906386 0.41622
0.662959 0.906386 0.416297
0.664088 0.906386 0.416434
