BBLuts/BB_106_0380_LUT.cube
TITLE "Generated by Resolve"
LUT_3D_SIZE 5
0.0249027 0.0265354 0.0293431
0.194858 0.0281987 0.0305028
0.71545 0.0143893 0.0153964
0.832929 0.58854 0.198169
0.791012 0.898604 0.816022
0.00448615 0.231907 0.0294347
0.152956 0.235065 0.0292058
0.714183 0.0899519 0.0148013
0.827314 0.64065 0.168887
0.790951 0.899321 0.815702
0 0.779202 0.0358282
0 0.778775 0.0357366
0.633585 0.770169 0.0330205
0.809491 0.815656 0.0412757
0.790509 0.904341 0.813169
0.55346 0.94139 0.321187
0.579019 0.939818 0.321202
0.679591 0.93286 0.331228
0.792203 0.924697 0.474144
0.78851 0.924392 0.824826
0.770047 0.93077 0.879408
0.77026 0.93077 0.879438
0.771893 0.93077 0.879637
0.781857 0.930816 0.881529
0.787259 0.930785 0.897719
0.0241703 0.0267185 0.216068
0.174273 0.028275 0.217044
0.714168 0.0144656 0.207996
0.833738 0.575113 0.363973
0.790951 0.89839 0.824186
0.00750744 0.198657 0.200397
0.162509 0.195514 0.195789
0.71487 0.0144808 0.191562
0.827771 0.632288 0.343999
0.79089 0.899107 0.823896
0 0.776211 0.0351873
0 0.775738 0.0350958
0.637659 0.767376 0.0328222
0.808484 0.813931 0.180987
0.790448 0.904158 0.821637
0.557412 0.941192 0.320439
0.582406 0.939544 0.320546
0.680644 0.932769 0.330877
0.792264 0.924666 0.474083
0.78851 0.924392 0.824796
0.770092 0.93077 0.879423
0.770306 0.93077 0.879438
0.771908 0.93077 0.879622
0.781872 0.930816 0.881514
0.787259 0.930785 0.897719
0.0183108 0.0226139 0.767971
0.0183108 0.0226139 0.768139
0.714595 0.0112459 0.760021
0.848295 0.363455 0.796506
0.790784 0.896864 0.865568
0.0183108 0.0226139 0.76669
0.0183108 0.0226139 0.766857
0.720943 0.0115358 0.758785
0.836744 0.517845 0.793439
0.790707 0.897627 0.8654
0 0.733394 0.743496
0 0.733684 0.743755
0.619974 0.72604 0.743145
0.802869 0.791302 0.764767
0.790234 0.902922 0.864164
0.557137 0.936614 0.628168
0.580591 0.934798 0.627543
0.675013 0.928237 0.630793
0.785946 0.920989 0.688853
0.788327 0.924025 0.853758
0.770352 0.93077 0.879377
0.77055 0.93077 0.879408
0.772137 0.93077 0.879591
0.781964 0.930816 0.881498
0.787259 0.930785 0.897704
0.0193637 0.0249485 0.942153
0.0193637 0.0249485 0.942153
0.0193637 0.0249485 0.942153
0.860014 0.0304112 0.945602
0.792187 0.877958 0.934432
0.0193637 0.0249485 0.942153
0.0193637 0.0249485 0.942153
0.0193637 0.0249485 0.942153
0.860014 0.0304112 0.945602
0.792035 0.87953 0.934325
0.0193637 0.0249485 0.942153
0.0193637 0.0249485 0.942153
0.226596 0.0248264 0.941863
0.860014 0.0304112 0.945602
0.791089 0.889738 0.933547
0 0.952117 0.953887
0 0.951797 0.953948
0.570413 0.925917 0.932784
0.773129 0.913802 0.928298
0.788159 0.921569 0.930724
0.768887 0.930785 0.914412
0.769085 0.930785 0.914427
0.770611 0.930785 0.914504
0.780133 0.930831 0.915312
0.787152 0.9308 0.922164
0 0.365042 0.943725
0 0.365042 0.943725
0 0.365057 0.943709
0 0.365225 0.943725
0.808423 0.745281 0.949233
0 0.365011 0.943725
0 0.365011 0.943725
0 0.365042 0.943725
0 0.365194 0.943709
0.808423 0.745342 0.949233
0 0.364889 0.943725
0 0.364889 0.943725
0 0.364904 0.943725
0 0.365072 0.943709
0.808331 0.745846 0.949203
0 0.363561 0.943709
0 0.363561 0.943709
0 0.363577 0.943709
0.860014 0.0304112 0.945602
0.808057 0.747707 0.949096
0.733089 0.930587 0.945449
0.734035 0.930587 0.945449
0.740719 0.930617 0.945464
0.769741 0.930785 0.945495
0.787259 0.93109 0.945739
