BBLuts/BB_102_0280_LUT.cube
TITLE "Generated by Resolve"
LUT_3D_SIZE 33
0 0 0
0 0 0
0 0 0
0 0 0
0.00148013 0 0
0.0350652 0 0
0.0783856 0 0
0.113191 0 0
0.150729 0 0
0.198154 0 0
0.256474 0 0
0.324834 0 0
0.402106 0 0
0.503365 0 0
0.647227 0 0
0.80943 0 0
0.97113 0 0
1 0 0
1 0 0
1 0 0
1 0 0
1 0 0
1 0.304143 0
1 0.525643 0.0867781
1 0.685771 0.181231
1 0.819913 0.274006
1 0.934249 0.37644
1 1 0.504601
1 1 0.659083
1 1 0.788144
1 1 0.855894
1 1 0.91342
1 1 0.960983
0 0 0
0 0 0
0 0 0
0 0 0
0.00184634 0 0
0.0428168 0 0
0.0812695 0 0
0.115709 0 0
0.155077 0 0
0.203555 0 0
0.26244 0 0
0.329656 0 0
0.403708 0 0
0.505653 0 0
0.64976 0 0
0.810987 0 0
0.972412 0 0
1 0 0
1 0 0
1 0 0
1 0 0
1 0 0
1 0.339437 0
1 0.543648 0.0513008
1 0.694606 0.174472
1 0.825513 0.270909
1 0.937087 0.375494
1 1 0.504463
1 1 0.658671
1 1 0.788006
1 1 0.855848
1 1 0.91339
1 1 0.960967
0 0 0
0 0 0
0 0 0
0 0 0
0.00189212 0 0
0.0469673 0 0
0.0816358 0 0
0.117678 0 0
0.159197 0 0
0.20734 0 0
0.264988 0 0
0.330739 0 0
0.405859 0 0
0.508507 0 0
0.652338 0 0
0.813184 0 0
0.973083 0 0
1 0 0
1 0 0
1 0 0
1 0 0
1 0.0682383 0
1 0.374441 0
1 0.560098 0.02121
1 0.703075 0.168246
1 0.830518 0.268147
1 0.939712 0.37464
1 1 0.504341
1 1 0.658289
1 1 0.787854
1 1 0.855802
1 1 0.913359
1 1 0.960967
0 0 0
0 0 0
0 0 0
0 0 0
0.0100557 0 0
0.0476081 0 0
0.0794385 0 0
0.115267 0 0
0.157519 0 0
0.208347 0 0
0.267399 0 0
0.332769 0 0
0.408515 0 0
0.511437 0 0
0.654948 0 0
0.814786 0 0
0.97438 0 0
1 0 0
1 0 0
1 0 0
1 0 0
1 0.159579 0
1 0.40235 0
1 0.573831 0
1 0.710399 0.162844
1 0.834989 0.26566
1 0.942168 0.373831
1 1 0.504204
1 1 0.657893
1 1 0.787717
1 1 0.855756
1 1 0.913344
1 1 0.960952
0 0.0374914 0
0 0.0410773 0
0 0.0445716 0
0 0.0479896 0
0 0.0493935 0
0.0168307 0.0548104 0
0.0521248 0.0555734 0
0.0906386 0.0519875 0
0.137697 0.0400397 0
0.206241 0 0
0.267582 0 0
0.335134 0 0
0.411109 0 0
0.514443 0 0
0.658259 0 0
0.817044 0 0
0.975662 0 0
1 0 0
1 0 0
1 0 0
1 0 0
1 0.212345 0
1 0.425864 0
1 0.587137 0
1 0.718166 0.155718
1 0.839597 0.262852
1 0.944488 0.373068
1 1 0.504097
1 1 0.657511
1 1 0.787579
1 1 0.855711
1 1 0.913314
1 1 0.960937
0 0.0775921 0
0 0.0804303 0
0 0.0833753 0
0 0.0856641 0
0 0.0868391 0
0 0.0910201 0
0.0355993 0.0948959 0
0.0760967 0.0954452 0
0.122515 0.092607 0
0.17882 0.083772 0
0.24448 0.0638132 0
0.332357 0 0
0.411627 0 0
0.517952 0 0
0.661357 0 0
0.818998 0 0
0.977096 0 0
1 0 0
1 0 0
1 0 0
1 0 0
1 0.256458 0
1 0.446265 0
1 0.598505 0
1 0.725414 0.148806
1 0.844343 0.259709
1 0.947097 0.372213
1 1 0.50399
1 1 0.65716
1 1 0.787427
1 1 0.855665
1 1 0.913283
1 1 0.960922
0 0.119203 0
0 0.121584 0
0 0.123903 0
0 0.125338 0
0 0.12636 0
0 0.12668 0
0.0116579 0.133928 0
0.0595712 0.137041 0
0.108248 0.137102 0
0.165789 0.133333 0
0.230655 0.123568 0
0.304112 0.10605 0
0.389349 0.0726635 0
0.516518 0 0
0.663157 0 0
0.822278 0 0
0.978195 0 0
1 0 0
1 0 0
1 0 0
1 0.0740215 0
1 0.300298 0
1 0.468788 0
1 0.611795 0
1 0.733379 0.141115
1 0.849683 0.256168
1 0.950195 0.371176
1 1 0.503883
1 1 0.656718
1 1 0.787274
1 1 0.855604
1 1 0.913252
1 1 0.960906
0 0.166522 0
0 0.168597 0
0 0.170138 0
0 0.171328 0
0 0.172045 0
0 0.172686 0
0 0.175143 0
0.0324559 0.18291 0
0.0894026 0.185336 0
0.149584 0.184314 0
0.216815 0.178195 0
0.292638 0.167483 0
0.376822 0.150546 0
0.488563 0.122896 0
0.643381 0.0659037 0
0.818753 0 0
0.975784 0 0
1 0 0
1 0 0
1 0.0222324 0
1 0.179828 0
1 0.351553 0
1 0.498161 0
1 0.629602 0
1 0.744915 0.12517
1 0.856748 0.251438
1 0.954314 0.369818
1 1 0.503761
1 1 0.656046
1 1 0.78703
1 1 0.855528
1 1 0.913207
1 1 0.960891
0 0.222477 0
0 0.224079 0
0 0.225162 0
0 0.226032 0
0 0.226658 0
0 0.227329 0
0 0.227634 0
0 0.234821 0
0.0590372 0.240177 0
0.125902 0.240955 0
0.197848 0.23801 0
0.278691 0.230961 0
0.366812 0.21973 0
0.481392 0.202869 0
0.630869 0.1794 0
0.790234 0.14725 0
0.950484 0.101671 0
1 0.0113832 0
1 0.0239261 0
1 0.14873 0
1 0.280186 0
1 0.408667 0
1 0.533669 0
1 0.651316 0
1 0.760342 0.0992905
1 0.866835 0.244221
1 0.959777 0.368002
1 1 0.503578
1 1 0.655131
1 1 0.786679
1 1 0.855406
1 1 0.913146
1 1 0.960845
0 0.28632 0
0 0.287068 0
0 0.287526 0
0 0.287907 0
0 0.288457 0
0 0.288548 0
0 0.288487 0
0 0.288106 0
0.00743114 0.29868 0
0.0908064 0.304082 0
0.170886 0.304585 0
0.25803 0.300954 0
0.352636 0.29337 0
0.473198 0.281743 0
0.625849 0.267704 0
0.783291 0.251453 0
0.938872 0.236164 0
1 0.226413 0
1 0.239307 0
1 0.29073 0
1 0.372641 0
1 0.470848 0
1 0.576608 0
1 0.678935 0.00030518
1 0.78085 0.0609751
1 0.880171 0.234272
1 0.967437 0.365499
1 1 0.503365
1 1 0.653895
1 1 0.786175
1 1 0.855192
1 1 0.913039
1 1 0.9608
0 0.356603 0
0 0.357366 0
0 0.357839 0
0 0.358236 0
0 0.358511 0
0 0.358709 0
0 0.358816 0
0 0.359075 0
0 0.358618 0
0.0276341 0.373816 0
0.13051 0.380056 0
0.226947 0.380118 0
0.330373 0.375845 0
0.457847 0.368551 0
0.617609 0.360082 0
0.777584 0.351278 0
0.931334 0.345403 0
1 0.345983 0
1 0.362264 0
1 0.402106 0
1 0.46273 0
1 0.540429 0
1 0.626322 0
1 0.714199 0.000518807
1 0.80708 0.00361639
1 0.897383 0.222416
1 0.977905 0.362249
1 1 0.503197
1 1 0.652232
1 1 0.785489
1 1 0.854917
1 1 0.912856
1 1 0.960739
0 0.439841 0
0 0.440177 0
0 0.440635 0
0 0.441382 0
0 0.441688 0
0 0.441932 0
0 0.442145 0
0 0.442252 0
0 0.442145 0
0 0.446265 0
0.0578012 0.463645 0
0.179614 0.469871 0
0.296178 0.469932 0
0.429557 0.466957 0
0.597696 0.461738 0
0.76434 0.456794 0
0.919509 0.455848 0
1 0.460548 0
1 0.476234 0
1 0.507927 0
1 0.554177 0
1 0.613001 0
1 0.680339 0.000335698
1 0.756771 0.000244144
1 0.839292 0
1 0.918471 0.208881
1 0.990723 0.35816
1 1 0.50312
1 1 0.65185
1 1 0.784588
1 1 0.854536
1 1 0.912612
1 1 0.960601
0 0.539239 0
0 0.539452 0
0 0.539849 0
0 0.540185 0
0 0.540459 0
0 0.541146 0
0 0.54139 0
0 0.541604 0
0 0.541802 0
0 0.541924 0
0 0.552956 0
0.0999313 0.570977 0
0.244633 0.576089 0
0.385489 0.576089 0
0.560006 0.573571 0
0.737209 0.570413 0
0.898955 0.569421 0
1 0.5738 0
1 0.586557 0
1 0.609873 0
1 0.643549 0
1 0.686976 0.000396735
1 0.742092 0.000381476
1 0.806348 0
1 0.877348 0
1 0.944427 0.188556
1 1 0.353353
1 1 0.503319
1 1 0.653086
1 1 0.783444
1 1 0.854017
1 1 0.912276
1 1 0.960418
0 0.645441 0
0 0.645518 0
0 0.645808 0
0 0.646082 0
0 0.646296 0
0 0.646525 0
0 0.646738 0
0 0.646983 0
0 0.647578 0
0 0.647684 0
0 0.647562 0
0 0.665736 0
0.164767 0.68011 0
0.327153 0.682063 0
0.50576 0.681102 0
0.696651 0.678401 0
0.870466 0.677287 0
1 0.679789 0
1 0.688624 0
1 0.70602 0
1 0.731548 0.000213626
1 0.766064 0.000396735
1 0.809979 0
1 0.86244 0
1 0.919997 0
1 0.974502 0.162448
1 1 0.347417
1 1 0.503944
1 1 0.654978
1 1 0.782025
1 1 0.85333
1 1 0.911833
1 1 0.960189
0 0.752392 0
0 0.752392 0
0 0.752529 0
0 0.752712 0
0 0.752834 0
0 0.752956 0
0 0.753079 0
0 0.753216 0
0 0.753292 0
0 0.753246 0
0 0.753445 0
0 0.752834 0
0.0420386 0.777676 0
0.253697 0.786984 0
0.435386 0.787305 0
0.64097 0.785428 0
0.828977 0.783459 0
0.985504 0.784558 0
1 0.790295 0
1 0.802731 0
1 0.822187 0
1 0.848325 0
1 0.881941 0
1 0.921859 0
1 0.965347 0
1 1 0.126116
1 1 0.342519
1 1 0.505379
1 1 0.657633
1 1 0.782208
1 1 0.85243
1 1 0.911223
1 1 0.959854
0 0.859174 0
0 0.859174 0
0 0.859174 0
0 0.859266 0
0 0.859312 0
0 0.859358 0
0 0.859388 0
0 0.859419 0
0 0.859388 0
0 0.85922 0
0 0.858854 0
0 0.858549 0
0 0.863966 0
0.137423 0.889143 0
0.358495 0.89305 0
0.572457 0.891402 0
0.775265 0.888792 0
0.941131 0.887938 0
1 0.890867 0
1 0.898619 0
1 0.911528 0
1 0.929854 0
1 0.952728 0
1 0.980362 0
1 1 0
1 1 0.0707866
1 1 0.338628
1 1 0.509316
1 1 0.661616
1 1 0.784695
1 1 0.852018
1 1 0.910399
1 1 0.959381
0 0.962264 0
0 0.962264 0
0 0.962264 0
0 0.962264 0
0 0.962249 0
0 0.962234 0
0 0.962173 0
0 0.962097 0
0 0.961913 0
0 0.961578 0
0 0.961028 0
0 0.960098 0
0 0.958968 0
0.0283055 0.982513 0
0.276677 0.991394 0
0.499092 0.990417 0
0.715984 0.986282 0
0.891203 0.983154 0
1 0.982712 0
1 0.985733 0
1 0.992035 0
1 1 0
1 1 0
1 1 0.000564584
1 1 0.00175479
1 1 0.00914015
1 1 0.339666
1 1 0.516396
1 1 0.66833
1 1 0.788083
1 1 0.852338
1 1 0.90956
1 1 0.95874
0 1 0
0 1 0
0 1 0
0 1 0
0 1 0
0 1 0
0 1 0
0 1 0
0 1 0
0 1 0
0 1 0
0 1 0
0 1 0
0 1 0
0.198947 1 0.00425727
0.43772 1 0.00108339
0.66627 1 0
0.847227 1 0
0.981262 1 0
1 1 0
1 1 0.000595102
1 1 0.00210575
1 1 0.00302129
1 1 0.00375372
1 1 0.0043946
1 1 0.0552682
1 1 0.35259
1 1 0.528313
1 1 0.678172
1 1 0.793103
1 1 0.854566
1 1 0.908766
1 1 0.957931
0 1 0
0 1 0
0 1 0
0 1 0
0 1 0
0 1 0
0 1 0
0 1 0
0 1 0
0 1 0
0 1 0
0 1 0
0 1 0
0 1 0
0.144213 1 0.021912
0.403159 1 0.0171664
0.634592 1 0.00843824
0.815869 1 0.00331121
0.949416 1 0.0027924
1 1 0.00392157
1 1 0.00503548
1 1 0.00579843
1 1 0.00628672
1 1 0.00671397
1 1 0.00703441
1 1 0.15523
1 1 0.381079
1 1 0.54612
1 1 0.692134
1 1 0.799786
1 1 0.857954
1 1 0.910826
1 1 0.956985
0 1 0
0 1 0
0 1 0
0 1 0
0 1 0
0 1 0
0 1 0
0 1 0
0 1 0
0 1 0
0 1 0
0 1 0
0 1 0
0 1 0.00726329
0.152392 1 0.0353094
0.397742 1 0.0279393
0.621851 1 0.0178378
0.796368 1 0.0110628
0.925307 1 0.00875868
1 1 0.00862135
1 1 0.00892653
1 1 0.00917067
1 1 0.00924697
1 1 0.009308
1 1 0.00932326
1 1 0.230884
1 1 0.419333
1 1 0.572946
1 1 0.710018
1 1 0.80853
1 1 0.862501
1 1 0.914046
1 1 0.958282
0 1 0.0106508
0 1 0.0106508
0 1 0.0106508
0 1 0.0106508
0 1 0.0106508
0 1 0.0106508
0 1 0.0106508
0 1 0.0106508
0 1 0.0106508
0 1 0.0106355
0 1 0.010193
0 1 0.00961318
0 1 0.00894179
0 1 0.0121157
0.209003 1 0.0430304
0.424567 1 0.0335546
0.631495 1 0.0229038
0.791684 1 0.0158389
0.912535 1 0.0128481
1 1 0.0120241
1 1 0.0118563
1 1 0.0117647
1 1 0.0115816
1 1 0.011368
1 1 0.0243992
1 1 0.304906
1 1 0.469947
1 1 0.607813
1 1 0.732708
1 1 0.818128
1 1 0.868574
1 1 0.918257
1 1 0.960678
0 1 0.0188296
0 1 0.0188296
0 1 0.0188296
0 1 0.0188296
0 1 0.0188296
0 1 0.0188296
0 1 0.0188296
0 1 0.0188296
0 1 0.0188296
0 1 0.0188296
0 1 0.0188296
0 1 0.0183261
0 1 0.0185702
0.00582895 1 0.0434119
0.283879 1 0.0450599
0.480842 1 0.0350042
0.658274 1 0.0250095
0.798703 1 0.0186007
0.90837 1 0.0155642
0.997711 1 0.014435
1 1 0.0139925
1 1 0.0137331
1 1 0.0134432
1 1 0.0206302
1 1 0.234852
1 1 0.401129
1 1 0.532799
1 1 0.652506
1 1 0.759533
1 1 0.827817
1 1 0.876326
1 1 0.923751
1 1 0.963973
0 1 0.0252079
0 1 0.0252079
0 1 0.0252079
0 1 0.0252079
0 1 0.0252079
0 1 0.0252079
0 1 0.0252079
0 1 0.0252079
0 1 0.0252079
0 1 0.0252079
0 1 0.0252079
0 1 0.0252079
0 1 0.0249638
0.198398 1 0.0529335
0.377859 1 0.0433661
0.553491 1 0.0333715
0.699321 1 0.0250248
0.817304 1 0.0198367
0.913573 1 0.0171817
0.994186 1 0.0160067
1 1 0.0175937
1 1 0.0206302
1 1 0.0242771
1 1 0.212039
1 1 0.370138
1 1 0.493599
1 1 0.603845
1 1 0.707683
1 1 0.789746
1 1 0.841398
1 1 0.886671
1 1 0.930556
1 1 0.9682
0.158663 1 0.063798
0.158663 1 0.063798
0.158663 1 0.063798
0.158663 1 0.063798
0.158648 1 0.063798
0.158648 1 0.063798
0.158648 1 0.063798
0.158648 1 0.063798
0.158633 1 0.063798
0.158618 1 0.063798
0.158618 1 0.063798
0.158572 1 0.063798
0.158541 1 0.063798
0.317968 1 0.0559854
0.490745 1 0.0464179
0.632044 1 0.0382239
0.748241 1 0.0324559
0.844022 1 0.0290379
0.927047 1 0.0273747
0.997162 1 0.0268254
1 1 0.131487
1 1 0.237629
1 1 0.313191
1 1 0.39881
1 1 0.491951
1 1 0.58674
1 1 0.678523
1 1 0.760266
1 1 0.819684
1 1 0.858366
1 1 0.899565
1 1 0.939345
1 1 0.973373
0.463569 1 0.384955
0.463569 1 0.384955
0.463569 1 0.384955
0.463569 1 0.384955
0.463569 1 0.384955
0.463569 1 0.384955
0.463569 1 0.384955
0.463569 1 0.384955
0.463569 1 0.384955
0.463554 1 0.384955
0.463554 1 0.384955
0.463554 1 0.384955
0.463523 1 0.384955
0.463493 1 0.384955
0.580987 1 0.385092
0.699489 1 0.387961
0.790204 1 0.393957
0.867521 1 0.402777
0.936812 1 0.415595
0.995682 1 0.432197
1 1 0.453437
1 1 0.479896
1 1 0.513054
1 1 0.552163
1 1 0.609781
1 1 0.680156
1 1 0.750271
1 1 0.806821
1 1 0.84303
1 1 0.87863
1 1 0.915236
1 1 0.949828
1 1 0.97995
0.683558 1 0.596628
0.683558 1 0.596628
0.683558 1 0.596628
0.683558 1 0.596628
0.683558 1 0.596628
0.683558 1 0.596628
0.683558 1 0.596628
0.683558 1 0.596628
0.683558 1 0.596628
0.683558 1 0.596628
0.683558 1 0.596628
0.683558 1 0.596628
0.683543 1 0.596628
0.683543 1 0.596628
0.683513 1 0.596628
0.756359 1 0.598154
0.834699 1 0.602152
0.898558 1 0.607263
0.954818 1 0.614191
1 1 0.623865
1 1 0.63624
1 1 0.652186
1 1 0.672541
1 1 0.699153
1 1 0.728206
1 1 0.76704
1 1 0.808621
1 1 0.838773
1 1 0.869657
1 1 0.901518
1 1 0.932952
1 1 0.962005
1 1 0.98761
0.823209 1 0.757321
0.823209 1 0.757321
0.823209 1 0.757321
0.823209 1 0.757321
0.823209 1 0.757321
0.823209 1 0.757321
0.823209 1 0.757321
0.823209 1 0.757321
0.823178 1 0.757321
0.823178 1 0.757321
0.823178 1 0.757321
0.823178 1 0.757321
0.823178 1 0.757321
0.823178 1 0.757321
0.823163 1 0.757321
0.823163 1 0.757321
0.873411 1 0.75903
0.929671 1 0.762081
0.974746 1 0.765896
1 1 0.770626
1 1 0.777142
1 1 0.784787
1 1 0.794217
1 1 0.8056
1 1 0.818692
1 1 0.829297
1 1 0.847578
1 1 0.871183
1 1 0.897795
1 1 0.925475
1 1 0.951598
1 1 0.975357
1 1 0.996368
0.920928 1 0.843549
0.920928 1 0.843549
0.920928 1 0.843549
0.920928 1 0.843549
0.920928 1 0.843549
0.920928 1 0.843549
0.920928 1 0.843549
0.920928 1 0.843549
0.920928 1 0.843549
