BBLuts/BB_103_0660_LUT.cube
TITLE "Generated by Resolve"
LUT_3D_SIZE 5
0.0180209 0.0180209 0.0180209
0.188678 0.0180209 0.0180209
0.703578 0.0180209 0.0180209
0.909499 0.452003 0.137896
0.909499 0.857023 0.706889
0.0180209 0.206424 0.0180209
0.167224 0.208499 0.0180209
0.709651 0.100038 0.0180209
0.909499 0.525628 0.102968
0.909499 0.858381 0.706279
0.0180209 0.707774 0.0180209
0.0180209 0.707362 0.0180209
0.664118 0.697444 0.0180209
0.909499 0.742565 0.0180209
0.909499 0.867124 0.701793
0.538277 0.908125 0.207279
0.5823 0.906966 0.20943
0.732235 0.901213 0.226474
0.903319 0.892515 0.356985
0.909499 0.898344 0.72369
0.878523 0.909499 0.805066
0.878965 0.909499 0.805112
0.88217 0.909499 0.805463
0.899702 0.909499 0.808682
0.909499 0.909499 0.833295
0.0180209 0.0180209 0.19147
0.169482 0.0180209 0.191394
0.703349 0.0180209 0.193362
0.909499 0.434684 0.289174
0.909499 0.856672 0.72195
0.0180209 0.176135 0.176715
0.172793 0.172793 0.172793
0.70425 0.0180209 0.178744
0.909499 0.514015 0.273136
0.909499 0.858045 0.721416
0.0180209 0.704433 0.0180209
0.0180209 0.70399 0.0180209
0.668864 0.694087 0.0180209
0.909499 0.740917 0.107103
0.909499 0.866865 0.717464
0.545632 0.907897 0.206806
0.587915 0.906752 0.208988
0.733898 0.901091 0.226108
0.903426 0.89247 0.356939
0.909499 0.898314 0.723598
0.878569 0.909499 0.805066
0.879026 0.909499 0.805112
0.882231 0.909499 0.805447
0.899718 0.909499 0.808667
0.909499 0.909499 0.833295
0.0180209 0.0180209 0.683299
0.0180209 0.0180209 0.683497
0.708705 0.0180209 0.679515
0.909499 0.186984 0.696559
0.90988 0.854109 0.790555
0.0180209 0.0180209 0.681743
0.0180209 0.0180209 0.681956
0.716869 0.0180209 0.677836
0.909499 0.37377 0.693141
0.909499 0.855573 0.790249
0.0180209 0.658854 0.649027
0.0180209 0.659205 0.649287
0.650477 0.650477 0.650477
0.909499 0.718059 0.670985
0.909499 0.864973 0.788144
0.548058 0.906676 0.52958
0.588846 0.905577 0.530373
0.731075 0.900053 0.536812
0.899031 0.891539 0.592996
0.909499 0.897856 0.772503
0.879103 0.909499 0.805005
0.879545 0.909499 0.805051
0.882689 0.909499 0.805386
0.899901 0.909499 0.808621
0.909499 0.909499 0.833295
0.0180209 0.0180209 0.909499
0.0180209 0.0180209 0.909499
0.0180209 0.0180209 0.909499
0.909499 0.0180209 0.909499
0.909499 0.821057 0.893202
0.0180209 0.0180209 0.909499
0.0180209 0.0180209 0.909499
0.0180209 0.0180209 0.909499
0.909499 0.0180209 0.909499
0.909499 0.824247 0.892973
0.0180209 0.0180209 0.909499
0.0180209 0.0180209 0.909499
0.324742 0.0180209 0.909499
0.909499 0.0180209 0.909499
0.909499 0.843412 0.891539
0.0180209 0.907729 0.885359
0.0180209 0.906035 0.885206
0.600702 0.895689 0.884306
0.883635 0.883635 0.883635
0.909499 0.894133 0.886931
0.876249 0.909499 0.865751
0.876677 0.909499 0.865766
0.879744 0.909499 0.865873
0.896681 0.909499 0.866926
0.909499 0.909499 0.875624
0.0180209 0.276265 0.909499
0.0180209 0.276265 0.909499
0.0180209 0.27628 0.909499
0.0180209 0.276432 0.909499
0.909499 0.62536 0.909499
0.0180209 0.276265 0.909499
0.0180209 0.276265 0.909499
0.0180209 0.276265 0.909499
0.0180209 0.276417 0.909499
0.909499 0.625467 0.909499
0.0180209 0.276158 0.909499
0.0180209 0.276158 0.909499
0.0180209 0.276158 0.909499
0.356466 0.257923 0.909499
0.909499 0.626291 0.909499
0.0180209 0.27509 0.909499
0.0180209 0.27509 0.909499
0.0180209 0.275105 0.909499
0.909499 0.0180209 0.909499
0.909499 0.628931 0.909499
0.816373 0.909499 0.909499
0.818357 0.909499 0.909499
0.831388 0.909499 0.909499
0.880827 0.909499 0.909499
0.909499 0.909499 0.909499
