BBLuts/BB_102_0190_LUT.cube
TITLE "Generated by Resolve"
LUT_3D_SIZE 9
0 0 0
0 0 0
0.172229 0 0
0.405829 0 0
0.709804 0 0
0.927474 0 0
0.901381 0.551232 0.0436103
0.88394 0.857893 0.320195
0.875837 0.97145 0.644297
0 0.0396735 0
0 0.0493019 0
0.175357 0.0279545 0
0.41326 0 0
0.711971 0 0
0.927337 0 0
0.899351 0.576516 0.0324102
0.883772 0.860075 0.319173
0.875837 0.971633 0.644205
0 0.197925 0
0 0.201587 0
0.118425 0.201434 0
0.410346 0.178775 0
0.711574 0.0803998 0
0.917617 0.211994 0
0.89633 0.607767 0.0104982
0.883497 0.86363 0.317586
0.875807 0.971923 0.644038
0 0.462135 0
0 0.463142 0
0 0.46424 0
0.326406 0.466392 0
0.692241 0.454994 0
0.898558 0.509865 0
0.889082 0.686107 0
0.882551 0.876448 0.315923
0.875715 0.973251 0.643275
0 0.769268 0
0 0.769253 0
0 0.769024 0
0 0.766934 0
0.607431 0.766705 0
0.847684 0.771817 0
0.87924 0.821378 0
0.880156 0.90959 0.324208
0.875364 0.978195 0.640314
0 0.941939 0
0 0.941939 0
0 0.941939 0
0 0.937881 0
0.558877 0.937774 0
0.790066 0.930037 0
0.870939 0.932494 0
0.8766 0.960113 0.36556
0.874388 0.991257 0.642298
0.48426 1 0.131914
0.48426 1 0.131914
0.48426 1 0.131914
0.484245 1 0.131914
0.643519 1 0.146731
0.781674 1 0.185962
0.86389 1 0.283665
0.87361 1 0.479652
0.872847 1 0.670893
0.757946 1 0.551858
0.757946 1 0.551873
0.757946 1 0.551873
0.757946 1 0.551873
0.757931 1 0.551873
0.805371 1 0.558816
0.854795 1 0.579034
0.872038 1 0.631571
0.871656 1 0.730007
0.838331 1 0.764004
0.838331 1 0.764004
0.838331 1 0.764004
0.838331 1 0.764004
0.838331 1 0.764004
0.838331 1 0.764004
0.856031 1 0.766903
0.871412 1 0.775021
0.87129 1 0.795529
0 0 0.0253452
0 0 0.0256809
0.170733 0 0.0217594
0.4065 0 0.0175784
0.710628 0 0.0099031
0.929183 0 0.00610361
0.902098 0.549416 0.0650187
0.88394 0.857862 0.320211
0.875837 0.971435 0.644312
0 0.0141604 0.0201267
0.0184787 0.0261234 0.0184787
0.184024 0 0.0166781
0.408698 0 0.0104524
0.710323 0 0
0.927916 0 0
0.899992 0.575143 0.0495766
0.883772 0.860044 0.319188
0.875837 0.971633 0.644205
0 0.187213 0
0 0.190494 0
0.136095 0.190677 0
0.408591 0.16762 0
0.709514 0.0486763 0
0.918379 0.197192 0
0.897017 0.606836 0.0241855
0.883497 0.86363 0.317586
0.875807 0.971908 0.644038
0 0.456947 0
0 0.457862 0
0 0.458839 0
0.337087 0.460578 0
0.691814 0.450141 0
0.898634 0.506355 0
0.889143 0.685252 0
0.882551 0.876448 0.315923
0.875715 0.973251 0.643275
0 0.767712 0
0 0.767697 0
0 0.767437 0
0 0.765332 0
0.609751 0.765423 0
0.847761 0.770962 0
0.879255 0.821073 0
0.880156 0.90959 0.324208
0.875364 0.978195 0.640314
0 0.941558 0
0 0.941634 0
0 0.941634 0
0 0.937621 0
0.560769 0.937545 0
0.79028 0.929885 0
0.870939 0.932418 0
0.8766 0.960113 0.36556
0.874388 0.991257 0.642298
0.487785 1 0.131762
0.487785 1 0.131762
0.48777 1 0.131762
0.487755 1 0.131762
0.644419 1 0.146532
0.781826 1 0.185779
0.86392 1 0.28365
0.87361 1 0.479652
0.872847 1 0.670893
0.758144 1 0.551858
0.758144 1 0.551858
0.758144 1 0.551858
0.758144 1 0.551858
0.758144 1 0.551858
0.805447 1 0.558801
0.854826 1 0.579019
0.872038 1 0.631571
0.871656 1 0.730007
0.838346 1 0.764004
0.838346 1 0.764004
0.838346 1 0.764004
0.838346 1 0.764004
0.838346 1 0.764004
0.838346 1 0.764004
0.856046 1 0.766903
0.871412 1 0.775021
0.87129 1 0.795529
0 0 0.139452
0 0 0.139712
0.142763 0 0.135729
0.416648 0 0.127016
0.712428 0 0.121614
0.931594 0 0.131365
0.904692 0.540261 0.190372
0.884108 0.857389 0.34934
0.875837 0.971435 0.644312
0 0 0.137179
0 0 0.137545
0.164096 0 0.132723
0.415656 0 0.124102
0.713527 0 0.118029
0.931319 0 0.124666
0.902846 0.567788 0.184237
0.88394 0.859602 0.348302
0.875837 0.971633 0.644205
0 0.160098 0.125505
0 0.162844 0.12546
0.125383 0.158251 0.121172
0.398322 0.138888 0.119844
0.711879 0 0.109926
0.925246 0.146731 0.12256
0.900526 0.601755 0.175082
0.88368 0.863203 0.346517
0.875807 0.971908 0.644038
0 0.445045 0.0586252
0 0.446418 0.0588693
0 0.447318 0.0598917
0.338781 0.448936 0.0620432
0.690379 0.439597 0.0615702
0.902815 0.497627 0.0700236
0.894423 0.685908 0.139284
0.882704 0.876112 0.339757
0.875715 0.973251 0.643275
0 0.764752 0
0 0.764752 0
0 0.764477 0
0 0.762387 0
0.611917 0.762234 0
0.847745 0.768399 0
0.881132 0.821591 0.00924697
0.880171 0.909453 0.325505
0.875364 0.978195 0.640314
0 0.941085 0
0 0.941085 0
0 0.941085 0
0 0.937133 0
0.56405 0.937194 0
0.790784 0.929595 0
0.87097 0.932219 0
0.8766 0.960037 0.365362
0.874388 0.991257 0.642298
0.49247 1 0.131533
0.49247 1 0.131533
0.49247 1 0.131533
0.492454 1 0.131533
0.645624 1 0.146242
0.782208 1 0.18558
0.863966 1 0.283436
0.87361 1 0.479591
0.872847 1 0.670893
0.75845 1 0.551812
0.75845 1 0.551812
0.75845 1 0.551812
0.75845 1 0.551812
0.75845 1 0.551812
0.80557 1 0.558755
0.854856 1 0.578988
0.872038 1 0.631571
0.871656 1 0.730007
0.838376 1 0.764004
0.838376 1 0.764004
0.838376 1 0.764004
0.838376 1 0.764004
0.838376 1 0.764004
0.838376 1 0.764004
0.856062 1 0.766888
0.871412 1 0.775021
0.87129 1 0.795529
0 0 0.361563
0 0 0.361654
0 0 0.361898
0.37818 0 0.352834
0.730907 0 0.345098
0.932082 0 0.353628
0.908293 0.497581 0.407797
0.884703 0.852842 0.500572
0.875822 0.971222 0.656245
0 0 0.360098
0 0 0.36022
0.0071107 0 0.359854
0.39205 0 0.350591
0.729412 0 0.343282
0.93196 0 0.350988
0.906157 0.531945 0.405158
0.884535 0.855207 0.500023
0.875807 0.971405 0.656153
0 0.032639 0.357107
0 0.0349737 0.357214
0.00918593 0.0354009 0.356802
0.398489 0 0.347219
0.7243 0 0.339956
0.931609 0 0.347738
0.903593 0.572534 0.40116
0.88426 0.859007 0.499123
0.875776 0.971695 0.656031
0 0.396155 0.331365
0 0.39707 0.331426
0 0.399115 0.331975
0.322438 0.400473 0.333883
0.679774 0.390494 0.334554
0.908141 0.451499 0.344442
0.897292 0.669795 0.386862
0.883284 0.872724 0.49572
0.875685 0.973037 0.655375
0 0.759228 0.24799
0 0.759228 0.24799
0 0.759441 0.248707
0 0.757427 0.251637
0.611872 0.757748 0.266255
0.851942 0.766018 0.28896
0.886671 0.821759 0.347356
0.88072 0.907805 0.483375
0.875334 0.977981 0.65275
0 0.943221 0.0311284
0 0.943221 0.0311284
0 0.943221 0.0311284
0 0.939498 0.0324407
0.563043 0.939513 0.0427405
0.794888 0.934417 0.142489
0.877348 0.938964 0.270314
0.87686 0.959716 0.450263
0.874388 0.991196 0.645304
0.505837 1 0.130297
0.505837 1 0.130297
0.505837 1 0.130297
0.505837 1 0.130297
0.649317 1 0.145342
0.7832 1 0.184863
0.864179 1 0.283116
0.87361 1 0.479164
0.872847 1 0.670817
0.759503 1 0.551705
0.759503 1 0.551705
0.759503 1 0.551705
0.759503 1 0.551705
0.759503 1 0.551705
0.805966 1 0.558633
0.855009 1 0.578897
0.872038 1 0.631449
0.871656 1 0.729961
0.838483 1 0.763989
0.838483 1 0.763989
0.838483 1 0.763989
0.838483 1 0.763989
0.838483 1 0.763989
0.838483 1 0.763989
0.856092 1 0.766873
0.871412 1 0.775006
0.87129 1 0.795529
0 0 0.650935
0 0 0.650935
0 0 0.651026
0.0745861 0 0.649088
0.699657 0 0.634928
0.930938 0 0.63238
0.920943 0.254429 0.652949
0.885451 0.835615 0.676661
0.875624 0.968811 0.737758
0 0 0.650858
0 0 0.650858
0 0 0.650919
0.0811322 0 0.648554
0.703151 0 0.634424
0.930953 0 0.632013
0.916609 0.336858 0.65275
0.885252 0.83856 0.676326
0.875608 0.968994 0.737697
0 0 0.649882
0 0 0.649882
0 0 0.649943
0.168841 0 0.646082
0.7084 0 0.633234
0.930953 0 0.630961
0.911742 0.423728 0.651743
0.884932 0.84303 0.675776
0.875578 0.969314 0.737621
0 0.165743 0.645487
0 0.165743 0.645487
0 0.16968 0.645457
0.166247 0.162814 0.64329
0.70605 0.0674601 0.633387
0.925124 0.143038 0.633158
0.901305 0.597253 0.646647
0.883803 0.859373 0.673732
0.875486 0.970718 0.737255
0 0.713909 0.608942
0 0.713909 0.608942
0 0.71397 0.608957
0 0.713771 0.609354
0.589563 0.714 0.613748
0.846555 0.728374 0.617227
0.888212 0.798856 0.630686
0.880934 0.900084 0.667521
0.875105 0.975967 0.735866
0 0.944396 0.566003
0 0.944396 0.566003
0 0.944488 0.565957
0 0.941482 0.566552
0.523278 0.940169 0.575113
0.786038 0.932509 0.584848
0.877302 0.936065 0.607401
0.87686 0.957 0.654017
0.874128 0.989731 0.730938
0.487587 1 0.504677
0.487587 1 0.504677
0.487587 1 0.504677
0.487587 1 0.504677
0.635996 1 0.50959
0.777096 1 0.522103
0.858946 1 0.55491
0.873579 1 0.622812
0.872694 1 0.717037
0.76289 1 0.551049
0.76289 1 0.551049
0.76289 1 0.551049
0.76289 1 0.551049
0.76289 1 0.551049
0.807248 1 0.558175
0.855406 1 0.5785
0.872038 1 0.631266
0.871656 1 0.729763
0.838911 1 0.763928
0.838911 1 0.763928
0.838911 1 0.763928
0.838911 1 0.763928
0.838911 1 0.763928
0.838895 1 0.763928
0.856245 1 0.766827
0.871412 1 0.77496
0.87129 1 0.795499
0 0 0.835294
0 0 0.835401
0 0 0.835401
0 0 0.835431
0.504891 0 0.823743
0.924514 0 0.808377
0.928786 0 0.808911
0.890227 0.752163 0.811612
0.875624 0.962036 0.813809
0 0 0.835401
0 0 0.835401
0 0 0.835401
0 0 0.835431
0.504143 0 0.823774
0.924514 0 0.808377
0.928786 0 0.808835
0.889815 0.758541 0.811231
0.875608 0.96228 0.813779
0 0 0.83534
0 0 0.83534
0 0 0.83534
0 0 0.835355
0.51519 0 0.823392
0.924849 0 0.80827
0.928801 0 0.808713
0.889158 0.768292 0.810651
0.875593 0.962646 0.813718
0 0 0.834897
0 0 0.834897
0 0 0.834897
0 0 0.834913
0.573205 0 0.82118
0.92575 0 0.807767
0.928832 0 0.807385
0.887007 0.800427 0.808621
0.875471 0.964309 0.813519
0 0.4421 0.823072
0 0.4421 0.823072
0 0.4421 0.823072
0 0.446128 0.822904
0.538918 0.445747 0.819745
0.897078 0.465766 0.812451
0.895613 0.669184 0.808225
0.882338 0.868757 0.803662
0.875029 0.970474 0.812726
0 0.926696 0.781903
0 0.926696 0.781903
0 0.926696 0.781903
0 0.926696 0.781903
0.287816 0.920913 0.785672
0.768978 0.913802 0.789197
0.873137 0.920775 0.790799
0.876814 0.947372 0.796109
0.873899 0.986191 0.810361
0.301793 1 0.769039
0.301793 1 0.769039
0.302815 1 0.769024
0.302815 1 0.769024
0.556786 1 0.771817
0.754391 1 0.774197
0.847227 0.999008 0.778439
0.873014 1 0.787411
0.872297 1 0.805264
0.74992 1 0.743572
0.74992 1 0.743572
0.74992 1 0.743572
0.74992 1 0.743572
0.74992 1 0.743572
0.794812 1 0.745647
0.846204 1 0.751644
0.871427 1 0.766598
0.871305 1 0.79379
0.840253 1 0.763775
0.840253 1 0.763775
0.840253 1 0.763775
0.840253 1 0.763775
0.840253 1 0.763775
0.840253 1 0.763775
0.856748 1 0.766644
0.871412 1 0.774807
0.87129 1 0.795453
0 0 0.88687
0 0 0.88687
0 0 0.88687
0 0 0.88687
0 0 0.88687
0.836576 0 0.87274
0.927932 0 0.870726
0.927932 0 0.870787
0.877424 0.93138 0.867887
0 0 0.88687
0 0 0.88687
0 0 0.88687
0 0 0.88687
0 0 0.88687
0.836576 0 0.87274
0.927932 0 0.870726
0.927932 0 0.870802
0.877379 0.931899 0.867857
0 0 0.88687
0 0 0.88687
0 0 0.88687
0 0 0.88687
0 0 0.88687
0.836576 0 0.87274
0.927932 0 0.870726
0.927932 0 0.870817
0.877317 0.932799 0.867781
0 0 0.88687
0 0 0.88687
0 0 0.88687
0 0 0.88687
0 0 0.88687
0.841596 0 0.872633
0.927932 0 0.870726
0.927947 0 0.870848
0.877073 0.936294 0.867506
0 0 0.88687
0 0 0.88687
0 0 0.88687
0 0 0.88687
0 0 0.88687
0.877333 0 0.871855
0.927932 0 0.870726
0.911284 0.39173 0.880339
0.876234 0.948211 0.866529
0 0.742077 0.873365
0 0.742077 0.873365
0 0.742077 0.873365
0 0.742077 0.873365
0 0.745449 0.873198
0.76527 0.745693 0.875624
0.886595 0.798535 0.872343
0.879744 0.898604 0.867079
0.874388 0.974014 0.864347
0 1 0.850156
0 1 0.850156
0 1 0.850156
0 1 0.850156
0 1 0.850156
0.705272 0.996231 0.857755
0.840131 0.991104 0.85832
0.872969 0.994156 0.858991
0.87219 1 0.861189
0.71783 1 0.851789
0.71783 1 0.851789
0.71783 1 0.851789
0.71783 1 0.851789
0.71783 1 0.851789
0.767498 1 0.852033
0.836118 1 0.852674
0.869993 1 0.854215
0.870878 1 0.857877
0.834363 1 0.840696
0.834363 1 0.840696
0.834363 1 0.840696
0.834363 1 0.840696
0.834363 1 0.840696
0.834363 1 0.840696
0.850996 1 0.841474
0.86923 1 0.843885
0.870939 1 0.849638
0 0.0510719 0.888167
0 0.0510719 0.888167
0 0.0510719 0.888167
0 0.0510719 0.888167
0 0.0510719 0.888167
0 0.0511635 0.888167
0.927886 0 0.870726
0.927932 0 0.872633
0.896635 0.640726 0.88603
0 0.0510719 0.888167
0 0.0510719 0.888167
0 0.0510719 0.888167
0 0.0510719 0.888167
0 0.0510719 0.888167
0 0.0511635 0.888167
0.927886 0 0.870726
0.927932 0 0.872633
0.896635 0.640726 0.88603
0 0.0510719 0.888167
0 0.0510719 0.888167
0 0.0510719 0.888167
0 0.0510719 0.888167
0 0.0510719 0.888167
0 0.0511635 0.888167
0.927886 0 0.870726
0.927932 0 0.872633
0.896635 0.640696 0.88603
0 0.0510719 0.888167
0 0.0510719 0.888167
0 0.0510719 0.888167
0 0.0510719 0.888167
0 0.0510719 0.888167
0 0.0511635 0.888167
0.927886 0 0.870726
0.927932 0 0.872633
0.896651 0.640589 0.88603
0 0.0509804 0.888167
0 0.0509804 0.888167
0 0.0509804 0.888167
0 0.0509804 0.888167
0 0.0509804 0.888167
0 0.0510414 0.888167
0.927886 0 0.870726
0.927916 0 0.872755
0.896666 0.640269 0.88603
0 0.0494392 0.888151
0 0.0494392 0.888151
0 0.0494392 0.888151
0 0.0494392 0.888151
0 0.0494392 0.888151
0 0.0494545 0.888151
0.927932 0 0.870726
0.927275 0.0219425 0.874846
0.886641 0.796017 0.886305
0 0.92076 0.876799
0 0.92076 0.876799
0 0.92076 0.876799
0 0.92076 0.876799
0 0.92076 0.876799
0 0.922805 0.876768
0.84213 0.909789 0.885817
0.876188 0.946548 0.885725
0.873381 0.985611 0.885466
0.404578 1 0.880919
0.404578 1 0.880919
0.404578 1 0.880919
0.404578 1 0.880919
0.404578 1 0.880919
0.405737 1 0.880934
0.817044 1 0.884062
0.867765 1 0.88426
0.870756 1 0.884428
0.822354 1 0.882383
0.822354 1 0.882383
0.822354 1 0.882383
0.822354 1 0.882383
0.822354 1 0.882383
0.822354 1 0.882383
0.841001 1 0.88246
0.865492 1 0.882643
0.870695 1 0.88304
0 0.277974 0.887709
0 0.277974 0.887709
0 0.277974 0.887709
0 0.277974 0.887709
0 0.277974 0.887709
0 0.277974 0.887709
0 0.278035 0.887709
0.925658 0.082414 0.877455
0.894453 0.675975 0.886198
0 0.277974 0.887709
0 0.277974 0.887709
0 0.277974 0.887709
0 0.277974 0.887709
0 0.277974 0.887709
0 0.277974 0.887709
0 0.278035 0.887709
0.925658 0.082414 0.877455
0.894453 0.675975 0.886198
0 0.277974 0.887709
0 0.277974 0.887709
0 0.277974 0.887709
0 0.277974 0.887709
0 0.277974 0.887709
0 0.277974 0.887709
0 0.278035 0.887709
0.925658 0.082414 0.877455
0.894453 0.675975 0.886198
0 0.277974 0.887709
0 0.277974 0.887709
0 0.277974 0.887709
0 0.277974 0.887709
0 0.277974 0.887709
0 0.277974 0.887709
0 0.278035 0.887709
0.925658 0.082414 0.877455
0.894453 0.675975 0.886198
0 0.277974 0.887709
0 0.277974 0.887709
0 0.277974 0.887709
0 0.277974 0.887709
0 0.277974 0.887709
0 0.277974 0.887709
0 0.278035 0.887709
0.925658 0.0823987 0.877455
0.894453 0.675975 0.886198
0 0.277897 0.887709
0 0.277897 0.887709
0 0.277897 0.887709
0 0.277897 0.887709
0 0.277897 0.887709
0 0.277897 0.887709
0 0.277943 0.887709
0.925612 0.0836042 0.877501
0.894362 0.67744 0.886198
0 0.276738 0.887724
0 0.276738 0.887724
0 0.276738 0.887724
0 0.276738 0.887724
0 0.276738 0.887724
0 0.276738 0.887724
0 0.276631 0.887739
0.920607 0.208835 0.881086
0.894194 0.680095 0.886213
0 1 0.874815
0 1 0.874815
0 1 0.874815
0 1 0.874815
0 1 0.874815
0 1 0.874815
0 1 0.874922
0.866102 1 0.885313
0.871656 1 0.885298
0.768505 1 0.884611
0.768505 1 0.884611
0.768505 1 0.884611
0.768505 1 0.884611
0.768505 1 0.884611
0.768505 1 0.884611
0.768658 1 0.884611
0.860044 1 0.885145
0.87068 1 0.885191
