BBLuts/BB_103_0150_LUT.cube
TITLE "Generated by Resolve"
LUT_3D_SIZE 33
0 0 0
0 0 0
0 0 0
0 0 0
0 0 0
0 0 0
0 0 0
0 0 0
0.0375525 0 0.00614939
0.0972915 0 0.0159457
0.19443 0 0.0318761
0.291676 0 0.0478218
0.379507 0 0.0622263
0.464912 0 0.0762188
0.54963 0 0.0901045
0.633494 0 0.103853
0.717342 0 0.117601
0.799893 0 0.131136
0.880674 0 0.144381
0.957137 0 0.156924
1 0 0.167468
1 0 0.176211
1 0 0.244053
1 0 0.408637
1 0 0.54818
1 0 0.670298
1 0.0890516 0.773465
1 0.304128 0.849027
1 0.453925 0.922896
1 0.582925 0.993683
1 0.711177 1
1 0.823301 1
1 0.917449 1
0 0 0
0 0 0
0 0 0
0 0 0
0 0 0
0 0 0
0 0 0
0 0 0
0.0336461 0 0.00552377
0.0907759 0 0.0148775
0.186343 0 0.0305486
0.287327 0 0.0471046
0.376532 0 0.0617227
0.46273 0 0.0758679
0.547967 0 0.0898451
0.632258 0 0.103655
0.716411 0 0.117449
0.799207 0 0.131029
0.880186 0 0.144305
0.956802 0 0.156863
1 0 0.167422
1 0 0.176165
1 0 0.242359
1 0 0.406729
1 0 0.547189
1 0 0.673411
1 0.107988 0.773236
1 0.3187 0.848844
1 0.463096 0.922927
1 0.589242 0.993759
1 0.715511 1
1 0.826413 1
1 0.919753 1
0 0 0
0 0 0
0 0 0
0 0 0
0 0 0
0 0 0
0 0 0
0 0 0
0.0284886 0 0.00466926
0.082887 0 0.0135805
0.176593 0 0.0289464
0.281666 0 0.0461738
0.372885 0 0.0611276
0.460349 0 0.0754711
0.546304 0 0.0895705
0.631006 0 0.103456
0.71548 0 0.117296
0.79852 0 0.130922
0.879698 0 0.144228
0.956481 0 0.156817
1 0 0.167376
1 0 0.176135
1 0 0.24065
1 0 0.404822
1 0 0.547723
1 0 0.675822
1 0.129961 0.772473
1 0.332509 0.848676
1 0.472038 0.922942
1 0.595438 0.99382
1 0.719799 1
1 0.829511 1
1 0.922042 1
0 0 0
0 0 0
0 0 0
0 0 0
0 0 0
0 0 0
0 0 0
0 0 0
0.0215763 0 0.00354009
0.0758373 0 0.0124361
0.167086 0 0.0273899
0.276356 0 0.045304
0.369375 0 0.0605631
0.457847 0 0.0750591
0.544106 0 0.0892042
0.62974 0 0.103243
0.714549 0 0.117144
0.797833 0 0.1308
0.87921 0 0.144137
0.956146 0 0.156756
1 0 0.16733
1 0 0.176104
1 0 0.238941
1 0 0.402884
1 0 0.548821
1 0 0.678096
1 0.156786 0.771054
1 0.345693 0.848539
1 0.480705 0.922972
1 0.601526 0.993881
1 0.724025 1
1 0.832563 1
1 0.924315 1
0 0 0
0 0 0
0 0 0
0 0 0
0 0 0
0 0 0
0 0 0
0 0 0
0.0148623 0 0.00244144
0.0695048 0 0.0113985
0.15787 0 0.0258793
0.271412 0 0.0444953
0.366186 0 0.060029
0.455177 0 0.0746319
0.542748 0 0.0889754
0.62887 0 0.103105
0.713619 0 0.116991
0.797147 0 0.130694
0.878706 0 0.14406
0.95581 0 0.156695
1 0 0.167285
1 0 0.176074
1 0 0.237247
1 0 0.400931
1 0 0.550286
1 0.0087129 0.678614
1 0.1832 0.76965
1 0.358404 0.848417
1 0.489158 0.922988
1 0.607553 0.993942
1 0.728222 1
1 0.835569 1
1 0.926574 1
0 0 0
0 0 0
0 0 0
0 0 0
0 0 0
0 0 0
0 0 0
0 0 0
0.00801099 0 0.00131228
0.0635691 0 0.0104219
0.149157 0 0.0244602
0.266682 0 0.0437171
0.362753 0 0.0594797
0.453407 0 0.0743267
0.541665 0 0.0888075
0.62826 0 0.102998
0.713298 0 0.116945
0.796414 0 0.130571
0.878187 0 0.143969
0.955474 0 0.156649
1 0 0.167239
1 0 0.176028
1 0 0.235477
1 0 0.398886
1 0 0.552346
1 0.0251316 0.678614
1 0.206806 0.768597
1 0.371099 0.84831
1 0.497841 0.923018
1 0.613703 0.994003
1 0.732509 1
1 0.838697 1
1 0.928908 1
0 0 0
0 0 0
0 0 0
0 0 0
0 0 0
0 0 0
0 0 0
0 0 0
0 0 0
0.0567178 0 0.00929274
0.138994 0 0.0227817
0.260853 0 0.042771
0.359838 0 0.0589914
0.45185 0 0.0740826
0.540963 0 0.0886854
0.627985 0 0.102953
0.713314 0 0.116945
0.796414 0 0.130571
0.877516 0 0.143862
0.954986 0 0.156573
1 0 0.167178
1 0 0.175982
1 0 0.233188
1 0 0.396582
1 0 0.555749
1 0.0457465 0.678706
1 0.23386 0.767575
1 0.386801 0.848188
1 0.508675 0.923033
1 0.6215 0.994079
1 0.738018 1
1 0.84271 1
1 0.932403 1
0 0 0
0 0 0
0 0 0
0 0 0
0 0 0
0 0 0
0 0 0
0 0 0
0 0 0
0.0483711 0 0.00793469
0.129076 0 0.0211643
0.25481 0 0.0417792
0.356847 0 0.0585031
0.450309 0 0.0738231
0.540856 0 0.0886702
0.62884 0 0.10309
0.714427 0 0.117128
0.79736 0 0.130724
0.878004 0 0.143954
0.95436 0 0.156466
1 0 0.167102
1 0 0.175921
1 0 0.230152
1 0 0.397208
1 0 0.560296
1 0.0768749 0.678386
1 0.265843 0.766598
1 0.406378 0.848035
1 0.522545 0.923079
1 0.63151 0.994171
1 0.745174 1
1 0.847944 1
1 0.936355 1
0.00234989 0.013489 0
0.00222782 0.0128023 0
0.00210575 0.0121157 0
0.00199893 0.011429 0
0.00187686 0.0107881 0
0.00181582 0.0104067 0
0.00184634 0.0106203 0
0.00183108 0.0104982 0
0.00172427 0.00985733 0
0.0393072 0.00737011 0.005066
0.11751 0.00289921 0.0182498
0.246479 0 0.0399481
0.352071 0 0.0577249
0.448569 0 0.0735485
0.541039 0 0.0887007
0.630594 0 0.10338
0.717144 0 0.117571
0.800641 0 0.131258
0.880644 0 0.144381
0.9561 0 0.156756
1 0 0.167117
1 0 0.175875
1 0 0.228
1 0 0.400275
1 0 0.56379
1 0.124315 0.676799
1 0.303136 0.765667
1 0.430579 0.847868
1 0.53994 0.923125
1 0.644343 0.994293
1 0.754376 1
1 0.854658 1
1 0.941497 1
0.0104982 0.0601663 0
0.0103761 0.0594339 0
0.0102388 0.0587167 0
0.0101167 0.0579995 0
0.00999466 0.0573281 0
0.00991836 0.0568093 0
0.00991836 0.0568246 0
0.00999466 0.0573281 0
0.00999466 0.0572824 0
0.0344701 0.0556191 0
0.111482 0.0517433 0.00935378
0.243198 0.0451972 0.0313878
0.354406 0.0377508 0.050309
0.453208 0.0289921 0.0674754
0.546609 0.0182193 0.0840925
0.636027 0.00468452 0.100526
0.721767 0 0.117128
0.805447 0 0.132052
0.886854 0 0.145388
0.961822 0 0.157687
1 0 0.167895
1 0 0.176638
1 0 0.229068
1 0 0.406302
1 0.0459602 0.562463
1 0.20267 0.672084
1 0.345556 0.764736
1 0.460029 0.847654
1 0.561639 0.923156
1 0.660487 0.994446
1 0.765988 1
1 0.863233 1
1 0.948165 1
0.0232548 0.133272 0
0.0230716 0.132235 0
0.0228885 0.131212 0
0.0227054 0.13019 0
0.0225376 0.129168 0
0.0223545 0.128176 0
0.0222629 0.127596 0
0.0224765 0.128862 0
0.0227359 0.130312 0
0.0281071 0.130266 0
0.105791 0.12694 0
0.239246 0.120485 0.0185245
0.359213 0.112078 0.0390021
0.462501 0.101656 0.057145
0.558785 0.0887617 0.0745708
0.650416 0.0736248 0.0916304
0.737804 0.0546578 0.108629
0.820371 0.0306859 0.125673
0.898528 0.0037232 0.142489
0.970596 0 0.158785
1 0 0.169512
1 0 0.178363
1 0 0.232074
1 0.020737 0.405402
1 0.127291 0.558297
1 0.277409 0.668711
1 0.393866 0.763745
1 0.495125 0.847349
1 0.588205 0.923171
1 0.680598 0.994598
1 0.780835 1
1 0.874266 1
1 0.956634 1
0.0423743 0.242863 0
0.0422522 0.242145 0
0.0421149 0.241428 0
0.0419928 0.240711 0
0.0418708 0.239994 0
0.0417334 0.239246 0
0.0415656 0.23827 0
0.0415351 0.238102 0
0.0420081 0.240772 0
0.0423438 0.242679 0
0.101427 0.24155 0
0.231891 0.237247 0
0.3673 0.231052 0.0209659
0.477989 0.223239 0.0398566
0.579278 0.212329 0.0577554
0.674311 0.19733 0.0753338
0.764004 0.176471 0.0930037
0.847745 0.146609 0.111192
0.924987 0.104311 0.130373
0.996841 0.0666209 0.147936
1 0.0390173 0.16202
1 0.0280003 0.172198
1 0.049897 0.222416
1 0.127459 0.396002
1 0.246662 0.549462
1 0.351919 0.665721
1 0.44802 0.76257
1 0.536461 0.846937
1 0.620401 0.92314
1 0.705455 0.994751
1 0.799435 1
1 0.888273 1
1 0.967453 1
0.0585489 0.335622 0
0.0584573 0.335119 0
0.058381 0.334615 0
0.0582895 0.334096 0
0.0581979 0.333593 0
0.0581064 0.333074 0
0.0579843 0.332387 0
0.0578317 0.331472 0
0.0578775 0.331716 0
0.0585946 0.335836 0
0.0854047 0.337469 0
0.20174 0.335561 0
0.36347 0.330922 0.00411994
0.485222 0.325505 0.0243992
0.593805 0.318288 0.0428626
0.69453 0.308568 0.0604868
0.78912 0.295277 0.0776989
0.877791 0.277302 0.0947433
0.960693 0.25359 0.111803
1 0.224826 0.128511
1 0.196475 0.142962
1 0.183261 0.153552
1 0.206561 0.200687
1 0.269596 0.379477
1 0.34789 0.542107
1 0.428656 0.662318
1 0.507881 0.760967
1 0.584039 0.846296
1 0.658549 0.923018
1 0.735744 0.994919
1 0.822553 1
1 0.905943 1
1 0.981231 1
0.0740063 0.424155 0
0.07393 0.423789 0
0.0738689 0.423423 0
0.0738079 0.423056 0
0.0737469 0.42269 0
0.0736706 0.422293 0
0.0735943 0.421805 0
0.0734722 0.421118 0
0.0733196 0.420233 0
0.0735332 0.421454 0
0.0744793 0.426932 0
0.162387 0.427665 0
0.342992 0.424491 0
0.482841 0.420752 0.00854505
0.601541 0.415656 0.028275
0.709361 0.408804 0.0465553
0.8094 0.399481 0.0640116
0.902754 0.386999 0.0809033
0.989914 0.370718 0.0974289
1 0.351492 0.113268
1 0.333227 0.126802
1 0.323903 0.136934
1 0.338033 0.17702
1 0.383673 0.361578
1 0.443519 0.533089
1 0.507652 0.657801
1 0.572946 0.75874
1 0.637919 0.845289
1 0.702708 0.922698
1 0.771603 0.99501
1 0.850767 1
1 0.927901 1
1 0.998566 1
0.0892958 0.511803 0
0.0892348 0.511528 0
0.089189 0.511254 0
0.0891432 0.510979 0
0.0890974 0.510704 0
0.0890516 0.510399 0
0.0889754 0.510033 0
0.0888991 0.509529 0
0.088777 0.508873 0
0.0886244 0.507988 0
0.0890516 0.51046 0
0.113573 0.516701 0
0.288914 0.516045 0
0.465324 0.51342 0
0.600153 0.510002 0.012726
0.718044 0.50515 0.0322881
0.825132 0.498512 0.0504311
0.923919 0.48957 0.0676127
1 0.477852 0.0841077
1 0.463981 0.0997024
1 0.450584 0.113024
1 0.443153 0.123156
1 0.451209 0.146151
1 0.488228 0.335302
1 0.536919 0.52047
1 0.588846 0.651423
1 0.64268 0.755444
1 0.6972 0.843656
1 0.75314 0.922087
1 0.813519 0.994949
1 0.884001 1
1 0.955123 1
1 1 1
0.104524 0.599161 0
0.104494 0.598962 0
0.104463 0.598749 0
0.104417 0.598535 0
0.104387 0.598337 0
0.104341 0.598123 0
0.104295 0.597833 0
0.104234 0.597467 0
0.104143 0.596963 0
0.104036 0.596307 0
0.103883 0.595422 0
0.104616 0.599619 0
0.185977 0.605844 0
0.420172 0.60444 0
0.583963 0.602411 0
0.717693 0.599207 0.0169528
0.83476 0.594553 0.036347
0.940627 0.588159 0.0542611
1 0.579705 0.0710765
1 0.569543 0.0867628
1 0.559335 0.100191
1 0.553079 0.110475
1 0.556252 0.117678
1 0.586664 0.294224
1 0.628504 0.502022
1 0.671443 0.642069
1 0.716075 0.75053
1 0.761639 0.841077
1 0.809232 0.920928
1 0.861341 0.994614
1 0.923278 1
1 0.986877 1
1 1 1
0.119707 0.686122 0
0.119677 0.685969 0
0.119646 0.685802 0
0.119615 0.685649 0
0.119585 0.685481 0
0.119554 0.685328 0
0.119524 0.685115 0
0.119478 0.684825 0
0.119417 0.684443 0
0.119326 0.683955 0
0.119203 0.683299 0
0.119051 0.682429 0
0.120165 0.688792 0
0.305547 0.693797 0
0.541222 0.692897 0
0.70219 0.691127 0
0.835126 0.68809 0.02121
0.95111 0.683635 0.0404059
1 0.677562 0.0579538
1 0.670024 0.0740826
1 0.66215 0.0878614
1 0.65684 0.0984512
1 0.657359 0.10602
1 0.67953 0.232349
1 0.7178 0.473579
1 0.754665 0.628092
1 0.79202 0.743084
1 0.83032 0.837064
1 0.870161 0.918868
1 0.914641 0.993774
1 0.968597 1
1 1 1
1 1 1
0.134722 0.772183 0
0.134691 0.772076 0
0.134676 0.771954 0
0.134661 0.771847 0
0.13463 0.771725 0
0.134615 0.771603 0
0.134585 0.771435 0
0.134554 0.771237 0
0.134508 0.770962 0
0.134432 0.770596 0
0.134356 0.770108 0
0.134249 0.769467 0
0.134096 0.768612 0
0.135653 0.777554 0
0.439002 0.780926 0
0.66038 0.780713 0
0.820325 0.779126 0.00407416
0.952224 0.776257 0.0255436
1 0.772061 0.0443885
1 0.766567 0.061326
1 0.760418 0.0757916
1 0.755825 0.0868391
1 0.755245 0.0948653
1 0.76733 0.15758
1 0.804059 0.428885
1 0.837415 0.606836
1 0.869322 0.731609
1 0.901671 0.830747
1 0.935317 0.91548
1 0.973236 0.992737
1 1 1
1 1 1
1 1 1
0.149493 0.856855 0
0.149477 0.856764 0
0.149462 0.856672 0
0.149447 0.856596 0
0.149432 0.856504 0
0.149416 0.856413 0
0.149386 0.856306 0
0.149371 0.856138 0
0.149325 0.85594 0
0.149279 0.855665 0
0.149218 0.855299 0
0.149126 0.854826 0
0.14902 0.8542 0
0.148882 0.853361 0
0.184176 0.864164 0
0.561593 0.867155 0
0.779217 0.867201 0
0.937957 0.865766 0.00872816
1 0.863081 0.0298772
1 0.85919 0.0482338
1 0.854414 0.0637675
1 0.850401 0.0755169
1 0.849088 0.084062
1 0.852003 0.0899062
1 0.885252 0.352697
1 0.918318 0.573053
1 0.946853 0.713985
1 0.975219 0.82153
1 1 0.910674
1 1 0.989548
1 1 1
1 1 1
1 1 1
0.163775 0.93872 0
0.16376 0.938659 0
0.163745 0.938598 0
0.163745 0.938537 0
0.163729 0.938476 0
0.163714 0.938415 0
0.163699 0.938323 0
0.163684 0.938216 0
0.163653 0.938064 0
0.163622 0.937881 0
0.163577 0.937621 0
0.163516 0.93727 0
0.163439 0.936828 0
0.163333 0.936217 0
0.163195 0.935424 0
0.257847 0.948089 0
0.682429 0.950973 0
0.897688 0.951217 0
1 0.950011 0.0137484
1 0.947814 0.0377508
1 0.944442 0.0573739
1 0.941161 0.0717174
1 0.939498 0.0821393
1 0.940826 0.0896925
1 0.957321 0.203845
1 0.995727 0.51603
1 1 0.686473
1 1 0.805707
1 1 0.901442
1 1 0.984512
1 1 1
1 1 1
1 1 1
0.176761 1 0
0.176745 1 0
0.176745 1 0
0.17673 1 0
0.17673 1 0
0.176715 1 0
0.176715 1 0
0.176699 1 0
0.176684 1 0
0.176654 1 0
0.176638 1 0
0.176593 1 0
0.176547 1 0
0.176486 1 0
0.176394 1 0
0.176272 1 0
0.394247 1 0
0.80235 1 0
1 1 0.00161746
1 1 0.0302892
1 1 0.0529183
1 1 0.0701152
1 1 0.0815747
1 1 0.0897078
1 1 0.0953536
1 1 0.40763
1 1 0.640146
1 1 0.780972
1 1 0.886915
1 1 0.975875
1 1 1
1 1 1
1 1 1
0.187488 1 0
0.187488 1 0
0.187488 1 0
0.187472 1 0
0.187472 1 0
0.187472 1 0
0.187457 1 0
0.187457 1 0
0.187442 1 0
0.187427 1 0
0.187411 1 0
0.187396 1 0
0.187366 1 0
0.18732 1 0
0.187274 1 0
0.187198 1 0
0.187106 1 0
0.541253 1 0
0.918853 1 0
1 1 0.0187533
1 1 0.0467689
1 1 0.0666514
1 1 0.0800793
1 1 0.0890059
1 1 0.0950637
1 1 0.154101
1 1 0.554635
1 1 0.739986
1 1 0.863508
1 1 0.961868
1 1 1
1 1 1
1 1 1
0.196094 1 0
0.196094 1 0
0.196078 1 0
0.196078 1 0
0.196078 1 0
0.196078 1 0
0.196078 1 0
0.196063 1 0
0.196063 1 0
0.196063 1 0
0.196048 1 0
0.196033 1 0
0.196017 1 0
0.195987 1 0
0.195956 1 0
0.195926 1 0
0.195865 1 0
0.195789 1 0
0.682551 1 0
1 1 0
1 1 0.0361944
1 1 0.0610819
1 1 0.0771038
1 1 0.0877546
1 1 0.0944991
1 1 0.0988785
1 1 0.356786
1 1 0.666682
1 1 0.825376
1 1 0.939345
1 1 1
1 1 1
1 1 1
0.202823 1 0
0.202823 1 0
0.202823 1 0
0.202823 1 0
0.202808 1 0
0.202808 1 0
0.202808 1 0
0.202808 1 0
0.202808 1 0
0.202808 1 0
0.202792 1 0
0.202792 1 0
0.202777 1 0
0.202762 1 0
0.202747 1 0
0.202716 1 0
0.202686 1 0
0.202655 1 0
0.202594 1 0
0.820127 1 0
1 1 0.0180819
1 1 0.052079
1 1 0.0729381
1 1 0.0855879
1 1 0.0938277
1 1 0.0987411
1 1 0.101747
1 1 0.50367
1 1 0.758434
1 1 0.90312
1 1 1
1 1 1
1 1 1
0.207904 1 0
0.207904 1 0
0.207904 1 0
0.207904 1 0
0.207904 1 0
0.207904 1 0
0.207904 1 0
0.207904 1 0
0.207904 1 0
0.207904 1 0
0.207889 1 0
0.207889 1 0
0.207889 1 0
0.207874 1 0
0.207874 1 0
0.207858 1 0
0.207843 1 0
0.207813 1 0
0.207782 1 0
0.207752 1 0
0.950118 1 0
1 1 0.0357977
1 1 0.0660258
1 1 0.0825971
1 1 0.0923171
1 1 0.0983902
1 1 0.101839
1 1 0.103807
1 1 0.616251
1 1 0.839979
1 1 0.978042
1 1 1
1 1 1
0.211582 1 0
0.211582 1 0
0.211582 1 0
0.211582 1 0
0.211582 1 0
0.211582 1 0
0.211582 1 0
0.211582 1 0
0.211582 1 0
0.211582 1 0
0.211582 1 0
0.211566 1 0
0.211566 1 0
0.211566 1 0
0.211566 1 0
0.211551 1 0
0.211551 1 0
0.211536 1 0
0.211521 1 0
0.211505 1 0
0.211475 1 0
1 1 0.000869764
1 1 0.052491
1 1 0.077348
1 1 0.0902113
1 1 0.0973983
1 1 0.101686
1 1 0.103975
1 1 0.105165
1 1 0.70927
1 1 0.918379
1 1 1
1 1 1
0.214115 1 0
0.214115 1 0
0.214115 1 0
0.214115 1 0
0.214115 1 0
0.214115 1 0
0.214115 1 0
0.214115 1 0
0.214115 1 0
0.214115 1 0
0.214115 1 0
0.214115 1 0
0.214099 1 0
0.214099 1 0
0.214099 1 0
0.214099 1 0
0.214099 1 0
0.214084 1 0
0.214084 1 0
0.214069 1 0
0.214054 1 0
0.214038 1 0
1 1 0.0202335
1 1 0.0667277
1 1 0.086244
1 1 0.095964
1 1 0.101045
1 1 0.103914
1 1 0.105333
1 1 0.12903
1 1 0.796872
1 1 0.992935
1 1 1
0.215763 1 0
0.215763 1 0
0.215763 1 0
0.215763 1 0
0.215763 1 0
0.215763 1 0
0.215763 1 0
0.215763 1 0
0.215763 1 0
