BBLuts/BB_106_0350_LUT.cube
TITLE "Generated by Resolve"
LUT_3D_SIZE 33
0.0195773 0.0195773 0.0195773
0.0195773 0.0195773 0.0195773
0.0195773 0.0195773 0.0195773
0.0195773 0.0195773 0.0195773
0.0195773 0.0195773 0.0195773
0.0575418 0.0192874 0.0192874
0.102144 0.0193637 0.0193637
0.135744 0.0192721 0.0192721
0.169635 0.0189822 0.0189822
0.211612 0.0182193 0.0182193
0.262898 0.0166629 0.0166629
0.322057 0.0141604 0.0141604
0.390707 0.0107424 0.0107424
0.469932 0.00672923 0.00671397
0.554116 0.00218204 0.00216678
0.629236 0 0
0.692164 0 0
0.753124 0 0
0.8065 0 0
0.848753 0.0016022 0
0.849989 0.00141909 0
0.851942 0.00115969 0
0.866529 0.230564 0.0715343
0.876219 0.392065 0.111574
0.885893 0.514672 0.152941
0.891722 0.608164 0.201175
0.890898 0.681147 0.26743
0.889311 0.735302 0.361181
0.887968 0.773007 0.461799
0.886763 0.800916 0.555444
0.885649 0.820981 0.632959
0.88452 0.836896 0.697505
0.883116 0.849882 0.744579
0.0195773 0.0195773 0.0195773
0.0195773 0.0195773 0.0195773
0.0195773 0.0195773 0.0195773
0.0195773 0.0195773 0.0195773
0.0195773 0.0195773 0.0195773
0.0674296 0.0193179 0.0193179
0.105745 0.0193637 0.0193637
0.138445 0.0192721 0.0192721
0.174044 0.0189212 0.0189212
0.217075 0.0180819 0.0180819
0.26862 0.0164492 0.0164492
0.327276 0.0139162 0.0139162
0.394064 0.0105592 0.0105592
0.472038 0.00662242 0.00662242
0.555703 0.00209049 0.00207523
0.630152 0 0
0.692668 0 0
0.753323 0 0
0.806409 0 0
0.848417 0.00158694 0
0.849989 0.00141909 0
0.851942 0.00115969 0
0.866957 0.255802 0.0650034
0.875898 0.404578 0.107774
0.885756 0.522057 0.150759
0.8916 0.61207 0.199817
0.890837 0.683558 0.26598
0.889296 0.736599 0.360388
0.887968 0.773724 0.461372
0.886763 0.801297 0.55523
0.885649 0.821195 0.632837
0.88452 0.837034 0.697444
0.883116 0.849958 0.744549
0.0195773 0.0195773 0.0195773
0.0195773 0.0195773 0.0195773
0.0195773 0.0195773 0.0195773
0.0195773 0.0195773 0.0195773
0.0195773 0.0195773 0.0195773
0.0733196 0.0193332 0.0193179
0.107301 0.0193637 0.0193637
0.141024 0.0192416 0.0192416
0.178668 0.0188602 0.0188602
0.222339 0.0179446 0.0179446
0.273198 0.0162661 0.0162661
0.330175 0.0137789 0.0137789
0.396643 0.0104219 0.0104219
0.474327 0.00650034 0.00650034
0.557229 0.00201419 0.00198367
0.631113 0 0
0.693339 0 0
0.753613 0 0
0.806287 0 0
0.848081 0.00157168 0
0.849989 0.00141909 0
0.851942 0.00115969 0
0.867002 0.278111 0.0542306
0.875593 0.416556 0.103685
0.885618 0.529168 0.148562
0.891493 0.615991 0.198474
0.890791 0.685924 0.26453
0.889281 0.737865 0.359609
0.887968 0.774426 0.460945
0.886763 0.801694 0.555016
0.885649 0.821424 0.632715
0.88452 0.837171 0.697383
0.883116 0.850034 0.744518
0.0195773 0.0195773 0.0195773
0.0195773 0.0195773 0.0195773
0.0195773 0.0195773 0.0195773
0.0194553 0.0250553 0.0194553
0.0389868 0.0293278 0.0195621
0.0777447 0.0193332 0.0193332
0.10808 0.0193637 0.0193637
0.141405 0.0192416 0.0192416
0.179538 0.0188449 0.0188449
0.224353 0.0178836 0.0178836
0.27602 0.0161593 0.0161593
0.332692 0.0136568 0.0136568
0.399145 0.0102998 0.0102998
0.476707 0.00637827 0.00637827
0.559335 0.00187686 0.0018616
0.63241 0 0
0.69514 0 0
0.754376 0 0
0.806302 0 0
0.847837 0.00154116 0
0.849943 0.00143435 0
0.853849 0.0952163 0.00810254
0.862867 0.299168 0.0261082
0.86865 0.430564 0.097673
0.880873 0.53756 0.144991
0.89073 0.620066 0.196887
0.89073 0.688228 0.263096
0.889281 0.739101 0.358831
0.887968 0.775113 0.460517
0.886763 0.802075 0.554788
0.885634 0.821653 0.632593
0.884504 0.837308 0.697307
0.884169 0.849714 0.745205
0.0195163 0.0637675 0.0195315
0.0195315 0.0662394 0.0195315
0.0195315 0.0686503 0.0195315
0.0195315 0.0709544 0.0195315
0.0195315 0.0718395 0.0195315
0.0711528 0.0714275 0.0195773
0.104417 0.0697795 0.0195468
0.139162 0.0658122 0.0194095
0.178729 0.0567483 0.0189975
0.225116 0.0178683 0.0178683
0.277745 0.0160983 0.0160983
0.33492 0.01355 0.01355
0.401572 0.0101625 0.0101625
0.479042 0.00627146 0.0062562
0.560967 0.00178531 0.00177005
0.633326 0 0
0.69575 0 0
0.75462 0 0
0.806149 0 0
0.847471 0.0015259 0
0.849943 0.00143435 0
0.856352 0.151034 0.0144503
0.862547 0.317968 0.0265507
0.868269 0.441672 0.092958
0.88069 0.544167 0.142702
0.890608 0.623835 0.195544
0.890684 0.690486 0.261677
0.889265 0.740322 0.358053
0.887968 0.775799 0.460105
0.886763 0.802457 0.554574
0.885634 0.821881 0.632471
0.884504 0.83743 0.69723
0.884169 0.84979 0.745174
0.0195163 0.0903029 0.0195163
0.0195163 0.0922866 0.0195163
0.019501 0.0942397 0.019501
0.019501 0.0957961 0.019501
0.019501 0.0965286 0.019501
0.0554513 0.0966049 0.0195468
0.0982071 0.0960403 0.0195468
0.135531 0.0943465 0.0194705
0.176761 0.0905013 0.019089
0.22501 0.0826429 0.0181277
0.278599 0.0673381 0.0163272
0.336782 0.0134585 0.0134585
0.403906 0.0100404 0.0100404
0.481407 0.00614939 0.00614939
0.562646 0.00169375 0.00167849
0.634287 0 0
0.696406 0 0
0.755016 0 0
0.80621 0 0
0.847211 0.00148013 0
0.849989 0.00141909 0
0.857816 0.189166 0.0184482
0.862089 0.335485 0.0267338
0.867903 0.452506 0.0877546
0.880491 0.550576 0.140337
0.890486 0.627558 0.194202
0.890639 0.692714 0.260243
0.889265 0.741527 0.35729
0.887968 0.776486 0.459693
0.886778 0.802838 0.554345
0.885649 0.822095 0.632364
0.88452 0.837552 0.697185
0.884184 0.849851 0.745144
0.019379 0.117128 0.019379
0.0193637 0.118822 0.0193637
0.0189822 0.120668 0.0193027
0.018967 0.121645 0.0193027
0.018967 0.122255 0.0192874
0.0190585 0.122423 0.0193027
0.0855573 0.122316 0.01944
0.129076 0.121492 0.0194705
0.173037 0.119356 0.0192264
0.223468 0.114733 0.0183871
0.278553 0.105898 0.0167544
0.339162 0.0913863 0.0141909
0.407141 0.0645762 0.0105898
0.48426 0.0059968 0.0059968
0.564736 0.00157168 0.00157168
0.635981 0 0
0.700572 0 0
0.759793 0 0
0.808576 0 0
0.847562 0.00135805 0
0.850034 0.00141909 0
0.858442 0.226612 0.0216526
0.860014 0.355871 0.0265812
0.862821 0.467109 0.0794232
0.871626 0.561257 0.134859
0.886122 0.633417 0.191073
0.889021 0.695918 0.257862
0.889036 0.743053 0.356252
0.887968 0.77731 0.459174
0.886778 0.803296 0.554086
0.885649 0.822354 0.632227
0.88452 0.83772 0.697093
0.884184 0.849958 0.745113
0.0189212 0.148348 0.0189212
0.0188754 0.149859 0.0188907
0.0187076 0.151125 0.0188602
0.0184939 0.151949 0.0188144
0.0183871 0.152514 0.0187991
0.0184787 0.152743 0.0187991
0.0436103 0.152834 0.0189517
0.115862 0.152743 0.0192416
0.165515 0.151705 0.0192416
0.218753 0.148577 0.018677
0.276387 0.142138 0.017319
0.340566 0.132464 0.0150454
0.411292 0.118135 0.0119478
0.489876 0.0947127 0.00814832
0.568322 0.0426032 0.00254826
0.637537 0 0
0.701488 0 0
0.760067 0 0
0.80827 0 0
0.846845 0.00132753 0
0.854337 0.132342 0.0122377
0.858793 0.267628 0.0242924
0.859068 0.380377 0.0264744
0.862181 0.48307 0.066804
0.871199 0.570962 0.1308
0.885893 0.639246 0.188891
0.88896 0.699367 0.256519
0.889036 0.744945 0.355001
0.887968 0.778408 0.458488
0.886778 0.803906 0.553735
0.885649 0.822721 0.632029
0.88452 0.837934 0.697002
0.884184 0.85008 0.745052
0.0178073 0.185977 0.0178073
0.017731 0.187259 0.0177615
0.0175174 0.187991 0.0177157
0.0172427 0.188769 0.0176547
0.0171054 0.189288 0.0176242
0.0172122 0.189532 0.0176242
0.0174411 0.189593 0.0176394
0.0832227 0.190066 0.0182498
0.14966 0.189364 0.0187991
0.208072 0.18703 0.0187381
0.270344 0.182574 0.0178683
0.339223 0.175463 0.0160372
0.414618 0.165179 0.0135348
0.496223 0.150713 0.0107271
0.57557 0.130938 0.00724804
0.643214 0.103716 0.00350958
0.703746 0.0593271 0
0.760586 0 0
0.80798 0 0
0.84892 0.110903 0.00967422
0.857023 0.212604 0.0203861
0.858213 0.312795 0.0258946
0.857847 0.409293 0.0262608
0.861006 0.501854 0.0267796
0.870619 0.583215 0.125124
0.885618 0.646738 0.185992
0.888869 0.703777 0.255467
0.889021 0.747387 0.353353
0.887968 0.779828 0.457572
0.886778 0.804715 0.553246
0.885649 0.823194 0.631769
0.88452 0.838209 0.696849
0.884184 0.850233 0.744976
0.0155642 0.230671 0.0155642
0.0155032 0.231037 0.0155337
0.0152743 0.231495 0.0155032
0.0151217 0.231861 0.0154726
0.0152438 0.231968 0.0154726
0.0154574 0.231907 0.0154879
0.0154879 0.231815 0.0155032
0.0155184 0.231495 0.0155184
0.116396 0.232425 0.0172122
0.188998 0.231815 0.0180819
0.258137 0.229145 0.0179294
0.332952 0.224033 0.0167544
0.414603 0.216175 0.0149233
0.501411 0.205524 0.0130465
0.582605 0.193378 0.0110475
0.65069 0.180163 0.00955215
0.715297 0.167315 0.00946059
0.769482 0.160571 0.0108339
0.814466 0.173968 0.0145266
0.852033 0.21857 0.0207065
0.85864 0.283513 0.0250095
0.858274 0.361547 0.0263828
0.857557 0.443549 0.026154
0.858686 0.525811 0.0264439
0.864363 0.599451 0.115602
0.872343 0.660349 0.178073
0.885847 0.710369 0.252995
0.888884 0.750546 0.351125
0.887984 0.781689 0.456367
0.886793 0.805768 0.552605
0.885008 0.823926 0.631266
0.882536 0.839323 0.695384
0.881117 0.851621 0.742779
0.0113832 0.280644 0.0122683
0.0112306 0.281071 0.0122377
0.0109865 0.281559 0.012192
0.0107576 0.281941 0.0121462
0.010605 0.282216 0.0121309
0.0105745 0.282338 0.0121157
0.0105898 0.282368 0.0121157
0.010605 0.282277 0.0121157
0.0106813 0.28188 0.0121462
0.151781 0.284535 0.0158236
0.234882 0.283742 0.016968
0.318791 0.280293 0.0167849
0.408576 0.274647 0.0157778
0.503075 0.267262 0.0148623
0.588006 0.259236 0.0140078
0.656504 0.252384 0.0139162
0.720714 0.248386 0.0154574
0.772732 0.252399 0.0180972
0.815183 0.269459 0.0215915
0.849912 0.304845 0.0252384
0.856764 0.354192 0.0261845
0.85597 0.415 0.0260166
0.856046 0.484504 0.0260777
0.85742 0.553277 0.0260471
0.863249 0.616022 0.103639
0.871778 0.672038 0.173373
0.885695 0.717372 0.251438
0.888869 0.754513 0.348272
0.887984 0.78407 0.454765
0.886793 0.807111 0.551781
0.885008 0.824735 0.630808
0.882551 0.839811 0.69514
0.881132 0.851896 0.742657
0.00698863 0.341787 0.00808728
0.00680552 0.342245 0.0080415
0.00648508 0.342718 0.00799573
0.00622568 0.34313 0.00796521
0.00604257 0.34342 0.00793469
0.00601205 0.343587 0.00791943
0.0059968 0.343709 0.00791943
0.0059968 0.343755 0.00791943
0.00601205 0.343633 0.00791943
0.00611887 0.343175 0.00794995
0.192782 0.348577 0.0145418
0.291264 0.347753 0.0158236
0.39321 0.344152 0.0157473
0.496895 0.339651 0.0155795
0.586603 0.334844 0.0153201
0.658732 0.330983 0.0159915
0.723384 0.331167 0.0181735
0.773098 0.340139 0.020798
0.813382 0.358251 0.0234684
0.846891 0.386786 0.0256657
0.856901 0.423926 0.0261082
0.855711 0.472953 0.0259709
0.8551 0.528161 0.0259709
0.855879 0.584787 0.0253758
0.86183 0.636637 0.0836805
0.871122 0.686091 0.167544
0.885176 0.725902 0.249683
0.888869 0.759503 0.344533
0.888014 0.787106 0.452644
0.886824 0.80885 0.550668
0.885679 0.825696 0.630365
0.884504 0.839734 0.69604
0.883879 0.851255 0.74435
0.00437934 0.415732 0.00466926
0.00421149 0.416159 0.004654
0.00392157 0.416587 0.00462348
0.00366217 0.416953 0.00460822
0.0033875 0.417288 0.00457771
0.00337224 0.417456 0.00456245
0.00337224 0.417609 0.00456245
0.00337224 0.417746 0.00456245
0.00337224 0.417838 0.00456245
0.00340276 0.417929 0.00456245
0.0892958 0.421805 0.00888075
0.244404 0.42649 0.0144808
0.36321 0.425864 0.0153506
0.478447 0.423148 0.0154574
0.578531 0.419486 0.0154726
0.657069 0.416587 0.0161593
0.724437 0.417411 0.0181888
0.772732 0.427008 0.0205081
0.811414 0.442924 0.0230411
0.842466 0.466789 0.0252079
0.855192 0.496651 0.0260319
0.85333 0.53286 0.0257115
0.852644 0.574685 0.0251469
0.853788 0.617182 0.0243687
0.859556 0.6607 0.0239567
0.869169 0.702922 0.160174
0.883589 0.736538 0.247288
0.888594 0.765698 0.342596
0.888014 0.790906 0.449866
0.886839 0.811048 0.549187
0.885695 0.82707 0.629557
0.884504 0.840558 0.695583
0.883879 0.851759 0.744106
0.00352483 0.50132 0.00389105
0.00334173 0.501671 0.00387579
0.00299077 0.502037 0.00384527
0.00267033 0.502373 0.00381476
0.0024567 0.502647 0.0037995
0.00241093 0.502815 0.00378424
0.00241093 0.502953 0.00378424
0.00241093 0.50309 0.00378424
0.00241093 0.503212 0.00378424
0.00242618 0.503243 0.0037995
0.00247196 0.50309 0.0037995
0.150042 0.50959 0.0117952
0.315892 0.511727 0.0155337
0.448737 0.50959 0.0154421
0.561181 0.506676 0.0153353
0.648096 0.504112 0.0159152
0.720211 0.504814 0.0181277
0.768414 0.513756 0.0203403
0.804974 0.526802 0.0226291
0.834104 0.544244 0.024445
0.851881 0.565591 0.0251926
0.850019 0.591653 0.0245212
0.849638 0.62005 0.0238041
0.851392 0.653422 0.0231327
0.858122 0.687999 0.0231937
0.868452 0.721386 0.15227
0.883421 0.748165 0.245686
0.888579 0.773022 0.343221
0.88806 0.79556 0.44625
0.88687 0.813794 0.547234
0.88571 0.82884 0.628489
0.884504 0.841642 0.694987
0.883879 0.852415 0.743786
0.00360113 0.582132 0.00402838
0.00340276 0.582361 0.00402838
0.00303655 0.58262 0.0039826
0.00268559 0.582849 0.00395209
0.00244144 0.583017 0.00393683
0.00241093 0.583108 0.00393683
0.00239567 0.583154 0.00393683
0.00239567 0.583215 0.00393683
0.00241093 0.58323 0.00393683
0.00242618 0.583169 0.00393683
0.0024567 0.582971 0.00393683
0.00230411 0.582544 0.00392157
0.237873 0.58967 0.0143435
0.405692 0.588861 0.0153201
0.534722 0.586801 0.0154269
0.632349 0.584558 0.0157778
0.710292 0.584726 0.0175937
0.759854 0.592172 0.0192874
0.795529 0.601297 0.021088
0.82356 0.612543 0.0225071
0.847791 0.627115 0.0233921
0.845991 0.644923 0.0227054
0.84625 0.666896 0.0221714
0.848951 0.691661 0.021973
0.856809 0.716564 0.0226596
0.867781 0.741192 0.144274
0.883284 0.761028 0.244862
0.888548 0.781613 0.344503
0.888106 0.801114 0.442481
0.8869 0.817227 0.544656
0.885695 0.831067 0.627054
0.884245 0.843122 0.693996
0.883406 0.853437 0.743038
0.00541695 0.651362 0.00610361
0.0052491 0.651469 0.00607309
0.00488289 0.651621 0.00605783
0.00453193 0.651774 0.00601205
0.00428778 0.651865 0.0059968
0.00424201 0.651896 0.0059968
0.00425727 0.651881 0.0059968
0.00427253 0.651865 0.0059968
0.00419623 0.65182 0.00598154
0.00390631 0.651789 0.00595102
0.00352483 0.651652 0.00588998
0.00323491 0.65124 0.00584421
0.00306706 0.650385 0.00576791
0.344137 0.657359 0.0175479
0.498573 0.655528 0.0173495
0.610239 0.653254 0.0169223
0.693919 0.652735 0.0175784
0.746853 0.658579 0.0183261
0.78526 0.665354 0.0196994
0.811872 0.674495 0.0205081
0.834623 0.685115 0.0211795
0.844068 0.697139 0.0212711
0.847456 0.710842 0.0215152
0.853681 0.726238 0.0221866
0.859174 0.743664 0.0228733
0.867384 0.761273 0.138216
0.882078 0.775525 0.244907
0.886046 0.792233 0.345724
0.887633 0.807599 0.44477
0.886946 0.821424 0.541253
0.885679 0.833844 0.625147
0.883894 0.844968 0.692699
0.880827 0.855497 0.740719
0.00250248 0.720546 0.0121767
0 0.72221 0.0116274
0 0.723339 0.0112612
0 0.724147 0.0109865
0 0.72549 0.010544
0 0.726574 0.0101778
0 0.727275 0.00991836
0 0.72726 0.00988785
0 0.727092 0.00987259
0 0.726848 0.00984207
0 0.726268 0.00984207
0 0.7243 0.010193
0 0.720516 0.0109407
0.258427 0.722423 0.0227665
0.456153 0.719524 0.0225376
0.587289 0.716396 0.0209506
0.67599 0.714656 0.0198062
0.730587 0.719448 0.0187991
0.770321 0.724163 0.0191653
0.798169 0.730083 0.0194705
0.821622 0.736294 0.0199893
0.841306 0.743282 0.0205081
0.845411 0.750851 0.0210574
0.852384 0.759426 0.0220188
0.858442 0.769818 0.0229343
0.866957 0.781262 0.136553
0.881987 0.790448 0.247761
0.885985 0.802792 0.349874
0.887602 0.814603 0.4486
0.886976 0.826337 0.539559
0.885756 0.837156 0.62269
0.884169 0.846998 0.691447
0.880964 0.856809 0.740063
0.010544 0.774502 0.0211185
0.00479133 0.776318 0.0204318
0.000869764 0.777523 0.0199588
0 0.778393 0.0196078
0 0.779797 0.0190738
0 0.780911 0.018616
0 0.781613 0.0183108
0 0.781552 0.0182345
0 0.781323 0.0181888
0 0.781003 0.0181125
0 0.780484 0.0180056
0 0.779385 0.0179751
0 0.776745 0.0182956
0.154925 0.778027 0.0262913
0.419654 0.771649 0.0285954
0.564477 0.767544 0.0255741
0.646204 0.769223 0.0210269
0.707774 0.770367 0.0194095
0.753216 0.77171 0.0194705
0.787564 0.773602 0.019913
0.816846 0.775097 0.0207675
0.843244 0.776516 0.0220035
0.855146 0.780072 0.0225986
0.85713 0.785977 0.0229343
0.859876 0.79321 0.0234226
0.866865 0.800671 0.142458
0.881895 0.805386 0.254536
0.885924 0.813642 0.35671
0.887556 0.822354 0.454154
0.886931 0.831907 0.54345
0.885832 0.841093 0.61944
0.884596 0.849409 0.68983
0.884199 0.857282 0.741268
0.0301518 0.810376 0.0303197
0.0287175 0.810742 0.0301213
0.0262303 0.811429 0.0297856
0.0242466 0.811948 0.0295262
0.0205081 0.813046 0.0290379
0.0172274 0.813977 0.0286107
0.0139467 0.814878 0.0281682
0.0139162 0.814664 0.0281224
0.0138552 0.814359 0.0280766
0.0137636 0.813916 0.027985
0.0136721 0.813275 0.027863
0.0137942 0.812329 0.0277409
0.0141604 0.810971 0.0275883
0.136538 0.813428 0.0327611
0.403021 0.8121 0.0326085
0.550195 0.807202 0.0285344
0.647272 0.802426 0.0251621
0.71577 0.79968 0.0237736
0.763424 0.799115 0.0235142
0.795773 0.800778 0.0231174
0.82063 0.802579 0.0230106
0.840436 0.804608 0.0230564
0.856352 0.807111 0.0231174
0.856748 0.810758 0.0232242
0.859449 0.814801 0.0236667
0.86656 0.818586 0.158892
0.881743 0.81944 0.267155
0.885695 0.824506 0.367193
0.887449 0.830716 0.462104
0.886854 0.838087 0.548836
0.885801 0.845441 0.621958
0.884627 0.852476 0.687312
0.884215 0.859342 0.73994
0.0359808 0.840482 0.0361639
0.0344701 0.840833 0.0359503
0.0318608 0.84152 0.035584
0.0298161 0.842039 0.0352941
0.0261387 0.843091 0.0347906
0.0225986 0.844068 0.0343023
0.0201877 0.844648 0.0339513
0.0198062 0.844495 0.0338598
0.0197452 0.844144 0.0337987
0.0196384 0.843671 0.0337224
0.0195163 0.84303 0.0335851
0.0195926 0.8421 0.033463
0.0198215 0.840803 0.0333104
0.216175 0.844053 0.0392004
0.426123 0.840101 0.0355688
0.560128 0.834791 0.0309453
0.648325 0.829877 0.0272221
0.711894 0.826886 0.0253452
0.756878 0.82591 0.0245823
0.787778 0.8271 0.0238041
0.812268 0.828092 0.0234531
0.832746 0.82887 0.0233616
0.850187 0.82974 0.0234531
0.856291 0.831266 0.0234531
0.859083 0.832975 0.0238651
0.866224 0.834195 0.186465
0.881529 0.832517 0.287144
0.885145 0.835309 0.382406
0.887327 0.839338 0.473274
0.886748 0.844633 0.556268
0.885725 0.850187 0.626673
0.884611 0.855955 0.687587
0.884215 0.861769 0.738155
0.0398108 0.861921 0.0399786
0.0382544 0.862272 0.0397498
0.0356146 0.862959 0.0393835
0.0336309 0.863432 0.0390936
0.0301671 0.864393 0.0386053
0.0268711 0.865293 0.0381476
0.0246433 0.865812 0.0378119
0.0242771 0.865644 0.0377356
0.0242313 0.865293 0.0376745
0.024155 0.86482 0.0375982
0.0240482 0.864179 0.0374914
0.024094 0.863279 0.0373693
0.0241245 0.862104 0.0372168
0.333242 0.864164 0.0407721
0.479271 0.859342 0.0360418
0.585595 0.854109 0.0315251
0.658244 0.849592 0.0281376
0.713848 0.84683 0.026276
0.75462 0.845838 0.0253147
0.783001 0.846922 0.0242924
0.806027 0.847608 0.0237736
0.826337 0.847837 0.0235904
0.844099 0.847883 0.023621
0.855879 0.848325 0.0235904
0.858793 0.848844 0.122652
0.865797 0.848188 0.223606
0.881209 0.844602 0.315435
0.884886 0.845594 0.402853
0.887144 0.847776 0.488426
0.88661 0.85124 0.566339
0.885634 0.855283 0.633051
0.884565 0.85977 0.691463
0.884001 0.864622 0.737224
0.0408026 0.878492 0.0423438
0.038117 0.87921 0.0419623
0.036347 0.879622 0.0416876
0.03505 0.879881 0.0415045
0.0320134 0.880705 0.041062
0.0290379 0.881498 0.04065
0.0270695 0.881941 0.0403449
0.0267796 0.881773 0.0402838
0.0267796 0.881407 0.040238
0.0267796 0.880934 0.040177
0.0261997 0.880507 0.0400244
0.174182 0.883604 0.0438239
0.330129 0.882704 0.0418097
0.441962 0.879484 0.0375067
0.536507 0.875547 0.0334173
0.609934 0.871153 0.0297856
0.667475 0.867414 0.0272374
0.71313 0.865141 0.0256962
0.74844 0.864424 0.0246738
0.773724 0.865431 0.0235904
0.795941 0.865553 0.0231632
0.817548 0.864713 0.0232242
0.837446 0.863462 0.0235447
0.855436 0.862028 0.0612039
0.865568 0.859648 0.190875
0.880995 0.854475 0.27538
0.88397 0.854032 0.353491
0.884642 0.854795 0.430152
0.886885 0.85565 0.50808
0.886397 0.857786 0.579675
0.885145 0.860563 0.641566
0.884504 0.863859 0.696605
0.883741 0.867689 0.739895
0.0403754 0.89099 0.0437018
0.0337987 0.892973 0.0427863
0.0256657 0.895476 0.0416571
0.0199435 0.897185 0.0408484
0.0142519 0.898878 0.0400549
0.0099794 0.90013 0.0394598
0.0922255 0.903212 0.0413825
0.16672 0.904555 0.0423896
0.225727 0.904479 0.0420996
0.283619 0.903441 0.0409247
0.342824 0.901823 0.0389563
0.402823 0.899962 0.0364385
0.46392 0.897902 0.0337377
0.526635 0.894469 0.0311437
0.587442 0.88954 0.0290532
0.64097 0.883284 0.0278019
0.68687 0.879194 0.0267185
0.724025 0.876997 0.0257877
0.753414 0.876554 0.0248722
0.774197 0.877821 0.0237278
0.793774 0.878019 0.0232242
0.81387 0.877119 0.0232395
0.832853 0.875761 0.0912337
0.850538 0.873823 0.182208
0.864836 0.870466 0.253422
0.880385 0.864332 0.327779
0.883406 0.863035 0.396811
0.884199 0.862989 0.46453
0.886549 0.862882 0.532738
0.886152 0.864027 0.596368
0.884993 0.865736 0.652628
0.884443 0.867994 0.703273
0.883986 0.870726 0.74377
0.435462 0.897169 0.0430915
0.43769 0.89926 0.0416114
0.437247 0.902037 0.0398718
0.439384 0.903883 0.0385443
0.441703 0.905577 0.0373236
0.445472 0.906722 0.036347
0.452094 0.907408 0.035462
0.463935 0.90724 0.0347295
0.479667 0.906691 0.0339361
0.499016 0.905806 0.0330205
0.521385 0.904738 0.0318608
0.546258 0.90367 0.030396
0.573327 0.902586 0.0286564
0.602045 0.901061 0.0269627
0.633295 0.898314 0.0258183
0.668254 0.894575 0.0692454
0.703822 0.89041 0.0893263
0.732341 0.888777 0.106798
0.752346 0.889754 0.123339
0.771191 0.89015 0.141756
0.791241 0.889204 0.163394
0.814603 0.88632 0.189792
0.839719 0.881529 0.222049
0.870054 0.87425 0.272663
0.883558 0.871992 0.327794
0.88333 0.871153 0.385595
0.883162 0.870558 0.444099
0.883711 0.870039 0.504051
0.886107 0.869261 0.562249
0.885832 0.869657 0.615579
0.88481 0.870588 0.666484
0.884367 0.871992 0.711742
0.884153 0.873854 0.748638
0.611261 0.894636 0.263172
0.61442 0.894499 0.263142
0.617487 0.894377 0.263111
0.620279 0.894362 0.262974
0.622797 0.894408 0.262791
0.625376 0.894438 0.262638
0.628412 0.894438 0.262669
0.632364 0.894362 0.262425
0.637613 0.894194 0.262226
0.645029 0.893675 0.262303
0.654292 0.893034 0.26247
0.665599 0.892271 0.262791
0.679042 0.891356 0.263355
0.694575 0.890318 0.264332
0.712139 0.889158 0.265934
0.731456 0.887953 0.268299
0.751888 0.886763 0.271717
0.772808 0.885161 0.276646
0.793057 0.88397 0.283421
0.811643 0.882933 0.292378
0.829007 0.882002 0.30399
0.844633 0.881178 0.318868
0.858381 0.880339 0.33785
0.870451 0.879469 0.361578
0.880507 0.878523 0.398642
0.882612 0.877592 0.444205
0.882506 0.876753 0.494667
0.883116 0.875822 0.54519
0.885618 0.874556 0.595224
0.885115 0.874464 0.639536
0.884611 0.874907 0.683131
0.884291 0.875746 0.722118
0.884123 0.876966 0.754665
0.69546 0.890227 0.387839
0.696895 0.890181 0.387884
0.698283 0.89015 0.387915
0.699413 0.890227 0.387839
0.700328 0.890364 0.387655
0.701335 0.890471 0.387533
0.702327 0.890684 0.387274
0.703868 0.890867 0.387076
0.706279 0.890974 0.386999
0.709895 0.890898 0.387152
0.714595 0.890776 0.387427
0.720531 0.890654 0.387808
0.727916 0.890501 0.388357
0.736934 0.890303 0.389166
0.747677 0.890105 0.390341
0.759823 0.889967 0.391928
0.773312 0.889845 0.394186
0.787915 0.889143 0.397681
0.802502 0.888273 0.402029
0.817212 0.887434 0.407721
0.831479 0.886687 0.415152
0.844648 0.886015 0.424811
0.856672 0.884932 0.437476
0.867658 0.884153 0.45391
0.877211 0.883345 0.474723
0.881804 0.88246 0.506706
0.881773 0.881529 0.54551
0.88249 0.880415 0.58732
0.884749 0.87892 0.627207
0.884764 0.878553 0.666194
0.884428 0.878706 0.702052
0.884199 0.879149 0.73434
0.884092 0.879881 0.762173
0.748867 0.887739 0.497032
0.74963 0.887724 0.497093
0.750332 0.887724 0.497124
0.75079 0.887816 0.497032
0.751049 0.887999 0.496818
0.751415 0.888121 0.496681
0.75169 0.88835 0.496406
0.752255 0.888548 0.496162
0.753384 0.888685 0.496071
0.755306 0.888685 0.496223
0.757855 0.888655 0.496468
0.761135 0.888609 0.496803
0.76527 0.888579 0.497246
0.770428 0.888518 0.497887
0.776715 0.888441 0.498756
0.783841 0.888487 0.499779
0.792279 0.888426 0.50135
0.801984 0.88835 0.503517
0.812711 0.888289 0.506386
0.823911 0.888319 0.510063
0.83505 0.888441 0.514794
0.845609 0.88864 0.520943
0.856077 0.888518 0.529412
0.865736 0.887831 0.540124
0.874357 0.887098 0.553735
0.880888 0.886336 0.570565
0.88101 0.8851 0.596719
0.881865 0.88397 0.62681
0.884291 0.882414 0.660914
0.884474 0.881941 0.692882
