BBLuts/BB_104_0290_LUT.cube
TITLE "Generated by Resolve"
LUT_3D_SIZE 9
0.0377813 0.0492561 0.0598459
0.0377813 0.0492561 0.0598459
0.25333 0.0506752 0.0620279
0.532631 0.0616159 0.0739757
0.800717 0.351766 0.355047
0.991348 0.651499 0.618112
0.990051 0.678187 0.617502
0.980468 0.85008 0.576501
0.973358 0.954253 0.699809
0.0281376 0.100404 0.0552529
0.0263676 0.109758 0.0544137
0.26009 0.0912947 0.0586557
0.543145 0.0628824 0.0754864
0.802823 0.35642 0.35874
0.991348 0.651499 0.618112
0.989685 0.685573 0.616663
0.980194 0.853819 0.571099
0.973312 0.954726 0.69926
0.013489 0.253498 0.0413825
0.0132906 0.257527 0.0409857
0.185061 0.257527 0.0426947
0.544778 0.245518 0.0606699
0.805447 0.396811 0.362432
0.99118 0.655131 0.617853
0.988998 0.69894 0.614954
0.979751 0.859586 0.561318
0.973205 0.955505 0.698314
0 0.547616 0.0121614
0 0.548684 0.0121309
0 0.549279 0.0121157
0.446494 0.546914 0.00955215
0.8056 0.56791 0.344579
0.989944 0.680095 0.615778
0.986648 0.744381 0.606973
0.9785 0.874891 0.520775
0.972915 0.957748 0.695491
0 0.80412 0.00175479
0 0.804044 0.00175479
0 0.803723 0.00177005
0 0.801556 0.0018616
0.728862 0.792569 0
0.954604 0.805692 0.531991
0.980606 0.845518 0.54963
0.974212 0.905196 0
0.972107 0.963653 0.686809
0 0.953765 0
0 0.953124 0
0 0.952041 0
0 0.948775 0
0 0.940566 0
0.898451 0.93106 0
0.971557 0.933577 0
0.970001 0.948516 0
0.970275 0.976242 0.668605
0 1 0
0 1 0
0 0.999725 0
0 0.997909 0
0.607828 0.992767 0
0.876707 0.98706 0
0.958633 0.984009 0
0.965316 0.984543 0
0.968139 0.993683 0.69044
0.824994 1 0
0.827298 1 0
0.8309 1 0
0.840894 1 0
0.864622 1 0
0.905013 1 0
0.948592 1 0
0.965164 1 0.563302
0.967666 1 0.755276
0.935271 1 0.786816
0.935454 1 0.786831
0.93576 1 0.786877
0.93669 1 0.78703
0.939315 1 0.787427
0.945937 1 0.788602
0.958465 1 0.791867
0.969162 1 0.799954
0.970047 1 0.818463
0.0448768 0.054078 0.103899
0.0449226 0.0541085 0.104112
0.258854 0.055848 0.106554
0.53402 0.066743 0.120134
0.800626 0.354009 0.369512
0.991348 0.651667 0.61915
0.990127 0.677073 0.618433
0.980575 0.849378 0.585184
0.973495 0.954269 0.706798
0.0381933 0.0822919 0.0936904
0.0835584 0.0935378 0.0918746
0.277775 0.0552529 0.0995651
0.539208 0.0662699 0.110765
0.801556 0.354726 0.363363
0.991348 0.651621 0.618845
0.989746 0.684382 0.617594
0.980301 0.853147 0.581155
0.973434 0.954742 0.706294
0.0139773 0.243259 0.0423438
0.0138094 0.246647 0.0420386
0.208209 0.24741 0.0438697
0.543343 0.235615 0.0612345
0.80325 0.382147 0.358892
0.991196 0.654795 0.617868
0.98909 0.697688 0.615961
0.979873 0.858961 0.572839
0.973327 0.95552 0.70544
0 0.543511 0.0122835
0 0.544533 0.012253
0 0.544961 0.0122377
0.464897 0.542245 0.00958267
0.805295 0.565103 0.344686
0.989975 0.679438 0.615839
0.986725 0.743267 0.607874
0.978622 0.874418 0.538674
0.973022 0.957778 0.702831
0 0.803052 0.00180056
0 0.80296 0.00180056
0 0.802625 0.00181582
0 0.800412 0.00190738
0.732113 0.791516 0
0.954757 0.80502 0.533135
0.980621 0.845136 0.550256
0.974243 0.905013 0
0.972213 0.963684 0.694911
0 0.953536 0
0 0.952895 0
0 0.951812 0
0 0.948547 0
0 0.940383 0
0.898817 0.930922 0
0.971572 0.933486 0
0.970001 0.948455 0
0.970291 0.976226 0.66952
0 1 0
0 1 0
0 0.999634 0
0 0.997833 0
0.614847 0.992691 0
0.876936 0.98703 0
0.958679 0.983978 0
0.965331 0.984527 0
0.968139 0.993667 0.69041
0.82536 1 0
0.827634 1 0
0.83122 1 0
0.841169 1 0
0.864805 1 0
0.905089 1 0
0.948623 1 0
0.965164 1 0.56321
0.967666 1 0.755261
0.935286 1 0.786816
0.93547 1 0.786831
0.93579 1 0.786877
0.936721 1 0.787015
0.939345 1 0.787427
0.945937 1 0.788602
0.958465 1 0.791867
0.969162 1 0.799954
0.970047 1 0.818463
0.0639658 0.0670329 0.222004
0.0640116 0.0670481 0.222217
0.252308 0.0684825 0.223285
0.5467 0.0805219 0.232959
0.800519 0.35938 0.398154
0.991363 0.651911 0.620768
0.990234 0.675105 0.620874
0.980758 0.848249 0.598047
0.973678 0.954269 0.717067
0.0633249 0.0666056 0.218173
0.0633707 0.0666361 0.218524
0.278584 0.0683146 0.219654
0.54522 0.0799268 0.22948
0.802502 0.363333 0.399619
0.991363 0.651896 0.620645
0.989883 0.682139 0.62005
0.980499 0.852064 0.594781
0.973602 0.954757 0.716594
0.0301366 0.231632 0.19176
0.0296635 0.233783 0.191287
0.22536 0.228443 0.191043
0.531563 0.224826 0.206821
0.801343 0.360372 0.395666
0.991241 0.654185 0.620264
0.989227 0.695094 0.618433
0.980072 0.857954 0.589471
0.97351 0.95555 0.715846
0 0.531929 0.0455787
0 0.53315 0.0456397
0 0.533745 0.0464485
0.471183 0.530739 0.0631876
0.801205 0.556237 0.364965
0.990082 0.677424 0.617578
0.986893 0.740383 0.611246
0.978836 0.873625 0.565835
0.97322 0.957809 0.713558
0 0.800839 0.00189212
0 0.800748 0.00189212
0 0.800397 0.00190738
0 0.797894 0.00199893
0.73521 0.789334 0
0.954742 0.803433 0.534844
0.980713 0.844099 0.555322
0.975219 0.905501 0.270848
0.972412 0.963745 0.70663
0 0.953185 0
0 0.952529 0
0 0.951446 0
0 0.94818 0
0 0.940093 0
0.899367 0.930709 0
0.971572 0.933333 0
0.970016 0.948363 0
0.970504 0.976333 0.685145
0 1 0
0 1 0
0 0.999512 0
0 0.997726 0
0.625162 0.992569 0
0.877333 0.986999 0
0.958755 0.983963 0
0.965331 0.984527 0
0.968154 0.993652 0.690333
0.825895 1 0
0.828183 1 0
0.831724 1 0
0.841627 1 0
0.865125 1 0
0.905241 1 0
0.948653 1 0
0.965164 1 0.56321
0.967666 1 0.755245
0.935332 1 0.786816
0.935515 1 0.786831
0.935836 1 0.786892
0.936751 1 0.787015
0.939391 1 0.787411
0.945968 1 0.788602
0.95848 1 0.791867
0.969162 1 0.799954
0.970047 1 0.818463
0.178836 0.143618 0.460227
0.179004 0.143725 0.460395
0.179095 0.143771 0.460487
0.534401 0.154177 0.458915
0.816403 0.417288 0.51017
0.991363 0.653651 0.631296
0.9906 0.671 0.637018
0.981399 0.844953 0.642206
0.974197 0.954299 0.741787
0.176394 0.141985 0.457893
0.176623 0.142123 0.458091
0.264332 0.142779 0.457694
0.547433 0.154147 0.456626
0.814694 0.413825 0.507897
0.991363 0.653605 0.631022
0.99028 0.676982 0.636088
0.981125 0.84892 0.640101
0.974151 0.954787 0.741436
0.159319 0.206027 0.451316
0.158511 0.211322 0.451347
0.277897 0.207675 0.450935
0.552468 0.152071 0.452567
0.809461 0.404013 0.502892
0.991379 0.653513 0.630533
0.989715 0.688533 0.634363
0.980713 0.855024 0.636561
0.974044 0.955581 0.740856
0.0157931 0.497368 0.409277
0.014435 0.499123 0.409476
0.0138705 0.500389 0.410101
0.48658 0.496559 0.41416
0.787793 0.529198 0.472251
0.990448 0.672145 0.62739
0.987488 0.731929 0.62742
0.979507 0.871321 0.624964
0.973739 0.95787 0.739178
0 0.790967 0.00228885
0 0.790951 0.00228885
0 0.790692 0.00230411
0 0.788663 0.00238041
0.733288 0.78027 0
0.953033 0.796246 0.55935
0.98117 0.839994 0.586221
0.976577 0.905196 0.579355
0.972961 0.963867 0.734173
0 0.952148 0
0 0.951492 0
0 0.950408 0
0 0.947143 0
0 0.939055 0
0.898848 0.929732 0
0.971679 0.932525 0
0.970153 0.947784 0
0.971084 0.976593 0.719615
0 1 0
0 0.999802 0
0 0.999146 0
0 0.997406 0
0.650294 0.992248 0
0.878523 0.986862 0
0.958968 0.983856 0
0.965331 0.984466 0
0.968154 0.993637 0.690089
0.827588 1 0
0.829816 1 0
0.83331 1 0
0.842985 1 0
0.866072 1 0
0.905684 1 0
0.948775 1 0
0.965164 1 0.563027
0.967666 1 0.755169
0.93547 1 0.786801
0.935668 1 0.786831
0.935973 1 0.786862
0.936889 1 0.786999
0.939498 1 0.787411
0.946075 1 0.788586
0.958526 1 0.791852
0.969162 1 0.799939
0.970047 1 0.818463
0.603387 0.585611 0.711162
0.603464 0.585687 0.711223
0.603571 0.585794 0.711315
0.612009 0.585077 0.710536
0.806531 0.596353 0.708354
0.991241 0.681727 0.724819
0.991089 0.688289 0.733928
0.983551 0.836667 0.746731
0.975616 0.954177 0.787152
0.602838 0.585031 0.710658
0.602899 0.585107 0.710719
0.603021 0.585229 0.710826
0.61326 0.58436 0.709911
0.811017 0.59675 0.707927
0.991241 0.681544 0.724407
0.990997 0.690089 0.732952
0.983246 0.841077 0.74583
0.975555 0.954681 0.786938
0.601923 0.584054 0.70985
0.601999 0.584146 0.709926
0.602121 0.584283 0.710033
0.615518 0.5832 0.708904
0.813733 0.596475 0.707103
0.991241 0.681208 0.723705
0.990738 0.69453 0.731319
0.982803 0.847776 0.744396
0.975448 0.95552 0.786603
0.595209 0.588983 0.70489
0.595209 0.589166 0.704906
0.595178 0.589395 0.704906
0.610636 0.588312 0.704067
0.812314 0.59733 0.703212
0.991104 0.682734 0.719799
0.989349 0.720546 0.725826
0.981567 0.865415 0.740185
0.975158 0.957885 0.785595
0 0.765087 0.672953
0 0.765347 0.67303
0 0.765423 0.673167
0 0.764172 0.673609
0.735714 0.756786 0.673793
0.948089 0.777096 0.691432
0.983215 0.828656 0.705928
0.978653 0.902419 0.728237
0.97435 0.96408 0.782727
0 0.949081 0
0 0.94844 0
0 0.947372 0
0 0.944106 0
0 0.935744 0
0.892805 0.928283 0.543603
0.974807 0.932662 0.645289
0.973831 0.94966 0.697658
0.972488 0.977096 0.775006
0 0.999496 0
0 0.999069 0
0 0.998428 0
0 0.996704 0
0.616526 0.991684 0
0.872892 0.986175 0
0.954376 0.983185 0
0.967956 0.986526 0.586694
0.969482 0.994369 0.756191
0.832547 1 0
0.834623 1 0
0.837888 1 0
0.846998 1 0
0.868894 1 0
0.906981 1 0
0.949172 1 0
0.965164 1 0.56257
0.967666 1 0.754986
0.935912 1 0.78677
0.936095 1 0.786786
0.9364 1 0.786847
0.937301 1 0.786969
0.939864 1 0.787366
0.946349 1 0.788556
0.958663 1 0.791821
0.969162 1 0.799893
0.970047 1 0.818463
0.766979 0.758724 0.858656
0.766995 0.75874 0.858656
0.76701 0.758755 0.858671
0.767056 0.758801 0.858717
0.792035 0.754314 0.854322
0.991745 0.770733 0.851728
0.99176 0.771389 0.852445
0.988998 0.813016 0.844572
0.978683 0.952224 0.840665
0.766918 0.758663 0.858595
0.766918 0.758663 0.858595
0.766934 0.758679 0.85861
0.766979 0.758724 0.858656
0.794095 0.754192 0.85417
0.991745 0.770672 0.851667
0.99176 0.771344 0.852384
0.988708 0.817594 0.8439
0.978622 0.952804 0.840543
0.766812 0.758541 0.858488
0.766812 0.758556 0.858503
0.766827 0.758572 0.858503
0.766857 0.758602 0.858534
0.79762 0.753994 0.85391
0.991745 0.770565 0.851545
0.99176 0.771252 0.852293
0.988205 0.824994 0.842863
0.9785 0.953735 0.84033
0.766461 0.758175 0.858167
0.766476 0.758175 0.858183
0.766476 0.75819 0.858198
0.766201 0.757885 0.857939
0.806821 0.753491 0.853239
0.99173 0.77026 0.851225
0.991714 0.769818 0.850767
0.986786 0.846128 0.839979
0.97818 0.956405 0.83975
0.753811 0.758968 0.84802
0.75375 0.759075 0.847974
0.753658 0.759228 0.847913
0.753079 0.759121 0.847425
0.792248 0.75613 0.844846
0.98822 0.774044 0.843091
0.989197 0.802655 0.839048
0.983383 0.891524 0.833539
0.97731 0.963378 0.838117
0 0.945968 0.816876
0 0.945586 0.816892
0 0.944839 0.816938
0 0.941939 0.81706
0.598077 0.931975 0.815457
0.892699 0.923323 0.8159
0.976181 0.929244 0.819074
0.97792 0.948287 0.822705
0.975372 0.977523 0.834226
0 1 0.788037
0 1 0.788205
0 1 0.788434
0 1 0.789151
0.574853 0.996139 0.788983
0.865644 0.990143 0.791287
0.950637 0.987243 0.798093
0.972335 0.988861 0.808621
0.972381 0.995804 0.826871
0.83064 1 0.744045
0.83267 1 0.744137
0.835874 1 0.744289
0.844831 1 0.744778
0.866468 1 0.746273
0.904463 1 0.750561
0.947082 1 0.76109
0.968475 1 0.781811
0.969802 1 0.81384
0.937179 1 0.786664
0.937362 1 0.786694
0.937636 1 0.78674
0.938506 1 0.786862
0.940963 1 0.787274
0.947158 1 0.788449
0.959091 1 0.791699
0.969162 1 0.799786
0.970047 1 0.818448
0.81445 0.80911 0.901335
0.81445 0.80911 0.901335
0.81445 0.80911 0.901335
0.81445 0.80911 0.901335
0.81445 0.80911 0.901335
0.980026 0.817929 0.901274
0.994278 0.819852 0.901396
0.994278 0.819852 0.901396
0.984176 0.935531 0.882734
0.81445 0.80911 0.901335
0.81445 0.80911 0.901335
0.81445 0.80911 0.901335
0.81445 0.80911 0.901335
0.81445 0.80911 0.901335
0.981094 0.818051 0.901289
0.994278 0.819852 0.901396
0.994278 0.819852 0.901396
0.98407 0.936477 0.882597
0.81445 0.80911 0.901335
0.81445 0.80911 0.901335
0.81445 0.80911 0.901335
0.81445 0.80911 0.901335
0.81445 0.80911 0.901335
0.982834 0.81828 0.901305
0.994278 0.819852 0.901396
0.994278 0.819852 0.901396
0.983917 0.937987 0.882383
0.81445 0.80911 0.901335
0.81445 0.80911 0.901335
0.81445 0.80911 0.901335
0.81445 0.80911 0.901335
0.81445 0.80911 0.901335
0.987915 0.818952 0.90135
0.994278 0.819852 0.901396
0.994278 0.819852 0.901396
0.983444 0.942306 0.881758
0.81445 0.80911 0.901335
0.81445 0.80911 0.901335
0.81445 0.80911 0.901335
0.81445 0.80911 0.901335
0.815564 0.809125 0.901335
0.994278 0.819852 0.901396
0.994278 0.819852 0.901396
0.993423 0.825055 0.897154
0.982223 0.953216 0.880156
0.787152 0.882506 0.890517
0.787091 0.882673 0.890501
0.786954 0.882933 0.890471
0.786572 0.883726 0.890364
0.786221 0.880308 0.889418
0.917052 0.874327 0.887037
0.987945 0.89041 0.885023
0.984451 0.929351 0.880583
0.979675 0.973342 0.87686
0 1 0.87155
0 1 0.87158
0 1 0.871611
0 1 0.871687
0.614084 0.997772 0.869795
0.862287 0.989807 0.869078
0.952239 0.986511 0.869825
0.97705 0.9888 0.870634
0.976181 0.996384 0.872236
0.823453 1 0.86157
0.825574 1 0.86157
0.828916 1 0.861555
0.838346 1 0.86154
0.86128 1 0.861509
0.901778 1 0.861631
0.945937 1 0.862333
0.973266 1 0.864149
0.973602 1 0.867781
0.937865 1 0.849851
0.938048 1 0.849882
0.938323 1 0.849882
0.939147 1 0.849928
0.941527 1 0.850034
0.947509 1 0.85037
0.959106 1 0.851347
0.972335 1 0.853925
0.972885 1 0.859937
0.81442 0.809262 0.90132
0.81442 0.809262 0.90132
0.81442 0.809262 0.90132
0.81442 0.809262 0.90132
0.81442 0.809262 0.90132
0.81442 0.809262 0.90132
0.994278 0.819852 0.901396
0.994278 0.819852 0.901396
0.993454 0.833982 0.900984
0.81442 0.809262 0.90132
0.81442 0.809262 0.90132
0.81442 0.809262 0.90132
0.81442 0.809262 0.90132
0.81442 0.809262 0.90132
0.81442 0.809262 0.90132
0.994278 0.819852 0.901396
0.994278 0.819852 0.901396
0.993454 0.833967 0.900984
0.81442 0.809262 0.90132
0.81442 0.809262 0.90132
0.81442 0.809262 0.90132
0.81442 0.809262 0.90132
0.81442 0.809262 0.90132
0.81442 0.809262 0.90132
0.994278 0.819852 0.901396
0.994278 0.819852 0.901396
0.993454 0.833967 0.900984
0.81442 0.809262 0.90132
0.81442 0.809262 0.90132
0.81442 0.809262 0.90132
0.81442 0.809262 0.90132
0.81442 0.809262 0.90132
0.814435 0.809186 0.90132
0.994278 0.819852 0.901396
0.994278 0.819852 0.901396
0.993454 0.833951 0.900984
0.81442 0.809247 0.90132
0.81442 0.809247 0.90132
0.81442 0.809247 0.90132
0.81442 0.809247 0.90132
0.81442 0.809247 0.90132
0.8159 0.809125 0.901335
0.994278 0.819852 0.901396
0.994278 0.819852 0.901396
0.993454 0.83389 0.900984
0.81442 0.809247 0.90132
0.81442 0.809247 0.90132
0.81442 0.809247 0.90132
0.81442 0.809247 0.90132
0.81442 0.809247 0.90132
0.866606 0.810224 0.901152
0.994278 0.819852 0.901396
0.994278 0.819989 0.901396
0.988205 0.910094 0.898268
0.716594 0.982589 0.894209
0.716518 0.98262 0.894209
0.716426 0.982651 0.894209
0.716091 0.982803 0.894194
0.715099 0.98323 0.894163
0.810132 0.966506 0.894911
0.961883 0.961761 0.895338
0.982391 0.969558 0.895064
0.980041 0.987701 0.893736
0.693889 1 0.891661
0.70135 1 0.8916
0.712596 1 0.891508
0.741955 1 0.891279
0.802243 1 0.890806
0.879088 1 0.890349
0.942 1 0.890257
0.975189 1 0.890608
0.976211 1 0.890761
0.933547 1 0.888304
0.933761 1 0.888304
0.934096 1 0.888304
0.935134 1 0.888319
0.938064 1 0.888319
0.945327 1 0.88835
0.958633 1 0.888457
0.97293 1 0.888701
0.975937 1 0.889174
0.814313 0.810086 0.901305
0.814313 0.810086 0.901305
0.814313 0.810086 0.901305
0.814313 0.810086 0.901305
0.814313 0.810086 0.901305
0.814313 0.810086 0.901305
0.814313 0.810086 0.901305
0.994232 0.82063 0.901381
0.992966 0.841993 0.90074
0.814313 0.810086 0.901305
0.814313 0.810086 0.901305
0.814313 0.810086 0.901305
0.814313 0.810086 0.901305
0.814313 0.810086 0.901305
0.814313 0.810086 0.901305
0.814313 0.810086 0.901305
0.994232 0.82063 0.901381
0.992966 0.842008 0.90074
0.814313 0.810086 0.901305
0.814313 0.810086 0.901305
0.814313 0.810086 0.901305
0.814313 0.810086 0.901305
0.814313 0.810086 0.901305
0.814313 0.810086 0.901305
0.814313 0.810086 0.901305
0.994232 0.82063 0.901381
0.992966 0.842023 0.90074
0.814313 0.810086 0.901305
0.814313 0.810086 0.901305
0.814313 0.810086 0.901305
0.814313 0.810086 0.901305
0.814313 0.810086 0.901305
0.814313 0.810086 0.901305
0.814313 0.810086 0.901305
0.994232 0.82063 0.901381
0.99295 0.842069 0.90074
0.814313 0.810086 0.901305
0.814313 0.810086 0.901305
0.814313 0.810086 0.901305
0.814313 0.810086 0.901305
0.814313 0.810086 0.901305
0.814313 0.810086 0.901305
0.815793 0.809979 0.901305
0.994232 0.820661 0.901381
0.99295 0.842206 0.900725
0.814313 0.810086 0.901305
0.814313 0.810086 0.901305
0.814313 0.810086 0.901305
0.814313 0.810086 0.901305
0.814313 0.810086 0.901305
0.814313 0.810086 0.901305
0.877943 0.810819 0.901122
0.994232 0.820737 0.901381
0.992935 0.842435 0.900725
0.814313 0.810086 0.901305
0.814313 0.810086 0.901305
0.814313 0.810086 0.901305
0.814313 0.810086 0.901305
0.814313 0.810086 0.901305
0.814313 0.810086 0.901305
0.994278 0.819852 0.901396
0.994217 0.820905 0.901366
0.99292 0.842847 0.90071
0 1 0.894316
0 1 0.894316
0 1 0.894316
0 1 0.894316
0 1 0.894316
0 1 0.894316
0.907637 1 0.891997
0.978134 1 0.892653
0.977676 1 0.892378
0.88603 1 0.891096
0.886778 1 0.891081
0.887953 1 0.891081
0.891402 1 0.891096
0.900572 1 0.891096
0.920302 1 0.891142
0.94847 1 0.891279
0.970794 1 0.891478
0.976226 1 0.891539
