BBLuts/BB_103_0635_LUT.cube
TITLE "Generated by Resolve"
LUT_3D_SIZE 33
0 0 0
0 0 0
0 0 0
0 0 0
0 0 0
0.00810254 0 0
0.0581521 0 0
0.116121 0 0
0.183093 0 0
0.25626 0 0
0.332189 0 0
0.412863 0 0
0.500023 0 0
0.586709 0 0
0.668772 0 0
0.747051 0 0
0.815625 0 0
0.869642 0 0
0.885267 0 0
0.888258 0 0
0.882246 0 0
0.871031 0.172457 0
0.862089 0.338125 0
0.855573 0.451698 0
0.84979 0.546044 0.024033
0.844572 0.625574 0.0827649
0.839948 0.693202 0.15314
0.836011 0.749523 0.234287
0.832746 0.794568 0.315511
0.829999 0.831006 0.395636
0.827726 0.85948 0.467842
0.825849 0.881712 0.535821
0.824262 0.899687 0.594354
0 0 0
0 0 0
0 0 0
0 0 0
0 0 0
0.00962844 0 0
0.0632944 0 0
0.123064 0 0
0.189319 0 0
0.260243 0 0
0.334768 0 0
0.414954 0 0
0.50161 0 0
0.587732 0 0
0.669352 0 0
0.747311 0 0
0.815518 0 0
0.869276 0 0
0.885145 0 0
0.888258 0 0
0.88101 0 0
0.868727 0.20502 0
0.860929 0.352987 0
0.854871 0.461173 0
0.849287 0.552361 0.0209964
0.844236 0.62977 0.0805676
0.839719 0.696056 0.15172
0.835874 0.751324 0.233494
0.83267 0.795682 0.315022
0.829938 0.831708 0.395361
0.827695 0.859892 0.467658
0.825833 0.881987 0.535714
0.824262 0.89987 0.594293
0 0 0
0 0 0
0 0 0
0 0 0
0 0 0
0.00633249 0 0
0.0630198 0 0
0.125032 0 0
0.192523 0 0
0.263264 0 0
0.337285 0 0
0.417105 0 0
0.503273 0 0
0.588769 0 0
0.669947 0 0
0.747555 0 0
0.815396 0 0
0.868864 0 0
0.885023 0 0
0.888136 0 0
0.880034 0 0
0.867033 0.23328 0
0.859846 0.367102 0
0.854185 0.470268 0
0.848814 0.558511 0.0179141
0.8439 0.633875 0.0783703
0.839506 0.698863 0.150301
0.835737 0.753109 0.2327
0.832593 0.796796 0.314519
0.829892 0.832395 0.395071
0.827665 0.860304 0.467491
0.825803 0.882261 0.535576
0.824247 0.900053 0.594202
0 0 0
0 0 0
0 0 0
0 0 0
0 0 0
0 0 0
0.0552987 0 0
0.122744 0 0
0.193454 0 0
0.265476 0 0
0.339834 0 0
0.419379 0 0
0.505043 0 0
0.589883 0 0
0.670558 0 0
0.747784 0 0
0.815244 0 0
0.868437 0 0
0.884901 0 0
0.886641 0 0
0.877516 0.0425879 0
0.865492 0.258183 0
0.858778 0.380545 0
0.853498 0.479057 0
0.848325 0.564538 0.0147707
0.84358 0.637934 0.076173
0.839292 0.701625 0.148913
0.835599 0.754879 0.231891
0.832502 0.797894 0.314031
0.829847 0.833082 0.394781
0.827634 0.860716 0.467308
0.825788 0.882551 0.535454
0.824231 0.900236 0.594125
0 0 0
0 0 0
0 0 0
0 0 0
0 0 0
0 0 0
0.0452277 0 0
0.114687 0 0
0.188006 0 0
0.264485 0 0
0.341344 0 0
0.421668 0 0
0.507073 0 0
0.591134 0 0
0.671229 0 0
0.748028 0 0
0.815076 0 0
0.867933 0 0
0.884749 0 0
0.882261 0 0
0.87274 0.128328 0
0.86392 0.282612 0
0.857603 0.393851 0
0.852766 0.488334 0
0.847807 0.570993 0.0112306
0.843229 0.642313 0.0736858
0.839063 0.704631 0.147356
0.835462 0.756786 0.231006
0.832425 0.799084 0.313481
0.829786 0.833844 0.394476
0.827604 0.861173 0.467109
0.825772 0.882841 0.535317
0.824216 0.900435 0.594034
0 0.0191196 0
0 0.0214847 0
0 0.0227665 0
0 0.0234989 0
0 0.0236973 0
0 0.0216526 0
0.0302892 0.0186465 0
0.10486 0.0138705 0
0.181125 0.00500496 0
0.258503 0 0
0.337301 0 0
0.421683 0 0
0.508492 0 0
0.592706 0 0
0.67216 0 0
0.748363 0 0
0.814832 0 0
0.867247 0 0
0.883421 0 0
0.87895 0.0168612 0
0.869535 0.184848 0
0.862013 0.311192 0
0.856077 0.410376 0
0.85182 0.499992 0
0.847166 0.579049 0.00695811
0.842786 0.647944 0.0705425
0.838773 0.708476 0.145312
0.835279 0.759274 0.229801
0.832303 0.800656 0.312764
0.829709 0.834821 0.394049
0.827558 0.861769 0.46685
0.825742 0.883238 0.535149
0.824201 0.900694 0.593927
0 0.0768902 0
0 0.0783093 0
0 0.079408 0
0 0.0800641 0
0 0.0803998 0
0 0.0800031 0
0.0012665 0.0771801 0
0.0872816 0.0737163 0
0.169436 0.0676738 0
0.251987 0.0583505 0
0.333898 0.0446174 0
0.417823 0.0219883 0
0.505272 0 0
0.591211 0 0
0.671214 0 0
0.748699 0 0
0.81445 0 0
0.864256 0 0
0.876814 0 0
0.873564 0.113787 0
0.866239 0.241032 0
0.859846 0.344427 0
0.854368 0.431647 0
0.850568 0.514733 0
0.846357 0.589227 0.002533
0.842206 0.655253 0.0666972
0.838376 0.713512 0.142565
0.835035 0.762509 0.228153
0.832151 0.802716 0.311788
0.829633 0.836133 0.393515
0.827497 0.862577 0.466499
0.825711 0.883772 0.534905
0.82417 0.901045 0.593759
0 0.143633 0
0 0.144442 0
0 0.145159 0
0 0.145586 0
0 0.145815 0
0 0.145846 0
0 0.144167 0
0.0544137 0.1402 0
0.148806 0.135897 0
0.239643 0.129625 0
0.328206 0.120439 0
0.415961 0.106859 0
0.502586 0.0881514 0
0.585397 0.0619974 0
0.66511 0.0234379 0
0.743191 0 0
0.807813 0 0
0.854612 0.031693 0
0.868772 0.119188 0
0.86807 0.210117 0
0.862684 0.299001 0
0.857466 0.381994 0
0.852537 0.458167 0
0.848814 0.532952 0
0.845304 0.602258 0
0.841443 0.664668 0.0616312
0.837888 0.719982 0.138888
0.834714 0.766735 0.22594
0.831952 0.805417 0.310506
0.829496 0.837858 0.392767
0.82742 0.863645 0.466041
0.82565 0.884489 0.534585
0.82414 0.901503 0.593561
0 0.216159 0
0 0.216693 0
0 0.217075 0
0 0.217319 0
0 0.217411 0
0 0.217258 0
0 0.216785 0
0 0.213794 0
0.113878 0.210468 0
0.217838 0.206332 0
0.316304 0.200031 0
0.411368 0.190921 0
0.500847 0.17995 0
0.582849 0.167468 0
0.659983 0.154665 0
0.733333 0.145037 0
0.795926 0.150958 0
0.843931 0.182803 0
0.861601 0.232242 0
0.863066 0.292882 0
0.858961 0.358404 0
0.854673 0.423453 0
0.850309 0.489647 0
0.846586 0.555291 0
0.843931 0.618387 0
0.840497 0.676585 0.0547646
0.837247 0.728176 0.133974
0.834318 0.772122 0.222995
0.831693 0.808927 0.308766
0.829328 0.840116 0.391775
0.827329 0.865034 0.4654
0.825589 0.88542 0.534157
0.824094 0.902129 0.593286
0 0.295232 0
0 0.295689 0
0 0.296025 0
0 0.296284 0
0 0.296468 0
0 0.296529 0
0 0.296391 0
0 0.29575 0
0.0380407 0.2925 0
0.179553 0.289876 0
0.294224 0.286076 0
0.399954 0.280583 0
0.495247 0.273899 0
0.579553 0.267185 0
0.656046 0.262287 0
0.727153 0.261433 0
0.787289 0.270695 0
0.834028 0.29453 0
0.854688 0.328969 0
0.858183 0.370764 0
0.855024 0.418082 0
0.851438 0.471031 0
0.847669 0.525841 0
0.843961 0.58175 0
0.842191 0.638376 0
0.839323 0.691325 0.0477302
0.836469 0.738354 0.128618
0.833799 0.778943 0.219135
0.831357 0.813443 0.306477
0.829129 0.84303 0.390448
0.827192 0.86688 0.464561
0.825498 0.886656 0.533578
0.824033 0.902953 0.592905
0 0.381567 0
0 0.381903 0
0 0.382208 0
0 0.382452 0
0 0.38262 0
0 0.382788 0
0 0.382849 0
0 0.382818 0
0 0.382101 0
0.102998 0.379507 0
0.255146 0.377646 0
0.377249 0.374716 0
0.481346 0.370809 0
0.571496 0.366934 0
0.650431 0.364874 0
0.720409 0.36643 0
0.778225 0.374777 0
0.823453 0.391424 0
0.847822 0.414267 0
0.853239 0.444572 0
0.850736 0.481254 0
0.847868 0.522454 0
0.844694 0.566995 0
0.841413 0.61268 0
0.840116 0.662348 0
0.837934 0.709041 0.0411383
0.835523 0.750683 0.123079
0.833173 0.787335 0.214099
0.830945 0.819135 0.303441
0.828855 0.846738 0.388708
0.827024 0.869261 0.463432
0.825376 0.888273 0.532784
0.823957 0.904021 0.592401
0 0.471458 0
0 0.471717 0
0 0.471946 0
0 0.472129 0
0 0.472297 0
0 0.472465 0
0 0.472602 0
0 0.472694 0
0 0.472755 0
0 0.470954 0
0.182986 0.469047 0
0.338064 0.467124 0
0.456916 0.464515 0
0.556039 0.461631 0
0.640589 0.459785 0
0.71191 0.460792 0
0.768185 0.466957 0
0.811719 0.479301 0
0.840543 0.496178 0
0.848173 0.518135 0
0.84625 0.545159 0
0.843992 0.576654 0
0.841505 0.610773 0
0.838727 0.648341 0
0.837659 0.689769 0
0.836332 0.729519 0.0336461
0.834424 0.765194 0.118441
0.832425 0.797436 0.209216
0.830427 0.826139 0.299458
0.828519 0.851377 0.386435
0.826795 0.872312 0.461936
0.825223 0.890349 0.531762
0.823865 0.905409 0.591714
0 0.560784 0
0 0.560952 0
0 0.561074 0
0 0.561181 0
0 0.561273 0
0 0.561364 0
0 0.561425 0
0 0.561425 0
0 0.561288 0
0 0.560998 0
0.0462348 0.55816 0
0.279515 0.556344 0
0.42179 0.554421 0
0.532158 0.552102 0
0.624216 0.550149 0
0.699001 0.550072 0
0.755703 0.553857 0
0.797818 0.56228 0
0.828763 0.574044 0
0.840742 0.589288 0
0.841672 0.60853 0
0.839948 0.631434 0
0.837964 0.65803 0
0.835813 0.687495 0
0.834775 0.719768 0
0.834546 0.752361 0.0250553
0.833188 0.781918 0.116579
0.831525 0.809461 0.205875
0.829801 0.834607 0.294362
0.828107 0.857053 0.383352
0.82652 0.876173 0.459937
0.82504 0.893019 0.530373
0.823743 0.907195 0.590829
0 0.64303 0
0 0.643107 0
0 0.643137 0
0 0.643168 0
0 0.643198 0
0 0.643198 0
0 0.643153 0
0 0.643061 0
0 0.642832 0
0 0.642359 0
0 0.641413 0
0.172457 0.638117 0
0.374624 0.636454 0
0.500175 0.634546 0
0.600809 0.632639 0
0.679683 0.631846 0
0.738567 0.633646 0
0.78146 0.638804 0
0.812436 0.646723 0
0.831022 0.657588 0
0.836988 0.67129 0
0.835767 0.68777 0
0.834363 0.706706 0
0.832822 0.727901 0
0.83183 0.751247 0
0.832624 0.776806 0.0153964
0.831815 0.800595 0.11667
0.830503 0.823377 0.206332
0.829084 0.844541 0.292256
0.827619 0.863874 0.379095
0.826185 0.88101 0.457252
0.824811 0.896376 0.528511
0.823575 0.909483 0.589609
0 0.720729 0
0 0.720714 0
0 0.720684 0
0 0.720653 0
0 0.720607 0
0 0.720531 0
0 0.720409 0
0 0.72018 0
0 0.719814 0
0 0.719173 0
0 0.718151 0
0.0505837 0.7149 0
0.311315 0.712718 0
0.463081 0.710658 0
0.572091 0.708385 0
0.655436 0.706767 0
0.717098 0.706828 0
0.762387 0.709117 0
0.794644 0.713436 0
0.818936 0.719982 0
0.83064 0.728588 0
0.831983 0.739147 0
0.831067 0.751507 0
0.830045 0.765591 0
0.828946 0.781231 0
0.830655 0.80148 0.00430304
0.830381 0.820264 0.119173
0.829419 0.838331 0.210025
0.828275 0.855467 0.293507
0.827039 0.871672 0.376028
0.825772 0.886702 0.453758
0.824521 0.900404 0.526085
0.823377 0.912291 0.588022
0 0.784253 0
0 0.784161 0
0 0.784085 0
0 0.783978 0
0 0.783871 0
0 0.783719 0
0 0.78349 0
0 0.783123 0
0 0.782574 0
0 0.781735 0
0 0.780514 0
0 0.777935 0
0.251514 0.774502 0
0.431266 0.772061 0
0.547921 0.769345 0
0.633463 0.767056 0
0.696452 0.76585 0
0.743954 0.766003 0
0.7776 0.767605 0
0.803922 0.770764 0
0.821317 0.775464 0
0.82887 0.781689 0
0.828305 0.789395 0
0.827634 0.798733 0
0.826993 0.809873 0
0.829007 0.825391 0.0106508
0.829007 0.839536 0.125444
0.828351 0.853269 0.216342
0.827451 0.866758 0.298589
0.826413 0.880217 0.378088
0.825315 0.89308 0.4495
0.824201 0.904982 0.523049
0.823148 0.915541 0.586023
0 0.831617 0
0 0.831495 0
0 0.831357 0
0 0.83122 0
0 0.831052 0
0 0.830823 0
0 0.830503 0
0 0.830045 0
0 0.829358 0
0 0.828397 0
0 0.827085 0
0 0.825132 0
0.22092 0.820752 0
0.41529 0.818067 0
0.533425 0.815137 0
0.618219 0.812543 0
0.680095 0.810727 0
0.728252 0.809812 0
0.762982 0.809964 0
0.790524 0.811215 0
0.811749 0.813642 0
0.824292 0.817243 0
0.825925 0.822019 0
0.825528 0.828061 0
0.825956 0.836545 0
0.82768 0.847578 0.0340276
0.827756 0.857603 0.136843
0.827298 0.867811 0.22594
0.826612 0.87837 0.305898
0.825742 0.889296 0.383536
0.824811 0.899962 0.452613
0.823835 0.910048 0.519722
0.822858 0.919692 0.58349
0 0.868009 0
0 0.867842 0
0 0.867658 0
0 0.867475 0
0 0.867292 0
0 0.867002 0
0 0.866621 0
0 0.866072 0
0 0.865354 0
0 0.864347 0
0 0.862989 0
0 0.860517 0
0.237888 0.856535 0
0.416358 0.853803 0
0.528481 0.850889 0
0.609339 0.848249 0
0.668452 0.846204 0
0.715602 0.844755 0
0.750347 0.844083 0
0.77821 0.84416 0
0.801053 0.845045 0
0.816953 0.846784 0
0.823941 0.849393 0
0.823728 0.852964 0
0.825498 0.859922 0
0.826535 0.867216 0.0615091
0.826612 0.874388 0.154177
0.826276 0.882002 0.238697
0.825742 0.89012 0.315892
0.82504 0.898695 0.390509
0.824262 0.907225 0.457771
0.823423 0.915511 0.521782
0.822568 0.923842 0.581552
0 0.893294 0
0 0.893095 0
0 0.892897 0
0 0.892699 0
0 0.89247 0
0 0.89218 0
0 0.891768 0
0 0.891218 0
0 0.890455 0
0 0.889464 0
0 0.888106 0
0.0245975 0.88452 0
0.284688 0.881651 0
0.433295 0.879026 0
0.533211 0.876249 0
0.60734 0.873701 0
0.662608 0.871611 0
0.707759 0.869932 0
0.741451 0.86891 0
0.769162 0.868376 0
0.792447 0.868421 0
0.810636 0.869093 0
0.821973 0.870466 0
0.822309 0.872587 0
0.824887 0.878767 0
0.825574 0.883833 0.0921645
0.82562 0.889006 0.176059
0.825376 0.894667 0.254444
0.824948 0.900801 0.328176
0.824384 0.907408 0.3991
0.823728 0.914137 0.464149
0.82298 0.92134 0.526406
0.822248 0.928038 0.582681
0 0.913695 0
0 0.913497 0
0 0.913283 0
0 0.913085 0
0 0.912856 0
0 0.912551 0
0 0.912139 0
0 0.911589 0
0 0.91043 0
0 0.909453 0
0 0.907866 0
0.168521 0.904036 0
0.346761 0.901823 0
0.460746 0.899413 0
0.544915 0.896895 0
0.610132 0.89456 0
0.660655 0.892546 0
0.702937 0.890822 0
0.734874 0.889632 0
0.761761 0.888792 0
0.784909 0.88835 0
0.803876 0.888365 0
0.817578 0.889128 0
0.822339 0.891569 0
0.824292 0.89575 0.0451209
0.824674 0.899046 0.128435
0.824704 0.902617 0.203891
0.824521 0.906615 0.274571
0.824201 0.91107 0.343816
0.823743 0.916014 0.410178
0.823163 0.92163 0.472343
0.822538 0.927047 0.532586
0.821912 0.932525 0.586297
0 0.929412 0
0 0.929213 0
0 0.929015 0
0 0.928817 0
0 0.928588 0
0 0.928298 0
0 0.927901 0
0 0.927474 0
0 0.926406 0
0 0.924666 0
0.13994 0.922103 0
0.305608 0.920348 0
0.41059 0.918486 0
0.493736 0.916381 0
0.562127 0.914199 0
0.617121 0.912139 0
0.662333 0.910277 0
0.700999 0.908186 0
0.730648 0.906935 0
0.756207 0.905959 0
0.778698 0.905257 0
0.797681 0.905135 0
0.813123 0.906218 0
0.823026 0.908873 0.0200656
0.823651 0.910658 0.0992752
0.823865 0.912627 0.169635
0.823865 0.914931 0.236408
0.823697 0.918059 0.299458
0.823438 0.921202 0.363119
0.823056 0.924804 0.424155
0.822614 0.92871 0.482841
0.82208 0.932876 0.540307
0.82153 0.937179 0.591577
0 0.941283 0
0 0.941054 0
0 0.940826 0
0 0.940581 0
0 0.940322 0
0 0.939986 0
0 0.939513 0
0.0180514 0.937667 0
0.169451 0.936385 0
0.259495 0.935409 0
0.337148 0.934325 0
0.407233 0.933013 0
0.471077 0.931456 0
0.530251 0.929702 0
0.583307 0.927871 0
0.628046 0.926101 0
0.667475 0.924407 0
0.701808 0.922881 0
0.728969 0.92195 0
0.753063 0.921172 0
0.774289 0.920562 0
0.793576 0.920821 0
0.810178 0.922393 0.0154421
0.821942 0.923186 0.0894484
0.822889 0.923949 0.153063
0.823087 0.924987 0.214618
0.823072 0.92636 0.271672
0.82295 0.92813 0.329046
0.822736 0.930266 0.386099
0.822431 0.932784 0.441459
0.822065 0.935592 0.495903
0.821622 0.938643 0.549844
0.821164 0.941878 0.598093
0.225193 0.948272 0
0.240681 0.948074 0
0.255146 0.947906 0
0.268803 0.947723 0
0.282994 0.94754 0
0.300557 0.947295 0
0.322347 0.946975 0
0.348379 0.946563 0
0.378485 0.946029 0
0.410986 0.945357 0
0.447364 0.944503 0
0.485679 0.943481 0
0.526146 0.94226 0
0.567605 0.940871 0
0.607065 0.939406 0
0.642863 0.937942 0
0.676097 0.936492 0
0.705669 0.935164 0
0.730602 0.935134 0
0.753552 0.935332 0
0.773709 0.935088 0.019913
0.791653 0.934859 0.0585184
0.806622 0.934783 0.104387
0.819181 0.934813 0.1552
0.822003 0.934997 0.208057
0.8224 0.935424 0.259434
0.82237 0.936126 0.310323
0.822263 0.937148 0.361822
0.82208 0.938491 0.411399
0.821836 0.940154 0.461814
0.82153 0.942031 0.511742
0.821164 0.944152 0.561349
0.820783 0.946471 0.605859
0.431235 0.958236 0.0508583
0.436545 0.958114 0.0510872
0.441688 0.958007 0.0513161
0.446754 0.95787 0.051545
0.452201 0.957763 0.0517891
0.459022 0.95758 0.0521401
0.467643 0.957366 0.0526131
0.478508 0.957076 0.0532387
0.492226 0.95671 0.0541085
0.508995 0.956237 0.0552834
0.528984 0.955627 0.0568856
0.55201 0.95491 0.0590677
0.577844 0.954055 0.0620279
0.605905 0.953033 0.0660716
0.634394 0.951919 0.0713512
0.662745 0.950744 0.0780194
0.689677 0.949599 0.0863813
0.714229 0.948516 0.0968032
0.735241 0.947601 0.108721
0.75494 0.946731 0.123201
0.772931 0.945968 0.14052
0.789334 0.945342 0.160983
0.803326 0.944869 0.186313
0.815366 0.944549 0.22208
0.821057 0.944381 0.262531
0.821759 0.944381 0.306096
0.821729 0.94461 0.351476
0.821637 0.945068 0.396338
0.821469 0.945785 0.440452
0.821271 0.946746 0.485374
0.821027 0.947921 0.530709
0.820722 0.949294 0.575113
0.820417 0.950912 0.615061
0.533578 0.961532 0.178393
0.536233 0.961517 0.178546
0.538857 0.961517 0.178698
0.541436 0.961517 0.178851
0.544228 0.961517 0.179019
0.547829 0.961517 0.179263
0.552529 0.961517 0.179568
0.558602 0.961517 0.17998
0.566323 0.961517 0.18056
0.576028 0.961501 0.181323
0.588067 0.961501 0.182376
0.602548 0.961517 0.18378
0.619211 0.961364 0.185702
0.638636 0.960662 0.188312
0.65977 0.959319 0.19176
0.681224 0.958343 0.196139
0.702068 0.957382 0.201694
0.722042 0.956436 0.208652
0.739986 0.955566 0.216709
0.757168 0.954711 0.226581
0.773129 0.953933 0.237919
0.788022 0.953246 0.251621
0.800977 0.952651 0.268101
0.812436 0.952178 0.288609
0.820264 0.951843 0.319463
0.82121 0.951598 0.355673
0.821164 0.951507 0.393576
0.821073 0.951614 0.432197
0.820935 0.951904 0.471763
0.820768 0.952422 0.512383
0.820554 0.953094 0.55256
0.82031 0.953964 0.591318
0.82005 0.955016 0.626047
0.602106 0.962478 0.282979
0.603601 0.962493 0.283085
0.605066 0.962493 0.283192
0.606516 0.962509 0.283299
0.608103 0.962524 0.283421
0.610162 0.962539 0.283574
0.612863 0.962554 0.283772
0.616403 0.962585 0.284047
0.620966 0.962615 0.284443
0.626871 0.962661 0.284947
0.634379 0.962707 0.285649
0.643671 0.962783 0.28658
0.655009 0.962829 0.287846
0.668467 0.962753 0.28957
0.683421 0.962615 0.291829
0.69894 0.962493 0.294728
0.714855 0.962371 0.298405
0.730983 0.962249 0.303059
0.745907 0.961913 0.308522
0.760494 0.961273 0.315312
0.774334 0.960555 0.323705
0.78761 0.959426 0.333898
0.79942 0.958816 0.34612
0.81004 0.958282 0.3608
0.818631 0.95787 0.380148
0.820447 0.957488 0.405829
0.820645 0.957229 0.436332
0.820569 0.957092 0.469673
0.820447 0.957122 0.504692
0.820294 0.95729 0.540932
0.820111 0.957595 0.575952
0.819913 0.958068 0.608988
0.819715 0.958694 0.638666
0.651514 0.962997 0.374258
0.652415 0.962997 0.374334
0.653284 0.963012 0.374411
0.654169 0.963012 0.374487
0.655131 0.963027 0.374578
0.656397 0.963027 0.374685
0.658061 0.963043 0.374838
0.660273 0.963058 0.375036
0.663172 0.963088 0.375311
0.666911 0.963119 0.375677
0.671687 0.963149 0.376165
0.677684 0.963211 0.376837
0.6851 0.963272 0.377737
0.694148 0.963348 0.378958
0.704555 0.963439 0.380545
0.715862 0.963546 0.382589
0.728008 0.963653 0.385077
0.740749 0.963775 0.388113
0.752789 0.963775 0.391699
0.764813 0.963607 0.396231
0.776516 0.963409 0.401892
0.788113 0.963226 0.408881
0.798627 0.963043 0.417395
0.80824 0.96289 0.427832
0.816449 0.962768 0.440833
0.819547 0.962554 0.458198
0.820188 0.962249 0.48098
0.820111 0.96199 0.508492
0.820005 0.961822 0.53843
0.819867 0.961776 0.569528
0.81973 0.961822 0.599573
0.819562 0.961975 0.627024
0.819409 0.962264 0.652506
0.689189 0.963317 0.452903
0.689723 0.963317 0.452949
0.690257 0.963333 0.452995
0.690806 0.963333 0.453056
0.691386 0.963333 0.453101
0.692149 0.963348 0.453193
0.693187 0.963348 0.453285
0.694545 0.963363 0.453437
0.69633 0.963378 0.45362
