BBLuts/BB_102_0570_LUT.cube
TITLE "Generated by Resolve"
LUT_3D_SIZE 5
0.00306706 0.0041352 0.00108339
0.211582 0.00271611 0
0.756786 0.0068513 0
0.932662 0.54107 0.103532
0.899428 0.991714 0.686717
0 0.24242 7.62951e-05
0.166705 0.243076 0
0.754726 0.11017 0
0.926436 0.618982 0.0692607
0.899321 0.993317 0.68603
0 0.814969 0
0 0.814496 0
0.655024 0.802747 0
0.906722 0.856672 0
0.898192 1 0.68072
0.512657 1 0.16878
0.554253 1 0.171099
0.711345 1 0.189044
0.890761 1 0.326223
0.895369 1 0.704479
0.861677 1 0.794278
0.862165 1 0.794308
0.865614 1 0.794644
0.883543 1 0.798657
0.894057 1 0.826856
0.00575265 0.00724804 0.163455
0.191287 0.0059205 0.16112
0.759167 0.0100404 0.164034
0.935042 0.523384 0.259892
0.899397 0.991287 0.703334
0 0.207446 0.146731
0.17937 0.20116 0.140002
0.759991 0.00985733 0.148928
0.928435 0.608347 0.241917
0.89929 0.992905 0.702724
0 0.811337 0
0 0.810834 0
0.660136 0.798947 0
0.908782 0.856947 0.0713054
0.898146 1 0.697993
0.519524 1 0.168276
0.559853 1 0.170626
0.713146 1 0.188647
0.890867 1 0.326177
0.895369 1 0.704372
0.861753 1 0.794278
0.862242 1 0.794308
0.865675 1 0.794629
0.883558 1 0.798657
0.894057 1 0.826856
0.0055848 0.00857557 0.671397
0.0055848 0.00857557 0.671611
0.764157 0.0111849 0.665461
0.956588 0.22623 0.682628
0.899123 0.98822 0.779263
0.0055848 0.00859083 0.669642
0.0055848 0.00857557 0.669886
0.772763 0.0113375 0.663676
0.939406 0.451987 0.676219
0.899107 0.989822 0.77908
0 0.763394 0.628397
0 0.76379 0.628626
0.647059 0.753353 0.625788
0.911086 0.832898 0.648692
0.897948 1 0.776196
0.521828 1 0.500084
0.56083 1 0.500862
0.710262 1 0.507073
0.885725 1 0.562005
0.895094 1 0.758343
0.862318 1 0.794232
0.862791 1 0.794263
0.866148 1 0.794583
0.883711 1 0.798611
0.894057 1 0.826856
0.00419623 0.00788891 0.923888
0.00419623 0.00788891 0.923888
0.00419623 0.00788891 0.923888
0.97171 0.0128023 0.923323
0.900969 0.949935 0.894896
0.00419623 0.00788891 0.923888
0.00419623 0.00788891 0.923888
0.00419623 0.00788891 0.923888
0.97171 0.0128023 0.923323
0.900694 0.953704 0.894591
0.00419623 0.00788891 0.923888
0.00419623 0.00788891 0.923888
0.368994 0.00683604 0.920897
0.97171 0.0128023 0.923323
0.899153 0.975494 0.892775
0 1 0.888563
0 1 0.888365
0.571542 1 0.882445
0.868681 1 0.88304
0.89453 1 0.886702
0.858686 1 0.862394
0.859129 1 0.862409
0.862409 1 0.862547
0.880583 1 0.864424
0.893721 1 0.874372
0 0.332082 0.92105
0 0.332082 0.92105
0 0.332113 0.92105
0 0.33228 0.921035
0.917174 0.72607 0.915099
0 0.332067 0.92105
0 0.332067 0.92105
0 0.332082 0.92105
0 0.332265 0.92105
0.917159 0.726192 0.915099
0 0.33193 0.921035
0 0.33193 0.921035
0 0.331945 0.92105
0.379599 0.307774 0.917403
0.917082 0.727169 0.915084
0 0.330587 0.92105
0 0.330587 0.92105
0 0.330617 0.92105
0.97171 0.0128023 0.923323
0.917037 0.730205 0.915251
0.796353 1 0.911604
0.798489 1 0.91162
0.811795 1 0.911528
0.863783 1 0.912322
0.893446 1 0.912505
