BBLuts/BB_101_0220_LUT.cube
TITLE "Generated by Resolve"
LUT_3D_SIZE 9
0.0195621 0.0195621 0.0195621
0.0233005 0.0190585 0.0190433
0.239384 0.0184634 0.018677
0.529595 0.00672923 0.00697337
0.797803 0 0
0.972259 0 0
1 0.634272 0.153536
1 0.8701 0.533074
0.998123 0.941894 0.819608
0.0204471 0.0813611 0.0195773
0.0206455 0.0925154 0.0196231
0.246967 0.0705425 0.0188602
0.537713 0.00616464 0.00642405
0.79968 0 0
0.972152 0 0
1 0.6533 0.134829
1 0.871641 0.531884
0.998123 0.942016 0.819532
0.0205997 0.258122 0.0172274
0.0204776 0.262119 0.0170443
0.198001 0.263081 0.0187533
0.551781 0.232883 0.0119478
0.808057 0.117601 0
0.991592 0.294636 0.027512
1 0.677775 0.0954604
1 0.874144 0.530068
0.998123 0.942199 0.819409
0.00723278 0.553765 0
0.00721752 0.554696 0
0.00721752 0.555718 0
0.48571 0.563973 0.0148318
0.825589 0.555947 0.018555
0.997848 0.606561 0.0370794
1 0.745937 0.0338903
1 0.883055 0.528222
0.998154 0.943099 0.818799
0.0268864 0.810864 0.0113832
0.0268864 0.810849 0.0113832
0.0268406 0.810651 0.0113375
0.0264134 0.808865 0.010956
0.776959 0.807309 0.0229038
0.973449 0.813855 0.0311589
1 0.851225 0.0327459
1 0.905516 0.538262
0.998215 0.94638 0.816403
0.0697185 0.951736 0.0504158
0.0697185 0.951736 0.0504158
0.0697185 0.951736 0.0504158
0.0688029 0.948592 0.0495918
0.754772 0.936416 0.0395361
0.942855 0.927108 0.0345312
1 0.928328 0.041886
1 0.93843 0.581064
0.998337 0.955032 0.818112
0.68986 0.98764 0.297688
0.68986 0.98764 0.297688
0.68986 0.98764 0.297688
0.689845 0.98764 0.297704
0.830427 0.97821 0.304662
0.936736 0.971893 0.355596
0.995834 0.967849 0.490211
1 0.965576 0.671183
0.998337 0.967819 0.841199
0.914412 0.977615 0.739345
0.914412 0.977615 0.739361
0.914412 0.977615 0.739361
0.914412 0.977615 0.739361
0.914397 0.977615 0.739361
0.949401 0.977462 0.74548
0.985763 0.977203 0.763592
0.998459 0.976608 0.809033
0.998062 0.976181 0.885908
0.97319 0.976226 0.910704
0.97319 0.976226 0.910704
0.97319 0.976226 0.910704
0.97319 0.976226 0.910704
0.97319 0.976226 0.910704
0.973175 0.976226 0.910689
0.986297 0.976226 0.912718
0.998047 0.97615 0.918349
0.998047 0.97615 0.93254
0.0190127 0.0189822 0.0846265
0.0190127 0.0189822 0.0852064
0.235966 0.0185092 0.0857862
0.528634 0.00679026 0.0754101
0.797253 0 0.0543221
0.972595 0 0.0628367
1 0.632685 0.186969
1 0.870085 0.533089
0.998123 0.941878 0.819623
0.0199435 0.0497292 0.0763256
0.0597543 0.0647593 0.0753033
0.252491 0.0192416 0.077409
0.531334 0.00660716 0.0623331
0.797864 0 0.0107271
0.97229 0 0.0196384
1 0.652003 0.162585
1 0.871626 0.531914
0.998123 0.942016 0.819532
0.0209506 0.24625 0.024155
0.0208591 0.249836 0.0242161
0.217624 0.251118 0.0258946
0.548669 0.220111 0.0168154
0.80325 0.080827 0
0.990585 0.276951 0.0256962
1 0.676722 0.12018
1 0.874144 0.530068
0.998123 0.942199 0.819409
0.00729381 0.548882 0
0.00727855 0.549752 0
0.00726329 0.550683 0
0.497993 0.558633 0.0148318
0.824887 0.5514 0.018555
0.997681 0.60415 0.0370336
1 0.745235 0.0339208
1 0.883055 0.528222
0.998154 0.943099 0.818799
0.026566 0.809522 0.0110933
0.026566 0.809506 0.0110933
0.0265202 0.809277 0.0110475
0.0260929 0.807477 0.0106813
0.778927 0.806256 0.022797
0.973449 0.813199 0.0311589
1 0.851011 0.0327459
1 0.905516 0.538262
0.998215 0.94638 0.816403
0.0696269 0.951431 0.0503243
0.0696422 0.951492 0.0503548
0.0696422 0.951492 0.0503548
0.0687419 0.948379 0.0495308
0.756481 0.936187 0.0394141
0.942992 0.927001 0.0345312
1 0.928283 0.041886
1 0.93843 0.581064
0.998337 0.955032 0.818112
0.692744 0.987442 0.297169
0.692744 0.987442 0.297169
0.692729 0.987442 0.297169
0.692729 0.987442 0.297169
0.831159 0.978149 0.304326
0.936858 0.971862 0.355352
0.99585 0.967834 0.490196
1 0.965576 0.671183
0.998337 0.967819 0.841199
0.914565 0.977615 0.739345
0.914565 0.977615 0.739345
0.914565 0.977615 0.739345
0.914565 0.977615 0.739345
0.914565 0.977615 0.739345
0.949462 0.977462 0.74548
0.985794 0.977203 0.763577
0.998459 0.976608 0.809033
0.998062 0.976181 0.885908
0.973205 0.976226 0.910704
0.973205 0.976226 0.910704
0.973205 0.976226 0.910704
0.973205 0.976226 0.910704
0.973205 0.976226 0.910704
0.973205 0.976226 0.910704
0.986313 0.976226 0.912718
0.998047 0.97615 0.918349
0.998047 0.97615 0.93254
0.0188296 0.0187076 0.257954
0.0188296 0.0186923 0.258305
0.201068 0.0184787 0.257877
0.537911 0.00582895 0.242115
0.797299 0 0.227924
0.973297 0 0.258976
1 0.625177 0.367483
1 0.869276 0.56495
0.998123 0.941878 0.819623
0.0188449 0.0187228 0.254734
0.0188449 0.0187228 0.255253
0.226551 0.0182345 0.254078
0.536889 0.0059205 0.237995
0.79826 0 0.222766
0.973098 0 0.24921
1 0.64535 0.358206
1 0.870832 0.563897
0.998123 0.942016 0.819532
0.0214847 0.212345 0.240818
0.0214847 0.215396 0.240772
0.197818 0.211292 0.237446
0.531167 0.184298 0.232044
0.798016 0.00770581 0.210346
0.988281 0.213275 0.26099
1 0.671153 0.344198
1 0.873365 0.562112
0.998123 0.942199 0.819409
0.00982681 0.535164 0.134615
0.00979629 0.536538 0.134981
0.00982681 0.537438 0.136568
0.496437 0.545678 0.154437
0.821195 0.538857 0.15996
0.998825 0.596613 0.194797
1 0.742245 0.289921
1 0.882414 0.555108
0.998154 0.943099 0.818799
0.0259709 0.806958 0.0105592
0.0259709 0.806958 0.0105592
0.0259098 0.806729 0.0105135
0.0254826 0.804929 0.0101472
0.780499 0.803647 0.0225681
0.973266 0.811215 0.0311284
1 0.850065 0.0896925
1 0.905394 0.539757
0.998215 0.94638 0.816403
0.0695201 0.951064 0.0502327
0.0695201 0.951064 0.0502327
0.0695201 0.951064 0.0502327
0.0692454 0.948074 0.0496071
0.759426 0.935805 0.0392004
0.943358 0.926802 0.0345312
1 0.928161 0.0418555
1 0.938384 0.580911
0.998337 0.955032 0.818112
0.696605 0.987152 0.296407
0.696605 0.987152 0.296407
0.696605 0.987152 0.296407
0.69659 0.987167 0.296407
0.832166 0.978058 0.303868
0.937148 0.971832 0.355062
0.99588 0.967819 0.489921
1 0.965576 0.671122
0.998337 0.967819 0.841199
0.914794 0.977615 0.7393
0.914794 0.977615 0.7393
0.914794 0.977615 0.7393
0.914794 0.977615 0.7393
0.914794 0.977615 0.7393
0.949538 0.977462 0.745434
0.985824 0.977203 0.763546
0.998459 0.976608 0.809018
0.998062 0.976181 0.885908
0.97322 0.976226 0.910704
0.97322 0.976226 0.910704
0.97322 0.976226 0.910704
0.97322 0.976226 0.910704
0.97322 0.976226 0.910704
0.97322 0.976226 0.910704
0.986328 0.976226 0.912703
0.998047 0.97615 0.918349
0.998047 0.97615 0.93254
0.0145418 0.0143282 0.55993
0.0145418 0.0143282 0.560021
0.0145266 0.014313 0.560265
0.490455 0.00424201 0.552575
0.811551 0 0.540291
0.972625 0 0.561852
1 0.594659 0.618173
0.998734 0.863844 0.688884
0.998047 0.941665 0.829313
0.0145876 0.0143587 0.558373
0.0145724 0.0143587 0.558511
0.038819 0.0144198 0.55874
0.507485 0.00332647 0.549813
0.8103 0 0.53817
0.972519 0 0.559106
1 0.618051 0.615946
0.998749 0.865492 0.68835
0.998047 0.941787 0.829236
0.0157015 0.0664988 0.555062
0.0157473 0.0691539 0.555184
0.0457771 0.0700084 0.555322
0.515129 0.00294499 0.545953
0.805936 0 0.534157
0.973297 0.0037232 0.555718
1 0.64744 0.612314
0.998779 0.868147 0.68748
0.998047 0.94197 0.829129
0.0128023 0.479072 0.524742
0.0127871 0.48014 0.524819
0.0127413 0.482521 0.52546
0.469306 0.491951 0.537591
0.807553 0.483009 0.542779
0.999344 0.561654 0.568704
1 0.726238 0.598779
0.998901 0.877668 0.684321
0.998062 0.94287 0.828611
0.0293431 0.798581 0.431434
0.0293431 0.798581 0.431434
0.0293889 0.798749 0.432486
0.0290227 0.797009 0.43624
0.775128 0.795346 0.457038
0.971328 0.803464 0.494789
1 0.844114 0.563165
0.999374 0.901717 0.673747
0.998138 0.946166 0.826551
0.0707866 0.950744 0.163516
0.0707866 0.950744 0.163516
0.0707866 0.950744 0.163516
0.0705272 0.94789 0.164874
0.755703 0.935256 0.157122
0.942336 0.925704 0.294469
1 0.926085 0.471824
1 0.936782 0.646143
0.998306 0.954971 0.820569
0.708232 0.986297 0.293355
0.708232 0.986297 0.293355
0.708232 0.986297 0.293355
0.708232 0.986297 0.293355
0.835218 0.977798 0.302434
0.937881 0.97171 0.354055
0.996033 0.967727 0.489509
1 0.965515 0.670756
0.998337 0.967819 0.841138
0.915587 0.977615 0.739193
0.915587 0.977615 0.739193
0.915587 0.977615 0.739193
0.915587 0.977615 0.739193
0.915587 0.977615 0.739193
0.949844 0.977462 0.745312
0.985931 0.977203 0.763455
0.998459 0.976608 0.808927
0.998062 0.976181 0.885878
0.973297 0.976226 0.910689
0.973297 0.976226 0.910689
0.973297 0.976226 0.910689
0.973297 0.976226 0.910689
0.973297 0.976226 0.910689
0.973297 0.976226 0.910689
0.986358 0.976226 0.912703
0.998047 0.97615 0.918349
0.998047 0.97615 0.93254
0.00703441 0.00669871 0.81326
0.00703441 0.00669871 0.81326
0.00701915 0.00669871 0.813321
0.11809 0.00666819 0.813214
0.784512 0 0.79678
0.972747 0 0.803616
0.99826 0.343114 0.835569
0.997131 0.850156 0.845182
0.997742 0.939834 0.891447
0.00703441 0.00669871 0.813184
0.00703441 0.00669871 0.813184
0.00701915 0.00669871 0.813245
0.125734 0.00665293 0.812848
0.787594 0 0.796414
0.972747 0 0.803311
1 0.439796 0.836545
0.997116 0.852201 0.844877
0.997742 0.939956 0.891402
0.00703441 0.00671397 0.812375
0.00703441 0.00671397 0.812375
0.00703441 0.00671397 0.812421
0.229282 0.00593576 0.811521
0.792172 0 0.795499
0.972747 0 0.802426
1 0.536416 0.835538
0.997116 0.855329 0.844419
0.997742 0.940169 0.89134
0.0118257 0.213016 0.809262
0.0118257 0.213016 0.809262
0.0119173 0.217456 0.809277
0.244648 0.212055 0.810269
0.799176 0.0969558 0.798154
0.989197 0.210758 0.814008
1 0.665904 0.82919
0.997101 0.866621 0.842695
0.997757 0.9411 0.891081
0.0230106 0.75848 0.785214
0.0230106 0.75848 0.785214
0.0230259 0.758526 0.785245
0.0229953 0.758343 0.785565
0.74931 0.757488 0.792096
0.963241 0.770855 0.798199
0.997635 0.824216 0.808438
0.997314 0.894331 0.837736
0.997818 0.944564 0.89012
0.0676585 0.945953 0.770352
0.0676585 0.945953 0.770352
0.0676738 0.946029 0.770306
0.0671397 0.943771 0.770565
0.710887 0.929366 0.766186
0.929076 0.917159 0.768505
0.996902 0.9187 0.788266
0.997909 0.932189 0.827222
0.997971 0.953704 0.88661
0.686732 0.98262 0.703517
0.686732 0.98262 0.703517
0.686732 0.98262 0.703517
0.686732 0.98262 0.703517
0.818418 0.97351 0.701747
0.928084 0.966949 0.711498
0.988037 0.963394 0.741802
0.998581 0.963027 0.801816
0.998184 0.967315 0.876478
0.918135 0.977615 0.738567
0.918135 0.977615 0.738567
0.918135 0.977615 0.738567
0.918135 0.977615 0.738567
0.918135 0.977615 0.738567
0.950805 0.977478 0.744884
0.986221 0.977203 0.763104
0.998459 0.976623 0.808759
0.998062 0.976181 0.885725
0.973617 0.976226 0.910643
0.973617 0.976226 0.910643
0.973617 0.976226 0.910643
0.973617 0.976226 0.910643
0.973617 0.976226 0.910643
0.973602 0.976226 0.910643
0.986465 0.976226 0.912657
0.998047 0.97615 0.918318
0.998047 0.97615 0.932525
0.00621042 0.00573739 0.950973
0.00621042 0.00573739 0.951049
0.00621042 0.00573739 0.951049
0.00621042 0.00573739 0.951064
0.613123 0 0.940261
0.970657 0 0.936873
0.974319 0 0.937407
0.998703 0.790585 0.94612
0.997635 0.935439 0.945083
0.00621042 0.00573739 0.951049
0.00621042 0.00573739 0.951049
0.00621042 0.00573739 0.951049
0.00621042 0.00573739 0.951064
0.612543 0 0.940291
0.970657 0 0.936873
0.974319 0 0.937346
0.99852 0.795316 0.945602
0.997635 0.935607 0.945068
0.00621042 0.00573739 0.951003
0.00621042 0.00573739 0.951003
0.00621042 0.00573739 0.951003
0.00621042 0.00573739 0.951019
0.621332 0 0.939818
0.970916 0 0.936828
0.974319 0 0.93727
0.998245 0.802487 0.944823
0.997635 0.935851 0.945022
0.00621042 0.00573739 0.950698
0.00621042 0.00573739 0.950698
0.00621042 0.00573739 0.950698
0.00621042 0.00573739 0.950713
0.669581 0 0.937331
0.971633 0 0.936507
0.97467 0 0.936522
0.997528 0.825696 0.942382
0.99765 0.93695 0.9449
0.0169223 0.537224 0.944701
0.0169223 0.537224 0.944701
0.0169223 0.537224 0.944701
0.0169985 0.541299 0.944625
0.682612 0.545922 0.949996
0.995834 0.577615 0.956176
1 0.725963 0.947738
0.996979 0.873121 0.93785
0.997726 0.941024 0.944396
0.0659342 0.93373 0.940871
0.0659342 0.93373 0.940871
0.0659342 0.93373 0.940871
0.0659342 0.93373 0.940871
0.515068 0.92517 0.940124
0.91519 0.904021 0.927962
0.992813 0.908003 0.928878
0.997467 0.925597 0.932631
0.997894 0.951431 0.94284
0.541604 0.986557 0.930938
0.541604 0.986557 0.930938
0.542657 0.986526 0.930892
0.542657 0.986526 0.930892
0.748089 0.973526 0.92163
0.910048 0.963424 0.918334
0.978515 0.960159 0.920699
0.998047 0.960891 0.926879
0.998138 0.966308 0.939452
0.907561 0.976287 0.896284
0.907561 0.976287 0.896284
0.907561 0.976287 0.896284
0.907561 0.976287 0.896284
0.907561 0.976287 0.896284
0.940871 0.976226 0.897581
0.978943 0.976242 0.901762
0.997787 0.976211 0.912383
0.998047 0.97615 0.931304
0.974609 0.976226 0.910536
0.974609 0.976226 0.910536
0.974609 0.976226 0.910536
0.974609 0.976226 0.910536
0.974609 0.976226 0.910536
0.974609 0.976226 0.910536
0.986831 0.976226 0.91252
0.998047 0.97615 0.918212
0.998062 0.97615 0.932494
0.00614939 0.00561532 0.987518
0.00614939 0.00561532 0.987518
0.00614939 0.00561532 0.987518
0.00614939 0.00561532 0.987518
0.00614939 0.00561532 0.987518
0.902693 0 0.978592
0.97499 0 0.981659
0.97499 0 0.981659
0.997314 0.915282 0.982361
0.00614939 0.00561532 0.987518
0.00614939 0.00561532 0.987518
0.00614939 0.00561532 0.987518
0.00614939 0.00561532 0.987518
0.00614939 0.00561532 0.987518
0.902693 0 0.978592
0.97499 0 0.981659
0.97499 0 0.981659
0.997314 0.915633 0.982345
0.00614939 0.00561532 0.987518
0.00614939 0.00561532 0.987518
0.00614939 0.00561532 0.987518
0.00614939 0.00561532 0.987518
0.00614939 0.00561532 0.987518
0.902693 0 0.978592
0.97499 0 0.981659
0.97499 0 0.981659
0.99733 0.916228 0.9823
0.00614939 0.00561532 0.987518
0.00614939 0.00561532 0.987518
0.00614939 0.00561532 0.987518
0.00614939 0.00561532 0.987518
0.00614939 0.00561532 0.987518
0.906706 0 0.978759
0.97499 0 0.981659
0.97499 0 0.981659
0.99736 0.918547 0.982116
0.00614939 0.00561532 0.987518
0.00614939 0.00561532 0.987518
0.00614939 0.00561532 0.987518
0.00614939 0.00561532 0.987518
0.00614939 0.00561532 0.987518
0.934691 0 0.97995
0.97499 0 0.981659
1 0.509651 1
0.997482 0.926421 0.981506
0.0338293 0.788235 0.988128
0.0338293 0.788235 0.988128
0.0338293 0.788235 0.988128
0.0338293 0.788235 0.988128
0.0343328 0.791135 0.988266
0.904097 0.785748 0.989364
0.997665 0.825086 0.98674
0.997086 0.893568 0.981765
0.997772 0.943511 0.980163
0.0767529 0.991058 0.993881
0.0767529 0.991058 0.993881
0.0767529 0.991058 0.993881
0.0767529 0.991058 0.993881
0.0767529 0.991058 0.993881
0.872602 0.95993 0.976761
0.973175 0.955139 0.976303
0.998001 0.956847 0.976593
0.998123 0.963912 0.97821
0.88365 0.976379 0.972335
0.88365 0.976379 0.972335
0.88365 0.976379 0.972335
0.88365 0.976379 0.972335
0.88365 0.976379 0.972335
0.921294 0.976196 0.972122
0.971969 0.976226 0.972366
0.997177 0.976226 0.973342
0.998093 0.976165 0.975814
0.970642 0.976211 0.964065
0.970642 0.976211 0.964065
0.970642 0.976211 0.964065
0.970642 0.976211 0.964065
0.970642 0.976211 0.964065
0.970642 0.976211 0.964065
0.982956 0.976226 0.964569
0.996536 0.976226 0.966186
0.998093 0.976165 0.970108
0.00828565 0.0909133 0.987976
0.00828565 0.0909133 0.987976
0.00828565 0.0909133 0.987976
0.00828565 0.0909133 0.987976
0.00828565 0.0909133 0.987976
0.00828565 0.0910048 0.987976
0.97499 0 0.981659
0.977478 0.0225681 0.983963
1 0.703822 1
0.00828565 0.0909133 0.987976
0.00828565 0.0909133 0.987976
0.00828565 0.0909133 0.987976
0.00828565 0.0909133 0.987976
0.00828565 0.0909133 0.987976
0.00828565 0.0910048 0.987976
0.97499 0 0.981659
0.977478 0.0225681 0.983963
1 0.703822 1
0.00828565 0.0909133 0.987976
0.00828565 0.0909133 0.987976
0.00828565 0.0909133 0.987976
0.00828565 0.0909133 0.987976
0.00828565 0.0909133 0.987976
0.00828565 0.0910048 0.987976
0.97499 0 0.981659
0.977478 0.0225681 0.983963
1 0.703792 1
0.00828565 0.0909133 0.987976
0.00828565 0.0909133 0.987976
0.00828565 0.0909133 0.987976
0.00828565 0.0909133 0.987976
0.00828565 0.0909133 0.987976
0.00828565 0.0910048 0.987976
0.97499 0 0.981659
0.977478 0.0225681 0.983963
1 0.7037 1
0.00828565 0.0907912 0.987976
0.00828565 0.0907912 0.987976
0.00828565 0.0907912 0.987976
0.00828565 0.0907912 0.987976
0.00828565 0.0907912 0.987976
0.00828565 0.0908675 0.987976
0.97499 0 0.981659
0.977676 0.0250553 0.984131
1 0.703441 1
0.00822461 0.0890974 0.987961
0.00822461 0.0890974 0.987961
0.00822461 0.0890974 0.987961
0.00822461 0.0890974 0.987961
0.00822461 0.0890974 0.987961
0.00822461 0.0891737 0.987961
0.97499 0 0.981659
0.981476 0.0717784 0.987655
0.997711 0.823209 0.996826
0.0664988 0.930968 1
0.0664988 0.930968 1
0.0664988 0.930968 1
0.0664988 0.930968 1
0.0664988 0.930968 1
0.0668345 0.932494 1
0.969619 0.902037 0.995209
0.997436 0.925521 0.995102
0.997879 0.951263 0.995178
0.622797 0.985977 1
0.622797 0.985977 1
0.622797 0.985977 1
0.622797 0.985977 1
0.622797 0.985977 1
0.622797 0.985977 1
0.958251 0.976074 0.994369
0.995804 0.975052 0.994385
0.998306 0.975402 0.99443
0.962005 0.976196 0.992966
0.962005 0.976196 0.992966
0.962005 0.976196 0.992966
0.962005 0.976196 0.992966
0.962005 0.976196 0.992966
0.962005 0.976196 0.992966
0.975784 0.976211 0.992981
0.993973 0.976226 0.993042
0.998108 0.976165 0.99324
0.0167391 0.347845 0.99028
0.0167391 0.347845 0.99028
0.0167391 0.347845 0.99028
0.0167391 0.347845 0.99028
0.0167391 0.347845 0.99028
0.0167391 0.347845 0.99028
0.0167391 0.347936 0.99028
0.987793 0.145693 0.99353
1 0.732357 1
0.0167391 0.347845 0.99028
0.0167391 0.347845 0.99028
0.0167391 0.347845 0.99028
0.0167391 0.347845 0.99028
0.0167391 0.347845 0.99028
0.0167391 0.347845 0.99028
0.0167391 0.347936 0.99028
0.987793 0.145693 0.99353
1 0.732357 1
0.0167391 0.347845 0.99028
0.0167391 0.347845 0.99028
0.0167391 0.347845 0.99028
0.0167391 0.347845 0.99028
0.0167391 0.347845 0.99028
0.0167391 0.347845 0.99028
0.0167391 0.347936 0.99028
0.987793 0.145693 0.99353
1 0.732357 1
0.0167391 0.347845 0.99028
0.0167391 0.347845 0.99028
0.0167391 0.347845 0.99028
0.0167391 0.347845 0.99028
0.0167391 0.347845 0.99028
0.0167391 0.347845 0.99028
0.0167391 0.347936 0.99028
0.987793 0.145693 0.99353
1 0.732357 1
0.0167391 0.347845 0.99028
0.0167391 0.347845 0.99028
0.0167391 0.347845 0.99028
0.0167391 0.347845 0.99028
0.0167391 0.347845 0.99028
0.0167391 0.347845 0.99028
0.0167391 0.347936 0.99028
0.987793 0.145693 0.99353
1 0.732357 1
0.0167391 0.347768 0.99028
0.0167391 0.347768 0.99028
0.0167391 0.347768 0.99028
0.0167391 0.347768 0.99028
0.0167391 0.347768 0.99028
0.0167391 0.347768 0.99028
0.0167391 0.347829 0.99028
0.987884 0.146853 0.993622
1 0.733516 1
0.0167239 0.346395 0.99028
0.0167239 0.346395 0.99028
0.0167239 0.346395 0.99028
0.0167239 0.346395 0.99028
0.0167239 0.346395 0.99028
0.0167239 0.346395 0.99028
0.0167086 0.346456 0.99028
0.998749 0.297734 1
1 0.735622 1
0.0767834 0.990494 1
0.0767834 0.990494 1
0.0767834 0.990494 1
0.0767834 0.990494 1
0.0767834 0.990494 1
0.0767834 0.990494 1
0.0767987 0.990646 1
0.993393 0.963272 0.995285
0.998154 0.967102 0.995224
0.922271 0.97615 0.994965
0.922271 0.97615 0.994965
0.922271 0.97615 0.994965
0.922271 0.97615 0.994965
0.922271 0.97615 0.994965
0.922271 0.97615 0.994965
0.922271 0.97615 0.994965
0.989899 0.976196 0.995087
0.998398 0.97644 0.995346
