BBLuts/BB_103_0790_LUT.cube
TITLE "Generated by Resolve"
LUT_3D_SIZE 5
0 0 0
0.178851 0 0
0.733181 0 0
0.893919 0.561669 0.150271
0.858747 0.950683 0.79556
0 0.221454 0
0.129412 0.225574 0
0.734218 0.0612192 0
0.889189 0.620783 0.11635
0.858671 0.95169 0.795148
0 0.783642 0
0 0.783169 0
0.642344 0.774533 0
0.871611 0.826703 0
0.858091 0.958679 0.791897
0.536873 0.994583 0.292165
0.570809 0.994293 0.294255
0.696559 0.989364 0.311208
0.854627 0.981262 0.447242
0.855619 0.987488 0.806836
0.830823 0.996277 0.879835
0.831128 0.996277 0.879881
0.833387 0.996292 0.880125
0.847272 0.996353 0.882719
0.85449 0.996399 0.905364
0 0 0.195392
0.153231 0 0.196475
0.732464 0 0.19939
0.89456 0.547311 0.336278
0.858732 0.950439 0.806058
0 0.180499 0.175418
0.140764 0.177005 0.170367
0.733257 0 0.179477
0.88954 0.611429 0.31783
0.85864 0.951461 0.805676
0 0.780331 0
0 0.779812 0
0.647242 0.771221 0
0.871366 0.825208 0.138933
0.858061 0.958495 0.802747
0.542443 0.994598 0.291768
0.575235 0.99411 0.293858
0.697963 0.989258 0.310872
0.854704 0.981216 0.447196
0.855619 0.987472 0.80679
0.830869 0.996277 0.879835
0.831174 0.996277 0.879866
0.833417 0.996292 0.880125
0.847303 0.996353 0.882719
0.85449 0.996399 0.905364
0 0 0.742565
0 0 0.742748
0.736049 0 0.738949
0.906355 0.343603 0.757336
0.858701 0.948501 0.860945
0 0 0.741039
0 0 0.741238
0.743938 0 0.737316
0.897276 0.489448 0.753841
0.858595 0.949569 0.860716
0 0.732631 0.706477
0 0.732952 0.706752
0.630838 0.725734 0.70837
0.871519 0.803265 0.731579
0.857984 0.95697 0.859022
0.547021 0.993973 0.579675
0.577966 0.993103 0.58053
0.695781 0.988403 0.587533
0.850202 0.980484 0.646525
0.855512 0.987106 0.844968
0.831235 0.996277 0.879789
0.831525 0.996277 0.87982
0.833738 0.996292 0.880079
0.847425 0.996353 0.882673
0.85449 0.996399 0.905348
0 0 0.970138
0 0 0.970138
0 0 0.970138
0.924483 0 0.970764
0.860578 0.922164 0.955688
0 0 0.970138
0 0 0.970138
0 0 0.970138
0.924483 0 0.970764
0.860395 0.924361 0.955535
0 0 0.970138
0 0 0.970138
0.219471 0 0.97026
0.924483 0 0.970764
0.85919 0.938643 0.954452
0 0.992981 0.94815
0 0.992691 0.947997
0.568063 0.984115 0.947494
0.834699 0.972457 0.947021
0.855406 0.983764 0.950423
0.829236 0.996307 0.928206
0.829526 0.996307 0.928222
0.831647 0.996323 0.928328
0.844923 0.996384 0.929442
0.854368 0.996429 0.938918
0 0.366384 0.970001
0 0.366384 0.970001
0 0.3664 0.970001
0 0.366567 0.970001
0.875685 0.743938 0.970428
0 0.366369 0.970001
0 0.366369 0.970001
0 0.366384 0.970001
0 0.366552 0.970001
0.875669 0.74403 0.970428
0 0.366232 0.970001
0 0.366232 0.970001
0 0.366247 0.970001
0 0.366415 0.970001
0.875608 0.744671 0.970428
0 0.36492 0.970001
0 0.36492 0.970001
0 0.364935 0.970001
0.924483 0 0.970764
0.875425 0.747005 0.970428
0.779232 0.996109 0.970214
0.780545 0.996109 0.970214
0.789899 0.996155 0.97023
0.830503 0.996338 0.97026
0.854246 0.99646 0.970275
