BBLuts/BB_102_0420_LUT.cube
TITLE "Generated by Resolve"
LUT_3D_SIZE 9
0 0 0
0.0308843 0 0
0.210788 0 0
0.492683 0 0
0.851652 0 0
1 0 0
1 0.670268 0.0618143
1 1 0.373358
0.992752 1 0.763134
0 0.0556344 0
0.00579843 0.0610056 0
0.210117 0.0371557 0
0.501411 0 0
0.853132 0 0
1 0.0408484 0
1 0.694911 0.050721
1 1 0.372168
0.992737 1 0.763027
0 0.233539 0
0 0.235477 0
0.139178 0.234104 0
0.500755 0.205005 0
0.855299 0.126284 0
1 0.327184 0
1 0.735271 0.0218357
1 1 0.369741
0.992721 1 0.762798
0 0.55906 0
0 0.560128 0
0 0.561196 0
0.393194 0.570764 0
0.833356 0.568063 0
1 0.647135 0
1 0.840055 0
1 1 0.368536
0.992615 1 0.761685
0 0.933089 0
0 0.933059 0
0 0.932342 0
0 0.932494 0
0.73814 0.925811 0
0.974899 0.937331 0
1 0.985962 0
1 1 0.381353
0.992248 1 0.757671
0 1 0
0 1 0
0 1 0
0 1 0
0.701625 1 0
0.924071 1 0
0.999969 1 0.0340887
0.998566 1 0.43592
0.991165 1 0.762661
0.592615 1 0.183093
0.592615 1 0.183093
0.592615 1 0.183093
0.592569 1 0.183093
0.783017 1 0.192004
0.914183 1 0.234577
0.988235 1 0.347433
0.993347 1 0.567559
0.989273 1 0.797452
0.876448 1 0.656962
0.876448 1 0.656962
0.876448 1 0.656962
0.876448 1 0.656962
0.876432 1 0.656962
0.926665 1 0.66688
0.973388 1 0.692958
0.988556 1 0.756054
0.987396 1 0.862638
0.952865 1 0.897124
0.952865 1 0.897124
0.952865 1 0.897124
0.952865 1 0.897124
0.952865 1 0.897124
0.952865 1 0.897124
0.972091 1 0.900557
0.98703 1 0.909102
0.986877 1 0.929885
0 0 0.0352941
0.0106508 0 0.0346685
0.210376 0 0.031632
0.492897 0 0.0221408
0.853147 0 0.0119326
1 0 0.0231785
1 0.667994 0.10248
1 1 0.373373
0.992752 1 0.763134
0 0.0317388 0.0299229
0.0162661 0.0357519 0.0281529
0.212222 0.00657664 0.0264439
0.496025 0 0.0147402
0.852628 0 0
1 0.0202945 0.0077821
1 0.693095 0.0890974
1 1 0.372168
0.992737 1 0.763027
0 0.221927 0
0 0.223957 0
0.151385 0.222431 0
0.497139 0.19263 0
0.851743 0.103075 0
1 0.31191 0
1 0.734432 0.0608835
1 1 0.369741
0.992721 1 0.762798
0 0.55288 0
0 0.553918 0
0 0.554711 0
0.404623 0.564279 0
0.833143 0.562448 0
1 0.643412 0
1 0.838911 0
1 1 0.368521
0.992615 1 0.761685
0 0.931304 0
0 0.931273 0
0 0.930587 0
0.000198367 0.930922 0
0.740597 0.924453 0
0.975143 0.936492 0
1 0.985565 0
1 1 0.381338
0.992248 1 0.757671
0 1 0
0 1 0
0 1 0
0 1 0
0.703563 1 0
0.924285 1 0
0.999969 1 0.0340124
0.998566 1 0.43592
0.991165 1 0.762661
0.596033 1 0.182727
0.596033 1 0.182727
0.596017 1 0.182742
0.596002 1 0.182757
0.783886 1 0.191791
0.914412 1 0.234424
0.988281 1 0.347402
0.993347 1 0.567559
0.989273 1 0.797452
0.876646 1 0.656947
0.876646 1 0.656947
0.876646 1 0.656947
0.876646 1 0.656947
0.876631 1 0.656947
0.926741 1 0.66685
0.973419 1 0.692943
0.988556 1 0.756039
0.987396 1 0.862638
0.95288 1 0.897124
0.95288 1 0.897124
0.95288 1 0.897124
0.95288 1 0.897124
0.95288 1 0.897124
0.95288 1 0.897124
0.972091 1 0.900557
0.98703 1 0.909102
0.986877 1 0.929885
0 0 0.168505
0 0 0.168734
0.174899 0 0.163775
0.507927 0 0.147524
0.855467 0 0.139498
1 0 0.165087
1 0.656336 0.252644
1 1 0.433875
0.992752 1 0.763134
0 0 0.16643
0 0 0.166751
0.195346 0 0.160723
0.505638 0 0.144518
0.855604 0 0.135515
1 0 0.162524
1 0.682795 0.245914
1 1 0.432822
0.992737 1 0.763027
0 0.187778 0.149905
0 0.190463 0.149981
0.13843 0.186206 0.146548
0.484321 0.156847 0.1402
0.852506 0.0478828 0.131456
1 0.262837 0.175509
1 0.726589 0.233173
1 1 0.430472
0.992721 1 0.762798
0 0.539025 0.0639658
0 0.540475 0.0642863
0 0.541482 0.0652628
0.405249 0.551049 0.074815
0.833051 0.54992 0.0818341
1 0.635447 0.113909
1 0.837568 0.188861
1 1 0.421912
0.992615 1 0.761685
0 0.92723 0
0 0.92723 0
0 0.926513 0
0.00015259 0.926848 0
0.741726 0.920592 0
0.975296 0.933654 0
1 0.987213 0.0653544
1 1 0.401266
0.992248 1 0.757671
0 1 0
0 1 0
0 1 0
0 1 0
0.707347 1 0
0.924865 1 0
1 1 0.0337682
0.998581 1 0.435554
0.991165 1 0.762661
0.601465 1 0.181842
0.601465 1 0.181842
0.601465 1 0.181842
0.601709 1 0.182132
0.78526 1 0.19144
0.914748 1 0.234134
0.988342 1 0.347189
0.993347 1 0.567437
0.989273 1 0.797452
0.876997 1 0.656901
0.876997 1 0.656901
0.876997 1 0.656901
0.876997 1 0.656901
0.876997 1 0.656901
0.926879 1 0.666789
0.973449 1 0.692897
0.988556 1 0.756024
0.987396 1 0.862638
0.952911 1 0.897124
0.952911 1 0.897124
0.952911 1 0.897124
0.952911 1 0.897124
0.952911 1 0.897124
0.952911 1 0.897124
0.972107 1 0.900542
0.98703 1 0.909102
0.986877 1 0.929885
0 0 0.456397
0 0 0.45655
0 0 0.456535
0.459083 0 0.440726
0.873518 0 0.429358
1 0 0.452979
1 0.604456 0.525643
1 0.995285 0.61149
0.992432 1 0.791745
0 0 0.454749
0 0 0.454932
0.0259098 0 0.453742
0.474784 0 0.437964
0.872358 0 0.427436
1 0 0.45008
1 0.637629 0.522515
1 0.997604 0.610849
0.992416 1 0.791653
0 0.0446937 0.449805
0 0.0469368 0.449973
0.0227817 0.0460975 0.448875
0.481117 0 0.434073
0.866484 0 0.422934
1 0.0483864 0.455329
1 0.688228 0.516472
1 1 0.60943
0.992386 1 0.79147
0 0.474861 0.410483
0 0.475975 0.410574
0 0.478676 0.411399
0.378225 0.488441 0.42179
0.824002 0.485313 0.429038
1 0.585428 0.457313
1 0.813504 0.49514
1 1 0.604257
0.992279 1 0.7906
0 0.921035 0.328252
0 0.921096 0.328237
0 0.920821 0.329381
0 0.920272 0.336034
0.738079 0.913436 0.345876
0.976349 0.926955 0.380346
1 0.980041 0.448768
0.999802 1 0.589242
0.991897 1 0.787335
0 1 0.162829
0 1 0.162829
0 1 0.162829
0 1 0.166857
0.703944 1 0.162844
0.926253 1 0.228656
1 1 0.365835
0.996765 1 0.551522
0.990967 1 0.778302
0.618219 1 0.179736
0.618219 1 0.179736
0.618219 1 0.179736
0.618219 1 0.179736
0.789197 1 0.190097
0.915831 1 0.233265
0.98851 1 0.348394
0.993362 1 0.566918
0.989273 1 0.797284
0.878264 1 0.656718
0.878264 1 0.656718
0.878264 1 0.656718
0.878264 1 0.656718
0.878248 1 0.656718
0.927321 1 0.666606
0.973602 1 0.692714
0.988556 1 0.755901
0.987411 1 0.862577
0.953048 1 0.897108
0.953048 1 0.897108
0.953048 1 0.897108
0.953048 1 0.897108
0.953048 1 0.897108
0.953048 1 0.897108
0.972168 1 0.900526
0.98703 1 0.909102
0.986877 1 0.929885
0 0 0.799298
0 0 0.799298
0 0 0.799649
0.143832 0 0.795514
0.83534 0 0.769848
1 0 0.779706
1 0.296483 0.823468
1 0.972183 0.824094
0.991714 1 0.878859
0 0 0.799161
0 0 0.799161
0 0 0.799268
0.162005 0 0.794644
0.839689 0 0.769375
1 0 0.779278
1 0.376303 0.824094
1 0.975143 0.823682
0.991699 1 0.878813
0 0 0.797986
0 0 0.797986
0 0 0.798093
0.212787 0 0.792004
0.846143 0 0.768261
1 0 0.777951
1 0.508156 0.821546
1 0.981064 0.822858
0.991669 1 0.878706
0 0.199817 0.791043
0 0.199817 0.791043
0 0.203754 0.791074
0.191836 0.196124 0.790616
0.845777 0.118776 0.77937
1 0.254154 0.802121
1 0.720821 0.808103
1 1 0.819989
0.991547 1 0.878248
0 0.862821 0.752667
0 0.862821 0.752667
0 0.862974 0.752728
0 0.861952 0.753384
0.703685 0.858854 0.756924
0.968811 0.879942 0.765164
1 0.950484 0.777371
0.997024 1 0.812314
0.991119 1 0.87657
0 1 0.733028
0 1 0.733028
0 1 0.732998
0 1 0.733425
0.646296 1 0.721065
0.907805 1 0.726436
0.992737 1 0.750805
0.993042 1 0.797909
0.990097 1 0.871351
0.578576 1 0.642237
0.578576 1 0.642237
0.578576 1 0.642237
0.578576 1 0.642237
0.76347 1 0.64062
0.900618 1 0.65481
0.976822 1 0.692882
0.990219 1 0.765072
0.988708 1 0.857053
0.881987 1 0.655802
0.881987 1 0.655802
0.881987 1 0.655802
0.881987 1 0.655802
0.881987 1 0.655802
0.928603 1 0.665843
0.974029 1 0.692195
0.988525 1 0.757488
0.987411 1 0.862348
0.953536 1 0.897047
0.953536 1 0.897047
0.953536 1 0.897047
0.953536 1 0.897047
0.953536 1 0.897047
0.953521 1 0.897047
0.972335 1 0.900465
0.98703 1 0.909041
0.986877 1 0.929854
0 0 0.978805
0 0 0.978821
0 0 0.978821
0 0 0.978851
0.598993 0 0.955627
1 0 0.952911
1 0 0.95346
1 0.863478 0.961898
0.991623 1 0.954833
0 0 0.978821
0 0 0.978821
0 0 0.978821
0 0 0.978851
0.59855 0 0.955642
1 0 0.952911
1 0 0.953368
1 0.871931 0.960967
0.991608 1 0.954803
0 0 0.978729
0 0 0.978729
0 0 0.978729
0 0 0.978759
0.612619 0 0.954833
1 0 0.952789
1 0 0.953094
1 0.887221 0.959258
0.991577 1 0.954742
0 0 0.978271
0 0 0.978271
0 0 0.978271
0 0 0.978302
0.682307 0 0.951293
1 0 0.952377
1 0.057023 0.964294
1 0.932128 0.954314
0.991424 1 0.954482
0 0.534051 0.962509
0 0.534051 0.962509
0 0.534051 0.962509
0 0.538766 0.962356
0.639475 0.543297 0.966735
1 0.594141 0.976806
1 0.804944 0.961349
0.998413 1 0.946319
0.990906 1 0.953567
0 1 0.953429
0 1 0.953429
0 1 0.953429
0 1 0.953368
0.414191 1 0.945525
0.890394 1 0.931685
0.987457 1 0.933425
0.992401 1 0.938109
0.9897 1 0.95108
0.358633 1 0.934218
0.358679 1 0.934218
0.359335 1 0.934173
0.359335 1 0.934173
0.674205 1 0.920256
0.876738 1 0.917678
0.963973 1 0.921401
0.988785 1 0.929671
0.988113 1 0.946029
0.864424 1 0.888579
0.864424 1 0.888579
0.864424 1 0.888579
0.864424 1 0.888579
0.864424 1 0.888579
0.912993 1 0.890608
0.962478 1 0.896437
0.986618 1 0.910185
0.986847 1 0.934661
0.955016 1 0.896864
0.955016 1 0.896864
0.955016 1 0.896864
0.955016 1 0.896864
0.955016 1 0.896864
0.955016 1 0.896864
0.972854 1 0.900236
0.98703 1 0.908873
0.986877 1 0.930434
0 0 1
0 0 1
0 0 1
0 0 1
0 0 1
0.962829 0 1
1 0 1
1 0 1
0.99382 1 1
0 0 1
0 0 1
0 0 1
0 0 1
0 0 1
0.962798 0 1
1 0 1
1 0 1
0.993774 1 1
0 0 1
0 0 1
0 0 1
0 0 1
0 0 1
0.962798 0 1
1 0 1
1 0 1
0.993667 1 1
0 0 1
0 0 1
0 0 1
0 0 1
0 0 1
0.970031 0 1
1 0 1
1 0.00509651 1
0.993317 1 1
0 0 1
0 0 1
0 0 1
0 0 1
0 0 1
1 0 1
1 0 1
1 0.500359 1
0.992203 1 1
0 0.86923 1
0 0.86923 1
0 0.86923 1
0 0.86923 1
0 0.872679 1
0.892241 0.868193 1
1 0.927779 1
0.995605 1 1
0.990158 1 1
0 1 1
0 1 1
0 1 1
0 1 1
0 1 1
0.827985 1 0.997696
0.956985 1 0.997848
0.988327 1 0.99852
0.987961 1 1
0.83035 1 0.991333
0.83035 1 0.991333
0.83035 1 0.991333
0.83035 1 0.991333
0.83035 1 0.991333
0.886717 1 0.991287
0.952743 1 0.991989
0.985138 1 0.993515
0.986389 1 0.996841
0.94815 1 0.980758
0.94815 1 0.980758
0.94815 1 0.980758
0.94815 1 0.980758
0.94815 1 0.980758
0.94815 1 0.980758
0.966461 1 0.981598
0.984314 1 0.983886
0.98645 1 0.98909
0 0.0471504 1
0 0.0471504 1
0 0.0471504 1
0 0.0471504 1
0 0.0471504 1
0 0.0472572 1
1 0 1
1 0.0234226 1
1 0.746273 1
0 0.0471504 1
0 0.0471504 1
0 0.0471504 1
0 0.0471504 1
0 0.0471504 1
0 0.0472572 1
1 0 1
1 0.0234226 1
1 0.746258 1
0 0.0471504 1
0 0.0471504 1
0 0.0471504 1
0 0.0471504 1
0 0.0471504 1
0 0.0472572 1
1 0 1
1 0.0234226 1
1 0.746212 1
0 0.0471504 1
0 0.0471504 1
0 0.0471504 1
0 0.0471504 1
0 0.0471504 1
0 0.0472572 1
1 0 1
1 0.0234226 1
1 0.746075 1
0 0.0469215 1
0 0.0469215 1
0 0.0469215 1
0 0.0469215 1
0 0.0469215 1
0 0.047013 1
1 0 1
1 0.0264897 1
1 0.745525 1
0 0.0453193 1
0 0.0453193 1
0 0.0453193 1
0 0.0453193 1
0 0.0453193 1
0 0.0383001 1
1 0 1
1 0.0686046 1
1 0.933074 1
0 1 1
0 1 1
0 1 1
0 1 1
0 1 1
0 1 1
0.960525 1 1
0.992157 1 1
0.989105 1 1
0.451453 1 1
0.451453 1 1
0.451453 1 1
0.451453 1 1
0.451453 1 1
0.534188 1 1
0.934646 1 1
0.983261 1 1
0.986557 1 1
0.935744 1 1
0.935744 1 1
0.935744 1 1
0.935744 1 1
0.935744 1 1
0.935744 1 1
0.956664 1 1
0.98085 1 1
0.986191 1 1
0 0.285237 1
0 0.285237 1
0 0.285237 1
0 0.285237 1
0 0.285237 1
0 0.285237 1
0 0.285344 1
1 0.128573 1
1 0.787839 1
0 0.285237 1
0 0.285237 1
0 0.285237 1
0 0.285237 1
0 0.285237 1
0 0.285237 1
0 0.285344 1
1 0.128573 1
1 0.787839 1
0 0.285237 1
0 0.285237 1
0 0.285237 1
0 0.285237 1
0 0.285237 1
0 0.285237 1
0 0.285344 1
1 0.128573 1
1 0.787839 1
0 0.285237 1
0 0.285237 1
0 0.285237 1
0 0.285237 1
0 0.285237 1
0 0.285237 1
0 0.285344 1
1 0.128573 1
1 0.787839 1
0 0.285237 1
0 0.285237 1
0 0.285237 1
0 0.285237 1
0 0.285237 1
0 0.285237 1
0 0.285344 1
1 0.128496 1
1 0.787839 1
0 0.285069 1
0 0.285069 1
0 0.285069 1
0 0.285069 1
0 0.285069 1
0 0.285054 1
0 0.285145 1
1 0.150378 1
1 0.789975 1
0 0.28368 1
0 0.28368 1
0 0.28368 1
0 0.28368 1
0 0.28368 1
0 0.28368 1
0.0480507 0.265339 1
1 0.264485 1
1 0.793072 1
0 1 1
0 1 1
0 1 1
0 1 1
0 1 1
0 1 1
0.0934005 1 1
0.98146 1 1
0.98735 1 1
0.88159 1 1
0.88159 1 1
0.88159 1 1
0.88159 1 1
0.88159 1 1
0.88159 1 1
0.890471 1 1
0.97554 1 1
0.986526 1 1
