BBLuts/BB_101_0300_LUT.cube
TITLE "Generated by Resolve"
LUT_3D_SIZE 5
0.0128786 0.0128786 0.0128786
0.0464027 0.0191501 0.0138857
0.705928 0.0353246 0.0353246
0.931472 0.410513 0.0234531
0.931258 0.876829 0.775647
0.0141909 0.105028 0.025864
0.0630198 0.112383 0.0308385
0.699748 0.03505 0.03505
0.908263 0.499733 0.0210574
0.931334 0.878447 0.777798
0.0381628 0.672587 0.1626
0.0379034 0.672175 0.162173
0.602792 0.651713 0.206088
0.911208 0.727962 0.228656
0.93315 0.888289 0.7879
0.703517 0.919463 0.544961
0.72871 0.917281 0.550271
0.826932 0.908064 0.60705
0.936477 0.912367 0.600916
0.944854 0.923201 0.837201
0.930785 0.934142 0.874495
0.931136 0.934173 0.874617
0.933593 0.934447 0.875563
0.94551 0.936492 0.878553
0.95407 0.938048 0.888869
0.013962 0.0137026 0.0225986
0.0297093 0.0195315 0.0355077
0.696117 0.0340581 0.161639
0.98114 0.33933 0.135988
0.932006 0.876448 0.78294
0.01355 0.0820325 0.0963455
0.0522164 0.089601 0.103685
0.725185 0.0354314 0.141176
0.946838 0.471824 0.0515145
0.932006 0.87808 0.785
0.0358434 0.668925 0.15877
0.0355077 0.668406 0.158221
0.605447 0.648112 0.197467
0.910369 0.725811 0.233997
0.93344 0.888045 0.795605
0.707424 0.91928 0.545403
0.732128 0.916808 0.551598
0.827893 0.907973 0.607385
0.936584 0.912276 0.600549
0.944808 0.923095 0.837064
0.930861 0.934142 0.87451
0.931212 0.934173 0.874647
0.933669 0.934447 0.875593
0.94551 0.936492 0.878553
0.95407 0.938048 0.888869
0.0245975 0.035874 0.24036
0.0245823 0.0359045 0.240604
0.547021 0.127626 0.582681
0.802472 0.194064 0.632319
0.937896 0.874296 0.817655
0.0247044 0.0355688 0.238209
0.0246891 0.0356298 0.23859
0.554803 0.129458 0.581903
0.832273 0.362158 0.637919
0.937743 0.876265 0.818524
0.0247349 0.622309 0.629862
0.0247501 0.622736 0.630289
0.572366 0.610834 0.62089
0.940017 0.690776 0.65626
0.937606 0.887449 0.825925
0.712489 0.919371 0.673426
0.731426 0.917891 0.676371
0.811521 0.914061 0.695415
0.932799 0.912093 0.763455
0.94641 0.922393 0.856245
0.931212 0.934173 0.874617
0.931579 0.934218 0.874769
0.933959 0.934462 0.875669
0.945632 0.936507 0.878569
0.95407 0.938048 0.888869
0.0270237 0.0281071 0.80589
0.0270237 0.0281071 0.80589
0.0270237 0.0281071 0.80589
0.789944 0.1355 0.93611
0.918639 0.843976 0.889921
0.0270237 0.0281071 0.80589
0.0270237 0.0281071 0.80589
0.0270237 0.0281071 0.80589
0.789944 0.1355 0.93611
0.919692 0.84744 0.89012
0.0270237 0.0281071 0.80589
0.0270237 0.0281071 0.80589
0.0283055 0.046128 0.899397
0.789944 0.1355 0.93611
0.926421 0.868666 0.891737
0.666529 0.928832 0.90103
0.661479 0.926833 0.900511
0.74696 0.910262 0.892882
0.920165 0.909163 0.895506
0.94992 0.922759 0.902281
0.930571 0.935576 0.897261
0.930892 0.935592 0.897307
0.932891 0.935637 0.897673
0.945235 0.936736 0.899931
0.955825 0.937804 0.904677
0.0231785 0.256825 0.921309
0.0231785 0.256825 0.921309
0.0231785 0.256825 0.921309
0.0231785 0.256962 0.921324
0.851743 0.632776 0.902571
0.0231785 0.256825 0.921309
0.0231785 0.256825 0.921309
0.0231785 0.256825 0.921309
0.0231785 0.256962 0.921324
0.851774 0.632883 0.902556
0.0231785 0.256687 0.921309
0.0231785 0.256687 0.921309
0.0231785 0.256687 0.921309
0.0233463 0.24123 0.925338
0.852018 0.633768 0.902525
0.0231785 0.255421 0.921294
0.0231785 0.255421 0.921294
0.0231785 0.255421 0.921294
0.789944 0.1355 0.93611
0.852811 0.63653 0.902403
0.895567 0.9337 0.916259
0.896803 0.933883 0.916243
0.90486 0.935149 0.916167
0.936065 0.937758 0.917952
0.956436 0.94023 0.9178
