BBLuts/BB_106_0060_LUT.cube
TITLE "Generated by Resolve"
LUT_3D_SIZE 33
0.0184176 0.0175479 0.0163119
0.0184176 0.0175479 0.0163119
0.0184176 0.0175479 0.0163119
0.0184176 0.0175479 0.0163119
0.0184176 0.0175479 0.0163119
0.0599069 0.0175479 0.0162203
0.108171 0.0175021 0.016144
0.144121 0.0174716 0.016083
0.179187 0.0174716 0.0160067
0.220798 0.0175326 0.0159152
0.269001 0.0176089 0.0157778
0.322087 0.017731 0.0156405
0.381903 0.0178683 0.0154726
0.451499 0.0180209 0.0152895
0.531029 0.0181735 0.0150759
0.615381 0.0183261 0.0148623
0.701488 0.0184634 0.0146487
0.787839 0.0185855 0.014435
0.864057 0.0187076 0.0142367
0.922774 0.0187839 0.0140993
0.923247 0.0187839 0.0140993
0.923293 0.0187839 0.0140993
0.91989 0.227054 0.0599222
0.917769 0.367041 0.0905623
0.916472 0.475914 0.125444
0.915938 0.5729 0.167468
0.916381 0.65922 0.224964
0.917922 0.727855 0.300084
0.920226 0.778759 0.379004
0.923674 0.817609 0.458122
0.927733 0.845869 0.535744
0.92697 0.869718 0.604013
0.923186 0.889418 0.656138
0.0184176 0.0175479 0.0163119
0.0184176 0.0175479 0.0163119
0.0184176 0.0175479 0.0163119
0.0184176 0.0175479 0.0163119
0.0184176 0.0175479 0.0163119
0.0705272 0.0175479 0.0162051
0.112016 0.0175021 0.0161288
0.14696 0.0174716 0.0160678
0.183734 0.0174716 0.0160067
0.226169 0.0175174 0.0158999
0.274372 0.0176089 0.0157778
0.326787 0.017731 0.0156252
0.384894 0.0178683 0.0154726
0.453422 0.0180209 0.0152895
0.532631 0.0181735 0.0150759
0.616449 0.0183261 0.0148623
0.702129 0.0184634 0.0146487
0.788098 0.0185855 0.014435
0.863905 0.0187076 0.0142367
0.922347 0.0187839 0.0140993
0.923262 0.0187839 0.0140993
0.923323 0.0187839 0.0140993
0.919493 0.248753 0.0515297
0.917556 0.377722 0.0868391
0.91632 0.482826 0.12343
0.915816 0.577493 0.166369
0.916274 0.662196 0.223789
0.917845 0.729549 0.299458
0.92018 0.779751 0.378653
0.923629 0.818158 0.457908
0.927718 0.846189 0.535592
0.926955 0.869917 0.603937
0.923171 0.889525 0.656092
0.0184176 0.0175479 0.0163119
0.0184176 0.0175479 0.0163119
0.0184176 0.0175479 0.0163119
0.0184176 0.0175479 0.0163119
0.0184176 0.0175479 0.0163119
0.0767681 0.0175479 0.0161898
0.113573 0.0175021 0.0161288
0.14963 0.0174716 0.0160678
0.188479 0.0174716 0.0159915
0.231312 0.0175174 0.0158846
0.278676 0.0176089 0.0157626
0.329442 0.017731 0.0156252
0.387228 0.0178683 0.0154574
0.455482 0.0180209 0.0152743
0.534249 0.0181735 0.0150759
0.617533 0.0183261 0.0148623
0.70277 0.0184634 0.0146334
0.788342 0.0185855 0.014435
0.863752 0.0187076 0.0142367
0.921889 0.0187839 0.0140993
0.923293 0.0187839 0.0140993
0.923339 0.0187839 0.0140993
0.919127 0.267948 0.0395819
0.917357 0.38793 0.082887
0.916197 0.48954 0.121386
0.915709 0.58201 0.16527
0.916182 0.66511 0.222629
0.917754 0.731212 0.298848
0.920104 0.780713 0.378302
0.923583 0.818708 0.457679
0.927672 0.84651 0.535454
0.92694 0.870115 0.603845
0.923171 0.889647 0.656046
0.0184176 0.0175479 0.0163119
0.0184176 0.0175479 0.0163119
0.0184176 0.0175479 0.0163119
0.0183413 0.0240024 0.0162509
0.0395209 0.0284276 0.0161593
0.0816052 0.0175326 0.0161898
0.114382 0.0175174 0.0161288
0.149859 0.0174868 0.0160678
0.189258 0.0174868 0.0159915
0.233265 0.0175174 0.0158846
0.2813 0.0176089 0.0157626
0.331716 0.0177157 0.0156252
0.389471 0.0178683 0.0154574
0.457542 0.0180209 0.0152743
0.535882 0.0181735 0.0150607
0.618616 0.0183261 0.014847
0.703426 0.0184634 0.0146334
0.788586 0.0185855 0.014435
0.863584 0.0186923 0.0142367
0.921431 0.0187839 0.0140993
0.923323 0.0187839 0.0140993
0.921798 0.106966 0.0131533
0.91873 0.285191 0.0112612
0.917189 0.397742 0.0786297
0.916091 0.496071 0.11931
0.915618 0.586435 0.164187
0.916106 0.667948 0.221485
0.917693 0.73283 0.298238
0.920058 0.781659 0.377951
0.923522 0.819257 0.457465
0.927642 0.84683 0.535317
0.926909 0.870298 0.603769
0.923156 0.889754 0.656001
0.0176089 0.0657511 0.0158083
0.0174105 0.068513 0.0157778
0.0173342 0.0711223 0.0157473
0.0174411 0.0735637 0.0157321
0.0177462 0.0743725 0.0157626
0.0738689 0.0736706 0.0157015
0.110231 0.0717174 0.0156863
0.147524 0.0674754 0.0156863
0.188434 0.0582132 0.015671
0.233936 0.0175174 0.0158846
0.282902 0.0176089 0.0157626
0.333684 0.0177157 0.0156252
0.391608 0.0178683 0.0154574
0.459648 0.0180209 0.0152743
0.53756 0.0181735 0.0150607
0.619745 0.0183261 0.014847
0.704082 0.0184482 0.0146334
0.78883 0.0185855 0.014435
0.863401 0.0186923 0.0142519
0.920943 0.0187686 0.0140993
0.923354 0.0187686 0.0140993
0.920943 0.157031 0.0126192
0.918502 0.30106 0.0110933
0.917052 0.407156 0.0740063
0.916014 0.502403 0.11722
0.915572 0.590784 0.163104
0.91606 0.670741 0.220356
0.917662 0.734432 0.297627
0.920027 0.782605 0.377615
0.923461 0.819806 0.457221
0.927596 0.84715 0.53518
0.926894 0.870497 0.603677
0.92314 0.88986 0.655955
0.0171206 0.0945449 0.0155184
0.0168307 0.0968185 0.0154726
0.0166629 0.0990005 0.0154421
0.0166781 0.100679 0.0154269
0.0169223 0.101335 0.0154421
0.0560159 0.101183 0.0154116
0.102785 0.100221 0.0153964
0.143252 0.0982223 0.0153964
0.186297 0.0943923 0.0153658
0.233692 0.0871138 0.0153048
0.28336 0.0727855 0.0152743
0.335393 0.0177157 0.01561
0.393729 0.0178683 0.0154574
0.461799 0.0180209 0.015259
0.539284 0.0181735 0.0150607
0.62089 0.0183261 0.014847
0.704738 0.0184482 0.0146334
0.789044 0.0185702 0.014435
0.863203 0.0186923 0.0142519
0.920439 0.0187686 0.0140993
0.9234 0.0187686 0.0140993
0.920409 0.190417 0.0122683
0.918303 0.315816 0.0109407
0.91696 0.416281 0.0688792
0.915999 0.508614 0.115068
0.915557 0.595087 0.162036
0.916045 0.673487 0.219226
0.917632 0.736004 0.297032
0.920012 0.78352 0.377279
0.923369 0.820356 0.456992
0.92755 0.847471 0.535027
0.926863 0.87068 0.603586
0.923125 0.889982 0.655909
0.0166323 0.123583 0.0152285
0.0163882 0.125505 0.015198
0.0159152 0.12752 0.0151217
0.0159304 0.128542 0.0151217
0.0161135 0.129122 0.0151369
0.0166018 0.129107 0.0151827
0.0885328 0.128618 0.0151064
0.136141 0.12726 0.0151522
0.182818 0.12491 0.0151675
0.233051 0.120806 0.0151064
0.284138 0.11339 0.0150149
0.337652 0.100984 0.0149233
0.396628 0.0763104 0.0149386
0.465476 0.0178988 0.0153048
0.542123 0.0180972 0.0150759
0.622614 0.0182803 0.0148623
0.705653 0.0184329 0.0146487
0.789334 0.0185702 0.014435
0.862928 0.018677 0.0142519
0.919783 0.0187686 0.0141146
0.92343 0.0187686 0.0140993
0.91989 0.222492 0.0119326
0.918029 0.332601 0.0107576
0.916686 0.4271 0.0616312
0.915602 0.516136 0.112306
0.914824 0.600488 0.160525
0.914656 0.677241 0.217411
0.915312 0.738705 0.29546
0.916701 0.785809 0.375479
0.918639 0.82269 0.45449
0.92163 0.850004 0.531777
0.922957 0.872343 0.601236
0.923949 0.889799 0.656367
0.0167391 0.156741 0.0149691
0.0163119 0.158511 0.0149081
0.0158236 0.160006 0.014847
0.0155032 0.160922 0.0148013
0.0154879 0.161486 0.0148013
0.0159609 0.161547 0.014847
0.0436713 0.161212 0.0148775
0.122057 0.160281 0.0148623
0.175113 0.158724 0.0148928
0.228428 0.155932 0.014847
0.281788 0.150958 0.0147097
0.338094 0.143664 0.0145571
0.398764 0.132311 0.0144198
0.467414 0.111833 0.0143587
0.544305 0.0617533 0.0146334
0.624628 0.018265 0.0148623
0.706752 0.0184329 0.0146487
0.789654 0.0185702 0.014435
0.862501 0.018677 0.0142519
0.918837 0.0187533 0.0141146
0.92134 0.140139 0.0128176
0.919371 0.257267 0.0115663
0.917784 0.35314 0.010544
0.916548 0.440818 0.0490883
0.915587 0.525704 0.108614
0.91487 0.607217 0.158785
0.914733 0.681468 0.216388
0.915404 0.741131 0.294545
0.916762 0.787259 0.374975
0.918547 0.82356 0.454124
0.921569 0.850523 0.531548
0.922911 0.872663 0.601099
0.923934 0.889982 0.656291
0.0162509 0.196231 0.0145876
0.0157168 0.197772 0.0145113
0.0151369 0.198734 0.0144503
0.0147097 0.199603 0.0144045
0.0146029 0.200137 0.014374
0.0149996 0.200259 0.0144198
0.0159304 0.2 0.0145266
0.0871595 0.19939 0.0145113
0.158633 0.197436 0.0145418
0.21796 0.194873 0.0145266
0.276036 0.191501 0.0143893
0.33608 0.186725 0.0141909
0.400092 0.179492 0.0139773
0.470375 0.1682 0.0137942
0.546456 0.151629 0.0137026
0.625345 0.126543 0.0137179
0.707149 0.0822156 0.013962
0.790112 0.018555 0.014435
0.861891 0.0186618 0.0142519
0.915694 0.121157 0.0130312
0.920226 0.210208 0.0120699
0.918837 0.295308 0.0111696
0.917494 0.377508 0.0102998
0.916182 0.457984 0.00944533
0.915373 0.538003 0.103395
0.914611 0.616053 0.156374
0.914397 0.687068 0.215488
0.914992 0.744457 0.293141
0.916335 0.789334 0.37409
0.918425 0.824704 0.453651
0.921492 0.851194 0.531228
0.922866 0.873075 0.6009
0.923903 0.890227 0.656184
0.0157015 0.241337 0.0141451
0.0150607 0.241993 0.0140841
0.0143893 0.242649 0.0140078
0.0139773 0.243137 0.013962
0.0140993 0.243259 0.0139773
0.0147707 0.242985 0.0140383
0.0157931 0.24242 0.0141451
0.016907 0.241596 0.0142672
0.124392 0.240467 0.0141604
0.198917 0.238743 0.0140993
0.264332 0.236393 0.0139925
0.329976 0.233066 0.0138094
0.398657 0.228138 0.0135348
0.472694 0.220508 0.0132906
0.549676 0.2112 0.013077
0.627329 0.199573 0.0129397
0.707164 0.186267 0.0128481
0.787686 0.175051 0.0127565
0.857893 0.181415 0.0125124
0.911894 0.216007 0.0120241
0.919051 0.270695 0.0114137
0.917998 0.336889 0.0107118
0.916884 0.406561 0.0099794
0.915785 0.479332 0.00921645
0.915114 0.553567 0.0959182
0.914504 0.627161 0.153292
0.914412 0.694057 0.214496
0.915038 0.748516 0.291493
0.916396 0.791806 0.37319
0.918318 0.826185 0.45304
0.921386 0.852094 0.530831
0.922805 0.87361 0.600656
0.923858 0.890547 0.656031
0.0150912 0.289296 0.0136873
0.014313 0.290013 0.0135958
0.0134585 0.290761 0.0135042
0.0128023 0.291341 0.0134432
0.0125887 0.29163 0.0134127
0.0130159 0.291539 0.0134585
0.0139467 0.291142 0.01355
0.015198 0.290486 0.0136873
0.0164492 0.289555 0.0138247
0.163699 0.288426 0.013611
0.243626 0.286809 0.0135042
0.317052 0.284581 0.0133211
0.392386 0.281132 0.0130465
0.471977 0.276173 0.012726
0.55198 0.270191 0.0124819
0.629923 0.263859 0.0122683
0.708476 0.258061 0.0121004
0.786969 0.255283 0.0119173
0.855131 0.263539 0.0116579
0.907927 0.289113 0.0112612
0.918288 0.330098 0.0108034
0.917433 0.381765 0.0102541
0.916503 0.440818 0.00962844
0.915541 0.50515 0.00894179
0.914961 0.572824 0.0847334
0.914488 0.64094 0.14934
0.914519 0.7028 0.213336
0.915221 0.753658 0.289387
0.916594 0.794965 0.372045
0.918318 0.828046 0.452293
0.921279 0.853269 0.530297
0.922728 0.874327 0.60032
0.923827 0.890959 0.655848
0.0143435 0.345754 0.013138
0.0134127 0.346517 0.0130312
0.0124056 0.34728 0.0129244
0.0115663 0.347921 0.0128328
0.0111391 0.348318 0.0127871
0.0112154 0.348424 0.0127871
0.0118105 0.348257 0.0128634
0.0128939 0.347814 0.0129702
0.0142672 0.347082 0.0131228
0.01561 0.346105 0.0132601
0.204974 0.345129 0.0129244
0.293629 0.343709 0.0127413
0.378561 0.341756 0.0124666
0.465232 0.338842 0.0121157
0.550164 0.33492 0.0118257
0.631037 0.331106 0.0115663
0.709545 0.328756 0.011368
0.785916 0.329763 0.0111391
0.85153 0.338903 0.0108797
0.902754 0.359136 0.010544
0.917464 0.389593 0.0101778
0.916793 0.430686 0.00973526
0.91603 0.480232 0.00921645
0.915221 0.535927 0.00863661
0.914733 0.596139 0.0658122
0.914519 0.657694 0.14435
0.914702 0.713558 0.212009
0.915465 0.760143 0.28658
0.916854 0.798978 0.37052
0.918563 0.830335 0.451423
0.921126 0.854795 0.529595
0.922621 0.875242 0.599893
0.923766 0.891508 0.655604
0.0134127 0.411414 0.0124971
0.0122988 0.412222 0.0123751
0.0111849 0.41297 0.012253
0.0104067 0.413535 0.0121614
0.00936904 0.414191 0.0120546
0.00944533 0.414298 0.0120699
0.00976577 0.414298 0.0121004
0.0105135 0.414084 0.0121767
0.0117189 0.413626 0.0122988
0.0131838 0.413077 0.0124514
0.101701 0.412589 0.0123598
0.250782 0.4121 0.0120546
0.35285 0.411185 0.0117647
0.449516 0.409277 0.0114595
0.541405 0.406668 0.0111543
0.627543 0.404044 0.0108797
0.708812 0.402609 0.0106203
0.783948 0.404181 0.0103761
0.846876 0.411673 0.010132
0.896208 0.427222 0.00984207
0.916548 0.45127 0.00952163
0.91603 0.484062 0.00918593
0.91545 0.52459 0.00875868
0.91487 0.571878 0.00827039
0.914351 0.624155 0.00773632
0.91458 0.677516 0.138216
0.914916 0.726452 0.21062
0.915633 0.768231 0.285222
0.916732 0.804181 0.368338
0.917967 0.83357 0.449851
0.920546 0.856916 0.52845
0.921431 0.876844 0.598703
0.921813 0.892943 0.654124
0.0117952 0.48629 0.0117037
0.0113375 0.486717 0.0116426
0.010605 0.487251 0.0115663
0.00975052 0.4878 0.0114748
0.00881971 0.488365 0.0113832
0.00823987 0.488762 0.0113069
0.0081178 0.48893 0.0113069
0.00872816 0.488807 0.011368
0.00984207 0.488411 0.0114748
0.0112612 0.487831 0.0116274
0.0124514 0.48719 0.0117647
0.160708 0.486824 0.011429
0.310582 0.486183 0.0110323
0.42269 0.484779 0.0106966
0.52314 0.482704 0.0103761
0.616236 0.480308 0.0100862
0.702831 0.478492 0.00982681
0.779507 0.479149 0.00959792
0.840589 0.484871 0.00936904
0.887999 0.496818 0.00910964
0.915511 0.515282 0.00885023
0.915175 0.540993 0.00859083
0.914839 0.573617 0.00825513
0.914504 0.612497 0.0078584
0.91429 0.656001 0.0074464
0.914778 0.700175 0.131121
0.915343 0.741344 0.209445
0.916167 0.77789 0.285878
0.917281 0.810315 0.365774
0.918486 0.837171 0.448386
0.920394 0.859419 0.527276
0.921294 0.878401 0.597955
0.921752 0.893889 0.653696
0.0108339 0.562982 0.010956
0.0103151 0.563333 0.0109102
0.00944533 0.563836 0.0108034
0.00842298 0.564355 0.0106966
0.00732433 0.56492 0.0105898
0.00657664 0.565301 0.0104982
0.00628672 0.565484 0.0104677
0.00665293 0.565362 0.0105135
0.00755322 0.565011 0.010605
0.00880446 0.564416 0.0107424
0.0100862 0.563699 0.0108797
0.0109102 0.562875 0.0109712
0.241016 0.562325 0.0103914
0.384955 0.561196 0.0099794
0.496483 0.559518 0.00962844
0.597314 0.557366 0.009308
0.690013 0.55523 0.0090486
0.770108 0.554833 0.00881971
0.831647 0.558465 0.00860609
0.877913 0.567193 0.00839246
0.91458 0.581003 0.00816358
0.914443 0.600671 0.00796521
0.914351 0.626307 0.00772107
0.91429 0.656733 0.00743114
0.914229 0.690257 0.00712596
0.914641 0.725109 0.123659
0.914961 0.758358 0.208621
0.915312 0.789837 0.286534
0.915923 0.818387 0.362295
0.917693 0.842176 0.445762
0.920272 0.862531 0.525734
0.921172 0.880354 0.596994
0.921675 0.895094 0.653162
0.00927749 0.639475 0.0101625
0.0087129 0.63978 0.0101015
0.00759899 0.640299 0.0099794
0.00622568 0.640909 0.00984207
0.00480659 0.64152 0.00968948
0.00387579 0.641917 0.00958267
0.00350958 0.642069 0.00955215
0.00378424 0.641932 0.00956741
0.00442512 0.641596 0.0096437
0.00544747 0.641032 0.00975052
0.00666819 0.640223 0.00988785
0.00779736 0.6392 0.0100099
0.0083772 0.637964 0.010071
0.329061 0.637308 0.00920119
0.460166 0.635874 0.0087892
0.569787 0.633997 0.0084535
0.668666 0.6318 0.00814832
0.752712 0.63064 0.00791943
0.816327 0.632425 0.00772107
0.863416 0.638163 0.00753796
0.899413 0.648051 0.00735485
0.911955 0.66215 0.007187
0.912123 0.680064 0.00703441
0.912444 0.701518 0.00686656
0.912871 0.725628 0.00668345
0.913771 0.751217 0.117647
0.914595 0.777279 0.20882
0.915297 0.803143 0.288304
0.916243 0.827054 0.36434
0.917937 0.847852 0.442893
0.92047 0.86627 0.523888
0.92134 0.882673 0.595911
0.921889 0.896513 0.652628
0.0081178 0.713832 0.00941482
0.00747692 0.714092 0.00935378
0.00622568 0.714595 0.00921645
0.00469978 0.715206 0.0090486
0.00314336 0.715816 0.00888075
0.00215152 0.716182 0.0087892
0.00170901 0.71632 0.00874342
0.00184634 0.716152 0.00875868
0.00227359 0.715801 0.00880446
0.00299077 0.715236 0.00888075
0.00395209 0.714382 0.00898756
0.00502022 0.713207 0.00910964
0.00588998 0.711696 0.00920119
0.250904 0.710506 0.00860609
0.418875 0.708797 0.00816358
0.540703 0.7066 0.00782788
0.64567 0.70399 0.00755322
0.732891 0.701915 0.00730907
0.799237 0.701686 0.00712596
0.848936 0.703975 0.00697337
0.886076 0.709239 0.00682078
0.912154 0.717693 0.00668345
0.912383 0.728954 0.00660716
0.912749 0.742824 0.0065156
0.913207 0.758831 0.00640879
0.914153 0.777279 0.115923
0.915038 0.797223 0.211185
0.915831 0.817502 0.291615
0.916777 0.836652 0.367437
0.918425 0.854505 0.441627
0.920882 0.870726 0.521538
0.921752 0.885466 0.594583
0.922332 0.898253 0.652018
0.00729381 0.775738 0.00881971
0.00654612 0.775982 0.00872816
0.00520333 0.776471 0.00859083
0.00364691 0.77702 0.00842298
0.00210575 0.777584 0.00827039
0.00108339 0.777905 0.00816358
0.000534066 0.777996 0.00810254
0.000534066 0.777813 0.00810254
0.000839246 0.777401 0.00813306
0.00140383 0.776745 0.00819409
0.00218204 0.775799 0.00828565
0.00311284 0.774472 0.00839246
0.0040589 0.772778 0.00851453
0.162264 0.771038 0.00817884
0.385702 0.769024 0.00766003
0.517922 0.766384 0.00735485
0.626886 0.763333 0.00708019
0.714549 0.760601 0.0068513
0.782101 0.758968 0.00666819
0.834226 0.758816 0.0065156
0.873213 0.760586 0.00640879
0.901762 0.76463 0.00631724
0.912749 0.770932 0.0062562
0.913115 0.779492 0.00621042
0.913603 0.790204 0.00614939
0.914611 0.803143 0.121309
0.915587 0.817456 0.216815
0.916503 0.832334 0.297063
0.917571 0.847257 0.371969
0.919264 0.862058 0.44535
0.921614 0.875898 0.518502
0.922423 0.888777 0.592889
0.923003 0.900359 0.651255
0.00680552 0.822736 0.0083772
0.00610361 0.822904 0.00830091
0.00486763 0.823301 0.00816358
0.0033875 0.823789 0.00801099
0.00190738 0.824262 0.0078584
0.00102235 0.824491 0.00775158
0 0.824903 0.00761425
0 0.824582 0.00762951
4.57771e-05 0.824079 0.00766003
0.000549325 0.823346 0.00772107
0.0011902 0.822339 0.00779736
0.00192264 0.820996 0.00787366
0.00276188 0.819272 0.00798047
0.128725 0.81738 0.00775158
0.374548 0.815244 0.007187
0.508782 0.81239 0.00691234
0.616709 0.80911 0.00668345
0.702037 0.806073 0.00650034
0.768215 0.80383 0.00633249
0.820981 0.802518 0.00619516
0.861036 0.802579 0.00608835
0.891066 0.80415 0.0059968
0.913024 0.80737 0.00593576
0.913436 0.812314 0.00593576
0.914 0.81886 0.0059205
0.915221 0.827222 0.136675
0.91635 0.836652 0.227329
0.917418 0.847196 0.30544
0.918715 0.85864 0.378485
0.920531 0.870359 0.450599
0.922835 0.881605 0.521721
0.923506 0.892622 0.590753
0.924025 0.902831 0.650324
0.00698863 0.858869 0.00808728
0.00604257 0.859113 0.00798047
0.0049897 0.859388 0.00787366
0.00384527 0.859678 0.00775158
0.00242618 0.860105 0.00759899
0.0012665 0.86041 0.00747692
0.000366217 0.860548 0.00738537
9.15541e-05 0.860365 0.00735485
0.000122072 0.859907 0.00737011
0.000488289 0.859174 0.00741588
0.00105287 0.858152 0.00747692
0.00169375 0.85684 0.00755322
0.00238041 0.855161 0.00764477
0.201877 0.853452 0.00720226
0.391821 0.85127 0.00679026
0.516091 0.848417 0.00653086
0.615915 0.845228 0.00633249
0.695552 0.842161 0.0061799
0.758434 0.839658 0.00602731
0.809796 0.837781 0.00590524
0.849775 0.836789 0.00581369
0.881086 0.836713 0.00573739
0.905684 0.837674 0.00570687
0.913756 0.839857 0.00570687
0.914519 0.843275 0.00575265
0.916075 0.848432 0.162142
0.917388 0.854673 0.243809
0.918654 0.862074 0.317556
0.92018 0.870359 0.387686
0.92221 0.879088 0.457847
0.924514 0.887739 0.527413
0.925032 0.896925 0.591867
0.925383 0.905715 0.649073
0.00759899 0.884871 0.00791943
0.0069276 0.884962 0.0078584
0.00590524 0.885206 0.00775158
0.00474556 0.885496 0.00762951
0.00326543 0.885924 0.00747692
0.00205997 0.886229 0.00733959
0.00105287 0.886412 0.00724804
0.000595102 0.886275 0.00720226
0.00047303 0.885893 0.007187
0.000717174 0.885206 0.00721752
0.0011902 0.88423 0.00727855
0.00177005 0.882948 0.00733959
0.00241093 0.881315 0.00743114
0.307042 0.87982 0.00672923
0.436866 0.877638 0.00646983
0.540795 0.874968 0.00624094
0.626352 0.872084 0.00607309
0.696895 0.869261 0.00593576
0.75462 0.866804 0.00581369
0.803006 0.864729 0.00569161
0.841337 0.863294 0.00560006
0.872816 0.862409 0.00555428
0.898268 0.862181 0.00553903
0.914458 0.862821 0.00556954
0.915862 0.864683 0.103456
0.91725 0.867597 0.195346
0.918349 0.871595 0.266667
0.918929 0.876722 0.333822
0.91986 0.882582 0.399512
0.920119 0.889342 0.465766
0.92108 0.8963 0.532174
0.920729 0.903929 0.593698
0.921111 0.911147 0.645548
0.00489815 0.905928 0.00747692
0.0043946 0.905943 0.00741588
0.00318914 0.906249 0.00729381
0.00199893 0.906569 0.00717174
0.000793469 0.907088 0.00698863
0 0.90753 0.00683604
0 0.907835 0.00669871
0 0.907805 0.00662242
0 0.907591 0.00657664
0 0.907134 0.00656138
0 0.906386 0.00656138
0.151278 0.905516 0.00621042
0.300938 0.904265 0.00590524
0.403281 0.902586 0.00570687
0.491829 0.900511 0.00553903
0.570321 0.898146 0.00538643
0.639246 0.895582 0.00526436
0.698405 0.89308 0.00515755
0.74995 0.89073 0.005066
0.794141 0.88864 0.00497444
0.829984 0.887007 0.00491341
0.860334 0.88574 0.00486763
0.885649 0.884871 0.00486763
0.906111 0.884611 0.0417334
0.911315 0.885145 0.164767
0.913314 0.886229 0.232975
0.915343 0.888106 0.294362
0.917266 0.890776 0.354223
0.919509 0.894133 0.415488
0.920531 0.89865 0.477928
0.921813 0.903593 0.541268
0.921492 0.909422 0.599756
0.921843 0.915068 0.649287
0.00517281 0.920134 0.00738537
0.00468452 0.920165 0.00733959
0.00350958 0.92047 0.00720226
0.00238041 0.92076 0.00709544
0.0011902 0.921279 0.00691234
0 0.922148 0.00675975
0.0887617 0.922591 0.00640879
0.166323 0.922652 0.00614939
0.223896 0.922469 0.00598154
0.277531 0.922087 0.00582895
0.330999 0.921004 0.00572213
0.386175 0.920089 0.00561532
0.442741 0.918791 0.00553903
0.500816 0.917144 0.00547799
0.558572 0.915221 0.00543221
0.614618 0.913115 0.00537118
0.666804 0.910903 0.00531014
0.714672 0.908736 0.00523384
0.758846 0.90663 0.00515755
0.797528 0.904723 0.00509651
0.83006 0.903105 0.00503548
0.858473 0.901732 0.0049897
0.882612 0.900877 0.0724193
0.903029 0.900282 0.159152
0.913634 0.899947 0.219867
0.915312 0.900114 0.275502
0.917037 0.900908 0.328832
0.918853 0.902327 0.38143
0.920913 0.904311 0.436927
0.921874 0.907271 0.494347
0.923125 0.910597 0.553414
0.923445 0.914595 0.608225
0.92372 0.918776 0.654734
0.387289 0.930007 0.00662242
0.394965 0.930419 0.00646983
0.401709 0.931029 0.0062562
0.408621 0.931456 0.00608835
0.414908 0.931975 0.00588998
0.421256 0.932387 0.00573739
0.429252 0.932662 0.00560006
0.440253 0.932662 0.00550851
0.454429 0.932525 0.00543221
0.472435 0.932174 0.00537118
0.494484 0.931579 0.00534066
0.520653 0.93077 0.00531014
0.550896 0.929702 0.00531014
0.585 0.928313 0.00531014
0.621622 0.926696 0.00534066
0.659709 0.925002 0.0491493
0.697871 0.923201 0.0686809
0.735927 0.920913 0.0864271
0.772091 0.919142 0.104402
0.804486 0.91754 0.123522
0.833417 0.916091 0.14435
0.859419 0.914809 0.167468
0.881651 0.913787 0.193439
0.900557 0.912963 0.231052
0.915801 0.912261 0.27451
0.91722 0.911879 0.319951
0.9187 0.91194 0.366049
0.920501 0.912398 0.413794
0.922515 0.913314 0.463432
0.923552 0.915022 0.515373
0.92488 0.916991 0.568963
0.925353 0.919585 0.618769
0.925795 0.922927 0.661555
0.560983 0.936034 0.217884
0.563027 0.93669 0.217517
0.564645 0.937499 0.217029
0.566842 0.938048 0.216754
0.568734 0.938674 0.216403
0.570916 0.939178 0.216159
0.574044 0.939544 0.216007
0.579004 0.939544 0.216098
0.584436 0.939895 0.215946
0.593286 0.939605 0.216327
0.604471 0.939162 0.216892
0.618296 0.938537 0.217716
0.635157 0.937667 0.218875
0.654978 0.936614 0.220401
0.677653 0.935378 0.222416
0.703334 0.933944 0.225071
0.73109 0.932387 0.228504
0.759686 0.930831 0.232883
0.787564 0.929351 0.238544
0.813642 0.927977 0.245884
0.83856 0.92665 0.255314
0.861479 0.925429 0.267308
0.881498 0.924392 0.282368
0.899016 0.923491 0.300984
0.914336 0.922606 0.330419
0.918837 0.921889 0.366369
0.920256 0.921004 0.4065
0.922332 0.920684 0.449668
0.924453 0.92076 0.494652
0.925689 0.92195 0.541115
0.92723 0.922896 0.588144
0.927214 0.924712 0.631601
0.927825 0.926574 0.669932
0.665171 0.93576 0.321263
0.665919 0.936172 0.320958
0.665721 0.93695 0.320287
0.666224 0.937423 0.31989
0.666545 0.937972 0.319432
0.666972 0.938476 0.319036
0.667811 0.938964 0.318669
0.669474 0.939376 0.318395
0.672175 0.939727 0.318242
0.676448 0.939864 0.318349
0.682383 0.939879 0.318669
0.690272 0.939773 0.319219
0.700282 0.939574 0.319997
0.712596 0.93933 0.321035
0.727352 0.939055 0.322377
0.744396 0.938781 0.324102
0.763378 0.938521 0.326284
0.783475 0.937667 0.329061
0.80383 0.936522 0.332601
0.824674 0.935378 0.337072
0.845304 0.934249 0.342977
0.864775 0.93315 0.350713
0.882368 0.932174 0.360739
0.898268 0.931273 0.373617
0.912459 0.930343 0.390051
0.920211 0.929412 0.416663
0.922072 0.928527 0.450446
0.924498 0.927687 0.488441
