BBLuts/BB_102_0300_LUT.cube
TITLE "Generated by Resolve"
LUT_3D_SIZE 5
0 0 0
0.287602 0 0
0.9411 0 0
1 0.630014 0.0116274
0.995773 0.942565 0.76669
0 0.307805 0
0.171557 0.312505 0
0.910399 0.121935 0
1 0.6701 0
0.995727 0.942962 0.7664
0 0.852232 0
0 0.852018 0
0.750225 0.818769 0
1 0.845151 0
0.995117 0.947799 0.762295
0.609781 1 0.177737
0.609781 1 0.177737
0.771069 0.99852 0.194522
0.990677 0.973541 0.41503
0.991211 0.972717 0.788785
0.953338 0.983307 0.877775
0.953338 0.983307 0.877775
0.953338 0.983307 0.877775
0.971374 0.982132 0.879393
0.986893 0.980667 0.904616
0 0 0.335012
0.229587 0 0.336385
0.935882 0 0.31429
0.911574 0.669001 0.184222
0.995773 0.942565 0.766705
0 0.244511 0.261021
0.175265 0.242237 0.25742
0.930846 0 0.28365
0.95906 0.691569 0.200031
0.995727 0.942946 0.7664
0 0.848493 0
0 0.848264 0
0.754879 0.814862 0
1 0.842634 0
0.995117 0.947799 0.762295
0.617197 1 0.176501
0.617197 1 0.176501
0.773342 0.998291 0.193469
0.990753 0.973495 0.41471
0.991211 0.972717 0.788785
0.953368 0.983307 0.877791
0.953368 0.983307 0.877791
0.953368 0.983307 0.877791
0.971405 0.982132 0.879393
0.986893 0.980667 0.904616
0 0 0.962081
0 0 0.962158
0.908339 0 0.934127
1 0.329931 0.860365
0.99379 0.939193 0.855848
0 0 0.960998
0 0 0.961059
0.917769 0 0.932403
1 0.529381 0.828779
0.993835 0.939559 0.855756
0 0.7879 0.794171
0 0.787945 0.794186
0.707897 0.758694 0.777722
1 0.807294 0.768856
0.993057 0.944717 0.85333
0.600656 1 0.646723
0.600656 1 0.646723
0.751553 0.991516 0.643839
0.97911 0.968856 0.676951
0.990127 0.971511 0.832715
0.953918 0.983291 0.877699
0.953918 0.983291 0.877699
0.953918 0.983291 0.877699
0.971603 0.982116 0.879316
0.986893 0.980667 0.904585
0 0 1
0 0 1
0 0 1
1 0 1
0.994614 0.908476 0.979889
0 0 1
0 0 1
0 0 1
1 0 1
0.994568 0.909575 0.979751
0 0 1
0 0 1
0 0 1
1 0 1
0.993149 0.921645 0.977203
0 1 0.998276
0 1 0.998276
0 1 0.998276
0.954696 0.957351 0.967681
0.984573 0.966659 0.963775
0.948089 0.982284 0.94873
0.948089 0.982284 0.94873
0.948089 0.982284 0.94873
0.964965 0.981247 0.948302
0.985824 0.97995 0.954498
0 0.402075 1
0 0.402075 1
0 0.402075 1
0 0.402182 1
1 0.705898 1
0 0.402075 1
0 0.402075 1
0 0.402075 1
0 0.402182 1
1 0.705898 1
0 0.402075 1
0 0.402075 1
0 0.402075 1
0 0.402182 1
1 0.705898 1
0 0.400427 1
0 0.400427 1
0 0.400427 1
0 0.400504 1
1 0.70927 1
0.880232 0.985428 0.993072
0.880232 0.985428 0.993072
0.880232 0.985428 0.993072
0.880232 0.985428 0.993072
0.985199 0.979629 0.987671
