BBLuts/BB_102_0330_LUT.cube
TITLE "Generated by Resolve"
LUT_3D_SIZE 33
0.0383764 0.0494545 0.0496376
0.0383764 0.0494545 0.0496376
0.0383764 0.0494545 0.0496376
0.0383764 0.0494545 0.0496376
0.0383764 0.0494545 0.0496376
0.107088 0.0489509 0.0495613
0.197299 0.0490272 0.0498665
0.261616 0.0487373 0.0497292
0.32723 0.0482643 0.0493477
0.416693 0.047303 0.0485237
0.514305 0.0459907 0.0473182
0.603815 0.0449989 0.0463417
0.675181 0.0438849 0.059144
0.741329 0.0436713 0.103059
0.814984 0.0425879 0.202792
0.891554 0.039765 0.421332
0.970031 0.0374914 0.615122
1 0.0365454 0.709743
1 0.0357671 0.784024
1 0.035111 0.84062
1 0.0349889 0.850935
1 0.0349889 0.850935
1 0.0349889 0.851453
1 0.0349889 0.851331
1 0.58204 0.742428
1 0.68423 0.722148
1 0.762737 0.694896
0.976852 0.851514 0.595895
1 0.873625 0.546899
1 0.920455 0
1 0.947463 0
1 0.95465 0.648524
1 0.96936 0.780896
0.0383764 0.0494545 0.0496376
0.0383764 0.0494545 0.0496376
0.0383764 0.0494545 0.0496376
0.0383764 0.0494545 0.0496376
0.0383764 0.0494545 0.0496376
0.125383 0.049012 0.0496834
0.203586 0.049012 0.0498665
0.266636 0.0487221 0.0497139
0.336507 0.0481727 0.0492866
0.426947 0.0471809 0.0484169
0.524376 0.0458381 0.0471809
0.610193 0.0449531 0.0462959
0.677775 0.0438697 0.0603799
0.743053 0.0436561 0.104631
0.816434 0.0425574 0.205631
0.892531 0.0397192 0.42443
0.970642 0.0374762 0.616175
1 0.0365454 0.710063
1 0.0357824 0.783948
1 0.0351263 0.840269
1 0.0349889 0.850935
1 0.0349889 0.850935
1 0.0350042 0.851072
1 0.0937209 0.834821
1 0.591638 0.740536
1 0.689036 0.720897
1 0.766369 0.692119
0.978698 0.852491 0.595438
1 0.874739 0.538903
1 0.921004 0
1 0.947768 0
1 0.954879 0.646815
1 0.969482 0.780575
0.0383764 0.0494545 0.0496376
0.0383764 0.0494545 0.0496376
0.0383764 0.0494545 0.0496376
0.0383764 0.0494545 0.0496376
0.0383764 0.0494545 0.0496376
0.136233 0.0490272 0.0497292
0.205707 0.0489967 0.0498665
0.271382 0.0486915 0.0496986
0.346471 0.0480812 0.0491951
0.436469 0.0470741 0.0483101
0.531746 0.0457313 0.0470741
0.613535 0.0449378 0.0462806
0.679942 0.0438697 0.0614328
0.744915 0.0436408 0.106371
0.817884 0.0425116 0.20853
0.893492 0.0396735 0.427451
0.971267 0.0374609 0.617212
1 0.0365454 0.710338
1 0.0357671 0.783825
1 0.0351263 0.839887
1 0.0349889 0.850935
1 0.0349889 0.850935
1 0.0350042 0.850431
1 0.209201 0.808606
1 0.600565 0.738766
1 0.693706 0.719631
1 0.769894 0.688655
0.981201 0.853178 0.5953
1 0.875853 0.530159
1 0.921569 0
1 0.948074 0
1 0.955093 0.645136
1 0.969589 0.78024
0.0383764 0.0494545 0.0496376
0.0383764 0.0494545 0.0496376
0.0383764 0.0494545 0.0496376
0.0383764 0.0494545 0.0496376
0.0650034 0.0487068 0.0491646
0.144518 0.0490425 0.0497749
0.206729 0.0489967 0.0498665
0.271794 0.0486915 0.0496986
0.34818 0.0480659 0.0491798
0.44033 0.0470283 0.0482795
0.536385 0.0456703 0.0470283
0.616541 0.0449226 0.0462501
0.682033 0.0438697 0.062501
0.746777 0.0436408 0.108141
0.819364 0.0424811 0.211536
0.894484 0.0396429 0.430579
0.971862 0.0374456 0.618204
1 0.0365454 0.710613
1 0.0357824 0.783688
1 0.0351415 0.83946
1 0.0349889 0.850935
1 0.0349889 0.850935
1 0.0350042 0.85034
1 0.32221 0.786664
1 0.608911 0.737087
1 0.698253 0.718364
1 0.773571 0.684443
0.98439 0.853605 0.595499
1 0.876982 0.520668
1 0.922133 0
1 0.948379 0
1 0.955322 0.643336
1 0.969711 0.779934
0.0289616 0.111498 0.0386816
0.0282597 0.116945 0.0378424
0.0275883 0.122148 0.0370336
0.0269474 0.127153 0.036286
0.0267033 0.129107 0.0359808
0.116091 0.126589 0.0360266
0.156985 0.131533 0.0141909
0.229755 0.120165 0.0113375
0.334279 0.0879683 0.0406653
0.442054 0.0469978 0.048249
0.53901 0.0456397 0.0469978
0.619242 0.0449073 0.0462348
0.684031 0.0438697 0.063508
0.748669 0.0436103 0.109972
0.820874 0.0424506 0.214633
0.895476 0.0396124 0.433661
0.972473 0.0374456 0.619242
1 0.0365454 0.710842
1 0.0357824 0.783551
1 0.0351415 0.839033
1 0.0349889 0.850935
1 0.0349889 0.850828
1 0.0349889 0.850248
1 0.399329 0.772793
1 0.61677 0.735485
1 0.702693 0.717098
1 0.777508 0.679316
0.988327 0.853758 0.596048
1 0.878096 0.510689
1 0.922683 0
1 0.948684 0
1 0.95552 0.641566
1 0.969818 0.779599
0.0217746 0.16968 0.0300908
0.0213016 0.173754 0.0295109
0.0208438 0.177768 0.0289464
0.0204776 0.180911 0.0285191
0.0203098 0.182452 0.0283055
0.0776074 0.181247 0.0280156
0.161944 0.177905 0.0272374
0.231144 0.17348 0.025803
0.255573 0.185382 0
0.389364 0.156359 0
0.521019 0.112306 0.031693
0.621637 0.044892 0.0462196
0.686076 0.0438697 0.0646067
0.750698 0.043595 0.111955
0.822477 0.0424048 0.218036
0.896559 0.0395666 0.436988
0.973083 0.0374304 0.620249
1 0.0365301 0.711086
1 0.0357824 0.783368
1 0.0351415 0.838575
1 0.0349889 0.850935
1 0.0350042 0.850645
1 0.0349889 0.850126
1 0.455283 0.763073
1 0.624537 0.733852
1 0.707195 0.71577
1 0.781903 0.672984
0.992981 0.853651 0.596918
1 0.879362 0.494774
1 0.923247 0
1 0.949004 0
1 0.955764 0.639643
1 0.969955 0.779263
0.0152895 0.228077 0.0221256
0.0149233 0.231357 0.0216983
0.0146029 0.234607 0.0212863
0.0144045 0.236423 0.0210422
0.0142824 0.237583 0.0208896
0.0142367 0.23801 0.0208286
0.129168 0.234531 0.0195315
0.212131 0.230488 0.0183108
0.293004 0.22501 0.0167086
0.332891 0.238743 0
0.421103 0.22826 0
0.574289 0.177676 0
0.668269 0.121111 0.0280766
0.753277 0.0435798 0.114534
0.824552 0.0423438 0.222492
0.897932 0.0395209 0.44123
0.973907 0.0374151 0.621607
1 0.0365301 0.711406
1 0.0357824 0.783139
1 0.0351415 0.837949
1 0.0349889 0.850935
1 0.0349889 0.850553
1 0.0350042 0.849958
1 0.501045 0.754849
1 0.633936 0.731838
1 0.712825 0.714046
1 0.788052 0.663447
0.999817 0.853208 0.598428
1 0.881102 0.466773
1 0.92398 0
1 0.949401 0
1 0.956054 0.637079
1 0.970092 0.77882
0.00888075 0.291142 0.0140841
0.00862135 0.293843 0.0137484
0.00842298 0.295872 0.0135042
0.00828565 0.297185 0.0133364
0.00820935 0.298146 0.0132296
0.00816358 0.298665 0.0131533
0.0411231 0.297887 0.0129244
0.178195 0.292866 0.0104677
0.269642 0.287892 0.00868238
0.377081 0.280247 0.00614939
0.431022 0.287053 0
0.466484 0.292988 0
0.555734 0.264195 0
0.722408 0.186328 0.0438239
0.814191 0.0951858 0.194797
0.899779 0.0394446 0.446906
0.975021 0.0373999 0.623407
1 0.0365301 0.711833
1 0.0357977 0.782788
1 0.0351568 0.837064
1 0.0349889 0.850752
1 0.0349889 0.850401
1 0.0350042 0.849714
1 0.541573 0.747448
1 0.645502 0.729259
1 0.72047 0.709773
1 0.796841 0.649241
1 0.852354 0.600519
1 0.883726 0.409735
1 0.924926 0
1 0.94995 0
1 0.956436 0.633692
1 0.970306 0.778225
0.00164797 0.369696 0.00466926
0.00144961 0.37203 0.00440986
0.00134279 0.373327 0.00425727
0.00123598 0.37464 0.00410468
0.00115969 0.37554 0.00399786
0.00109865 0.376165 0.00392157
0.00106813 0.376562 0.00389105
0.108278 0.372915 0.00228885
0.229084 0.365881 0
0.346883 0.356847 0
0.460487 0.34609 0
0.547066 0.337026 0
0.533028 0.35111 0
0.581353 0.334005 0
0.786496 0.244694 0.138933
0.869841 0.178515 0.393561
0.97055 0.0584878 0.616007
1 0.0365301 0.712383
1 0.0357977 0.782269
1 0.035172 0.835554
1 0.0349889 0.850523
1 0.0350042 0.850172
1 0.226917 0.803601
1 0.572885 0.741695
1 0.65977 0.726207
1 0.729534 0.706676
1 0.808606 0.631083
1 0.851392 0.602243
1 0.888975 0.230411
1 0.926146 0
1 0.950637 0
1 0.956954 0.628916
1 0.970565 0.777447
0 0.454841 0
0 0.455482 0
0 0.456077 0
0 0.456596 0
0 0.456916 0
0 0.457008 0
0 0.45684 0
0 0.456291 0
0.160754 0.449393 0
0.295933 0.44155 0
0.427985 0.431861 0
0.541039 0.420951 0
0.618982 0.408545 0
0.668269 0.398047 0
0.653895 0.404486 0
0.848905 0.310201 0.361364
0.933928 0.229816 0.573465
1 0.0857099 0.697749
1 0.0357977 0.780621
1 0.0352026 0.833432
1 0.0350042 0.850248
1 0.0350042 0.84976
1 0.468681 0.759884
1 0.603021 0.735958
1 0.676646 0.721981
1 0.740963 0.702205
0.990951 0.822034 0.613367
1 0.851423 0.60029
1 0.897322 0
1 0.927733 0
1 0.951553 0
1 0.957641 0.622293
1 0.970901 0.77641
0 0.53611 0
0 0.536599 0
0 0.537102 0
0 0.537469 0
0 0.537743 0
0 0.537911 0
0 0.537987 0
0 0.53785 0
0 0.537331 0
0.214588 0.529061 0
0.376211 0.520073 0
0.511482 0.510277 0
0.602075 0.500404 0
0.681102 0.486961 0
0.743618 0.473686 0.0458228
0.82771 0.441367 0.318181
0.906294 0.399588 0.540291
0.993149 0.311604 0.650492
1 0.117479 0.756954
1 0.0352331 0.830304
1 0.0350042 0.84976
1 0.371252 0.776577
1 0.562905 0.743587
1 0.63447 0.729625
1 0.696498 0.716197
1 0.754955 0.696132
0.978515 0.834989 0.600229
1 0.854047 0.588952
1 0.900664 0
1 0.929763 0
1 0.952712 0
1 0.958526 0.612833
1 0.971359 0.775067
0 0.606897 0
0 0.607263 0
0 0.607599 0
0 0.607843 0
0 0.608042 0
0 0.608194 0
0 0.608316 0
0 0.608362 0
0 0.60824 0
0.0204776 0.608103 0
0.285527 0.598016 0
0.46392 0.588373 0
0.579156 0.580179 0
0.66305 0.571954 0
0.744595 0.562188 0
0.746014 0.572137 0.194797
0.887678 0.52639 0.509117
0.961578 0.501183 0.616403
1 0.462348 0.688472
1 0.407645 0.747143
1 0.454856 0.762219
1 0.558221 0.744488
1 0.61471 0.733654
1 0.667903 0.72253
1 0.720119 0.706371
1 0.774365 0.679316
0.974426 0.846525 0.590906
1 0.860471 0.561318
1 0.904845 0
1 0.932296 0
1 0.954223 0
1 0.959731 0.598505
1 0.971939 0.773236
0 0.660822 0
0 0.661067 0
0 0.661295 0
0 0.661463 0
0 0.661601 0
0 0.661738 0
0 0.661845 0
0 0.661936 0
0 0.662043 0
0 0.662089 0
0.0862593 0.661143 0
0.369406 0.649851 0
0.545617 0.640497 0
0.640024 0.633829 0
0.727275 0.626795 0
0.807858 0.617441 0.0623941
0.82855 0.622568 0.410132
0.946731 0.59205 0.594553
1 0.58381 0.662654
1 0.580301 0.712032
1 0.591226 0.738216
1 0.624887 0.731609
1 0.662715 0.723735
1 0.703258 0.71339
1 0.746899 0.696269
1 0.809247 0.625513
0.994522 0.851225 0.590814
1 0.869596 0.498375
1 0.910018 0
1 0.935485 0
1 0.95613 0
1 0.961364 0.575708
1 0.972686 0.770779
0 0.720302 0
0 0.7205 0
0 0.720668 0
0 0.720806 0
0 0.720928 0
0 0.721035 0
0 0.721141 0
0 0.721263 0
0 0.72134 0
0 0.721355 0
0 0.721263 0
0.130602 0.718578 0
0.471885 0.703075 0
0.60705 0.694713 0
0.702785 0.687739 0
0.791882 0.680598 0
0.866621 0.667796 0.282338
0.92723 0.659709 0.552651
0.990967 0.652445 0.637736
1 0.652766 0.689662
1 0.660304 0.724269
1 0.682277 0.719036
1 0.709361 0.711574
1 0.741421 0.698528
1 0.783108 0.661448
0.974533 0.840604 0.591196
1 0.849744 0.59089
1 0.889448 0
1 0.916243 0
1 0.939376 0
1 0.958526 0
1 0.963714 0.533364
1 0.973663 0.767514
0 0.781018 0
0 0.781125 0
0 0.781216 0
0 0.781308 0
0 0.781369 0
0 0.78143 0
0 0.781476 0
0 0.781537 0
0 0.781537 0
0 0.781491 0
0 0.781338 0
0 0.780941 0
0.240314 0.773449 0
0.558389 0.756909 0
0.669642 0.74931 0
0.766339 0.742061 0
0.855604 0.735027 0
0.91194 0.723461 0.434989
0.941054 0.729885 0.5579
1 0.716213 0.658259
1 0.721889 0.697917
1 0.736507 0.70045
1 0.756741 0.691752
1 0.791043 0.648753
0.976074 0.835691 0.591745
1 0.848264 0.590707
1 0.864607 0.512551
1 0.900298 0
1 0.923583 0
1 0.944045 0
1 0.961532 0
1 0.969436 0.331273
1 0.974899 0.763088
0 0.841901 0
0 0.841962 0
0 0.841993 0
0 0.842023 0
0 0.842039 0
0 0.842054 0
0 0.842054 0
0 0.842039 0
0 0.841993 0
0 0.841871 0
0 0.841642 0
0 0.841184 0
0 0.840391 0
0.42356 0.823743 0
0.623652 0.811551 0
0.732845 0.803769 0
0.829419 0.796628 0
0.910872 0.790692 0
0.960555 0.779355 0.402014
0.928481 0.804013 0.536507
0.97821 0.802274 0.595254
1 0.806119 0.62533
0.980545 0.829419 0.59733
0.97554 0.846708 0.583276
1 0.84651 0.589456
1 0.860929 0.517906
1 0.892073 0
1 0.912459 0
1 0.931945 0
1 0.949447 0
1 0.965179 0
1 0.979568 0
1 0.97644 0.757092
0 0.900435 0
0 0.90042 0
0 0.900404 0
0 0.900389 0
0 0.900359 0
0 0.900328 0
0 0.900282 0
0 0.900206 0
0 0.900069 0
0 0.899855 0
0 0.899504 0
0 0.898939 0
0 0.898054 0
0 0.896819 0
0.547677 0.873014 0
0.6925 0.863127 0
0.798566 0.855055 0
0.88423 0.848432 0
0.949325 0.844175 0
0.997421 0.842725 0
1 0.833661 0.50457
1 0.843229 0.585779
1 0.847349 0.583932
1 0.856535 0.540108
1 0.877134 0.0886854
1 0.894286 0
1 0.909621 0
1 0.925551 0
1 0.941161 0
1 0.955688 0
1 0.969528 0
1 0.982437 0
1 0.978378 0.748775
0 0.949554 0
0 0.949493 0
0 0.949432 0
0 0.949371 0
0 0.949294 0
0 0.949218 0
0 0.949111 0
0 0.948959 0
0 0.948745 0
0 0.948425 0
0 0.947936 0
0 0.947204 0
0 0.946197 0
0 0.944854 0
0 0.942885 0
0.647669 0.912917 0
0.76994 0.903609 0
0.859083 0.896315 0
0.926207 0.891035 0
0.97705 0.8878 0
1 0.886717 0
1 0.887968 0
1 0.891691 0
1 0.898222 0
1 0.906432 0
1 0.916197 0
1 0.927245 0
1 0.93901 0
1 0.950851 0
1 0.962783 0
1 0.974578 0
1 0.985809 0
1 0.980789 0.736996
0 0.987274 0
0 0.987182 0
0 0.987076 0
0 0.986984 0
0 0.986877 0
0 0.98677 0
0 0.986618 0
0 0.986404 0
0 0.986114 0
0 0.985702 0
0 0.985107 0
0 0.984329 0
0 0.983246 0
0 0.981826 0
0 0.980026 0
0.601968 0.951812 0
0.748012 0.940978 0
0.839841 0.933333 0
0.906935 0.927642 0
0.95903 0.923506 0
0.998962 0.921004 0
1 0.920378 0
1 0.921416 0
1 0.925048 0
1 0.930205 0
1 0.936553 0
1 0.943954 0
1 0.952087 0
1 0.961028 0
1 0.97055 0
1 0.980255 0
1 0.989715 0
1 0.983719 0.71928
0 1 0
0 1 0
0 1 0
0 1 0
0 1 0
0 1 0
0 1 0
0 1 0
0 1 0
0 1 0
0 1 0
0 1 0
0 1 0
0 1 0
0 1 0
0.560525 0.982788 0
0.734691 0.970321 0
0.826596 0.962676 0
0.89221 0.956909 0
0.943832 0.952392 0
0.984146 0.949157 0
1 0.947295 0
1 0.946639 0
1 0.947723 0
1 0.95053 0
1 0.954314 0
1 0.959106 0
1 0.964858 0
1 0.971481 0
1 0.978744 0
1 0.986389 0
1 0.99411 0
1 0.987289 0.691341
0 1 0
0 1 0
0 1 0
0 1 0
0 1 0
0 1 0
0 1 0
0 1 0
0 1 0
0 1 0
0 1 0
0 1 0
0 1 0
0 1 0
0 1 0
0.565377 1 0
0.73492 0.991791 0
0.821668 0.984543 0
0.883741 0.979004 0
0.933471 0.974456 0
0.972534 0.970962 0
1 0.968475 0
1 0.966888 0
1 0.9664 0
1 0.967773 0
1 0.970077 0
1 0.973205 0
1 0.977096 0
1 0.981735 0
1 0.986999 0
1 0.992752 0
1 0.998962 0
1 0.990967 0.683101
0 1 0
0 1 0
0 1 0
0 1 0
0 1 0
0 1 0
0 1 0
0 1 0
0 1 0
0 1 0
0 1 0
0 1 0
0 1 0
0 1 0
0 1 0
0.61883 1 0
0.748287 1 0
0.823972 1 0
0.880705 0.99646 0
0.927092 0.992126 0
0.963928 0.988693 0
0.994018 0.985977 0
1 0.983963 0
1 0.982757 0
1 0.982834 0
1 0.983993 0
1 0.985809 0
1 0.988266 0
1 0.991318 0
1 0.994995 0
1 0.999268 0
1 1 0
1 0.994812 0.68162
0 1 0
0 1 0
0 1 0
0 1 0
0 1 0
0 1 0
0 1 0
0 1 0
0 1 0
0 1 0
0 1 0
0 1 0
0 1 0
0 1 0
0.326284 1 0
0.685634 1 0
0.772793 1 0
0.833478 1 0
0.883268 1 0
0.92488 1 0
0.958633 1 0
0.987274 1 0
1 0.997803 0
1 0.996216 0
1 0.995361 0
1 0.995758 0
1 0.996658 0
1 0.998138 0
1 1 0
1 1 0
1 1 0
1 1 0
1 0.998718 0.687037
0 1 0
0 1 0
0 1 0
0 1 0
0 1 0
0 1 0
0 1 0
0 1 0
0 1 0
0 1 0
0 1 0
0 1 0
0 1 0
0.510506 1 0
0.672084 1 0
0.747265 1 0
0.802869 1 0
0.84976 1 0
0.891005 1 0
0.926574 1 0
0.956619 1 0
0.983169 1 0
1 1 0
1 1 0
1 1 0
1 1 0
1 1 0
1 1 0
1 1 0
1 1 0
1 1 0
1 1 0
1 1 0.702098
0 1 0
0 1 0
0 1 0
0 1 0
0 1 0
0 1 0
0 1 0
0 1 0
0 1 0
0 1 0
0.518853 1 0
0.613809 1 0
0.672816 1 0
0.720119 1 0
0.7617 1 0
0.799603 1 0
0.835904 1 0
0.870497 1 0
0.902632 1 0
0.931426 1 0
0.957626 1 0
0.981399 1 0
1 1 0
1 1 0
1 1 0
1 1 0
1 1 0
1 1 0
1 1 0
1 1 0
1 1 0
1 1 0
1 1 0.725902
0.689113 1 0
0.693965 1 0
0.698619 1 0
0.703059 1 0
0.707347 1 0
0.711635 1 0
0.716899 1 0
0.723735 1 0
0.731899 1 0
0.741817 1 0
0.753918 1 0
0.767819 1 0
0.783978 1 0
0.80238 1 0
0.822889 1 0
0.845396 1 0
0.869047 1 0
0.893141 1 0
0.916686 1 0
0.939406 1 0
0.961456 1 0
0.982025 1 0
1 1 0
1 1 0
1 1 0
1 1 0
1 1 0
1 1 0
1 1 0
1 1 0
1 1 0
1 1 0
1 1 0.755642
0.811749 1 0
0.813306 1 0
0.814817 1 0
0.816327 1 0
0.817823 1 0
0.819333 1 0
0.821271 1 0
0.823758 1 0
0.827008 1 0
0.831159 1 0
0.836378 1 0
0.842908 1 0
0.850935 1 0
0.86067 1 0
0.872145 1 0
0.885313 1 0
0.899962 1 0
0.915587 1 0
0.932342 1 0
0.949859 1 0
0.967544 1 0
0.984619 1 0
1 1 0
1 1 0
1 1 0
1 1 0
1 1 0
1 1 0
1 1 0
1 1 0
1 1 0
1 1 0.611872
1 1 0.78732
0.877989 1 0
0.878721 1 0
0.879454 1 0
0.880186 1 0
0.880903 1 0
0.881666 1 0
0.882612 1 0
0.883848 1 0
0.885481 1 0
