BBLuts/BB_101_0310_LUT.cube
TITLE "Generated by Resolve"
LUT_3D_SIZE 33
0.0111696 0.0111696 0.0111696
0.0111696 0.0111696 0.0111696
0.0111696 0.0111696 0.0111696
0.0111696 0.0111696 0.0111696
0.0112764 0.0112306 0.0111696
0.0140536 0.0116884 0.0112612
0.0198215 0.0119173 0.0117494
0.0259403 0.0133364 0.01178
0.0355077 0.0155184 0.0117952
0.0493172 0.0158236 0.011841
0.0723888 0.017258 0.0119326
0.102281 0.0189822 0.0120241
0.15227 0.0194247 0.0117952
0.240467 0.0163119 0.0115969
0.360235 0.0119631 0.0119631
0.506661 0.0124056 0.0124056
0.637964 0.0128176 0.0128176
0.760021 0.0131991 0.0131991
0.881697 0.0135958 0.0135958
0.969741 0.0138857 0.0138857
0.970535 0.0138857 0.0138857
0.970581 0.0138857 0.0138857
0.944198 0.0174563 0.0137484
0.912139 0.247959 0.0121767
0.893248 0.39086 0.011841
0.885191 0.50248 0.0117189
0.886213 0.59295 0.0956741
0.893965 0.670985 0.232288
0.902327 0.732998 0.359792
0.909758 0.781842 0.479393
0.915648 0.818204 0.588739
0.919341 0.846891 0.684474
0.9234 0.869978 0.752132
0.0111696 0.0111696 0.0111696
0.0111696 0.0111696 0.0111696
0.0111696 0.0111696 0.0111696
0.0111696 0.0111696 0.0111696
0.0112917 0.0112306 0.0111696
0.0150912 0.0116884 0.0112764
0.0202792 0.0119936 0.0117494
0.0265812 0.01355 0.01178
0.0366522 0.0155795 0.0118105
0.0509804 0.0158236 0.0118563
0.0746471 0.0176394 0.0119326
0.105043 0.0190585 0.0120241
0.153735 0.0194247 0.0117647
0.242679 0.0161593 0.0115969
0.362539 0.0119631 0.0119631
0.507973 0.0124056 0.0124056
0.638834 0.0128176 0.0128176
0.760021 0.0131991 0.0131991
0.881514 0.0135958 0.0135958
0.969711 0.0138857 0.0138857
0.970535 0.0138857 0.0138857
0.968856 0.0138857 0.0138857
0.939284 0.0422675 0.0134127
0.907668 0.264973 0.0121157
0.891249 0.398764 0.0118257
0.884428 0.507134 0.0118105
0.886198 0.5953 0.0986648
0.894072 0.672206 0.233967
0.902403 0.733639 0.360693
0.909804 0.782223 0.479988
0.915663 0.818341 0.588891
0.919341 0.846891 0.684474
0.9234 0.869978 0.752132
0.0111696 0.0111696 0.0111696
0.0111696 0.0111696 0.0111696
0.0111696 0.0111696 0.0111696
0.0111696 0.0111849 0.0111696
0.0113069 0.0112612 0.0111849
0.0156405 0.0116884 0.0112917
0.0203403 0.0120089 0.0117494
0.0270695 0.0137179 0.01178
0.0377813 0.0156405 0.0118105
0.0522927 0.0158389 0.0118563
0.0756085 0.017792 0.0119478
0.105638 0.0190738 0.0120241
0.155612 0.0194095 0.0117494
0.245228 0.0159915 0.0116121
0.364858 0.0119783 0.0119783
0.510018 0.0124056 0.0124056
0.639261 0.0128176 0.0128176
0.76051 0.0132143 0.0132143
0.881331 0.0135958 0.0135958
0.969696 0.0138857 0.0138857
0.970535 0.0138857 0.0138857
0.965743 0.0138705 0.0138705
0.934401 0.0864729 0.0129854
0.904784 0.278889 0.0120699
0.889464 0.406394 0.0118105
0.883894 0.510842 0.0120546
0.886198 0.597436 0.101366
0.894163 0.673442 0.23563
0.90248 0.734279 0.361578
0.90985 0.782605 0.480568
0.915679 0.818463 0.589044
0.919356 0.847013 0.684672
0.92343 0.8701 0.752224
0.0112001 0.0113069 0.0111849
0.0112001 0.0113222 0.0111849
0.0112154 0.011368 0.0112001
0.011429 0.0120851 0.0113069
0.0126192 0.0129854 0.0115206
0.0157778 0.0119478 0.011368
0.0200809 0.012192 0.0117952
0.0265507 0.0137026 0.01178
0.0373083 0.0157626 0.0118105
0.0527047 0.0158694 0.0118563
0.0765545 0.0179599 0.0119478
0.106813 0.0191043 0.0120241
0.1579 0.019379 0.0117189
0.247944 0.0158083 0.0116121
0.367163 0.0119783 0.0119783
0.511315 0.0124208 0.0124208
0.640284 0.0128176 0.0128176
0.760983 0.0132143 0.0132143
0.881132 0.0135958 0.0135958
0.969665 0.0138857 0.0138857
0.970535 0.0138857 0.0138857
0.959976 0.0138552 0.0138552
0.930434 0.124941 0.012726
0.902403 0.290501 0.0120394
0.888304 0.412497 0.0118105
0.883406 0.514092 0.0122377
0.886198 0.599573 0.104067
0.894255 0.67454 0.237171
0.902556 0.734905 0.362493
0.90988 0.782849 0.480873
0.915709 0.818708 0.58941
0.919371 0.84715 0.684794
0.92343 0.8701 0.752224
0.0139467 0.0166476 0.0124056
0.0141909 0.0168307 0.0124971
0.014435 0.0170138 0.0125887
0.0146792 0.0171969 0.012665
0.0147707 0.017258 0.0126955
0.0161593 0.0193484 0.0148318
0.0200198 0.0191196 0.014313
0.0257115 0.0188449 0.0123751
0.0353704 0.0195773 0.0121309
0.0527504 0.0166934 0.0118868
0.0770886 0.0182956 0.0119631
0.108125 0.0191806 0.0120241
0.160174 0.0193637 0.0116884
0.25066 0.0156252 0.0116274
0.370245 0.0119936 0.0119936
0.513359 0.0124208 0.0124208
0.641154 0.0128176 0.0128176
0.761456 0.0132143 0.0132143
0.880949 0.0135958 0.0135958
0.96965 0.0138857 0.0138857
0.97052 0.0138857 0.0138857
0.955062 0.0138399 0.0138399
0.926558 0.150286 0.0125734
0.900191 0.302098 0.0120089
0.887083 0.418891 0.0117952
0.882902 0.517571 0.0124208
0.886198 0.601465 0.106508
0.894331 0.675639 0.238666
0.902632 0.735531 0.363378
0.909926 0.78323 0.481453
0.915724 0.81883 0.589639
0.919387 0.847272 0.684993
0.923461 0.870222 0.752361
0.0152438 0.0213779 0.0141756
0.0152438 0.0218662 0.0143282
0.0152438 0.022385 0.0145113
0.0152438 0.0227817 0.0146487
0.0152438 0.0230106 0.014725
0.0162203 0.0236362 0.0155032
0.0203403 0.0236667 0.0160372
0.0256657 0.0244297 0.0149081
0.0363622 0.0265812 0.0143282
0.051667 0.0278325 0.0132143
0.0805676 0.0249943 0.0119783
0.110796 0.0204013 0.0119783
0.164263 0.0202335 0.0115969
0.253819 0.0155032 0.0116274
0.372946 0.0119936 0.0119936
0.515038 0.0124361 0.0124361
0.642161 0.0128328 0.0128328
0.761761 0.0132143 0.0132143
0.880583 0.0135958 0.0135958
0.969619 0.0138857 0.0138857
0.968124 0.0138857 0.0138857
0.950195 0.0138247 0.0138247
0.923171 0.172396 0.0124666
0.898268 0.312154 0.0119783
0.885939 0.424872 0.01178
0.882368 0.521035 0.0125734
0.886213 0.603708 0.109392
0.894408 0.676616 0.239979
0.902708 0.736171 0.364279
0.909957 0.78349 0.481819
0.91574 0.818967 0.589792
0.919402 0.847395 0.685115
0.923461 0.870222 0.752361
0.015259 0.0299229 0.0157321
0.015259 0.0305028 0.0157626
0.015259 0.0310369 0.0158083
0.015259 0.0313878 0.0158236
0.015259 0.0316167 0.0158389
0.015259 0.031693 0.0158389
0.0203861 0.0316777 0.0166476
0.0273442 0.0339818 0.0168307
0.0395209 0.0364691 0.0161135
0.0580148 0.0401923 0.0153506
0.088304 0.0410468 0.0130465
0.129702 0.0389105 0.0115206
0.185229 0.0310979 0.0113832
0.259327 0.0167849 0.0116426
0.376928 0.0120089 0.0120089
0.517739 0.0124361 0.0124361
0.64303 0.0128328 0.0128328
0.761929 0.0132143 0.0132143
0.879652 0.0135958 0.0135958
0.969573 0.0138857 0.0138857
0.965087 0.0138705 0.0138705
0.944732 0.0147555 0.0137942
0.919341 0.19411 0.0123751
0.895994 0.32401 0.0119478
0.884703 0.431342 0.01178
0.881773 0.525063 0.012726
0.886213 0.606317 0.112718
0.89453 0.678096 0.242039
0.902785 0.736812 0.365179
0.910002 0.783871 0.482399
0.915755 0.819211 0.590158
0.919402 0.847395 0.685115
0.923491 0.870344 0.752438
0.0148165 0.0463417 0.0164797
0.0147707 0.0471809 0.0165103
0.0147555 0.0478828 0.0165408
0.014725 0.0483864 0.016556
0.014725 0.048661 0.0165713
0.0147097 0.0489357 0.0165713
0.015259 0.0488746 0.0165255
0.0271611 0.0501717 0.0194553
0.0442054 0.0548562 0.0191043
0.0673686 0.0599527 0.0162356
0.101915 0.0634623 0.0153658
0.14667 0.0656443 0.0121614
0.206302 0.0627909 0.0113222
0.281926 0.0500343 0.0115206
0.384466 0.0158236 0.0119936
0.518151 0.0124361 0.0124361
0.642039 0.0128176 0.0128176
0.762264 0.0132143 0.0132143
0.879271 0.0135958 0.0135958
0.962951 0.0138705 0.0138705
0.957458 0.0138552 0.0138552
0.937591 0.0533303 0.0132906
0.914534 0.221866 0.012253
0.893019 0.339864 0.0119173
0.882628 0.440742 0.0117647
0.88098 0.530297 0.0128786
0.886244 0.60972 0.117098
0.894682 0.680064 0.244739
0.902937 0.738079 0.367025
0.910079 0.784497 0.48336
0.915785 0.819471 0.590524
0.919448 0.847639 0.68545
0.923491 0.870344 0.752438
0.011368 0.0802167 0.019852
0.0112612 0.0812238 0.0199741
0.0112459 0.0821393 0.0199893
0.0112459 0.0828107 0.0199893
0.0112459 0.0832227 0.0199741
0.0112459 0.083772 0.0199741
0.0112459 0.0840314 0.0199741
0.0148165 0.0838331 0.019852
0.0413214 0.0862745 0.0234073
0.0711376 0.0908827 0.0222019
0.11133 0.0970779 0.0154574
0.162387 0.100496 0.014847
0.221469 0.0996567 0.0120851
0.293385 0.0956283 0.0113985
0.387564 0.0802472 0.0116274
0.500755 0.035523 0.0121614
0.625666 0.0128328 0.0127718
0.756939 0.0131991 0.0131991
0.873579 0.0135805 0.0135805
0.949203 0.0138247 0.0138247
0.945968 0.0140993 0.0138094
0.929397 0.131731 0.0126802
0.908995 0.255573 0.0121462
0.889418 0.360327 0.0118715
0.880323 0.453223 0.0117494
0.880217 0.537804 0.0138705
0.88629 0.614298 0.123095
0.894896 0.682872 0.248631
0.903136 0.739727 0.36936
0.910185 0.785382 0.484611
0.915846 0.819959 0.591272
0.919478 0.847883 0.685771
0.923522 0.870466 0.752529
0.0113222 0.131044 0.0198825
0.0113375 0.131716 0.0198825
0.0113375 0.131991 0.0198825
0.0113375 0.132403 0.0198825
0.0113375 0.132799 0.0198825
0.0113375 0.132799 0.0198825
0.0113375 0.132799 0.0198825
0.0113375 0.132525 0.0198825
0.0116884 0.133806 0.0196078
0.0688487 0.13225 0.0293584
0.112398 0.139315 0.024094
0.168719 0.141436 0.0189517
0.229297 0.14255 0.0154879
0.29752 0.139803 0.0113375
0.378561 0.134646 0.0114595
0.479637 0.12079 0.0116732
0.595041 0.0932631 0.0120394
0.715084 0.0476997 0.0126802
0.833082 0.0184939 0.0133669
0.923293 0.020325 0.0136416
0.932845 0.0849012 0.0130007
0.919005 0.196048 0.0123598
0.901946 0.292912 0.0120394
0.885664 0.384909 0.011841
0.879225 0.469871 0.0117342
0.879911 0.547539 0.016434
0.886381 0.620859 0.131731
0.895186 0.686549 0.253651
0.903395 0.741878 0.372396
0.910338 0.786664 0.486503
0.915923 0.8206 0.592157
0.919509 0.848127 0.686091
0.923598 0.87071 0.752804
0.0114443 0.188952 0.0197299
0.0114443 0.189532 0.019791
0.0114443 0.189776 0.0198215
0.0114443 0.190127 0.019852
0.0114443 0.190234 0.0198672
0.0114443 0.190356 0.0198825
0.0114443 0.190478 0.0198978
0.0114443 0.190585 0.019913
0.0114443 0.190356 0.0198825
0.0120699 0.18732 0.0199893
0.10927 0.180819 0.0419013
0.159075 0.18706 0.026566
0.22475 0.187778 0.0192111
0.296117 0.185672 0.0162661
0.376165 0.183917 0.0114137
0.467475 0.180835 0.0115206
0.572503 0.172015 0.0117189
0.685924 0.157565 0.0119783
0.799451 0.140673 0.012314
0.896269 0.13962 0.0125582
0.917952 0.188846 0.0123903
0.907927 0.261662 0.0121309
0.893538 0.336889 0.0119326
0.882231 0.414145 0.0117952
0.878096 0.488731 0.0117189
0.879698 0.56054 0.019501
0.886778 0.629297 0.142855
0.895628 0.69163 0.260716
0.903761 0.744915 0.376699
0.910536 0.788312 0.488914
0.91603 0.821591 0.593637
0.9196 0.848737 0.68687
0.923659 0.870954 0.752972
0.0115511 0.242359 0.0236362
0.0115511 0.242557 0.0236362
0.0115511 0.242878 0.0236515
0.0115511 0.24329 0.0236667
0.0115511 0.243488 0.0236667
0.0115511 0.243595 0.0236667
0.0115511 0.243809 0.0236667
0.0115511 0.243809 0.0236667
0.0115511 0.243809 0.0236667
0.0115511 0.243076 0.0236362
0.0319371 0.238666 0.0307774
0.151843 0.2309 0.0553292
0.210925 0.238773 0.0292363
0.289525 0.236881 0.0221256
0.374853 0.235782 0.0159609
0.464225 0.23592 0.0115358
0.558343 0.236515 0.0115663
0.660075 0.237278 0.0117342
0.767132 0.23592 0.0119173
0.864454 0.242771 0.0120851
0.902052 0.273991 0.0120851
0.895796 0.325063 0.0119478
0.885527 0.386084 0.011841
0.879377 0.44918 0.0117494
0.877073 0.512215 0.0117037
0.880781 0.576623 0.0360571
0.887526 0.64036 0.157458
0.896361 0.698604 0.270512
0.904311 0.749126 0.383185
0.910811 0.7906 0.492317
0.916197 0.82298 0.595636
0.919707 0.84947 0.68777
0.923751 0.871321 0.753277
0.0116884 0.304479 0.0261997
0.0116884 0.304585 0.0261997
0.0116884 0.304799 0.026215
0.0116884 0.305028 0.0262303
0.0116884 0.305241 0.0262455
0.0116884 0.305684 0.0262608
0.0116884 0.305791 0.026276
0.0116884 0.30602 0.026276
0.0116884 0.306127 0.0262913
0.0116884 0.306233 0.0262913
0.0116884 0.304631 0.0260166
0.0872663 0.295232 0.0499886
0.202457 0.290867 0.0725567
0.273701 0.299199 0.0316472
0.367315 0.298131 0.0253147
0.461585 0.298299 0.0168612
0.551324 0.302129 0.01149
0.642329 0.310033 0.0115969
0.737026 0.318578 0.0117189
0.832227 0.330953 0.011841
0.88629 0.353414 0.0118868
0.884871 0.391562 0.0118257
0.87985 0.437095 0.0117647
0.878157 0.488045 0.0117189
0.878019 0.54049 0.0130312
0.882551 0.596979 0.0586557
0.888441 0.65388 0.175296
0.897276 0.7075 0.283024
0.905043 0.754681 0.391928
0.911177 0.793652 0.496818
0.916396 0.824735 0.598199
0.91986 0.850462 0.689006
0.923903 0.871931 0.753796
0.011841 0.378912 0.0281376
0.011841 0.378912 0.0281376
0.011841 0.379156 0.0281376
0.011841 0.3794 0.0281376
0.011841 0.379522 0.0281376
0.011841 0.379767 0.0281376
0.011841 0.379889 0.0281376
0.011841 0.380133 0.0281376
0.011841 0.380621 0.0281376
0.011841 0.380621 0.0281376
0.011841 0.380499 0.0281376
0.011841 0.377234 0.0286564
0.164233 0.360769 0.0834669
0.264012 0.362554 0.0886244
0.350423 0.371466 0.0361181
0.453407 0.372366 0.0310979
0.547127 0.375036 0.021561
0.634821 0.385183 0.0119631
0.721477 0.396277 0.0116121
0.807675 0.412039 0.0117037
0.873762 0.428626 0.0117647
0.879164 0.456718 0.0117494
0.877928 0.490745 0.0117189
0.877485 0.529335 0.0116884
0.879957 0.572869 0.0252537
0.884657 0.620935 0.0941482
0.891386 0.671153 0.196445
0.898451 0.718669 0.298787
0.906081 0.761913 0.403143
0.911849 0.797833 0.502495
0.916671 0.827131 0.601633
0.920058 0.851804 0.690684
0.924132 0.872786 0.754543
0.0120089 0.457938 0.0366827
0.0120089 0.457938 0.0366827
0.0120089 0.458061 0.0367132
0.0120089 0.458183 0.0367285
0.0120089 0.458289 0.036759
0.0120089 0.458289 0.036759
0.0120089 0.458412 0.0367895
0.0120089 0.458534 0.0368048
0.0120089 0.45864 0.0368353
0.0120089 0.458534 0.0368048
0.0120089 0.458762 0.0368658
0.0120089 0.458289 0.036759
0.0125429 0.453101 0.0476081
0.25301 0.434546 0.123384
0.346349 0.444205 0.105623
0.440711 0.454566 0.05449
0.540352 0.455772 0.0576028
0.63035 0.461952 0.0500649
0.715557 0.469642 0.0218967
0.790311 0.483589 0.0117647
0.856092 0.498558 0.0116884
0.875944 0.5187 0.0117342
0.878218 0.543938 0.01355
0.880049 0.574304 0.0263066
0.883848 0.609888 0.0690166
0.889158 0.648524 0.132753
0.894804 0.691234 0.221057
0.900481 0.732555 0.318135
0.9075 0.770672 0.416434
0.912764 0.803174 0.510597
0.917174 0.83061 0.605982
0.920348 0.853773 0.693202
0.924422 0.873899 0.75552
0.0121614 0.538994 0.0662089
0.0121614 0.538994 0.0662089
0.0121614 0.538994 0.0662089
0.0121614 0.538994 0.0662089
0.0121614 0.539101 0.0662852
0.0121614 0.539101 0.0662852
0.0121614 0.539101 0.0662852
0.0121614 0.539101 0.0662852
0.0121614 0.539101 0.0662852
0.0121614 0.538994 0.0662089
0.0121614 0.538766 0.0660716
0.0121614 0.538537 0.065919
0.0121462 0.536782 0.0651255
0.168948 0.525292 0.107378
0.360403 0.515236 0.16849
0.44155 0.525505 0.132296
0.533242 0.534234 0.09514
0.624308 0.535439 0.102205
0.710094 0.541985 0.102754
0.782696 0.549508 0.0832532
0.841413 0.563455 0.0506752
0.87718 0.580026 0.034226
0.882399 0.599039 0.0525521
0.885603 0.622568 0.0882734
0.889693 0.649775 0.129229
0.894545 0.68011 0.170871
0.898543 0.714122 0.248463
0.903105 0.748745 0.34107
0.909239 0.781231 0.432853
0.913878 0.809705 0.52166
0.917861 0.834913 0.611582
0.920745 0.856352 0.696437
0.924804 0.875364 0.756741
0.020676 0.616922 0.116533
0.020676 0.616922 0.116533
0.020676 0.616922 0.116533
0.020676 0.616922 0.116533
0.020676 0.616922 0.116533
0.0206302 0.6168 0.116442
0.0206302 0.6168 0.116442
0.0206302 0.6168 0.116442
0.0205234 0.616571 0.116274
0.0204318 0.616327 0.116091
0.0202335 0.615869 0.11574
0.0199435 0.615167 0.115206
0.0196078 0.614343 0.11458
0.121462 0.609308 0.121935
0.364508 0.589807 0.199619
0.46215 0.591043 0.219181
0.535897 0.603937 0.171176
0.619638 0.608347 0.148608
0.703639 0.611139 0.156558
0.775708 0.618051 0.160235
0.833051 0.627512 0.149767
0.877028 0.640833 0.128099
0.889906 0.65481 0.136736
0.893217 0.671168 0.158038
0.896452 0.690501 0.18291
0.900145 0.712306 0.209003
0.90277 0.739406 0.278965
0.906249 0.766659 0.366201
0.911345 0.793515 0.452537
0.915251 0.817945 0.535836
0.91873 0.840375 0.61944
0.921248 0.859678 0.700816
0.925353 0.877455 0.758495
0.172229 0.689357 0.165072
0.172229 0.689357 0.165072
0.172229 0.689357 0.165072
0.172229 0.689357 0.165072
0.172229 0.689357 0.165072
0.172229 0.689357 0.165072
0.172 0.689235 0.164981
0.171557 0.688975 0.164797
0.171115 0.688716 0.164614
0.170214 0.688197 0.164248
0.169085 0.687556 0.16379
0.167285 0.686534 0.163058
0.164584 0.684993 0.161959
0.177874 0.681147 0.161379
0.340902 0.668879 0.203479
0.483848 0.656138 0.271611
0.557565 0.663401 0.266926
0.623789 0.67451 0.216007
0.70164 0.67805 0.201831
0.77203 0.682109 0.209339
0.826993 0.686946 0.214176
0.869978 0.695155 0.20798
0.896559 0.705547 0.202518
0.900816 0.716106 0.213443
0.903029 0.729229 0.228305
0.905516 0.744747 0.246509
0.907164 0.76524 0.311635
0.909758 0.785595 0.393744
0.914046 0.807294 0.472969
0.916823 0.827558 0.553048
0.919768 0.846998 0.630915
0.922087 0.863706 0.705623
0.926024 0.880018 0.760693
0.261326 0.753567 0.210498
0.261326 0.753567 0.210498
0.261326 0.753567 0.210498
0.261326 0.753567 0.210498
0.261326 0.753567 0.210498
0.261326 0.753567 0.210498
0.261326 0.753567 0.210498
0.260945 0.753292 0.2103
0.260365 0.75288 0.209979
0.259419 0.752194 0.209461
0.258076 0.751217 0.208743
0.256367 0.749981 0.207797
0.253697 0.748043 0.206348
0.251743 0.744717 0.203952
0.341314 0.737148 0.220325
0.505638 0.722011 0.303502
0.586007 0.720729 0.330831
0.645335 0.727382 0.307195
0.70753 0.734112 0.260563
0.770138 0.737133 0.249866
0.823224 0.740841 0.25658
0.865171 0.744793 0.260731
0.898421 0.75053 0.255482
0.907225 0.757244 0.259281
0.909194 0.765728 0.267704
0.910445 0.776104 0.283467
0.911543 0.790814 0.34725
0.913085 0.804959 0.421729
0.916747 0.821973 0.496681
0.918746 0.838346 0.571817
0.920943 0.854734 0.645274
0.923461 0.868589 0.712871
0.926894 0.883192 0.763424
0.330373 0.804623 0.249744
0.330373 0.804623 0.249744
0.330373 0.804623 0.249744
0.330373 0.804623 0.249744
0.330373 0.804623 0.249744
0.330373 0.804623 0.249744
0.330373 0.804623 0.249744
0.330373 0.804623 0.249744
0.329976 0.804318 0.2495
0.328954 0.803555 0.24892
0.327123 0.802182 0.247852
0.32488 0.800504 0.246555
0.322026 0.798383 0.244923
0.317006 0.794354 0.241932
0.38677 0.786252 0.252277
0.529839 0.775143 0.320653
0.618051 0.769909 0.370977
0.674418 0.770993 0.376226
0.723705 0.777279 0.34081
0.774914 0.78146 0.300694
0.82208 0.784543 0.291585
0.861708 0.78674 0.295079
0.893874 0.789395 0.295232
0.912215 0.793408 0.294377
0.914702 0.798138 0.297642
0.9149 0.804257 0.317693
0.915434 0.814527 0.382406
0.916274 0.82446 0.453269
0.919387 0.837339 0.522774
0.920836 0.849928 0.593042
0.922316 0.86302 0.661555
0.925063 0.87425 0.722026
0.927993 0.887251 0.768841
0.381842 0.843214 0.276173
0.381842 0.843214 0.276173
0.381842 0.843214 0.276173
0.381842 0.843214 0.276173
0.381842 0.843214 0.276173
0.381842 0.843214 0.276173
0.381842 0.843214 0.276173
0.381842 0.843214 0.276173
0.381842 0.843214 0.276173
0.381643 0.843061 0.276066
0.379812 0.841703 0.275135
0.377188 0.839719 0.273793
0.374166 0.837446 0.272236
0.36994 0.834257 0.270069
0.450324 0.82414 0.28304
0.565332 0.814771 0.337591
0.650019 0.808148 0.395865
0.703685 0.806683 0.41532
0.744869 0.809644 0.403037
0.784497 0.814542 0.361196
0.824323 0.818128 0.329656
0.859953 0.819715 0.321843
0.890501 0.820615 0.321172
0.915206 0.823224 0.316274
0.919387 0.825742 0.315831
0.918547 0.830457 0.352255
0.919417 0.836362 0.421439
0.920226 0.844846 0.487129
0.922133 0.852827 0.552483
0.923049 0.862104 0.616663
0.924681 0.871733 0.678492
0.926894 0.880858 0.733028
0.929274 0.891768 0.775738
0.426657 0.870039 0.286397
0.426657 0.870039 0.286397
0.426657 0.870039 0.286397
0.426657 0.870039 0.286397
0.426657 0.870039 0.286397
0.426657 0.870039 0.286397
0.426657 0.870039 0.286397
0.426657 0.870039 0.286397
0.426657 0.870039 0.286397
0.426657 0.870039 0.286397
0.426657 0.870039 0.286397
0.423606 0.868238 0.285725
0.419654 0.865888 0.28484
0.425727 0.860212 0.286
0.52221 0.852018 0.307378
0.613901 0.844495 0.358877
0.684504 0.838987 0.414801
0.731487 0.836271 0.440742
0.766018 0.836912 0.443397
0.79852 0.841093 0.417334
0.830243 0.844266 0.374899
0.860929 0.846479 0.348379
0.888945 0.847517 0.337179
0.912444 0.848493 0.325109
0.922087 0.849348 0.337865
0.923049 0.853101 0.403281
0.923171 0.856504 0.466697
0.923583 0.862531 0.525185
0.925093 0.866972 0.58529
0.925933 0.874418 0.641703
0.927169 0.880751 0.69691
0.928817 0.88809 0.745418
0.930877 0.89688 0.783963
0.467658 0.889632 0.349264
0.467658 0.889632 0.349264
0.467658 0.889632 0.349264
0.467658 0.889632 0.349264
0.467658 0.889632 0.349264
0.467658 0.889632 0.349264
0.467658 0.889632 0.349264
0.467658 0.889632 0.349264
0.467658 0.889632 0.349264
0.467658 0.889632 0.349264
0.467658 0.889632 0.349264
0.467658 0.889632 0.349264
0.462455 0.887541 0.336889
0.519249 0.880796 0.325628
0.593164 0.872847 0.341878
0.666468 0.867124 0.385107
0.721019 0.861997 0.430945
0.757595 0.85919 0.452308
0.78645 0.859266 0.453971
0.814115 0.862043 0.429969
0.839139 0.8645 0.39263
0.865446 0.866468 0.402518
0.889876 0.867979 0.383566
0.910369 0.868223 0.353628
0.925155 0.86949 0.37438
0.926436 0.871061 0.44387
0.926345 0.874189 0.509514
0.927352 0.876616 0.567025
0.928237 0.880873 0.620905
0.92871 0.885908 0.668681
0.929656 0.88954 0.716579
0.930968 0.896284 0.758679
0.93312 0.90222 0.792935
0.544808 0.899977 0.412085
0.544808 0.899977 0.412085
0.544808 0.899977 0.412085
0.544808 0.899977 0.412085
0.544808 0.899977 0.412085
0.544808 0.899977 0.412085
0.544808 0.899977 0.412085
0.544808 0.899977 0.412085
0.544808 0.899977 0.412085
0.544808 0.899977 0.412085
0.544808 0.899977 0.412085
0.544808 0.899977 0.412085
0.544762 0.899977 0.412085
0.597681 0.893919 0.408682
0.661555 0.889158 0.42533
0.713405 0.884565 0.453758
0.75172 0.880018 0.472663
0.78085 0.878294 0.479713
0.805356 0.877638 0.47219
0.828702 0.879179 0.439689
0.848463 0.880308 0.408896
0.870268 0.881285 0.384039
0.890929 0.882979 0.389364
0.909346 0.884382 0.376486
0.924956 0.885817 0.440742
0.929 0.88748 0.506905
0.929381 0.888289 0.564706
0.931044 0.889876 0.614466
0.930999 0.893751 0.657145
0.931456 0.89575 0.698177
0.932692 0.898116 0.737072
0.933761 0.904326 0.773251
0.935409 0.907683 0.802716
0.662837 0.906844 0.478172
0.662837 0.906844 0.478172
0.662837 0.906844 0.478172
0.662837 0.906844 0.478172
0.662837 0.906844 0.478172
0.662837 0.906844 0.478172
0.662837 0.906844 0.478172
0.662837 0.906844 0.478172
0.662837 0.906844 0.478172
0.662837 0.906844 0.478172
0.662837 0.906844 0.478172
0.662837 0.906844 0.478172
0.662837 0.906844 0.478172
0.662837 0.906844 0.478172
0.701503 0.903151 0.49192
0.74464 0.89929 0.515343
0.776913 0.895994 0.538643
0.802731 0.894713 0.556466
0.825391 0.89308 0.566155
0.845151 0.892699 0.567864
0.86273 0.893431 0.55877
0.879835 0.895415 0.541512
0.896803 0.897749 0.527214
0.91162 0.898756 0.525277
0.925399 0.899474 0.545846
0.932647 0.89987 0.585702
0.934493 0.900587 0.627176
0.934218 0.902998 0.665232
0.93402 0.903578 0.696376
0.935012 0.904387 0.72668
0.935836 0.906828 0.759793
0.936446 0.910933 0.788052
0.937835 0.913024 0.813016
0.741833 0.907668 0.479744
0.741833 0.907668 0.479744
0.741833 0.907668 0.479744
0.741833 0.907668 0.479744
0.741833 0.907668 0.479744
0.741833 0.907668 0.479744
0.741833 0.907668 0.479744
0.741833 0.907668 0.479744
0.741833 0.907668 0.479744
0.741833 0.907668 0.479744
0.741833 0.907668 0.479744
0.741833 0.907668 0.479744
0.741772 0.907668 0.479652
0.741772 0.907668 0.479652
0.741772 0.907668 0.479652
0.768658 0.908324 0.527947
0.799542 0.908705 0.575021
0.823423 0.906905 0.616068
0.843229 0.905486 0.640436
0.860365 0.905348 0.656535
0.875059 0.905837 0.662058
0.889326 0.906706 0.657145
0.90277 0.907347 0.647425
0.915251 0.907973 0.639902
0.927413 0.908934 0.642695
0.936248 0.911238 0.658183
0.937194 0.912062 0.683253
0.936706 0.911681 0.706249
0.937057 0.911406 0.724315
0.938415 0.911986 0.755276
0.938537 0.915297 0.78172
0.938872 0.916762 0.803204
0.940124 0.918105 0.823331
0.789761 0.912062 0.595254
0.789761 0.912062 0.595254
0.789761 0.912062 0.595254
0.789761 0.912062 0.595254
0.789761 0.912062 0.595254
0.789761 0.912062 0.595254
0.789761 0.912062 0.595254
0.789761 0.912062 0.595254
0.789761 0.912062 0.595254
0.789761 0.912062 0.595254
