BBLuts/BB_103_0810_LUT.cube
TITLE "Generated by Resolve"
LUT_3D_SIZE 9
0 0 0
0 0 0
0.209659 0 0
0.444221 0 0.00112917
0.772091 0.00634775 0.0104829
1 0.0140688 0.0176699
0.950393 0.521248 0.104417
0.912505 0.867094 0.350362
0.898878 1 0.642771
0 0.0521553 0
0 0.0639811 0
0.216648 0.0415351 0
0.45417 0 0.00140383
0.774746 0.00643931 0.0105745
1 0.0140688 0.0176699
0.946715 0.554345 0.0875715
0.91194 0.872221 0.347951
0.898802 1 0.642466
0 0.232563 0
0 0.236301 0
0.162844 0.234684 0
0.4421 0.213947 0
0.767391 0.110079 0
0.982635 0.238361 0
0.941588 0.600656 0.0558175
0.911055 0.880125 0.344152
0.898695 1 0.641962
0 0.491081 0
0 0.49218 0
0 0.492775 0
0.36788 0.489769 0
0.733577 0.481971 0
0.94966 0.531945 0
0.930541 0.705074 0
0.908721 0.900923 0.333196
0.89836 1 0.640452
0 0.818051 0
0 0.81796 0
0 0.817548 0
0 0.814801 0
0.64065 0.803647 0
0.886503 0.81001 0
0.913344 0.861799 0
0.904021 0.943374 0.331975
0.89749 1 0.636011
0 1 0
0 1 0
0 1 0
0 1 0
0.597574 0.98674 0
0.821714 0.978286 0
0.900328 0.980728 0
0.897978 0.998993 0.36318
0.895598 1 0.630137
0.473335 1 0.125521
0.49247 1 0.126482
0.519463 1 0.128069
0.583429 1 0.132952
0.691096 1 0.147768
0.806622 1 0.188159
0.885863 1 0.285023
0.893217 1 0.463584
0.893324 1 0.65568
0.77023 1 0.531716
0.771786 1 0.531884
0.774273 1 0.532128
0.781399 1 0.532906
0.799619 1 0.535241
0.834485 1 0.54226
0.87686 1 0.562325
0.891615 1 0.615763
0.892103 1 0.710719
0.857542 1 0.741283
0.857725 1 0.741314
0.858045 1 0.741344
0.858991 1 0.741451
0.861662 1 0.741741
0.868406 1 0.742641
0.881315 1 0.745312
0.892348 1 0.752575
0.892454 1 0.771603
0 0 0.052781
0 0 0.0530861
0.209995 0 0.0570687
0.444785 0 0.0637064
0.771878 0.00616464 0.0763561
1 0.0138247 0.118837
0.951141 0.515114 0.174044
0.912734 0.866056 0.381048
0.898939 1 0.649256
0 0.0240635 0.0410163
0.04477 0.0382239 0.0386816
0.22829 0 0.0479133
0.449821 0 0.0505684
0.773053 0.00624094 0.0416114
1 0.0138247 0.0892195
0.947326 0.549126 0.158816
0.912154 0.871244 0.378866
0.898863 1 0.648966
0 0.222965 0
0 0.226154 0
0.182666 0.225162 0
0.441337 0.203693 0
0.768261 0.0750744 0.00250248
0.984588 0.221302 0
0.942031 0.596506 0.13257
0.911254 0.879194 0.375372
0.898741 1 0.648478
0 0.486915 0
0 0.487953 0
0 0.488365 0
0.378058 0.485084 0
0.733486 0.47805 0
0.949996 0.528878 0
0.930449 0.70251 0.0016022
0.908904 0.900191 0.365377
0.898405 1 0.647013
0 0.816693 0
0 0.816571 0
0 0.816144 0
0 0.813336 0
0.643687 0.802304 0
0.886732 0.809064 0
0.913405 0.86128 0
0.904067 0.943145 0.339254
0.897536 1 0.642771
0 1 0
0 1 0
0 1 0
0 1 0
0.599588 0.986511 0
0.82208 0.978119 0
0.900343 0.980606 0
0.897978 0.998917 0.363012
0.895598 1 0.630732
0.47631 1 0.125338
0.495094 1 0.126299
0.521767 1 0.127886
0.585 1 0.132784
0.691829 1 0.147631
0.806821 1 0.188052
0.885908 1 0.285023
0.893217 1 0.463508
0.893324 1 0.655634
0.770459 1 0.531685
0.772015 1 0.531853
0.774487 1 0.532097
0.781598 1 0.532876
0.799786 1 0.53521
0.834562 1 0.542245
0.876875 1 0.56231
0.891615 1 0.615747
0.892103 1 0.710704
0.857572 1 0.741283
0.857755 1 0.741314
0.858076 1 0.741344
0.859022 1 0.741436
0.861692 1 0.741741
0.868421 1 0.742641
0.881331 1 0.745312
0.892348 1 0.752575
0.892454 1 0.771603
0.000457771 0 0.199817
0.000457771 0 0.200046
0.187793 0 0.201953
0.456001 0 0.20412
0.772183 0.00657664 0.217868
1 0.0142061 0.252781
0.952758 0.502983 0.272053
0.913085 0.864332 0.42388
0.899016 1 0.659052
0.000411994 0 0.195712
0.000411994 0 0.196094
0.21593 0 0.198199
0.454582 0 0.200076
0.77467 0.00663767 0.213596
1 0.0141756 0.245853
0.94873 0.538598 0.262058
0.91249 0.869612 0.421942
0.898939 1 0.658778
0 0.194537 0.168963
0 0.197024 0.168444
0.173632 0.190021 0.164736
0.430289 0.17438 0.172045
0.773144 0.00653086 0.201465
0.99144 0.162097 0.213748
0.943191 0.587777 0.246403
0.911574 0.877699 0.418845
0.898817 1 0.65832
0 0.474083 0.0591287
0 0.475288 0.0601663
0 0.475853 0.0616617
0.378912 0.472114 0.064332
0.729046 0.465858 0.0746929
0.950835 0.517342 0.10573
0.931014 0.696559 0.200305
0.909194 0.898985 0.410086
0.898482 1 0.656947
0 0.813886 0
0 0.813764 0
0 0.813336 0
0 0.810498 0
0.646525 0.799542 0
0.886824 0.806821 0
0.913085 0.859129 0.0342718
0.904295 0.942504 0.387655
0.897612 1 0.652949
0 1 0
0 1 0
0 1 0
0 1 0
0.602823 0.986145 0
0.822629 0.977859 0
0.900359 0.980423 0
0.897993 0.998825 0.362737
0.895674 1 0.641749
0.481102 1 0.125048
0.499306 1 0.126024
0.525429 1 0.127611
0.587533 1 0.132525
0.693004 1 0.147387
0.807157 1 0.187869
0.885985 1 0.284993
0.893217 1 0.463401
0.893324 1 0.655589
0.77084 1 0.531655
0.772396 1 0.531823
0.774853 1 0.532067
0.781918 1 0.532845
0.800031 1 0.53518
0.834699 1 0.542199
0.876921 1 0.56228
0.891615 1 0.615747
0.892103 1 0.710689
0.857618 1 0.741283
0.857816 1 0.741299
0.858122 1 0.741344
0.859052 1 0.741436
0.861723 1 0.741726
0.868437 1 0.742626
0.881346 1 0.745296
0.892348 1 0.752575
0.892454 1 0.771603
0.00350958 0 0.416846
0.00350958 0 0.416983
0.00352483 0 0.417044
0.436393 0 0.421454
0.793622 0.0087892 0.431769
1 0.0155489 0.453742
0.958267 0.461326 0.451606
0.914122 0.858885 0.520714
0.899229 1 0.683894
0.00347906 0 0.414969
0.00349432 0 0.415137
0.0953689 0 0.415564
0.450492 0 0.419715
0.79147 0.0087129 0.429633
1 0.0155184 0.451377
0.953506 0.503014 0.444327
0.913497 0.864424 0.519158
0.899153 1 0.68365
0 0.075639 0.405646
0 0.082002 0.40531
0.122637 0.0764782 0.405844
0.45623 0 0.41648
0.784894 0.00848402 0.426078
1 0.0154879 0.446937
0.947158 0.558968 0.433738
0.912551 0.872908 0.516701
0.899046 1 0.683253
0 0.43183 0.355825
0 0.433478 0.355962
0 0.434623 0.356451
0.373678 0.430808 0.357733
0.716701 0.425605 0.365057
0.955795 0.479683 0.377646
0.933654 0.678553 0.40708
0.910033 0.895171 0.50988
0.898695 1 0.682078
0 0.801251 0.247425
0 0.801221 0.248051
0 0.8009 0.249058
0 0.798306 0.252079
0.643168 0.787274 0.259648
0.885008 0.796353 0.287678
0.914061 0.853086 0.352255
0.904936 0.940459 0.493278
0.89781 1 0.678706
0 1 0
0 1 0
0 1 0
0 0.998474 0
0.602823 0.984863 0
0.821439 0.975769 0.100053
0.899992 0.978515 0.266255
0.89839 0.99823 0.457496
0.895857 1 0.669551
0.494804 1 0.124163
0.511574 1 0.125139
0.536233 1 0.126757
0.595041 1 0.131716
0.696513 1 0.14667
0.808164 1 0.18732
0.886213 1 0.284916
0.893217 1 0.463035
0.893324 1 0.655421
0.772 1 0.531548
0.773526 1 0.531701
0.775952 1 0.53196
0.782925 1 0.532723
0.800809 1 0.535058
0.835096 1 0.542092
0.877043 1 0.562173
0.891615 1 0.615732
0.892103 1 0.710628
0.857755 1 0.741283
0.857954 1 0.741299
0.858259 1 0.741314
0.859205 1 0.741421
0.861845 1 0.741726
0.868544 1 0.742611
0.881407 1 0.745281
0.892348 1 0.752575
0.892454 1 0.771603
0.00868238 0 0.706538
0.00868238 0 0.706615
0.00868238 0 0.706752
0.292439 0 0.708019
0.782605 0.0116884 0.71342
1 0.0183719 0.722179
0.987381 0.226627 0.712947
0.917189 0.839597 0.679683
0.899763 0.998871 0.732982
0.00866712 0 0.705898
0.00866712 0 0.705974
0.00868238 0 0.706111
0.319753 0.000457771 0.707576
0.788464 0.011841 0.712886
1 0.0183719 0.721492
0.974334 0.337194 0.699596
0.916426 0.846326 0.67834
0.899687 1 0.732799
0.00865187 0 0.704845
0.00865187 0 0.704936
0.00865187 0 0.705074
0.35552 0.00111391 0.706798
0.792035 0.0119326 0.711803
1 0.0183566 0.720333
0.962417 0.43949 0.686397
0.915297 0.856413 0.676341
0.899565 1 0.732494
0 0.26215 0.676997
0 0.265126 0.676768
0 0.268956 0.676432
0.33344 0.259541 0.676707
0.773114 0.15729 0.690852
0.98143 0.274937 0.68484
0.942672 0.611414 0.661479
0.912383 0.88217 0.67097
0.899214 1 0.731579
0 0.758602 0.603418
0 0.758953 0.60351
0 0.759045 0.603662
0 0.75729 0.604166
0.63241 0.746426 0.605188
0.881422 0.762188 0.610407
0.917632 0.832349 0.621378
0.906584 0.933547 0.659007
0.898283 1 0.729061
0 1 0.539086
0 1 0.53933
0 0.998901 0.539727
0 0.994797 0.540917
0.574395 0.98024 0.542123
0.813382 0.971481 0.554269
0.901518 0.975158 0.581979
0.899504 0.996078 0.638804
0.896269 1 0.722652
0.484504 1 0.447272
0.502007 1 0.447654
0.52726 1 0.44828
0.587457 1 0.450202
0.690608 1 0.45597
0.803418 1 0.472267
0.881865 1 0.514275
0.893889 1 0.601419
0.89366 1 0.708156
0.775433 1 0.531182
0.776898 1 0.531334
0.779217 1 0.531579
0.785916 1 0.532357
0.803098 1 0.534707
0.836301 1 0.541741
0.87744 1 0.561868
0.891615 1 0.615656
0.892103 1 0.71046
0.858213 1 0.741222
0.858396 1 0.741238
0.858701 1 0.741283
0.859602 1 0.741375
0.862226 1 0.74168
0.868833 1 0.74258
0.881544 1 0.745251
0.892348 1 0.752529
0.892454 1 0.771603
0.0123903 0.00138857 0.896468
0.0123903 0.00138857 0.896483
0.0123903 0.00138857 0.896513
0.0123903 0.00138857 0.896559
0.669779 0.011368 0.898955
1 0.0207218 0.901396
1 0.020737 0.902342
0.928588 0.746593 0.814542
0.900969 0.991791 0.794507
0.0123903 0.00138857 0.896391
0.0123903 0.00138857 0.896406
0.0123903 0.00138857 0.896422
0.0123903 0.00138857 0.896468
0.678035 0.0115816 0.898939
1 0.0207218 0.90132
1 0.020737 0.902251
0.927092 0.759838 0.812543
0.900877 0.992599 0.794354
0.0123903 0.00137331 0.896269
0.0123903 0.00137331 0.896284
0.0123903 0.00137331 0.8963
0.0123903 0.00137331 0.89633
0.691081 0.0119173 0.898863
1 0.0207218 0.901167
1 0.020737 0.902129
0.924865 0.779324 0.809537
0.90074 0.993896 0.794095
0.0123751 0.00137331 0.895857
0.0123751 0.00137331 0.895872
0.0123751 0.00137331 0.895888
0.0123751 0.00135805 0.895552
0.7196 0.0126497 0.898619
1 0.0207218 0.90074
1 0.0207065 0.90013
0.919539 0.826246 0.802136
0.900313 0.99762 0.793332
0 0.552514 0.834897
0 0.553857 0.83473
0 0.556023 0.834455
0 0.559411 0.83357
0.635309 0.547738 0.832135
0.945251 0.571099 0.829526
0.931044 0.724514 0.809384
0.910552 0.905684 0.788922
0.899229 1 0.791348
0 0.98732 0.7673
0 0.986801 0.767315
0 0.985824 0.767346
0 0.981949 0.767437
0.496757 0.966171 0.765087
0.802976 0.956161 0.767468
0.900175 0.962875 0.76936
0.901198 0.988418 0.773358
0.897002 1 0.786938
0.339208 1 0.740551
0.373983 1 0.740581
0.419867 1 0.740642
0.51487 1 0.740963
0.652995 1 0.741985
0.786114 1 0.744305
0.87187 1 0.749157
0.894972 1 0.759274
0.894209 1 0.779553
0.766125 1 0.706416
0.76762 1 0.706462
0.770001 1 0.706554
0.776867 1 0.706828
0.794476 1 0.707668
0.828458 1 0.710155
0.870604 1 0.71722
0.892241 1 0.735027
0.892424 1 0.766781
0.85951 1 0.741085
0.859693 1 0.741115
0.859983 1 0.741146
0.860853 1 0.741238
0.863355 1 0.741543
0.869688 1 0.742443
0.882002 1 0.745113
0.892348 1 0.752422
0.892454 1 0.771588
0.0134737 0.00257877 0.951293
0.0134737 0.00257877 0.951293
0.0134737 0.00257877 0.951293
0.0134737 0.00257877 0.951293
0.0134737 0.00257877 0.951293
0.997131 0.021088 0.965515
1 0.021622 0.965911
1 0.021622 0.965911
0.904952 0.959472 0.846784
0.0134737 0.00257877 0.951293
0.0134737 0.00257877 0.951293
0.0134737 0.00257877 0.951293
0.0134737 0.00257877 0.951293
0.0134737 0.00257877 0.951293
0.998596 0.0211185 0.965545
1 0.021622 0.965911
1 0.021622 0.965911
0.904784 0.960983 0.846525
0.0134737 0.00257877 0.951293
0.0134737 0.00257877 0.951293
0.0134737 0.00257877 0.951293
0.0134737 0.00257877 0.951293
0.0134737 0.00257877 0.951293
1 0.0211948 0.965591
1 0.021622 0.965911
1 0.021622 0.965911
0.904509 0.963348 0.846128
0.0134737 0.00257877 0.951293
0.0134737 0.00257877 0.951293
0.0134737 0.00257877 0.951293
0.0134737 0.00257877 0.951293
0.0134737 0.00257877 0.951293
1 0.0213931 0.965743
1 0.021622 0.965911
1 0.021622 0.965911
0.903761 0.970047 0.845014
0.0134737 0.00257877 0.951293
0.0134737 0.00257877 0.951293
0.0134737 0.00257877 0.951293
0.0134737 0.00257877 0.951293
0.374044 0.00579843 0.954025
1 0.021622 0.965911
1 0.021622 0.965911
0.943969 0.616876 0.894774
0.901884 0.986587 0.842206
0 0.871473 0.862745
0 0.871794 0.862699
0 0.872328 0.862623
0 0.87396 0.862379
0 0.868055 0.861646
0.82002 0.853483 0.85948
0.913664 0.882277 0.854887
0.905928 0.950607 0.844694
0.898573 1 0.837079
0 1 0.828992
0 1 0.829007
0 1 0.829023
0 1 0.829099
0.543725 1 0.826246
0.763622 1 0.827482
0.867308 1 0.828534
0.895994 1 0.82919
0.894896 1 0.8309
0.735637 1 0.818921
0.737636 1 0.818936
0.740795 1 0.818936
0.749813 1 0.818967
0.772488 1 0.819059
0.81445 1 0.819318
0.862623 1 0.819974
0.89276 1 0.821714
0.892775 1 0.825803
0.85539 1 0.805875
0.855573 1 0.80589
0.855863 1 0.80589
0.856748 1 0.805936
0.859297 1 0.806027
0.865751 1 0.806332
0.878309 1 0.807248
0.892638 1 0.810315
0.892729 1 0.816999
0.00663767 0.0703593 0.945617
0.00663767 0.0703593 0.945617
0.00663767 0.0703593 0.945617
0.00663767 0.0703899 0.945617
0.00663767 0.0704662 0.945617
0.00660716 0.0706645 0.945602
1 0.021622 0.965911
1 0.021622 0.965911
0.938048 0.668894 0.894347
0.00665293 0.0703288 0.945632
0.00665293 0.0703288 0.945632
0.00663767 0.0703441 0.945632
0.00663767 0.0703593 0.945617
0.00663767 0.0704509 0.945617
0.00660716 0.070634 0.945602
1 0.021622 0.965911
1 0.021622 0.965911
0.938048 0.668864 0.894347
0.00665293 0.0702678 0.945632
0.00665293 0.0702678 0.945632
0.00665293 0.0702831 0.945632
0.00665293 0.0702983 0.945632
0.00663767 0.0703593 0.945617
0.00662242 0.0705882 0.945602
1 0.021622 0.965911
1 0.021622 0.965911
0.938048 0.668818 0.894347
0.00666819 0.0700999 0.945647
0.00666819 0.0700847 0.945647
0.00666819 0.0700999 0.945647
0.00666819 0.0701305 0.945647
0.00665293 0.0702068 0.945632
0.0101472 0.036408 0.948608
1 0.021622 0.965911
1 0.021622 0.965911
0.938064 0.668666 0.894362
0.00672923 0.0695506 0.945693
0.00672923 0.0695506 0.945693
0.00672923 0.0695659 0.945693
0.00672923 0.0695811 0.945693
0.00671397 0.0696422 0.945693
0.406256 0.00640879 0.954482
1 0.021622 0.965911
1 0.021622 0.965911
0.938125 0.668193 0.894423
0.00691234 0.0678264 0.945846
0.00691234 0.0678264 0.945846
0.00691234 0.0678264 0.945846
0.00689708 0.0678569 0.945846
0.00689708 0.0679332 0.94583
0.804715 0.0157931 0.961593
1 0.021622 0.965911
1 0.0852979 0.958022
0.910597 0.910582 0.869108
0 1 0.858198
0 1 0.858198
0 1 0.858198
0 1 0.858167
0 1 0.858122
0.647883 1 0.857939
0.874464 0.99585 0.860044
0.899718 1 0.859098
0.896727 1 0.856336
0.563836 1 0.851164
0.572671 1 0.851164
0.585931 1 0.851164
0.620478 1 0.851179
0.690715 1 0.851209
0.780179 1 0.851331
0.853544 1 0.851484
0.891859 1 0.85182
0.893019 1 0.851987
0.843748 1 0.849241
0.844007 1 0.849241
0.844404 1 0.849241
0.845594 1 0.849256
0.849409 1 0.849256
0.857771 1 0.849302
0.873091 1 0.849393
0.88954 1 0.849607
0.892927 1 0.850126
0 0.325658 0.922988
0 0.325658 0.922988
0 0.325658 0.922988
0 0.325673 0.922988
0 0.325673 0.922988
0 0.325734 0.922972
0 0.325841 0.922972
0.978698 0.319509 0.931655
0.932174 0.720333 0.888945
0 0.325658 0.922988
0 0.325658 0.922988
0 0.325658 0.922988
0 0.325658 0.922988
0 0.325673 0.922988
0 0.325719 0.922972
0 0.325841 0.922972
0.978668 0.319783 0.931624
0.932158 0.720394 0.888945
0 0.325643 0.922988
0 0.325643 0.922988
0 0.325643 0.922988
0 0.325658 0.922988
0 0.325658 0.922988
0 0.325719 0.922972
0 0.325811 0.922972
0.978622 0.320226 0.931579
0.932158 0.720455 0.88893
0 0.325628 0.922988
0 0.325628 0.922988
0 0.325628 0.922988
0 0.325628 0.922988
0 0.325643 0.922988
0 0.325673 0.922988
0 0.32578 0.922972
0.978454 0.321584 0.931426
0.932128 0.720729 0.888899
0 0.325505 0.923003
0 0.325505 0.923003
0 0.325505 0.923003
0 0.325505 0.923003
0 0.325536 0.923003
0 0.325567 0.922988
0.373892 0.303319 0.925216
0.977966 0.325765 0.930983
0.932036 0.721477 0.888823
0 0.325216 0.923018
0 0.325216 0.923018
0 0.325216 0.923018
0 0.325231 0.923018
0 0.325231 0.923018
0 0.325261 0.923018
0.818936 0.112108 0.951034
0.976516 0.338018 0.929641
0.931914 0.722606 0.888701
0 0.324269 0.92311
0 0.324269 0.92311
0 0.324269 0.92311
0 0.324285 0.92311
0 0.324285 0.92311
0 0.324315 0.92311
1 0.021622 0.965911
0.973724 0.361654 0.927092
0.93167 0.724727 0.888487
0 1 0.854353
0 1 0.854353
0 1 0.854353
0 1 0.854353
0 1 0.854353
0 1 0.854353
0.810773 1 0.853635
0.894697 1 0.854505
0.89427 1 0.854078
0.787884 1 0.852216
0.788754 1 0.852216
0.790143 1 0.852216
0.794141 1 0.852247
0.804807 1 0.852308
0.82771 1 0.852445
0.860822 1 0.852644
0.886671 1 0.852811
0.892943 1 0.852857
