BBLuts/BB_104_0050_LUT.cube
TITLE "Generated by Resolve"
LUT_3D_SIZE 5
0.00480659 0.0147555 0.0320592
0.196155 0.0166476 0.0351873
0.72723 0.295354 0.386923
0.854917 0.644144 0.668727
0.841978 0.829236 0.745235
0 0.197406 0.016556
0.139239 0.202808 0.0203403
0.731991 0.346532 0.401541
0.854002 0.659785 0.666255
0.841917 0.83003 0.743954
0 0.726497 0
0 0.726207 0
0.683757 0.72517 0.00106813
0.847974 0.7635 0.610834
0.84155 0.835172 0.734051
0 0.869154 0.0382086
0 0.868391 0.0379492
0.6047 0.862959 0.0322881
0.840497 0.853941 0.0192416
0.839506 0.853452 0.737942
0.818463 0.859831 0.817578
0.818769 0.859831 0.817639
0.82092 0.859861 0.818082
0.832502 0.860014 0.821637
0.839353 0.860471 0.841794
0.0267033 0.0292973 0.209796
0.194873 0.0308232 0.212253
0.72723 0.303517 0.444541
0.855024 0.641779 0.671916
0.841901 0.829007 0.760052
0 0.176455 0.180087
0.172854 0.175647 0.180224
0.727855 0.304692 0.441337
0.85417 0.65687 0.669566
0.84184 0.829816 0.759045
0 0.72401 0
0 0.723674 0
0.688273 0.722805 0.000839246
0.847974 0.762493 0.61471
0.841428 0.834943 0.751339
0 0.869001 0.0381476
0 0.868238 0.0379034
0.617685 0.862379 0.030808
0.840574 0.85391 0.0192416
0.839506 0.853437 0.737835
0.818494 0.859831 0.817578
0.818814 0.859831 0.817639
0.820951 0.859861 0.818067
0.832517 0.860014 0.821622
0.839353 0.860471 0.841794
0.580575 0.559823 0.743282
0.580697 0.560052 0.74342
0.733761 0.574807 0.743832
0.854536 0.65095 0.774441
0.842268 0.828214 0.816968
0.579553 0.55787 0.742077
0.57969 0.558145 0.742245
0.738781 0.575067 0.742931
0.8542 0.655604 0.772137
0.842191 0.829038 0.816571
0 0.69604 0.705455
0 0.6963 0.705669
0.685206 0.696651 0.714717
0.847196 0.750103 0.748745
0.841672 0.834302 0.813733
0 0.868238 0.0379034
0 0.867506 0.037644
0.61117 0.862043 0.0314641
0.837888 0.853422 0.0191958
0.839399 0.853025 0.793332
0.818845 0.859831 0.817548
0.81915 0.859831 0.817609
0.821241 0.859861 0.818036
0.832624 0.860014 0.821591
0.839353 0.860471 0.841794
0.740063 0.734081 0.899336
0.740063 0.734081 0.899336
0.740063 0.734081 0.899336
0.852903 0.743297 0.901854
0.846555 0.816236 0.888258
0.740063 0.734081 0.899336
0.740063 0.734081 0.899336
0.740063 0.734081 0.899336
0.852903 0.743297 0.901854
0.846433 0.817746 0.888045
0.740063 0.734081 0.899336
0.740063 0.734081 0.899336
0.74081 0.734096 0.899351
0.852903 0.743297 0.901854
0.845609 0.82707 0.886671
0 0.871092 0.889586
0 0.870069 0.889525
0.60119 0.858976 0.884077
0.827878 0.847379 0.879545
0.842588 0.853468 0.881666
0.819593 0.861006 0.86511
0.819867 0.861006 0.865125
0.821805 0.861036 0.865263
0.832486 0.861189 0.866346
0.840848 0.861555 0.872801
0.739971 0.734752 0.899321
0.739971 0.734752 0.899321
0.739971 0.734752 0.899321
0.739971 0.734752 0.899321
0.851728 0.757687 0.901091
0.739971 0.734752 0.899321
0.739971 0.734752 0.899321
0.739971 0.734752 0.899321
0.739971 0.734752 0.899321
0.851728 0.757717 0.901091
0.739971 0.734752 0.899321
0.739971 0.734752 0.899321
0.739971 0.734752 0.899321
0.740963 0.734691 0.899336
0.851713 0.757839 0.901076
0.739971 0.734752 0.899321
0.739971 0.734752 0.899321
0.739971 0.734752 0.899321
0.852903 0.743297 0.901854
0.851698 0.758236 0.901061
0.787839 0.86244 0.895476
0.789014 0.86244 0.895476
0.796719 0.86247 0.895537
0.825803 0.862715 0.895964
0.84271 0.862928 0.896315
