BBLuts/BB_103_0660_LUT.cube
TITLE "Generated by Resolve"
LUT_3D_SIZE 33
0.0180209 0.0180209 0.0180209
0.0180209 0.0180209 0.0180209
0.0180209 0.0180209 0.0180209
0.0180209 0.0180209 0.0180209
0.0180209 0.0180209 0.0180209
0.06215 0.0180209 0.0180209
0.113756 0.0180209 0.0180209
0.151186 0.0180209 0.0180209
0.188678 0.0180209 0.0180209
0.233021 0.0180209 0.0180209
0.284077 0.0180209 0.0180209
0.339834 0.0180209 0.0180209
0.402579 0.0180209 0.0180209
0.475303 0.0180209 0.0180209
0.553582 0.0180209 0.0180209
0.629191 0.0180209 0.0180209
0.703578 0.0180209 0.0180209
0.778363 0.0180209 0.0180209
0.846174 0.0180209 0.0180209
0.899641 0.0180209 0.0180209
0.909499 0.0180209 0.0180209
0.909499 0.0180209 0.0180209
0.909499 0.170855 0.061265
0.909499 0.335821 0.0988632
0.909499 0.452003 0.137896
0.909499 0.550378 0.183185
0.909499 0.631022 0.239521
0.909499 0.696849 0.31812
0.909499 0.747341 0.406119
0.909499 0.786282 0.494194
0.909499 0.816052 0.575128
0.909499 0.838804 0.646021
0.909499 0.857023 0.706889
0.0180209 0.0180209 0.0180209
0.0180209 0.0180209 0.0180209
0.0180209 0.0180209 0.0180209
0.0180209 0.0180209 0.0180209
0.0180209 0.0180209 0.0180209
0.0725414 0.0180209 0.0180209
0.117357 0.0180209 0.0180209
0.154131 0.0180209 0.0180209
0.193301 0.0180209 0.0180209
0.238392 0.0180209 0.0180209
0.289448 0.0180209 0.0180209
0.344472 0.0180209 0.0180209
0.405371 0.0180209 0.0180209
0.477211 0.0180209 0.0180209
0.555077 0.0180209 0.0180209
0.630121 0.0180209 0.0180209
0.704158 0.0180209 0.0180209
0.778637 0.0180209 0.0180209
0.846098 0.0180209 0.0180209
0.899275 0.0180209 0.0180209
0.909499 0.0180209 0.0180209
0.909499 0.0180209 0.0180209
0.909499 0.20238 0.0463874
0.909499 0.349004 0.0935988
0.909499 0.460273 0.135103
0.909499 0.555444 0.181643
0.909499 0.634165 0.237842
0.909499 0.698741 0.317235
0.909499 0.748409 0.405631
0.909499 0.786923 0.493904
0.909499 0.816403 0.574975
0.909499 0.839033 0.64593
0.909499 0.85716 0.706828
0.0180209 0.0180209 0.0180209
0.0180209 0.0180209 0.0180209
0.0180209 0.0180209 0.0180209
0.0180209 0.0180209 0.0180209
0.0180209 0.0180209 0.0180209
0.0787213 0.0180209 0.0180209
0.118608 0.0180209 0.0180209
0.156939 0.0180209 0.0180209
0.198138 0.0180209 0.0180209
0.243381 0.0180209 0.0180209
0.293538 0.0180209 0.0180209
0.34696 0.0180209 0.0180209
0.407706 0.0180209 0.0180209
0.479255 0.0180209 0.0180209
0.556588 0.0180209 0.0180209
0.631052 0.0180209 0.0180209
0.704738 0.0180209 0.0180209
0.778897 0.0180209 0.0180209
0.845991 0.0180209 0.0180209
0.898924 0.0180209 0.0180209
0.909499 0.0180209 0.0180209
0.909499 0.0180209 0.0180209
0.909499 0.22826 0.0180209
0.909499 0.361456 0.0877546
0.909499 0.468269 0.132235
0.909499 0.560372 0.180087
0.909499 0.637247 0.236225
0.909499 0.700603 0.31632
0.909499 0.749477 0.405158
0.909499 0.787564 0.493614
0.909499 0.81677 0.574807
0.909499 0.839231 0.645823
0.909499 0.857282 0.706767
0.0180209 0.0180209 0.0180209
0.0180209 0.0180209 0.0180209
0.0180209 0.0180209 0.0180209
0.0180209 0.0233005 0.0180209
0.0387884 0.0280613 0.0180209
0.0834516 0.0180209 0.0180209
0.119173 0.0180209 0.0180209
0.157183 0.0180209 0.0180209
0.198962 0.0180209 0.0180209
0.245396 0.0180209 0.0180209
0.296178 0.0180209 0.0180209
0.349218 0.0180209 0.0180209
0.409964 0.0180209 0.0180209
0.481331 0.0180209 0.0180209
0.558114 0.0180209 0.0180209
0.631998 0.0180209 0.0180209
0.705303 0.0180209 0.0180209
0.779141 0.0180209 0.0180209
0.845853 0.0180209 0.0180209
0.898512 0.0180209 0.0180209
0.909499 0.0180209 0.0180209
0.909499 0.0180209 0.0180209
0.909499 0.250584 0.0180209
0.909499 0.373266 0.0811322
0.909499 0.47599 0.12929
0.909499 0.565194 0.178531
0.909499 0.640253 0.235462
0.909499 0.702419 0.315419
0.909499 0.750515 0.404669
0.909499 0.78819 0.493339
0.909499 0.817121 0.574655
0.909499 0.83946 0.645731
0.909499 0.85742 0.706722
0.0180209 0.0667124 0.0180209
0.0180209 0.0694438 0.0180209
0.0180209 0.0720836 0.0180209
0.0180209 0.0746319 0.0180209
0.0180209 0.0756237 0.0180209
0.0761425 0.0750744 0.0180209
0.115053 0.0730144 0.0180209
0.154696 0.0681315 0.0180209
0.198123 0.0568704 0.0180209
0.246296 0.0180209 0.0180209
0.297704 0.0180209 0.0180209
0.351263 0.0180209 0.0180209
0.412131 0.0180209 0.0180209
0.483421 0.0180209 0.0180209
0.55967 0.0180209 0.0180209
0.632944 0.0180209 0.0180209
0.705867 0.0180209 0.0180209
0.779355 0.0180209 0.0180209
0.845716 0.0180209 0.0180209
0.898116 0.0180209 0.0180209
0.909499 0.0180209 0.0180209
0.909499 0.0664378 0.0180209
0.909499 0.270375 0.0180209
0.909499 0.384497 0.0733959
0.909499 0.483406 0.126223
0.909499 0.569909 0.176974
0.909499 0.643198 0.234699
0.909499 0.704219 0.314534
0.909499 0.751553 0.404181
0.909499 0.788815 0.49305
0.909499 0.817456 0.574487
0.909499 0.839673 0.64564
0.909499 0.857542 0.706661
0.0180209 0.0968338 0.0180209
0.0180209 0.0990158 0.0180209
0.0180209 0.101152 0.0180209
0.0180209 0.102846 0.0180209
0.0180209 0.103655 0.0180209
0.058793 0.103685 0.0180209
0.108385 0.102968 0.0180209
0.150866 0.100984 0.0180209
0.196139 0.0967422 0.0180209
0.246143 0.088426 0.0180209
0.298451 0.0719768 0.0180209
0.353079 0.0180209 0.0180209
0.414343 0.0180209 0.0180209
0.485618 0.0180209 0.0180209
0.561334 0.0180209 0.0180209
0.633982 0.0180209 0.0180209
0.706432 0.0180209 0.0180209
0.779568 0.0180209 0.0180209
0.845563 0.0180209 0.0180209
0.897673 0.0180209 0.0180209
0.909499 0.0180209 0.0180209
0.909499 0.143282 0.0180209
0.909499 0.288975 0.0180209
0.909499 0.395453 0.0632334
0.909499 0.490822 0.122927
0.909499 0.574716 0.175311
0.909499 0.646204 0.233936
0.909499 0.706065 0.313588
0.909499 0.752621 0.403677
0.909499 0.789441 0.492775
0.909499 0.817823 0.574319
0.909499 0.839902 0.645533
0.909499 0.857679 0.7066
0.0180209 0.128557 0.0180209
0.0180209 0.130373 0.0180209
0.0180209 0.132174 0.0180209
0.0180209 0.133181 0.0180209
0.0180209 0.133837 0.0180209
0.0180209 0.134066 0.0180209
0.094255 0.133883 0.0180209
0.143694 0.132967 0.0180209
0.192081 0.130755 0.0180209
0.244465 0.126421 0.0180209
0.298192 0.118257 0.0180209
0.354757 0.104982 0.0180209
0.416968 0.0793317 0.0180209
0.488426 0.0180209 0.0180209
0.563485 0.0180209 0.0180209
0.635294 0.0180209 0.0180209
0.70721 0.0180209 0.0180209
0.779858 0.0180209 0.0180209
0.845335 0.0180209 0.0180209
0.897063 0.0180209 0.0180209
0.909499 0.0180209 0.0180209
0.909499 0.191638 0.0180209
0.909499 0.310582 0.0180209
0.909499 0.408942 0.0409094
0.909499 0.499947 0.118486
0.909499 0.580758 0.173175
0.909499 0.650004 0.232959
0.909499 0.7084 0.312398
0.909499 0.753979 0.403052
0.909499 0.790249 0.492393
0.909499 0.81828 0.574121
0.909499 0.840192 0.645411
0.909499 0.857847 0.706523
0.0180209 0.164508 0.0180209
0.0180209 0.166079 0.0180209
0.0180209 0.167269 0.0180209
0.0180209 0.168032 0.0180209
0.0180209 0.168597 0.0180209
0.0180209 0.168902 0.0180209
0.0468147 0.168978 0.0180209
0.129137 0.168612 0.0180209
0.184009 0.167483 0.0180209
0.239368 0.164569 0.0180209
0.295735 0.159075 0.0180209
0.355413 0.151171 0.0180209
0.419684 0.139239 0.0180209
0.491905 0.118776 0.0180209
0.566293 0.0745861 0.0180209
0.637079 0.0180209 0.0180209
0.708247 0.0180209 0.0180209
0.780224 0.0180209 0.0180209
0.845029 0.0180209 0.0180209
0.896223 0.0180209 0.0180209
0.909499 0.105165 0.0180209
0.909499 0.236942 0.0180209
0.909499 0.336095 0.0180209
0.909499 0.425772 0.0180209
0.909499 0.511421 0.112184
0.909499 0.588495 0.170321
0.909499 0.654856 0.231708
0.909499 0.711391 0.310826
0.909499 0.755734 0.402213
0.909499 0.791333 0.49189
0.909499 0.818891 0.573831
0.909499 0.840574 0.645243
0.909499 0.858091 0.706432
0.0180209 0.206424 0.0180209
0.0180209 0.20763 0.0180209
0.0180209 0.208301 0.0180209
0.0180209 0.208988 0.0180209
0.0180209 0.209445 0.0180209
0.0180209 0.209781 0.0180209
0.0180209 0.209979 0.0180209
0.0936599 0.209873 0.0180209
0.167224 0.208499 0.0180209
0.228565 0.206119 0.0180209
0.289525 0.202426 0.0180209
0.353353 0.197009 0.0180209
0.421424 0.189105 0.0180209
0.495689 0.17734 0.0180209
0.569818 0.160967 0.0180209
0.639445 0.137377 0.0180209
0.709651 0.100038 0.0180209
0.780728 0.0180209 0.0180209
0.844541 0.0180209 0.0180209
0.895033 0.111192 0.0180209
0.909499 0.19913 0.0180209
0.909499 0.283024 0.0180209
0.909499 0.365911 0.0180209
0.909499 0.446555 0.0180209
0.909499 0.525628 0.102968
0.909499 0.597971 0.166491
0.909499 0.661051 0.230091
0.909499 0.715221 0.308766
0.909499 0.758007 0.401083
0.909499 0.792706 0.491234
0.909499 0.819684 0.573449
0.909499 0.841062 0.644999
0.909499 0.858381 0.706279
0.0180209 0.253452 0.0180209
0.0180209 0.253834 0.0180209
0.0180209 0.254185 0.0180209
0.0180209 0.254475 0.0180209
0.0180209 0.254658 0.0180209
0.0180209 0.254704 0.0180209
0.0180209 0.254612 0.0180209
0.0180209 0.254292 0.0180209
0.13286 0.253513 0.0180209
0.209812 0.252079 0.0180209
0.277867 0.249638 0.0180209
0.347036 0.245823 0.0180209
0.420142 0.240085 0.0180209
0.498497 0.231769 0.0180209
0.573739 0.22211 0.0180209
0.64242 0.210529 0.0180209
0.711513 0.197589 0.0180209
0.781338 0.186099 0.0180209
0.843793 0.188769 0.0180209
0.893309 0.217517 0.0180209
0.909499 0.267643 0.0180209
0.909499 0.331029 0.0180209
0.909499 0.399954 0.0180209
0.909499 0.471992 0.0180209
0.909499 0.542977 0.088365
0.909499 0.609201 0.161334
0.909499 0.668818 0.228077
0.909499 0.720043 0.306081
0.909499 0.760922 0.399634
0.909499 0.794491 0.490379
0.909499 0.820722 0.572946
0.909499 0.841718 0.644709
0.909499 0.858778 0.706111
0.0180209 0.303426 0.0180209
0.0180209 0.303777 0.0180209
0.0180209 0.304143 0.0180209
0.0180209 0.304402 0.0180209
0.0180209 0.304601 0.0180209
0.0180209 0.304723 0.0180209
0.0180209 0.304768 0.0180209
0.0180209 0.304677 0.0180209
0.0180209 0.304295 0.0180209
0.175158 0.303456 0.0180209
0.257603 0.301961 0.0180209
0.334386 0.299397 0.0180209
0.413901 0.295262 0.0180209
0.498375 0.289464 0.0180209
0.576593 0.282948 0.0180209
0.645518 0.276265 0.0180209
0.713695 0.270298 0.0180209
0.781979 0.266865 0.0180209
0.842618 0.272877 0.0180209
0.890806 0.294896 0.0180209
0.909499 0.332525 0.0180209
0.909499 0.381796 0.0180209
0.909499 0.438651 0.0180209
0.909499 0.501396 0.0180209
0.90988 0.563836 0.0583047
0.909499 0.623285 0.154314
0.909499 0.678431 0.225574
0.909499 0.72607 0.302571
0.909499 0.76463 0.397726
0.909499 0.796765 0.48925
0.909499 0.822049 0.572305
0.909499 0.842542 0.644327
0.909499 0.859281 0.705882
0.0180209 0.361807 0.0180209
0.0180209 0.362142 0.0180209
0.0180209 0.362463 0.0180209
0.0180209 0.362722 0.0180209
0.0180209 0.362921 0.0180209
0.0180209 0.363073 0.0180209
0.0180209 0.36318 0.0180209
0.0180209 0.363241 0.0180209
0.0180209 0.363119 0.0180209
0.0642405 0.362722 0.0180209
0.219913 0.361883 0.0180209
0.311589 0.360311 0.0180209
0.400351 0.357809 0.0180209
0.492164 0.35407 0.0180209
0.575372 0.349508 0.0180209
0.647105 0.34519 0.0180209
0.715526 0.342428 0.0180209
0.782254 0.342702 0.0180209
0.840681 0.350256 0.0180209
0.887251 0.368215 0.0180209
0.909499 0.396582 0.0180209
0.909499 0.435004 0.0180209
0.909499 0.482689 0.0180209
0.909499 0.534432 0.0180209
0.909499 0.588571 0.0180209
0.909499 0.640543 0.1449
0.909499 0.690105 0.222599
0.909499 0.733379 0.302007
0.909499 0.769299 0.395239
0.909499 0.799634 0.48777
0.909499 0.823758 0.571435
0.909499 0.843641 0.643809
0.909499 0.859937 0.705577
0.0180209 0.429526 0.0180209
0.0180209 0.429831 0.0180209
0.0180209 0.430106 0.0180209
0.0180209 0.430335 0.0180209
0.0180209 0.430503 0.0180209
0.0180209 0.430671 0.0180209
0.0180209 0.430808 0.0180209
0.0180209 0.43093 0.0180209
0.0180209 0.431052 0.0180209
0.0180209 0.431128 0.0180209
0.122515 0.431006 0.0180209
0.270085 0.430457 0.0180209
0.375723 0.429129 0.0180209
0.476677 0.426642 0.0180209
0.567208 0.423438 0.0180209
0.644068 0.420249 0.0180209
0.715312 0.41825 0.0180209
0.781582 0.419028 0.0180209
0.837873 0.425345 0.0180209
0.882658 0.439292 0.0180209
0.909499 0.461601 0.0180209
0.909499 0.492226 0.0180209
0.909499 0.529152 0.0180209
0.909499 0.571115 0.0180209
0.909499 0.615335 0.0180209
0.909499 0.660639 0.132464
0.909499 0.703883 0.219226
0.909499 0.742123 0.301656
0.909499 0.775051 0.392004
0.909499 0.80322 0.485832
0.909499 0.825956 0.570306
0.909499 0.845029 0.643122
0.909499 0.860792 0.705165
0.0180209 0.505333 0.0180209
0.0180209 0.505577 0.0180209
0.0180209 0.505776 0.0180209
0.0180209 0.505943 0.0180209
0.0180209 0.506111 0.0180209
0.0180209 0.506233 0.0180209
0.0180209 0.506386 0.0180209
0.0180209 0.506523 0.0180209
0.0180209 0.506615 0.0180209
0.0180209 0.506645 0.0180209
0.0180209 0.506523 0.0180209
0.18407 0.506081 0.0180209
0.334783 0.505028 0.0180209
0.450492 0.503166 0.0180209
0.551156 0.500633 0.0180209
0.635065 0.497795 0.0180209
0.710826 0.495552 0.0180209
0.778881 0.495506 0.0180209
0.833829 0.500099 0.0180209
0.876768 0.510506 0.0180209
0.909499 0.526741 0.0180209
0.909499 0.549172 0.0180209
0.909499 0.577585 0.0180209
0.909499 0.609934 0.0180209
0.909499 0.645823 0.0180209
0.90988 0.68333 0.11603
0.909499 0.719661 0.215763
0.909499 0.752422 0.30161
0.909499 0.78201 0.388388
0.909499 0.807614 0.483314
0.909499 0.828687 0.568826
0.909499 0.846799 0.642222
0.909499 0.861875 0.704631
0.0180209 0.577966 0.0180209
0.0180209 0.578103 0.0180209
0.0180209 0.57821 0.0180209
0.0180209 0.578302 0.0180209
0.0180209 0.578378 0.0180209
0.0180209 0.578439 0.0180209
0.0180209 0.5785 0.0180209
0.0180209 0.578561 0.0180209
0.0180209 0.578576 0.0180209
0.0180209 0.578515 0.0180209
0.0180209 0.578347 0.0180209
0.0180209 0.57789 0.0180209
0.267521 0.576974 0.0180209
0.413169 0.575463 0.0180209
0.527001 0.573434 0.0180209
0.619562 0.571008 0.0180209
0.700542 0.568658 0.0180209
0.77174 0.567758 0.0180209
0.827375 0.570367 0.0180209
0.869261 0.577523 0.0180209
0.902876 0.589288 0.0180209
0.909499 0.605127 0.0180209
0.909499 0.625315 0.0180209
0.909499 0.650309 0.0180209
0.909499 0.67834 0.0180209
0.909499 0.707881 0.0941176
0.909499 0.737011 0.212833
0.909499 0.764416 0.302098
0.909499 0.790188 0.389715
0.909499 0.812863 0.480034
0.909499 0.832105 0.566873
0.909499 0.849027 0.641047
0.909499 0.863264 0.703929
0.0180209 0.643977 0.0180209
0.0180209 0.644038 0.0180209
0.0180209 0.644068 0.0180209
0.0180209 0.644114 0.0180209
0.0180209 0.644114 0.0180209
0.0180209 0.644129 0.0180209
0.0180209 0.644144 0.0180209
0.0180209 0.644114 0.0180209
0.0180209 0.644068 0.0180209
0.0180209 0.643946 0.0180209
0.0180209 0.643687 0.0180209
0.0180209 0.643198 0.0180209
0.0978561 0.642329 0.0180209
0.360067 0.641047 0.0180209
0.494194 0.639368 0.0180209
0.598596 0.637293 0.0180209
0.68426 0.635081 0.0180209
0.758938 0.633692 0.0180209
0.816571 0.634699 0.0180209
0.859236 0.639002 0.0180209
0.892287 0.646815 0.0180209
0.909499 0.658228 0.0180209
0.909499 0.672999 0.0180209
0.909499 0.690837 0.0180209
0.909499 0.711254 0.0180209
0.909499 0.733166 0.0637369
0.909499 0.755428 0.211429
0.909499 0.77792 0.303624
0.909499 0.799558 0.391852
0.909499 0.818967 0.476753
0.909499 0.836286 0.56434
0.909499 0.851774 0.63949
0.909499 0.864973 0.703014
0.0180209 0.707774 0.0180209
0.0180209 0.707759 0.0180209
0.0180209 0.707744 0.0180209
0.0180209 0.707729 0.0180209
0.0180209 0.707698 0.0180209
0.0180209 0.707668 0.0180209
0.0180209 0.707607 0.0180209
0.0180209 0.707515 0.0180209
0.0180209 0.707362 0.0180209
0.0180209 0.707149 0.0180209
0.0180209 0.706752 0.0180209
0.0180209 0.706127 0.0180209
0.0180209 0.705165 0.0180209
0.283207 0.703807 0.0180209
0.452338 0.702052 0.0180209
0.571908 0.699901 0.0180209
0.664118 0.697444 0.0180209
0.741573 0.695399 0.0180209
0.801617 0.694865 0.0180209
0.846479 0.696544 0.0180209
0.880629 0.700694 0.0180209
0.905577 0.707622 0.0180209
0.909499 0.717083 0.0180209
0.909499 0.728832 0.0180209
0.909499 0.742565 0.0180209
0.909499 0.757931 0.0180209
0.909499 0.774853 0.212558
0.909499 0.792523 0.306905
0.909499 0.809857 0.395193
0.909499 0.825986 0.479744
0.909499 0.841245 0.561013
0.909499 0.8551 0.637461
0.909499 0.867124 0.701793
0.0180209 0.761944 0.0180209
0.0180209 0.761883 0.0180209
0.0180209 0.761822 0.0180209
0.0180209 0.761746 0.0180209
0.0180209 0.761669 0.0180209
0.0180209 0.761578 0.0180209
0.0180209 0.761471 0.0180209
0.0180209 0.761303 0.0180209
0.0180209 0.761059 0.0180209
0.0180209 0.760693 0.0180209
0.0180209 0.760159 0.0180209
0.0180209 0.75935 0.0180209
0.0180209 0.758236 0.0180209
0.19173 0.756756 0.0180209
0.416129 0.754818 0.0180209
0.549096 0.752422 0.0180209
0.646891 0.749645 0.0180209
0.724987 0.747082 0.0180209
0.786068 0.745449 0.0180209
0.833066 0.745144 0.0180209
0.86891 0.746517 0.0180209
0.894972 0.749844 0.0180209
0.909499 0.755077 0.0180209
0.909499 0.76228 0.0180209
0.909499 0.771389 0.0180209
0.909499 0.782208 0.0336767
0.909499 0.794461 0.218112
0.909499 0.807568 0.312932
0.909499 0.820737 0.400336
0.909499 0.833967 0.483925
0.909499 0.846983 0.560983
0.909499 0.859037 0.634821
0.909499 0.869734 0.700206
0.0180209 0.803586 0.0180209
0.0180209 0.803479 0.0180209
0.0180209 0.803388 0.0180209
0.0180209 0.803281 0.0180209
0.0180209 0.803159 0.0180209
0.0180209 0.803021 0.0180209
0.0180209 0.802869 0.0180209
0.0180209 0.802625 0.0180209
0.0180209 0.802304 0.0180209
0.0180209 0.801846 0.0180209
0.0180209 0.80119 0.0180209
0.0180209 0.800305 0.0180209
0.0180209 0.7991 0.0180209
0.140124 0.797543 0.0180209
0.401679 0.795529 0.0180209
0.538674 0.793042 0.0180209
0.63714 0.790143 0.0180209
0.71342 0.787381 0.0180209
0.773236 0.78526 0.0180209
0.820844 0.783978 0.0180209
0.857832 0.78381 0.0180209
0.885161 0.785077 0.0180209
0.906462 0.787778 0.0180209
0.909499 0.79205 0.0180209
0.909499 0.797803 0.0180209
0.909499 0.804883 0.0924697
0.909499 0.813138 0.230167
0.909499 0.822217 0.322835
0.909499 0.832166 0.407858
0.909499 0.842741 0.489708
0.909499 0.853391 0.565118
0.909499 0.863523 0.632502
0.909499 0.872862 0.698116
0.0180209 0.836149 0.0180209
0.0180209 0.836011 0.0180209
0.0180209 0.835889 0.0180209
0.0180209 0.835737 0.0180209
0.0180209 0.835584 0.0180209
0.0180209 0.835431 0.0180209
0.0180209 0.835218 0.0180209
0.0180209 0.834943 0.0180209
0.0180209 0.834546 0.0180209
0.0180209 0.834028 0.0180209
0.0180209 0.833341 0.0180209
0.0180209 0.832425 0.0180209
0.0180209 0.83122 0.0180209
0.203387 0.829633 0.0180209
0.41442 0.827649 0.0180209
0.543191 0.825177 0.0180209
0.635538 0.822354 0.0180209
0.707271 0.819623 0.0180209
0.764187 0.817334 0.0180209
0.810681 0.815579 0.0180209
0.847623 0.814572 0.0180209
0.875929 0.814496 0.0180209
0.898314 0.815381 0.0180209
0.909499 0.817411 0.0180209
0.909499 0.820554 0.0180209
0.909499 0.824765 0.140612
0.909499 0.830137 0.250156
0.909499 0.836561 0.337438
0.909499 0.843931 0.418509
0.909499 0.851987 0.497642
0.909499 0.860334 0.570748
0.909499 0.868528 0.636362
0.909499 0.876493 0.695354
0.0180209 0.860197 0.0180209
0.0180209 0.860029 0.0180209
0.0180209 0.859861 0.0180209
0.0180209 0.859709 0.0180209
0.0180209 0.859541 0.0180209
0.0180209 0.859358 0.0180209
0.0180209 0.859144 0.0180209
0.0180209 0.858824 0.0180209
0.0180209 0.858442 0.0180209
0.0180209 0.857908 0.0180209
0.0180209 0.857221 0.0180209
0.0180209 0.856291 0.0180209
0.0180209 0.8551 0.0180209
0.310155 0.853574 0.0180209
0.45623 0.851637 0.0180209
0.564187 0.849271 0.0180209
0.643473 0.846662 0.0180209
0.707866 0.844099 0.0180209
0.760281 0.841825 0.0180209
0.804364 0.839918 0.0180209
0.839796 0.838514 0.0180209
0.868162 0.837736 0.0180209
0.891188 0.837613 0.0180209
0.908797 0.838315 0.0180209
0.909499 0.839933 0.0180209
0.909499 0.842496 0.18912
0.909499 0.845991 0.278096
0.909499 0.850355 0.357534
0.909499 0.855512 0.433249
0.909499 0.861311 0.50837
0.909499 0.867536 0.578363
0.909499 0.874022 0.641474
0.909499 0.880522 0.697948
0.0180209 0.878431 0.0180209
0.0180209 0.878264 0.0180209
0.0180209 0.878111 0.0180209
0.0180209 0.877943 0.0180209
0.0180209 0.87776 0.0180209
0.0180209 0.877592 0.0180209
0.0180209 0.877363 0.0180209
0.0180209 0.877058 0.0180209
0.0180209 0.876677 0.0180209
0.0180209 0.876173 0.0180209
0.0180209 0.875502 0.0180209
0.0180209 0.874632 0.0180209
0.289921 0.873503 0.0180209
0.415351 0.872053 0.0180209
0.515511 0.870237 0.0180209
0.595758 0.868116 0.0180209
0.659052 0.865827 0.0180209
0.713939 0.863584 0.0180209
0.7608 0.861479 0.0180209
0.801312 0.859586 0.0180209
0.834379 0.858091 0.0180209
0.861784 0.857023 0.0180209
0.884688 0.856382 0.0180209
0.902693 0.856321 0.0180209
0.909499 0.856886 0.144884
0.909499 0.858183 0.239445
0.909499 0.860227 0.313787
0.909499 0.862959 0.383902
0.909499 0.866316 0.453071
0.909499 0.870344 0.522545
0.909499 0.874891 0.588464
0.909499 0.879805 0.648219
0.909499 0.884916 0.70219
0.0180209 0.891997 0.0180209
0.0180209 0.891844 0.0180209
0.0180209 0.891691 0.0180209
0.0180209 0.891524 0.0180209
0.0180209 0.891371 0.0180209
0.0180209 0.891203 0.0180209
0.0180209 0.89099 0.0180209
0.0180209 0.890715 0.0180209
0.0180209 0.890349 0.0180209
0.202152 0.889876 0.0180209
0.296818 0.88925 0.0180209
0.374319 0.888441 0.0180209
0.445991 0.887388 0.0180209
0.515145 0.886061 0.0180209
0.577081 0.884504 0.0180209
0.631006 0.882734 0.0180209
0.680491 0.880827 0.0180209
0.725017 0.87892 0.0180209
0.765713 0.877012 0.0180209
0.801617 0.875257 0.0180209
0.831617 0.873793 0.0180209
0.857511 0.872572 0.0180209
0.879484 0.871656 0.0180209
0.897322 0.871138 0.132647
0.909499 0.871046 0.222126
0.909499 0.871473 0.291417
0.909499 0.87248 0.354894
0.909499 0.874083 0.415885
0.909499 0.876249 0.478584
0.909499 0.878981 0.540703
0.909499 0.882155 0.601099
0.909499 0.885695 0.656947
0.909499 0.889464 0.707729
0.316793 0.901564 0.0180209
0.331624 0.901411 0.0180209
0.345449 0.901274 0.0180209
0.358404 0.901122 0.0180209
0.370611 0.900984 0.0180209
0.38265 0.900832 0.0180209
0.396948 0.900633 0.0180209
0.414649 0.900389 0.0180209
0.436255 0.900053 0.0180209
0.462242 0.899626 0.0180209
0.492088 0.899077 0.0180209
0.524636 0.89839 0.0180209
0.559701 0.897536 0.0180209
0.596628 0.896483 0.0180209
0.632288 0.895247 0.0180209
0.669154 0.893843 0.0180209
0.705303 0.892348 0.0180209
0.740688 0.890745 0.0180209
0.774456 0.889128 0.0180209
0.804974 0.887587 0.0180209
0.831495 0.886213 0.0906996
0.855314 0.885008 0.142382
0.875868 0.884001 0.18381
0.892943 0.883284 0.235477
0.907134 0.882856 0.290089
0.909499 0.88278 0.344625
0.909499 0.883131 0.398901
0.909499 0.88394 0.453376
0.909499 0.885206 0.508721
0.909499 0.886915 0.563241
0.909499 0.888991 0.616464
0.909499 0.891356 0.66807
0.909499 0.89398 0.714809
0.538277 0.908125 0.207279
0.543023 0.908003 0.207477
0.547616 0.907881 0.207675
0.552102 0.907774 0.207874
0.556451 0.907652 0.208072
0.560876 0.907546 0.208301
0.566415 0.907393 0.208576
0.573434 0.90721 0.208957
0.5823 0.906966 0.20943
0.59324 0.906645 0.210086
0.605737 0.906233 0.210941
0.620508 0.90573 0.212085
0.6383 0.905089 0.213611
0.658747 0.904326 0.21561
0.681407 0.90341 0.21828
0.705928 0.902388 0.22182
0.732235 0.901213 0.226474
0.759365 0.899931 0.232532
0.786007 0.898604 0.240375
0.810712 0.897322 0.250401
0.833753 0.896071 0.263096
0.855009 0.894926 0.27892
0.873701 0.893935 0.298222
0.889738 0.893126 0.321386
0.903319 0.892515 0.356985
0.909499 0.892164 0.399527
0.909499 0.892073 0.445533
0.909499 0.892317 0.494377
0.909499 0.892912 0.542321
0.909499 0.893858 0.590188
0.909499 0.895094 0.636149
0.909499 0.896574 0.681834
0.909499 0.898344 0.72369
0.646952 0.909499 0.337636
0.648997 0.909499 0.337728
0.651011 0.909499 0.33785
0.652995 0.909499 0.337957
0.654948 0.909499 0.338079
0.656962 0.909499 0.338186
0.659495 0.909499 0.338354
0.662776 0.909499 0.338552
0.666972 0.909499 0.338827
0.672297 0.909499 0.339193
0.678981 0.909499 0.339666
0.687297 0.909499 0.340307
0.697551 0.909499 0.341131
0.709926 0.909499 0.34226
0.724514 0.909316 0.343725
0.741238 0.908553 0.345693
0.759731 0.907652 0.348287
0.77937 0.906676 0.35172
0.799191 0.905653 0.356252
0.818784 0.904601 0.362173
0.838178 0.903532 0.369848
0.856535 0.902495 0.379705
0.873045 0.901564 0.39205
0.887739 0.90074 0.407523
0.900496 0.900069 0.426764
0.909499 0.899565 0.457679
0.909499 0.89926 0.495872
0.909499 0.899168 0.536263
0.909499 0.899336 0.578042
0.909499 0.899763 0.61857
0.909499 0.90042 0.659037
