BBLuts/BB_103_0790_LUT.cube
TITLE "Generated by Resolve"
LUT_3D_SIZE 33
0 0 0
0 0 0
0 0 0
0 0 0
0 0 0
0.0212253 0 0
0.0857099 0 0
0.13373 0 0
0.178851 0 0
0.233539 0 0
0.29546 0 0
0.361593 0 0
0.429053 0 0
0.505531 0 0
0.584375 0 0
0.657771 0 0
0.733181 0 0
0.808728 0 0
0.875395 0 0
0.927138 0 0
0.92752 0 0
0.92752 0 0
0.912566 0.266194 0.0428779
0.902281 0.441123 0.0935531
0.893919 0.561669 0.150271
0.885863 0.652888 0.217777
0.878782 0.7337 0.304326
0.87303 0.798245 0.407858
0.868635 0.846464 0.506844
0.865171 0.883772 0.594781
0.862531 0.911788 0.669932
0.86041 0.9337 0.740001
0.858747 0.950683 0.79556
0 0 0
0 0 0
0 0 0
0 0 0
0 0 0
0.0355077 0 0
0.090898 0 0
0.137499 0 0
0.183749 0 0
0.24036 0 0
0.302113 0 0
0.367208 0 0
0.432319 0 0
0.507454 0 0
0.585885 0 0
0.658717 0 0
0.733745 0 0
0.808957 0 0
0.875273 0 0
0.926741 0 0
0.92752 0 0
0.92752 0 0
0.91104 0.295384 0.0299382
0.901488 0.453788 0.0878462
0.8934 0.568734 0.147189
0.885512 0.65716 0.216175
0.878553 0.736461 0.302693
0.872892 0.799802 0.407111
0.868559 0.847349 0.506447
0.865125 0.884276 0.594568
0.862501 0.912077 0.66981
0.860395 0.933867 0.739925
0.858747 0.95079 0.795514
0 0 0
0 0 0
0 0 0
0 0 0
0 0 0
0.0440528 0 0
0.0931411 0 0
0.141131 0 0
0.188876 0 0
0.246876 0 0
0.307378 0 0
0.370306 0 0
0.434836 0 0
0.50956 0 0
0.587411 0 0
0.659648 0 0
0.734279 0 0
0.809155 0 0
0.87512 0 0
0.926329 0 0
0.92752 0 0
0.92752 0 0
0.909697 0.320836 0.0113069
0.90074 0.465919 0.0817273
0.892882 0.575555 0.14406
0.885145 0.661372 0.214572
0.878325 0.739178 0.301045
0.87277 0.801328 0.406378
0.868482 0.848234 0.506065
0.86508 0.884779 0.594369
0.862486 0.912383 0.669688
0.86038 0.934051 0.739864
0.858732 0.950881 0.795468
0 0 0
0 0 0
0 0 0
0 0 0
0 0 0
0.0503853 0 0
0.0942702 0 0
0.141665 0 0
0.189837 0 0
0.249317 0 0
0.310613 0 0
0.372992 0 0
0.437293 0 0
0.51165 0 0
0.588937 0 0
0.660594 0 0
0.734829 0 0
0.809354 0 0
0.874937 0 0
0.925887 0 0
0.92752 0 0
0.921263 0.0973831 0
0.908537 0.343481 0
0.900008 0.47747 0.0751354
0.892393 0.582177 0.140887
0.88481 0.665522 0.21294
0.878111 0.741817 0.299413
0.872633 0.802853 0.405661
0.868406 0.849119 0.505669
0.865049 0.885267 0.594171
0.862455 0.912673 0.669566
0.860365 0.934218 0.739788
0.858717 0.950988 0.795422
0 0.0347295 0
0 0.0385595 0
0 0.0422827 0
0 0.0458381 0
0 0.0472419 0
0.0331273 0.0468147 0
0.0821088 0.0441138 0
0.130938 0.0386358 0
0.185763 0.0257267 0
0.250248 0 0
0.312551 0 0
0.375357 0 0
0.439643 0 0
0.513787 0 0
0.590463 0 0
0.66154 0 0
0.735378 0 0
0.809506 0 0
0.874739 0 0
0.925429 0 0
0.92752 0 0
0.917708 0.168765 0
0.907393 0.363943 0
0.899306 0.488304 0.0679637
0.891905 0.588586 0.137652
0.884459 0.669596 0.211322
0.877882 0.744411 0.29778
0.872511 0.804334 0.404929
0.868345 0.849989 0.505272
0.865003 0.885771 0.593988
0.86244 0.912947 0.669444
0.860349 0.934386 0.739696
0.858717 0.951095 0.795392
0 0.0758373 0
0 0.0789197 0
0 0.0819257 0
0 0.0843519 0
0 0.0854658 0
0.00723278 0.085771 0
0.0696117 0.0847028 0
0.12752 0.0809491 0
0.177676 0.0781567 0
0.230625 0.0706188 0
0.307073 0.0468299 0
0.37734 0 0
0.441932 0 0
0.515938 0 0
0.591989 0 0
0.662516 0 0
0.735912 0 0
0.809674 0 0
0.87454 0 0
0.924956 0 0
0.92752 0 0
0.915328 0.216281 0
0.906325 0.382757 0
0.898634 0.498573 0.0599832
0.891432 0.594522 0.134325
0.884123 0.673625 0.209689
0.877668 0.746975 0.296147
0.872389 0.805798 0.404211
0.868269 0.850858 0.504891
0.864958 0.886259 0.59379
0.862409 0.913237 0.669306
0.860334 0.934554 0.73962
0.858701 0.951186 0.795361
0 0.117281 0
0 0.11989 0
0 0.122484 0
0 0.12398 0
0 0.124926 0
0 0.125231 0
0.0472419 0.125399 0
0.113268 0.122927 0
0.178973 0.118975 0
0.222141 0.120729 0
0.30193 0.105714 0
0.370138 0.0877089 0
0.438941 0.0521706 0
0.518547 0 0
0.593835 0 0
0.663706 0 0
0.736584 0 0
0.809873 0 0
0.874266 0 0
0.924346 0 0
0.92752 0 0
0.913054 0.260197 0
0.905089 0.401755 0
0.897841 0.51043 0.0487068
0.890867 0.601205 0.130159
0.883711 0.678462 0.207675
0.877409 0.750057 0.294118
0.872236 0.807568 0.403311
0.868177 0.851896 0.504417
0.864912 0.886854 0.593545
0.862379 0.913573 0.669169
0.860319 0.934768 0.739544
0.858701 0.951308 0.795285
0 0.165103 0
0 0.167407 0
0 0.169238 0
0 0.170367 0
0 0.17116 0
0 0.171572 0
0 0.171832 0
0.0864118 0.171832 0
0.163439 0.167788 0
0.225345 0.167056 0
0.294667 0.159823 0
0.36614 0.149081 0
0.436332 0.132479 0
0.513695 0.102983 0
0.593088 0.0315099 0
0.665339 0 0
0.737499 0 0
0.810132 0 0
0.873854 0 0
0.923491 0 0
0.918898 0.144671 0
0.910552 0.306905 0
0.903578 0.425223 0
0.896849 0.525216 0.0290684
0.890135 0.609644 0.124407
0.883177 0.684779 0.20499
0.877073 0.754055 0.292607
0.872053 0.809888 0.402136
0.86807 0.853269 0.503777
0.864851 0.887633 0.593225
0.862348 0.914061 0.668956
0.860288 0.935042 0.739422
0.858686 0.951476 0.795224
0 0.221454 0
0 0.223285 0
0 0.224216 0
0 0.225162 0
0 0.225803 0
0 0.226246 0
0 0.226505 0
0.0368048 0.226856 0
0.129412 0.225574 0
0.207309 0.222797 0
0.282673 0.218204 0
0.359121 0.211124 0
0.43357 0.200412 0
0.512459 0.183764 0
0.589517 0.159792 0
0.659831 0.124102 0
0.734218 0.0612192 0
0.810468 0 0
0.873274 0 0
0.914992 0.117601 0
0.913924 0.243534 0
0.907805 0.356649 0
0.901747 0.453819 0
0.895674 0.543374 0
0.889189 0.620783 0.11635
0.88249 0.692973 0.201373
0.876646 0.759182 0.291463
0.871794 0.812863 0.400565
0.867918 0.855085 0.502937
0.864759 0.889036 0.592798
0.862287 0.914672 0.668696
0.860258 0.935409 0.739254
0.858671 0.95169 0.795148
0 0.283146 0
0 0.283635 0
0 0.284092 0
0 0.284504 0
0 0.284718 0
0 0.284794 0
0 0.284672 0
0 0.28426 0
0.0801556 0.283894 0
0.178149 0.282429 0
0.263508 0.279652 0
0.346868 0.274998 0
0.427756 0.26772 0
0.510781 0.256809 0
0.588678 0.243824 0
0.65745 0.227832 0
0.728511 0.209567 0
0.799741 0.193988 0
0.860822 0.203357 0
0.906477 0.251316 0
0.90959 0.324575 0
0.904784 0.406653 0
0.899565 0.487831 0
0.894041 0.565377 0
0.887633 0.635004 0.104784
0.881621 0.703349 0.196628
0.876097 0.765743 0.290059
0.871473 0.816709 0.39852
0.86772 0.85742 0.501808
0.864652 0.890379 0.592233
0.862226 0.91548 0.668345
0.860227 0.935897 0.73904
0.85864 0.95198 0.795026
0 0.346716 0
0 0.347189 0
0 0.347646 0
0 0.348013 0
0 0.348257 0
0 0.348394 0
0 0.348455 0
0 0.348333 0
0 0.347875 0
0.127337 0.347646 0
0.23267 0.346181 0
0.326436 0.343359 0
0.416327 0.338445 0
0.505943 0.331334 0
0.586954 0.323125 0
0.655879 0.314687 0
0.725383 0.307164 0
0.794369 0.303746 0
0.853559 0.314946 0
0.898604 0.348608 0
0.905272 0.398993 0
0.901427 0.458869 0
0.896971 0.525338 0
0.892058 0.59147 0
0.886168 0.652781 0.0873274
0.880537 0.716258 0.190509
0.875395 0.773968 0.28835
0.871077 0.821576 0.395804
0.86746 0.860456 0.500313
0.8645 0.892134 0.591455
0.862135 0.916533 0.667872
0.860166 0.936538 0.73875
0.85861 0.952361 0.794858
0 0.415152 0
0 0.415549 0
0 0.415915 0
0 0.416205 0
0 0.416434 0
0 0.416587 0
0 0.416709 0
0 0.41677 0
0 0.416648 0
0 0.416236 0
0.17702 0.416205 0
0.292393 0.414893 0
0.396414 0.412467 0
0.494133 0.408667 0
0.580789 0.403891 0
0.65272 0.39942 0
0.722011 0.396841 0
0.788952 0.398215 0
0.845838 0.40882 0
0.889815 0.432105 0
0.900832 0.468238 0
0.897734 0.514549 0
0.893965 0.566384 0
0.889662 0.619135 0
0.884367 0.674662 0.0577401
0.87921 0.73196 0.182712
0.874525 0.7841 0.286366
0.870558 0.827741 0.392218
0.86714 0.864302 0.498344
0.864317 0.894377 0.590417
0.862013 0.917922 0.667231
0.860105 0.937392 0.738369
0.858564 0.952865 0.794644
0 0.491981 0
0 0.492348 0
0 0.492638 0
0 0.492897 0
0 0.493095 0
0 0.493278 0
0 0.493431 0
0 0.493553 0
0 0.493645 0
0 0.493751 0
0.033753 0.494011 0
0.232074 0.494118 0
0.361364 0.493156 0
0.471168 0.490898 0
0.566735 0.487755 0
0.644572 0.484642 0
0.716442 0.482979 0
0.782452 0.484871 0
0.837201 0.493507 0
0.879484 0.510781 0
0.896178 0.536446 0
0.893675 0.570306 0
0.890532 0.608927 0
0.886488 0.652125 0
0.882322 0.700954 0
0.877653 0.750576 0.173098
0.873503 0.796246 0.284291
0.869902 0.83537 0.390478
0.866743 0.869154 0.495735
0.864073 0.8972 0.589044
0.861875 0.919707 0.666377
0.860014 0.938476 0.73785
0.858518 0.953521 0.794354
0 0.571283 0
0 0.571527 0
0 0.57174 0
0 0.571939 0
0 0.572091 0
0 0.572244 0
0 0.572366 0
0 0.572503 0
0 0.57261 0
0 0.572625 0
0 0.572519 0
0.10515 0.572671 0
0.302876 0.572229 0
0.435721 0.570764 0
0.543694 0.568566 0
0.630076 0.566049 0
0.706523 0.564202 0
0.773953 0.564965 0
0.827222 0.570916 0
0.867994 0.583154 0
0.891264 0.600763 0
0.889265 0.623758 0
0.886351 0.653742 0
0.883238 0.690105 0
0.879789 0.730755 0
0.875853 0.771862 0.161975
0.872312 0.810346 0.282475
0.869123 0.844602 0.391104
0.866239 0.87509 0.492302
0.863783 0.900755 0.587198
0.861677 0.921996 0.665248
0.859892 0.939879 0.737179
0.858442 0.954376 0.793973
0 0.642954 0
0 0.643076 0
0 0.643198 0
0 0.64329 0
0 0.643366 0
0 0.643427 0
0 0.643488 0
0 0.643519 0
0 0.643549 0
0 0.643488 0
0 0.64332 0
0 0.642893 0
0.205844 0.642817 0
0.387991 0.641855 0
0.51107 0.640269 0
0.60882 0.638254 0
0.690562 0.636316 0
0.760983 0.636057 0
0.81474 0.639475 0
0.854673 0.647608 0
0.885756 0.660609 0
0.884199 0.679011 0
0.882155 0.702968 0
0.879728 0.731441 0
0.877058 0.762814 0
0.873899 0.795178 0.150469
0.87097 0.826154 0.281529
0.868193 0.855512 0.39234
0.865644 0.882216 0.488716
0.863416 0.90518 0.584726
0.861448 0.92488 0.663767
0.859739 0.941665 0.736278
0.858351 0.955474 0.793469
0 0.714214 0
0 0.71429 0
0 0.714321 0
0 0.714351 0
0 0.714366 0
0 0.714382 0
0 0.714382 0
0 0.714351 0
0 0.71429 0
0 0.714168 0
0 0.713893 0
0 0.713375 0
0 0.712444 0
0.314092 0.712215 0
0.467323 0.710842 0
0.580591 0.709026 0
0.668193 0.706981 0
0.742138 0.706004 0
0.797864 0.70779 0
0.838758 0.713237 0
0.869535 0.72256 0
0.879362 0.73579 0
0.877913 0.752621 0
0.876204 0.772793 0
0.874266 0.795499 0
0.871855 0.819379 0.141527
0.869459 0.843748 0.282139
0.867124 0.867948 0.394629
0.864942 0.890791 0.491127
0.862959 0.910582 0.581445
0.861143 0.928466 0.661799
0.859556 0.943923 0.735058
0.858228 0.956893 0.792782
0 0.783642 0
0 0.783627 0
0 0.783597 0
0 0.783581 0
0 0.783536 0
0 0.78349 0
0 0.783429 0
0 0.783322 0
0 0.783169 0
0 0.78291 0
0 0.782498 0
0 0.781826 0
0 0.780743 0
0.206027 0.780148 0
0.414801 0.77882 0
0.545953 0.776867 0
0.642344 0.774533 0
0.719097 0.772702 0
0.777386 0.772564 0
0.820829 0.774807 0
0.852888 0.779812 0
0.874922 0.787839 0
0.874022 0.798459 0
0.872908 0.811566 0
0.871611 0.826703 0
0.869764 0.843931 0.138994
0.867857 0.862577 0.285603
0.86595 0.881559 0.398642
0.864149 0.899962 0.494728
0.862425 0.917006 0.579812
0.860792 0.932784 0.65922
0.859327 0.946685 0.733471
0.858091 0.958679 0.791897
0 0.841505 0
0 0.841413 0
0 0.841337 0
0 0.84126 0
0 0.841169 0
0 0.841062 0
0 0.84094 0
0 0.840757 0
0 0.840497 0
0 0.840101 0
0 0.839521 0
0 0.838651 0
0 0.83743 0
0.0804608 0.836347 0
0.371283 0.835004 0
0.517357 0.832853 0
0.620996 0.830152 0
0.698146 0.82771 0
0.75761 0.826261 0
0.803357 0.8262 0
0.837293 0.82797 0
0.861784 0.831876 0
0.870665 0.837888 0
0.869963 0.846021 0
0.869093 0.856214 0
0.867674 0.868284 0.14757
0.866209 0.881697 0.293858
0.864729 0.896056 0.405249
0.863264 0.910155 0.499931
0.861784 0.924361 0.58352
0.860365 0.937911 0.655833
0.859052 0.950027 0.731365
0.857893 0.960891 0.790692
0 0.885466 0
0 0.885344 0
0 0.885222 0
0 0.885084 0
0 0.884962 0
0 0.884825 0
0 0.884642 0
0 0.884398 0
0 0.884047 0
0 0.883558 0
0 0.882856 0
0 0.881895 0
0 0.880598 0
0.0308843 0.879347 0
0.353323 0.878019 0
0.503899 0.875776 0
0.608606 0.873014 0
0.68333 0.870359 0
0.741512 0.868391 0
0.787884 0.867247 0
0.822995 0.867353 0
0.849058 0.86894 0
0.86775 0.872099 0
0.867338 0.87686 0
0.866804 0.883177 0
0.86569 0.891356 0.171893
0.864622 0.900267 0.309071
0.863493 0.910262 0.415427
0.862303 0.921187 0.507347
0.861067 0.932555 0.588678
0.859861 0.943664 0.658427
0.858717 0.954009 0.728557
0.857679 0.963592 0.789105
0 0.91986 0
0 0.919707 0
0 0.919539 0
0 0.919371 0
0 0.919203 0
0 0.919036 0
0 0.918807 0
0 0.918517 0
0 0.91812 0
0 0.917571 0
0 0.916838 0
0 0.915862 0
0 0.914549 0
0.124743 0.913558 0
0.370825 0.912062 0
0.508461 0.909804 0
0.605417 0.907134 0
0.674907 0.904494 0
0.730098 0.902312 0
0.775235 0.900633 0
0.810376 0.899763 0
0.837659 0.899809 0
0.858763 0.900893 0
0.865141 0.90312 0
0.864836 0.9066 0
0.86389 0.911437 0.211933
0.863096 0.917449 0.332647
0.862226 0.924575 0.430152
0.861295 0.932647 0.517647
0.860304 0.941283 0.595438
0.859297 0.949981 0.66334
0.858335 0.958572 0.728862
0.85742 0.967132 0.787015
0 0.944533 0
0 0.944366 0
0 0.944167 0
0 0.943984 0
0 0.943801 0
0 0.943618 0
0 0.943389 0
0 0.943084 0
0 0.942672 0
0 0.942123 0
0 0.94139 0
0 0.940414 0
0 0.939147 0
0.261036 0.938582 0
0.418814 0.936965 0
0.531121 0.934798 0
0.612131 0.932342 0
0.673854 0.929931 0
0.724514 0.927749 0
0.767071 0.925902 0
0.800732 0.924651 0
0.828107 0.923949 0
0.849897 0.92398 0
0.863279 0.924895 0
0.862776 0.926772 0.119799
0.862226 0.929671 0.261814
0.861646 0.933562 0.364858
0.861006 0.938354 0.450721
0.860288 0.943954 0.531685
0.85951 0.950164 0.604135
0.858701 0.956802 0.670008
0.857877 0.963638 0.733211
0.857114 0.970748 0.786068
0 0.963241 0
0 0.963073 0
0 0.96289 0
0 0.962692 0
0 0.962524 0
0 0.962325 0
0 0.962112 0
0 0.961807 0
0 0.961425 0
0 0.960876 0
0 0.960189 0
0.0592355 0.959823 0
0.258762 0.959167 0
0.386481 0.958007 0
0.48423 0.956405 0
0.564401 0.954482 0
0.626734 0.952346 0
0.678523 0.950225 0
0.723705 0.948211 0
0.762448 0.946395 0
0.79382 0.944991 0
0.820249 0.943984 0
0.841932 0.94342 0
0.858717 0.943481 0.0243229
0.861082 0.944228 0.218021
0.860731 0.945693 0.318959
0.860319 0.947936 0.402655
0.859861 0.950912 0.478187
0.859312 0.954604 0.550164
0.858717 0.958984 0.615808
0.858061 0.964263 0.678981
0.857404 0.969436 0.738979
0.856764 0.97467 0.789441
0 0.977493 0
0 0.977325 0
0 0.977142 0
0 0.976974 0
0 0.976806 0
0 0.976638 0
0 0.976761 0
0.0754559 0.976761 0
0.15314 0.976593 0
0.225528 0.976303 0
0.294713 0.97586 0
0.363348 0.974823 0
0.427359 0.973953 0
0.490913 0.972824 0
0.549599 0.97145 0
0.602258 0.969848 0
0.647272 0.968078 0
0.689006 0.966293 0
0.727657 0.964477 0
0.761547 0.962432 0
0.790036 0.961028 0
0.814862 0.959869 0
0.83537 0.959075 0.0724804
0.851881 0.958679 0.209155
0.859663 0.958694 0.299794
0.859419 0.959228 0.37882
0.859129 0.960388 0.445319
0.858793 0.962173 0.511009
0.858396 0.96495 0.573541
0.857939 0.96788 0.631571
0.85742 0.971252 0.690761
0.856901 0.974929 0.746517
0.856382 0.979187 0.793851
0.349035 0.98819 0
0.360464 0.988067 0
0.371328 0.987945 0
0.381674 0.987839 0
0.390585 0.987716 0
0.399176 0.987594 0
0.409293 0.987457 0
0.422171 0.987259 0
0.438376 0.986999 0
0.458595 0.986664 0
0.482963 0.986221 0
0.51043 0.985641 0
0.540795 0.984924 0
0.573587 0.984009 0
0.606271 0.982925 0
0.638285 0.981704 0.0347906
0.670909 0.980362 0.0655375
0.703716 0.978882 0.093492
0.735103 0.977371 0.121859
0.763348 0.975555 0.152026
0.788525 0.974258 0.185107
0.811124 0.973098 0.221225
0.830335 0.972183 0.26041
0.846311 0.971527 0.315755
0.858442 0.971176 0.37731
0.858289 0.97116 0.434104
0.858091 0.971572 0.49247
0.857847 0.972457 0.547845
0.857542 0.973846 0.600916
0.857176 0.976059 0.651835
0.856794 0.978195 0.705699
0.856397 0.980636 0.756176
0.856001 0.983368 0.799542
0.536873 0.994583 0.292165
0.540612 0.994598 0.292393
0.544259 0.994614 0.292576
0.547829 0.994614 0.29279
0.551293 0.994629 0.292988
0.554696 0.994644 0.293202
0.55877 0.994629 0.293462
0.56405 0.994476 0.293797
0.570809 0.994293 0.294255
0.579385 0.994034 0.294881
0.58999 0.993698 0.295689
0.601877 0.993286 0.296788
0.615732 0.992752 0.298268
0.632364 0.992126 0.300267
0.651453 0.991348 0.302922
0.673045 0.990417 0.306493
0.696559 0.989364 0.311208
0.72105 0.98819 0.317449
0.745205 0.986969 0.325643
0.767926 0.985779 0.336248
0.789685 0.984604 0.349813
0.809659 0.983505 0.366873
0.82707 0.982574 0.387442
0.84213 0.981811 0.41059
0.854627 0.981262 0.447242
0.857298 0.980926 0.492851
0.85716 0.980865 0.539712
0.856977 0.981155 0.587015
0.856764 0.981796 0.630701
0.856504 0.982803 0.67689
0.856214 0.984085 0.723964
0.855924 0.985656 0.7682
0.855619 0.987488 0.806836
0.631006 0.995056 0.43183
0.632563 0.995056 0.431937
0.634089 0.995071 0.432044
0.635615 0.995071 0.432151
0.63711 0.995087 0.432258
0.638605 0.995087 0.43238
0.640391 0.995102 0.432517
0.642771 0.995102 0.432685
0.645869 0.995117 0.432929
0.649912 0.995132 0.433249
0.6551 0.995163 0.433677
0.661707 0.995193 0.434256
0.669978 0.995224 0.435019
0.68014 0.995285 0.436057
0.692332 0.995331 0.437446
0.706508 0.995407 0.439292
0.722408 0.995468 0.441779
0.739498 0.994919 0.445121
0.757061 0.994003 0.449592
0.775204 0.993011 0.455512
0.793225 0.992004 0.463294
0.810208 0.991028 0.473426
0.825528 0.990143 0.486213
0.839246 0.98938 0.502037
0.85098 0.988754 0.521385
0.856489 0.988281 0.551324
0.856397 0.988006 0.588037
0.85626 0.987945 0.624537
0.856107 0.988144 0.664271
0.855909 0.988602 0.705409
0.855695 0.989273 0.745159
0.855482 0.990188 0.782513
0.855268 0.991302 0.815991
0.691508 0.995392 0.539101
0.692363 0.995392 0.539162
0.693217 0.995392 0.539239
0.694057 0.995407 0.5393
0.694896 0.995407 0.539361
0.69572 0.995407 0.539437
0.696742 0.995422 0.539528
0.69807 0.995422 0.539635
0.69984 0.995422 0.539788
0.702129 0.995438 0.539986
0.705104 0.995453 0.540246
0.708919 0.995468 0.540612
0.713771 0.995499 0.5411
0.719814 0.995529 0.541741
0.727184 0.99556 0.542611
0.735943 0.99559 0.543755
0.746029 0.995651 0.545296
0.757626 0.995697 0.547341
0.77055 0.995758 0.550057
0.78439 0.995819 0.553674
0.798566 0.995895 0.558434
0.812329 0.995956 0.564645
0.825406 0.99588 0.572732
0.837522 0.995148 0.583078
0.848112 0.994522 0.595773
0.855802 0.994018 0.610346
0.855741 0.993622 0.63447
0.85565 0.993347 0.665507
0.855528 0.993286 0.700038
0.85539 0.993362 0.734859
0.855238 0.993606 0.768109
0.8551 0.994034 0.798627
0.854932 0.994614 0.827085
0.734646 0.995651 0.624598
0.735103 0.995651 0.624643
0.735561 0.995651 0.624689
0.736004 0.995651 0.624735
0.736446 0.995651 0.624765
0.736889 0.995651 0.624811
0.737423 0.995666 0.624872
0.73814 0.995666 0.624933
0.739086 0.995666 0.625025
