BBLuts/BB_101_0170_LUT.cube
TITLE "Generated by Resolve"
LUT_3D_SIZE 9
0.0195621 0.0195621 0.0195621
0.0233005 0.0190585 0.0190433
0.239384 0.0184634 0.018677
0.530404 0.00672923 0.00697337
0.826017 0 0
1 0 0
1 0.64387 0.153536
1 0.906554 0.533989
1 0.986511 0.850309
0.0204471 0.0813611 0.0195773
0.0206455 0.0925154 0.0196231
0.246967 0.0705425 0.0188602
0.538781 0.00616464 0.00642405
0.828107 0 0
1 0 0
1 0.665064 0.134829
1 0.908263 0.532769
1 0.986633 0.850217
0.0205997 0.258122 0.0172274
0.0204776 0.262119 0.0170443
0.198001 0.263081 0.0187533
0.553399 0.232883 0.0119478
0.837446 0.117601 0
1 0.294636 0.027512
1 0.692332 0.0954604
1 0.91104 0.530892
1 0.986847 0.85008
0.00723278 0.555459 0
0.00721752 0.556435 0
0.00721752 0.557504 0
0.485679 0.566186 0.0148318
0.856962 0.557748 0.018555
1 0.613001 0.0370794
1 0.768246 0.0338903
1 0.920974 0.529
1 0.987839 0.849393
0.0268864 0.840558 0.0113832
0.0268864 0.840558 0.0113832
0.0268406 0.84033 0.0113375
0.0264134 0.838331 0.010956
0.802792 0.836606 0.0229038
1 0.8439 0.0311589
1 0.885512 0.0327459
1 0.945983 0.539345
1 0.991516 0.846738
0.0697185 0.997467 0.0504158
0.0697185 0.997467 0.0504158
0.0697185 0.997467 0.0504158
0.0688029 0.993973 0.0495918
0.778088 0.980407 0.0395361
0.987579 0.970031 0.0345312
1 0.971405 0.041886
1 0.982651 0.584436
1 1 0.84863
0.705776 1 0.297688
0.705776 1 0.297688
0.705776 1 0.297688
0.70576 1 0.297704
0.862348 1 0.304662
0.980774 1 0.355596
1 1 0.490242
1 1 0.684977
1 1 0.874357
0.955886 1 0.760906
0.955886 1 0.760922
0.955886 1 0.760922
0.955886 1 0.760922
0.955886 1 0.760922
0.994858 1 0.767742
1 1 0.787915
1 1 0.838514
1 1 0.924147
1 1 0.951766
1 1 0.951766
1 1 0.951766
1 1 0.951766
1 1 0.951766
1 1 0.951766
1 1 0.954009
1 1 0.960296
1 1 0.976104
0.0190127 0.0189822 0.0846265
0.0190127 0.0189822 0.0852064
0.235966 0.0185092 0.0857862
0.529427 0.00679026 0.0754101
0.825406 0 0.0543221
1 0 0.0628367
1 0.6421 0.186969
1 0.906523 0.534005
1 0.986496 0.850309
0.0199435 0.0497292 0.0763256
0.0597543 0.0647593 0.0753033
0.252491 0.0192416 0.077409
0.532189 0.00660716 0.0623331
0.826093 0 0.0107271
1 0 0.0196384
1 0.66363 0.162585
1 0.908232 0.532799
1 0.986633 0.850217
0.0209506 0.24625 0.024155
0.0208591 0.249836 0.0242161
0.217624 0.251118 0.0258946
0.550149 0.220111 0.0168154
0.832074 0.080827 0
1 0.276951 0.0256962
1 0.691157 0.12018
1 0.91104 0.530892
1 0.986847 0.85008
0.00729381 0.550378 0
0.00727855 0.551278 0
0.00726329 0.552239 0
0.498116 0.560555 0.0148318
0.856184 0.552987 0.018555
1 0.610315 0.0370336
1 0.767452 0.0339208
1 0.920974 0.529
1 0.987839 0.849393
0.026566 0.839063 0.0110933
0.026566 0.839048 0.0110933
0.0265202 0.838804 0.0110475
0.0260929 0.836789 0.0106813
0.80499 0.835416 0.022797
1 0.843153 0.0311589
1 0.885267 0.0327459
1 0.945983 0.539345
1 0.991516 0.846738
0.0696269 0.997131 0.0503243
0.0696422 0.997192 0.0503548
0.0696422 0.997192 0.0503548
0.0687419 0.993744 0.0495308
0.77998 0.980148 0.0394141
0.987732 0.969909 0.0345312
1 0.971344 0.041886
1 0.982651 0.584436
1 1 0.84863
0.708995 1 0.297169
0.708995 1 0.297169
0.70898 1 0.297169
0.708965 1 0.297169
0.863172 1 0.304326
0.980911 1 0.355352
1 1 0.490211
1 1 0.684977
1 1 0.874357
0.956069 1 0.760891
0.956069 1 0.760891
0.956069 1 0.760891
0.956069 1 0.760891
0.956054 1 0.760891
0.994934 1 0.767727
1 1 0.787884
1 1 0.838514
1 1 0.924147
1 1 0.951766
1 1 0.951766
1 1 0.951766
1 1 0.951766
1 1 0.951766
1 1 0.951766
1 1 0.954009
1 1 0.960296
1 1 0.976104
0.0188296 0.0187076 0.257954
0.0188296 0.0186923 0.258305
0.201068 0.0184787 0.257877
0.538994 0.00582895 0.242115
0.825452 0 0.227924
1 0 0.258976
1 0.633722 0.367483
1 0.905623 0.567224
1 0.986496 0.850309
0.0188449 0.0187228 0.254734
0.0188449 0.0187228 0.255253
0.226551 0.0182345 0.254078
0.537926 0.0059205 0.237995
0.826535 0 0.222766
1 0 0.24921
1 0.656199 0.358206
1 0.907362 0.56611
1 0.986633 0.850217
0.0214847 0.212345 0.240818
0.0214847 0.215396 0.240772
0.197818 0.211292 0.237446
0.532021 0.184298 0.232044
0.826246 0.00770581 0.210346
1 0.213275 0.26099
1 0.684947 0.344198
1 0.910185 0.564218
1 0.986847 0.85008
0.00982681 0.536156 0.134615
0.00979629 0.537575 0.134981
0.00982681 0.538491 0.136568
0.496544 0.547036 0.154437
0.852079 0.539956 0.15996
1 0.601907 0.194797
1 0.764126 0.289921
1 0.920256 0.556863
1 0.987839 0.849393
0.0259709 0.83621 0.0105592
0.0259709 0.83621 0.0105592
0.0259098 0.835966 0.0105135
0.0254826 0.833951 0.0101472
0.806745 0.832532 0.0225681
1 0.840955 0.0311284
1 0.884215 0.0896925
1 0.945861 0.540887
1 0.991516 0.846738
0.0695201 0.996719 0.0502327
0.0695201 0.996719 0.0502327
0.0695201 0.996719 0.0502327
0.0692454 0.993378 0.0496071
0.783261 0.979736 0.0392004
0.988144 0.969696 0.0345312
1 0.971206 0.0418555
1 0.982605 0.584268
1 1 0.84863
0.713298 1 0.296407
0.713298 1 0.296407
0.713298 1 0.296407
0.713283 1 0.296407
0.864286 1 0.303868
0.981216 1 0.355062
1 1 0.489937
1 1 0.684901
1 1 0.874357
0.956329 1 0.760861
0.956329 1 0.760861
0.956329 1 0.760861
0.956329 1 0.760861
0.956329 1 0.760861
0.995026 1 0.767681
1 1 0.787869
1 1 0.838514
1 1 0.924147
1 1 0.951766
1 1 0.951766
1 1 0.951766
1 1 0.951766
1 1 0.951766
1 1 0.951766
1 1 0.953994
1 1 0.960296
1 1 0.976104
0.0145418 0.0143282 0.561913
0.0145418 0.0143282 0.56202
0.0145266 0.014313 0.56228
0.490486 0.00424201 0.554223
0.841321 0 0.541436
1 0 0.563943
1 0.599756 0.62594
1 0.899565 0.704692
1 0.986252 0.861112
0.0145876 0.0143587 0.560296
0.0145724 0.0143587 0.560433
0.038819 0.0144198 0.560678
0.507774 0.00332647 0.551339
0.839933 0 0.539254
1 0 0.561059
1 0.625803 0.623453
1 0.901411 0.704097
1 0.986389 0.861021
0.0157015 0.0664988 0.556832
0.0157473 0.0691539 0.556954
0.0457771 0.0700084 0.557092
0.515572 0.00294499 0.547311
0.835081 0 0.535103
1 0.0037232 0.557504
1 0.658534 0.619394
1 0.904372 0.703136
1 0.986603 0.860914
0.0128023 0.478996 0.525414
0.0127871 0.480064 0.52549
0.0127413 0.48246 0.526162
0.469215 0.491997 0.538659
0.836881 0.482948 0.544015
1 0.563745 0.571176
1 0.746303 0.604334
1 0.914977 0.699611
1 0.987594 0.860319
0.0293431 0.826871 0.431434
0.0293431 0.826871 0.431434
0.0293889 0.82707 0.432486
0.0290227 0.825116 0.43624
0.800748 0.82327 0.457008
1 0.832319 0.494881
1 0.877592 0.565332
1 0.941756 0.687846
1 0.991257 0.85803
0.0707866 0.996368 0.163516
0.0707866 0.996368 0.163516
0.0707866 0.996368 0.163516
0.0705272 0.993194 0.164874
0.77911 0.97911 0.157122
0.986999 0.968475 0.294469
1 0.968902 0.471748
1 0.980819 0.657084
1 1 0.851377
0.726238 1 0.293355
0.726238 1 0.293355
0.726238 1 0.293355
0.726238 1 0.293355
0.867689 1 0.302434
0.98204 1 0.354055
1 1 0.489525
1 1 0.684504
1 1 0.874281
0.957214 1 0.760739
0.957214 1 0.760739
0.957214 1 0.760739
0.957214 1 0.760739
0.957214 1 0.760739
0.995361 1 0.767544
1 1 0.787762
1 1 0.838407
1 1 0.924117
1 1 0.951751
1 1 0.951751
1 1 0.951751
1 1 0.951751
1 1 0.951751
1 1 0.951751
1 1 0.953994
1 1 0.960281
1 1 0.976104
0.00703441 0.00669871 0.843229
0.00703441 0.00669871 0.843229
0.00701915 0.00669871 0.843305
0.11809 0.00666819 0.843183
0.8112 0 0.824872
1 0 0.832502
1 0.343114 0.868086
1 0.884321 0.878782
1 0.984222 0.930312
0.00703441 0.00669871 0.843153
0.00703441 0.00669871 0.843153
0.00701915 0.00669871 0.843214
0.125734 0.00665293 0.842771
0.814633 0 0.824475
1 0 0.832151
1 0.439796 0.869169
1 0.88661 0.878447
1 0.984344 0.930266
0.00703441 0.00671397 0.842252
0.00703441 0.00671397 0.842252
0.00703441 0.00671397 0.842298
0.229282 0.00593576 0.841291
0.819745 0 0.823438
1 0 0.831174
1 0.537438 0.86804
1 0.890089 0.877928
1 0.984588 0.930205
0.0118257 0.213016 0.838773
0.0118257 0.213016 0.838773
0.0119173 0.217456 0.838804
0.244648 0.212055 0.839887
0.827543 0.0969558 0.826413
1 0.210758 0.844068
1 0.679103 0.860975
1 0.902678 0.87602
1 0.985626 0.929915
0.0230106 0.782208 0.811994
0.0230106 0.782208 0.811994
0.0230259 0.782254 0.812024
0.0229953 0.782071 0.81239
0.771984 0.781109 0.819654
1 0.796002 0.826459
1 0.855421 0.837858
1 0.933532 0.870497
1 0.989487 0.928832
0.0676585 0.991028 0.795438
0.0676585 0.991028 0.795438
0.0676738 0.991104 0.795392
0.0671397 0.988602 0.795682
0.729213 0.972549 0.790799
0.972244 0.958953 0.793393
1 0.960678 0.815396
1 0.975692 0.858778
1 0.999649 0.924926
0.702296 1 0.720989
0.702296 1 0.720989
0.702296 1 0.720989
0.702296 1 0.720989
0.848966 1 0.71902
0.971115 1 0.729885
1 1 0.763638
1 1 0.830488
1 1 0.913649
0.960037 1 0.760037
0.960037 1 0.760037
0.960037 1 0.760037
0.960037 1 0.760037
0.960037 1 0.760037
0.996429 1 0.767071
1 1 0.787366
1 1 0.838224
1 1 0.923949
1 1 0.951705
1 1 0.951705
1 1 0.951705
1 1 0.951705
1 1 0.951705
1 1 0.951705
1 1 0.953948
1 1 0.96025
1 1 0.976074
0.00621042 0.00573739 0.996628
0.00621042 0.00573739 0.996704
0.00621042 0.00573739 0.996704
0.00621042 0.00573739 0.996719
0.62031 0 0.98468
1 0 0.980926
1 0 0.981506
1 0.817975 0.991211
1 0.979324 0.990066
0.00621042 0.00573739 0.996704
0.00621042 0.00573739 0.996704
0.00621042 0.00573739 0.996704
0.00621042 0.00573739 0.996719
0.619669 0 0.98471
1 0 0.980926
1 0 0.981445
1 0.82324 0.990631
1 0.979507 0.990036
0.00621042 0.00573739 0.996658
0.00621042 0.00573739 0.996658
0.00621042 0.00573739 0.996658
0.00621042 0.00573739 0.996674
0.62945 0 0.984207
1 0 0.980865
1 0 0.981353
1 0.831235 0.989776
1 0.979782 0.990005
0.00621042 0.00573739 0.996307
0.00621042 0.00573739 0.996307
0.00621042 0.00573739 0.996307
0.00621042 0.00573739 0.996323
0.683207 0 0.98143
1 0 0.980514
1 0 0.980529
1 0.857084 0.987045
1 0.981003 0.989853
0.0169223 0.538277 0.989639
0.0169223 0.538277 0.989639
0.0169223 0.538277 0.989639
0.0169985 0.542504 0.989548
0.697719 0.547295 0.995544
1 0.580667 1
1 0.745998 0.993027
1 0.909911 0.98201
1 0.985534 0.989288
0.0659342 0.977417 0.985367
0.0659342 0.977417 0.985367
0.0659342 0.977417 0.985367
0.0659342 0.977417 0.985367
0.515511 0.96788 0.984527
0.956771 0.944335 0.970993
1 0.94876 0.972015
1 0.968368 0.976196
1 0.997147 0.987564
0.542809 1 0.974304
0.542809 1 0.974304
0.543893 1 0.974243
0.543893 1 0.974243
0.770642 1 0.963928
0.951049 1 0.960266
1 1 0.962905
1 1 0.969787
1 1 0.98378
0.948272 1 0.935714
0.948272 1 0.935714
0.948272 1 0.935714
0.948272 1 0.935714
0.948272 1 0.935714
0.985367 1 0.937148
1 1 0.941802
1 1 0.953643
1 1 0.974701
1 1 0.951583
1 1 0.951583
1 1 0.951583
1 1 0.951583
1 1 0.951583
1 1 0.951583
1 1 0.953796
1 1 0.960128
1 1 0.976043
0.00614939 0.00561532 1
0.00614939 0.00561532 1
0.00614939 0.00561532 1
0.00614939 0.00561532 1
0.00614939 0.00561532 1
0.94284 0 1
1 0 1
1 0 1
1 0.956878 1
0.00614939 0.00561532 1
0.00614939 0.00561532 1
0.00614939 0.00561532 1
0.00614939 0.00561532 1
0.00614939 0.00561532 1
0.94284 0 1
1 0 1
1 0 1
1 0.957244 1
0.00614939 0.00561532 1
0.00614939 0.00561532 1
0.00614939 0.00561532 1
0.00614939 0.00561532 1
0.00614939 0.00561532 1
0.94284 0 1
1 0 1
1 0 1
1 0.957916 1
0.00614939 0.00561532 1
0.00614939 0.00561532 1
0.00614939 0.00561532 1
0.00614939 0.00561532 1
0.00614939 0.00561532 1
0.947326 0 1
1 0 1
1 0 1
1 0.960494 1
0.00614939 0.00561532 1
0.00614939 0.00561532 1
0.00614939 0.00561532 1
0.00614939 0.00561532 1
0.00614939 0.00561532 1
0.978485 0 1
1 0 1
1 0.509987 1
1 0.969284 1
0.0338293 0.815351 1
0.0338293 0.815351 1
0.0338293 0.815351 1
0.0338293 0.815351 1
0.0343328 0.818586 1
0.944411 0.812589 1
1 0.856397 1
1 0.932692 1
1 0.988296 1
0.0767529 1 1
0.0767529 1 1
0.0767529 1 1
0.0767529 1 1
0.0767529 1 1
0.909331 1 1
1 1 1
1 1 1
1 1 1
0.921645 1 1
0.921645 1 1
0.921645 1 1
0.921645 1 1
0.921645 1 1
0.963561 1 1
1 1 1
1 1 1
1 1 1
1 1 1
1 1 1
1 1 1
1 1 1
1 1 1
1 1 1
1 1 1
1 1 1
1 1 1
0.00828565 0.0909133 1
0.00828565 0.0909133 1
0.00828565 0.0909133 1
0.00828565 0.0909133 1
0.00828565 0.0909133 1
0.00828565 0.0910048 1
1 0 1
1 0.0225681 1
1 0.72134 1
0.00828565 0.0909133 1
0.00828565 0.0909133 1
0.00828565 0.0909133 1
0.00828565 0.0909133 1
0.00828565 0.0909133 1
0.00828565 0.0910048 1
1 0 1
1 0.0225681 1
1 0.72134 1
0.00828565 0.0909133 1
0.00828565 0.0909133 1
0.00828565 0.0909133 1
0.00828565 0.0909133 1
0.00828565 0.0909133 1
0.00828565 0.0910048 1
1 0 1
1 0.0225681 1
1 0.721294 1
0.00828565 0.0909133 1
0.00828565 0.0909133 1
0.00828565 0.0909133 1
0.00828565 0.0909133 1
0.00828565 0.0909133 1
0.00828565 0.0910048 1
1 0 1
1 0.0225681 1
1 0.721202 1
0.00828565 0.0907912 1
0.00828565 0.0907912 1
0.00828565 0.0907912 1
0.00828565 0.0907912 1
0.00828565 0.0907912 1
0.00828565 0.0908675 1
1 0 1
1 0.0250553 1
1 0.720913 1
0.00822461 0.0890974 1
0.00822461 0.0890974 1
0.00822461 0.0890974 1
0.00822461 0.0890974 1
0.00822461 0.0890974 1
0.00822461 0.0891737 1
1 0 1
1 0.0717784 1
1 0.854307 1
0.0664988 0.974334 1
0.0664988 0.974334 1
0.0664988 0.974334 1
0.0664988 0.974334 1
0.0664988 0.974334 1
0.0668345 0.976043 1
1 0.942123 1
1 0.968277 1
1 0.996933 1
0.631083 1 1
0.631083 1 1
0.631083 1 1
0.631083 1 1
0.631083 1 1
0.631083 1 1
1 1 1
1 1 1
1 1 1
1 1 1
1 1 1
1 1 1
1 1 1
1 1 1
1 1 1
1 1 1
1 1 1
1 1 1
0.0167391 0.347845 1
0.0167391 0.347845 1
0.0167391 0.347845 1
0.0167391 0.347845 1
0.0167391 0.347845 1
0.0167391 0.347845 1
0.0167391 0.347936 1
1 0.145693 1
1 0.753109 1
0.0167391 0.347845 1
0.0167391 0.347845 1
0.0167391 0.347845 1
0.0167391 0.347845 1
0.0167391 0.347845 1
0.0167391 0.347845 1
0.0167391 0.347936 1
1 0.145693 1
1 0.753109 1
0.0167391 0.347845 1
0.0167391 0.347845 1
0.0167391 0.347845 1
0.0167391 0.347845 1
0.0167391 0.347845 1
0.0167391 0.347845 1
0.0167391 0.347936 1
1 0.145693 1
1 0.753109 1
0.0167391 0.347845 1
0.0167391 0.347845 1
0.0167391 0.347845 1
0.0167391 0.347845 1
0.0167391 0.347845 1
0.0167391 0.347845 1
0.0167391 0.347936 1
1 0.145693 1
1 0.753109 1
0.0167391 0.347845 1
0.0167391 0.347845 1
0.0167391 0.347845 1
0.0167391 0.347845 1
0.0167391 0.347845 1
0.0167391 0.347845 1
0.0167391 0.347936 1
1 0.145693 1
1 0.753109 1
0.0167391 0.347768 1
0.0167391 0.347768 1
0.0167391 0.347768 1
0.0167391 0.347768 1
0.0167391 0.347768 1
0.0167391 0.347768 1
0.0167391 0.347829 1
1 0.146853 1
1 0.754406 1
0.0167239 0.346395 1
0.0167239 0.346395 1
0.0167239 0.346395 1
0.0167239 0.346395 1
0.0167239 0.346395 1
0.0167239 0.346395 1
0.0167086 0.346456 1
1 0.297734 1
1 0.756756 1
0.0767834 1 1
0.0767834 1 1
0.0767834 1 1
0.0767834 1 1
0.0767834 1 1
0.0767834 1 1
0.0767987 1 1
1 1 1
1 1 1
0.964645 1 1
0.964645 1 1
0.964645 1 1
0.964645 1 1
0.964645 1 1
0.964645 1 1
0.964645 1 1
1 1 1
1 1 1
