BBLuts/BB_104_0120_LUT.cube
TITLE "Generated by Resolve"
LUT_3D_SIZE 5
0 0 0
0.202701 0 0
0.730755 0 0
0.894057 0.588327 0.0649271
0.880308 0.923476 0.639811
0 0.230961 0
0.146624 0.234012 0
0.730083 0.112779 0
0.891905 0.630594 0.0161898
0.880293 0.923842 0.639643
0 0.771328 0
0 0.771115 0
0.651316 0.764019 0
0.883299 0.808087 0
0.880049 0.928832 0.636988
0.551446 0.960571 0.169787
0.550652 0.960906 0.169436
0.685725 0.956436 0.183017
0.870253 0.94789 0.323415
0.878935 0.954818 0.658183
0.851194 0.965133 0.722408
0.851194 0.965133 0.722408
0.851194 0.965133 0.722408
0.86595 0.965179 0.724269
0.878904 0.965301 0.743282
0 0 0.18143
0.164508 0 0.183597
0.73048 0 0.180117
0.895109 0.576745 0.235492
0.880308 0.923461 0.639826
0 0.184588 0.164675
0.149523 0.181979 0.162539
0.729366 0.00450141 0.164721
0.892866 0.623468 0.217762
0.880293 0.923842 0.639643
0 0.767529 0
0 0.767315 0
0.655085 0.760296 0
0.883513 0.80679 0.0108186
0.880049 0.928832 0.636988
0.556832 0.960708 0.168872
0.556832 0.960708 0.168872
0.687526 0.956313 0.182452
0.870298 0.947845 0.323201
0.878935 0.954818 0.658183
0.851225 0.965133 0.722408
0.851225 0.965133 0.722408
0.851225 0.965133 0.722408
0.865965 0.965179 0.724254
0.878904 0.965301 0.743282
0 0 0.654612
0 0 0.654673
0.722789 0 0.649989
0.909239 0.300984 0.65568
0.880751 0.921782 0.704616
0 0 0.654337
0 0 0.653895
0.730434 0 0.64889
0.901534 0.471183 0.651392
0.882612 0.921477 0.705684
0 0.72015 0.623148
0 0.72076 0.622019
0.636988 0.71368 0.62536
0.886854 0.784482 0.631418
0.882902 0.926543 0.704768
0.553475 0.960403 0.53994
0.552499 0.9608 0.53933
0.678798 0.956619 0.542275
0.868772 0.946853 0.576776
0.87924 0.954513 0.690211
0.851667 0.965133 0.722362
0.851667 0.965133 0.722362
0.851667 0.965133 0.722362
0.870054 0.963668 0.726665
0.878904 0.965301 0.743267
0 0 0.820996
0 0 0.817609
0 0 0.817609
0.923613 0 0.815198
0.918044 0.879484 0.818555
0 0 0.823636
0 0 0.817609
0 0 0.817609
0.925307 0 0.818647
0.918029 0.880598 0.818463
0 0 0.825147
0 0 0.817609
0 0 0.817609
0.927001 0 0.822095
0.917891 0.892638 0.817533
0 0.956542 0.799146
0 0.961563 0.789349
0 0.961563 0.789349
0.858 0.938384 0.789609
0.917357 0.936721 0.813626
0.851499 0.964233 0.775708
0.848569 0.965362 0.773709
0.848569 0.965362 0.773709
0.862425 0.965408 0.774121
0.884199 0.963516 0.783185
0 0.323339 0.820371
0 0.325154 0.814176
0 0.325154 0.814176
0 0.325231 0.814176
0.900511 0.683253 0.814801
0 0.324468 0.816495
0 0.325154 0.814176
0 0.325154 0.814176
0 0.325231 0.814176
0.892973 0.685893 0.807843
0 0.325154 0.814176
0 0.325154 0.814176
0 0.325154 0.814176
0 0.324773 0.815717
0.892531 0.686046 0.807431
0 0.323857 0.814191
0 0.323857 0.814191
0 0.323857 0.814191
0 0.323919 0.814191
0.893706 0.68896 0.808621
0.794202 0.965362 0.803555
0.794202 0.965362 0.803555
0.794202 0.965362 0.803555
0.794202 0.965362 0.803555
0.881041 0.964889 0.804547
