BBLuts/BB_101_0050_LUT.cube
TITLE "Generated by Resolve"
LUT_3D_SIZE 5
0.0249332 0.024979 0.0260166
0.247395 0.0240024 0.0251926
0.832502 0 0
1 0.613977 0.209339
1 0.986557 0.889387
0.021973 0.270268 0.0239414
0.217823 0.274708 0.025742
0.841901 0.102968 0
1 0.679728 0.160967
1 0.987716 0.888808
0.0135805 0.849073 0.0175479
0.0135042 0.848646 0.0174563
0.811124 0.845014 0.0303197
1 0.892287 0.0406806
1 0.995239 0.884398
0.69485 1 0.315297
0.736171 1 0.314733
0.882673 1 0.330159
1 1 0.528481
1 1 0.905821
1 1 0.981003
1 1 0.981048
1 1 0.981369
1 1 0.984268
1 1 1
0.0239414 0.0240787 0.261036
0.221057 0.0238804 0.260884
0.83238 0 0.229648
1 0.59997 0.431662
1 0.986145 0.904067
0.02327 0.229984 0.240253
0.226322 0.226703 0.236179
0.833249 0 0.208682
1 0.670161 0.407019
1 0.98732 0.903563
0.0129244 0.845548 0.016846
0.0128328 0.845075 0.0167544
0.815778 0.841657 0.0300755
1 0.89102 0.160464
1 0.994888 0.899748
0.701656 1 0.314031
0.741497 1 0.313634
0.884184 1 0.329564
1 1 0.528405
1 1 0.905745
1 1 0.981003
1 1 0.981048
1 1 0.981353
1 1 0.984268
1 1 1
0.0113375 0.0117189 0.854887
0.0113375 0.0117189 0.85507
0.833204 0 0.836622
1 0.25214 0.879973
1 0.983658 0.967987
0.0113832 0.0117494 0.8533
0.011368 0.0117494 0.853529
0.840986 0 0.834943
1 0.536904 0.885756
1 0.984924 0.967727
0.0111696 0.799603 0.821973
0.0112154 0.799969 0.822278
0.795865 0.797192 0.830518
1 0.865415 0.854337
1 0.992966 0.96585
0.699962 1 0.713283
0.738369 1 0.712276
0.87744 1 0.714031
1 1 0.769879
1 1 0.951659
1 1 0.980941
1 1 0.980987
1 1 0.981308
1 1 0.984222
1 1 1
0.00981155 0.0102693 1
0.00981155 0.0102693 1
0.00981155 0.0102693 1
1 0 1
1 0.955276 1
0.00981155 0.0102693 1
0.00981155 0.0102693 1
0.00981155 0.0102693 1
1 0 1
1 0.958007 1
0.00981155 0.0102693 1
0.00981155 0.0102693 1
0.427893 0.00477607 1
1 0 1
1 0.974411 1
0.0568704 1 1
0.0567483 1 1
0.747204 1 1
1 1 1
1 1 1
1 1 1
1 1 1
1 1 1
1 1 1
1 1 1
0.0149081 0.365103 1
0.0149081 0.365103 1
0.0149081 0.365133 1
0.0149081 0.365332 1
1 0.777691 1
0.0148928 0.365087 1
0.0148928 0.365087 1
0.0149081 0.365103 1
0.0149081 0.365316 1
1 0.777798 1
0.0148928 0.36492 1
0.0148928 0.36492 1
0.0149081 0.36495 1
0.497139 0.348623 1
1 0.778607 1
0.0149081 0.363317 1
0.0149081 0.363317 1
0.0149081 0.363348 1
1 0 1
1 0.781201 1
0.949264 1 1
0.950988 1 1
0.962173 1 1
1 1 1
1 1 1
