BBLuts/BB_106_0320_LUT.cube
TITLE "Generated by Resolve"
LUT_3D_SIZE 33
0.0402533 0.0402533 0.0402533
0.0402533 0.0402533 0.0402533
0.0402533 0.0402533 0.0402533
0.0402533 0.0402533 0.0402533
0.0402533 0.0402533 0.0402533
0.0757458 0.0400092 0.0399786
0.117571 0.0400854 0.0400702
0.149096 0.0400397 0.0400244
0.180865 0.039765 0.039765
0.220081 0.0390784 0.0390784
0.268345 0.0376745 0.0376745
0.324788 0.0353857 0.0353857
0.391485 0.0322576 0.0322576
0.470863 0.0285801 0.0285801
0.558526 0.0244297 0.0244144
0.643427 0.0208133 0.0207065
0.716716 0.0196841 0.0191806
0.787503 0.0206455 0.0195468
0.849363 0.0226444 0.0209201
0.898222 0.0244144 0.0222324
0.898878 0.0243229 0.0221561
0.898878 0.0243229 0.0221561
0.907134 0.241077 0.0874495
0.902922 0.401282 0.120836
0.897276 0.530755 0.154269
0.89279 0.63592 0.194415
0.881483 0.725124 0.250217
0.873884 0.790692 0.33257
0.868971 0.836194 0.424887
0.865339 0.869825 0.517311
0.862486 0.894041 0.602258
0.860395 0.913283 0.671504
0.859266 0.928374 0.723125
0.0402533 0.0402533 0.0402533
0.0402533 0.0402533 0.0402533
0.0402533 0.0402533 0.0402533
0.0402533 0.0402533 0.0402533
0.0402533 0.0402533 0.0402533
0.0849775 0.0400397 0.0400092
0.120882 0.0401007 0.0400702
0.151476 0.0400397 0.0400092
0.184863 0.0397345 0.039704
0.225162 0.0389563 0.0389563
0.273762 0.0374762 0.0374762
0.329809 0.0351568 0.0351568
0.394842 0.0320897 0.0320897
0.472984 0.0284886 0.0284733
0.560235 0.0243534 0.0243229
0.644495 0.0207675 0.020676
0.717296 0.0196841 0.0191653
0.787717 0.0206455 0.0195468
0.849241 0.0226444 0.0209201
0.897841 0.0243992 0.0222171
0.898878 0.0243229 0.0221561
0.898878 0.0243229 0.0221561
0.907134 0.265064 0.0813764
0.901946 0.414099 0.117311
0.896025 0.538827 0.152132
0.89015 0.641428 0.192554
0.880415 0.728283 0.248631
0.873579 0.792309 0.331777
0.868879 0.837049 0.424475
0.865309 0.870283 0.517082
0.86247 0.894316 0.602121
0.86038 0.913436 0.671443
0.859251 0.928466 0.723079
0.0402533 0.0402533 0.0402533
0.0402533 0.0402533 0.0402533
0.0402533 0.0402533 0.0402533
0.0402533 0.0402533 0.0402533
0.0402533 0.0402533 0.0402533
0.0904555 0.0400549 0.0400244
0.122301 0.0401007 0.0400702
0.153811 0.0400397 0.0399939
0.189014 0.0396887 0.0396429
0.229892 0.0388647 0.0388342
0.27808 0.0373236 0.0373083
0.332601 0.0350347 0.0350347
0.397436 0.0319677 0.0319677
0.475273 0.0283818 0.0283665
0.561883 0.0242771 0.0242466
0.645609 0.0207218 0.0206302
0.71809 0.0196689 0.0191501
0.788052 0.0206455 0.0195468
0.849104 0.0226444 0.0209201
0.897444 0.0243839 0.0222019
0.898878 0.0243229 0.0221561
0.898878 0.0243229 0.0221561
0.906783 0.286397 0.0714427
0.90103 0.426368 0.113573
0.894942 0.546609 0.149981
0.888106 0.646662 0.19086
0.879561 0.731319 0.24712
0.873335 0.793866 0.330999
0.868818 0.837903 0.424063
0.865278 0.870756 0.516854
0.862455 0.894575 0.601999
0.86038 0.913588 0.671366
0.859251 0.928557 0.723049
0.0402533 0.0402533 0.0402533
0.0402533 0.0402533 0.0402533
0.0402533 0.0402533 0.0402533
0.0398566 0.0455329 0.040116
0.057847 0.0496071 0.0401923
0.0945754 0.0400702 0.0400244
0.123033 0.0401007 0.0400702
0.154131 0.0400397 0.0399939
0.189715 0.0396887 0.0396277
0.231556 0.0388342 0.0387732
0.280507 0.0372473 0.0372168
0.334981 0.0349279 0.0349126
0.399954 0.0318456 0.0318456
0.477653 0.0282597 0.0282597
0.564126 0.024155 0.0241398
0.64712 0.0206455 0.0205692
0.720211 0.0195163 0.0190738
0.788907 0.0205692 0.0195163
0.849012 0.0226291 0.0209201
0.897017 0.0243687 0.0222019
0.898878 0.0243229 0.0221561
0.901488 0.112383 0.0300603
0.905928 0.305379 0.0459754
0.900206 0.438132 0.109575
0.894072 0.554055 0.14786
0.886671 0.651606 0.189364
0.87895 0.734218 0.245716
0.873137 0.795392 0.330251
0.868757 0.838727 0.423667
0.865263 0.871214 0.516625
0.86244 0.89485 0.601862
0.860349 0.913756 0.67129
0.858976 0.92874 0.722835
0.0373541 0.0831006 0.0398871
0.0372015 0.0854963 0.0398718
0.0370489 0.0878157 0.0398566
0.0368963 0.0900587 0.0398413
0.0368963 0.0908827 0.0398566
0.0844892 0.090425 0.0398718
0.116426 0.0884718 0.0399634
0.151186 0.0840009 0.0400397
0.188617 0.0753796 0.039704
0.232136 0.0388342 0.0387579
0.281865 0.0372015 0.0371557
0.336767 0.0348516 0.0348211
0.402319 0.0317388 0.0317235
0.480018 0.0281529 0.0281529
0.565896 0.0240635 0.0240635
0.648188 0.0205997 0.0205234
0.720928 0.0194858 0.0190585
0.789197 0.0205692 0.0195163
0.848859 0.0226139 0.0209049
0.89659 0.0243534 0.0221866
0.898878 0.0243229 0.0221561
0.90399 0.16463 0.0358434
0.905318 0.323476 0.0463417
0.899443 0.449439 0.105272
0.893416 0.561227 0.145769
0.885893 0.656245 0.188052
0.878599 0.736965 0.244388
0.872999 0.796857 0.329519
0.868696 0.839551 0.42327
0.865232 0.871672 0.516396
0.862425 0.895109 0.60174
0.860334 0.913909 0.671214
0.858976 0.928832 0.722789
0.0356451 0.108797 0.0397192
0.035523 0.110704 0.0396887
0.0353857 0.112596 0.0396735
0.0352789 0.114107 0.0396582
0.0352331 0.114824 0.0396582
0.0679942 0.114961 0.0396429
0.1075 0.114321 0.0396582
0.143481 0.112184 0.039704
0.185336 0.107454 0.0396582
0.231357 0.0997787 0.0388647
0.282078 0.08542 0.0372473
0.33817 0.0348058 0.0347448
0.404089 0.0316625 0.031632
0.482292 0.0280613 0.0280461
0.567712 0.0239872 0.0239719
0.649226 0.0205692 0.0204929
0.721569 0.0194705 0.0190433
0.789441 0.0205539 0.0195163
0.848661 0.0226139 0.0209049
0.896132 0.0243381 0.0221714
0.898878 0.0243229 0.0221561
0.905425 0.20029 0.0394751
0.904585 0.340383 0.046479
0.898741 0.46041 0.100496
0.892882 0.5682 0.143618
0.885481 0.6607 0.186847
0.87837 0.73962 0.243107
0.872892 0.798306 0.328817
0.86865 0.840375 0.422889
0.865202 0.872129 0.516167
0.862409 0.895369 0.601602
0.860334 0.914061 0.671138
0.858976 0.928923 0.722759
0.0337987 0.134737 0.0394141
0.0336767 0.13637 0.0393835
0.0336004 0.137972 0.0393683
0.0335393 0.138918 0.039353
0.0335393 0.139483 0.039353
0.0338598 0.139528 0.0393835
0.0952163 0.139315 0.0394751
0.136599 0.138064 0.0395972
0.17882 0.135515 0.0395209
0.22768 0.13051 0.038941
0.281346 0.121736 0.0375677
0.339635 0.108095 0.0352331
0.406363 0.0829786 0.0319829
0.484016 0.0280156 0.0279545
0.56875 0.0239872 0.0239261
0.650446 0.0205386 0.0204623
0.725994 0.0191196 0.0188449
0.795041 0.0200351 0.0193179
0.851621 0.0222629 0.0208133
0.896666 0.0242008 0.0221408
0.899001 0.0243076 0.0221561
0.906294 0.235172 0.0424201
0.903578 0.359655 0.0464332
0.897932 0.473274 0.0937972
0.892256 0.576471 0.140948
0.885283 0.665949 0.185458
0.878843 0.742565 0.24181
0.874174 0.799542 0.328542
0.869047 0.841199 0.422629
0.865248 0.872648 0.515938
0.862394 0.895705 0.60145
0.860319 0.91426 0.671046
0.858976 0.92903 0.722713
0.0314031 0.164904 0.038819
0.0312963 0.166339 0.0387732
0.03122 0.167483 0.0387579
0.0311742 0.1682 0.0387427
0.0311742 0.168673 0.0387274
0.0315709 0.16875 0.0387579
0.0552377 0.168566 0.0389105
0.122576 0.168124 0.0392157
0.169162 0.166842 0.0392767
0.219791 0.163394 0.0388952
0.276326 0.156558 0.0378576
0.340108 0.146777 0.035935
0.409964 0.133272 0.0331426
0.488762 0.111391 0.0296941
0.571954 0.0625772 0.0246891
0.652125 0.0204929 0.0204013
0.726955 0.0191196 0.0188449
0.795346 0.0200351 0.0193179
0.85127 0.0222477 0.020798
0.895827 0.0241703 0.0221103
0.903319 0.146822 0.0338903
0.906462 0.273884 0.0448005
0.902235 0.38349 0.0462806
0.89688 0.489342 0.0822156
0.891371 0.587121 0.137255
0.884489 0.672938 0.183459
0.878172 0.746792 0.240467
0.873411 0.802014 0.327153
0.868772 0.842573 0.421897
0.865171 0.873396 0.515541
0.862364 0.896132 0.601236
0.860304 0.914519 0.670939
0.858976 0.929183 0.722652
0.0279698 0.201236 0.0375982
0.0278782 0.202441 0.0375372
0.0278477 0.203067 0.0375219
0.0277867 0.203708 0.0374914
0.0278019 0.204105 0.0374762
0.028275 0.204166 0.0375219
0.0292973 0.203845 0.0376135
0.090837 0.203815 0.0381628
0.152346 0.203021 0.0386511
0.206622 0.200641 0.0386358
0.266148 0.195911 0.0379797
0.334752 0.188235 0.0365759
0.412177 0.1776 0.0345159
0.494728 0.163943 0.0319829
0.579095 0.14548 0.0288396
0.658076 0.119829 0.0254978
0.729274 0.078233 0.0220035
0.795911 0.0200046 0.0193027
0.850904 0.0222171 0.0207828
0.897749 0.12665 0.0315557
0.906126 0.221729 0.0413672
0.905562 0.316991 0.0462348
0.900526 0.412558 0.0460365
0.895155 0.508644 0.0455024
0.890227 0.600504 0.132113
0.883543 0.681926 0.180819
0.877501 0.752148 0.239429
0.872755 0.805081 0.325475
0.868513 0.844327 0.420966
0.865095 0.874357 0.515023
0.862333 0.896696 0.600961
0.860288 0.914855 0.670787
0.858961 0.929381 0.722576
0.0230869 0.244312 0.0353552
0.0230716 0.244648 0.0353399
0.0230716 0.244968 0.0353246
0.0230564 0.245274 0.0353094
0.0231785 0.24535 0.0353094
0.0238651 0.245075 0.0353704
0.0251621 0.244373 0.0354925
0.0268559 0.24329 0.0356603
0.119829 0.244114 0.0370642
0.186481 0.243595 0.0377813
0.250645 0.240986 0.0376593
0.323171 0.235492 0.036759
0.40679 0.226856 0.0354162
0.498711 0.215549 0.0340276
0.586252 0.203983 0.0322728
0.666392 0.191363 0.0310369
0.742168 0.179248 0.0310674
0.805737 0.172854 0.0324559
0.857771 0.185443 0.0359503
0.90042 0.227253 0.0416724
0.906401 0.288945 0.0454719
0.903304 0.364614 0.0464179
0.898497 0.447517 0.0457313
0.893645 0.533211 0.0452888
0.888731 0.616495 0.124773
0.882429 0.693202 0.177447
0.876799 0.758907 0.238178
0.872221 0.808911 0.323384
0.868284 0.846571 0.419791
0.864988 0.875624 0.514351
0.862287 0.897429 0.60058
0.860258 0.915297 0.670573
0.85893 0.929641 0.722454
0.0169375 0.292699 0.0322423
0.0168765 0.293065 0.0322118
0.0168307 0.293431 0.0321965
0.0168002 0.293721 0.032166
0.0167697 0.293919 0.0321508
0.0167544 0.294026 0.0321508
0.0168612 0.294026 0.0321508
0.0176547 0.293553 0.0322271
0.0192721 0.292439 0.0323796
0.150317 0.294423 0.0355688
0.226719 0.293675 0.0365454
0.304891 0.290547 0.0363317
0.393637 0.284443 0.0355993
0.493294 0.275853 0.0351568
0.590494 0.26627 0.0348669
0.67277 0.259022 0.0350195
0.748226 0.255055 0.0365911
0.809323 0.258671 0.0391546
0.858412 0.274907 0.0424506
0.897704 0.308873 0.0457771
0.903883 0.356786 0.0464637
0.900221 0.417685 0.0459754
0.896269 0.48864 0.0455787
0.891661 0.562585 0.0448463
0.886854 0.636469 0.113848
0.881132 0.707073 0.173175
0.876081 0.767285 0.236728
0.871809 0.813687 0.320745
0.86807 0.849439 0.41828
0.864897 0.877241 0.513466
0.862226 0.898421 0.600061
0.860212 0.915877 0.670283
0.8589 0.929992 0.722316
0.00910964 0.353063 0.0282139
0.00906386 0.353445 0.0281834
0.00901808 0.35378 0.0281682
0.00898756 0.35407 0.0281529
0.00895705 0.354284 0.0281376
0.00892653 0.354452 0.0281224
0.00892653 0.354559 0.0281224
0.00900282 0.354574 0.0281224
0.00968948 0.354131 0.0281682
0.0113832 0.352941 0.0283207
0.184115 0.35758 0.0340124
0.275715 0.356649 0.0351263
0.371969 0.353506 0.0349737
0.476951 0.348531 0.0349584
0.579705 0.341573 0.0352941
0.674022 0.334386 0.0368048
0.751156 0.333898 0.0390478
0.808179 0.342794 0.0414893
0.853849 0.360601 0.0439155
0.890303 0.389151 0.0457313
0.89984 0.427131 0.0459144
0.89688 0.476692 0.0455787
0.893568 0.53434 0.0452735
0.889097 0.596994 0.0441138
0.884489 0.660731 0.0957046
0.879652 0.723735 0.167895
0.875273 0.777493 0.235096
0.871412 0.819654 0.317342
0.867842 0.853071 0.416297
0.864775 0.879316 0.512306
0.86215 0.899687 0.599405
0.860166 0.916655 0.669917
0.858869 0.930449 0.722118
0.000885023 0.428626 0.0247044
0.000854505 0.428992 0.0246891
0.000823987 0.429313 0.0246891
0.000793469 0.429572 0.0246738
0.000793469 0.42977 0.0246738
0.00077821 0.429938 0.0246738
0.000793469 0.430106 0.0246586
0.000946059 0.430152 0.0246738
0.0012665 0.430106 0.0246891
0.00198367 0.429862 0.0247349
0.0816968 0.433295 0.028397
0.225055 0.437476 0.0332799
0.338552 0.436118 0.0341497
0.452125 0.433188 0.0342565
0.558618 0.429435 0.0343023
0.65008 0.426383 0.0349584
0.730358 0.4262 0.0370642
0.794385 0.432929 0.0399176
0.844038 0.447257 0.04271
0.881895 0.47042 0.0449226
0.896681 0.500572 0.045655
0.893614 0.538613 0.045243
0.890105 0.584421 0.0444038
0.885985 0.634546 0.0431067
0.881361 0.68896 0.0415045
0.877989 0.743175 0.161563
0.874357 0.789593 0.233371
0.871015 0.826932 0.315694
0.86772 0.857557 0.413794
0.864744 0.881895 0.510842
0.862089 0.90132 0.59852
0.860105 0.917647 0.669413
0.858839 0.93106 0.721843
0 0.516991 0.0234531
0 0.517266 0.0234531
0 0.51751 0.0234531
0 0.517723 0.0234531
0 0.517891 0.0234531
0 0.518059 0.0234531
0 0.518212 0.0234531
0 0.518273 0.0234531
0 0.518227 0.0234836
0 0.518074 0.0235142
0 0.517708 0.0235599
0.131075 0.524178 0.0302586
0.285908 0.525673 0.0335699
0.416846 0.522545 0.0336461
0.53434 0.519295 0.0335699
0.633875 0.516808 0.0340581
0.717388 0.517205 0.0361028
0.785061 0.522133 0.0392462
0.834348 0.533349 0.0420386
0.871214 0.550759 0.0440375
0.892027 0.573632 0.0447547
0.889036 0.602289 0.0440223
0.885863 0.636378 0.043061
0.882368 0.677043 0.0418402
0.878737 0.721111 0.0406653
0.876234 0.765026 0.154391
0.873335 0.803494 0.231861
0.870359 0.835737 0.316167
0.867323 0.863157 0.410376
0.8645 0.885222 0.508782
0.861952 0.903441 0.597299
0.860029 0.918944 0.668757
0.858778 0.931838 0.721492
0 0.60473 0.0229801
0 0.604868 0.0229801
0 0.60499 0.0229953
0 0.605097 0.0229953
0 0.605188 0.0229953
0 0.605264 0.0229953
0 0.60531 0.0229953
0 0.60528 0.0230106
0 0.605127 0.0230411
0 0.604898 0.0230869
0 0.604578 0.0231022
0 0.603937 0.0231327
0.204822 0.611399 0.0317388
0.365515 0.609766 0.0326696
0.499321 0.606561 0.0329747
0.611337 0.603922 0.033341
0.702113 0.60351 0.035111
0.773068 0.606714 0.037995
0.822156 0.614618 0.0404212
0.858152 0.626841 0.0421149
0.886549 0.643702 0.0429694
0.883635 0.664683 0.042237
0.881178 0.691157 0.0414282
0.878676 0.721843 0.04065
0.876204 0.754757 0.0400549
0.874479 0.788495 0.147127
0.872251 0.818845 0.231006
0.869627 0.846036 0.317205
0.866896 0.869825 0.406821
0.864225 0.889342 0.506096
0.86183 0.906081 0.595728
0.860212 0.92047 0.668055
0.859251 0.932647 0.721401
0 0.686732 0.0242313
0 0.686778 0.0242313
0 0.686809 0.0242313
0 0.686839 0.0242313
0 0.686854 0.0242466
0 0.68687 0.0242466
0 0.686839 0.0242466
0 0.686717 0.0242618
0 0.686473 0.0243076
0 0.686152 0.0243381
0 0.685832 0.0243229
0 0.685252 0.0242924
0 0.684092 0.0242771
0.298451 0.692454 0.033875
0.452003 0.689464 0.0338293
0.580163 0.685466 0.0337682
0.680674 0.683391 0.0347295
0.75729 0.684611 0.0369726
0.810071 0.689586 0.0390784
0.844251 0.699062 0.0401923
0.870375 0.711467 0.0407874
0.878584 0.726375 0.040589
0.876982 0.744167 0.0402228
0.875471 0.765042 0.0399023
0.87393 0.788052 0.039704
0.872847 0.812329 0.141573
0.871122 0.835706 0.231281
0.868818 0.85771 0.319249
0.866331 0.877409 0.409079
0.86392 0.894347 0.502556
0.861631 0.909377 0.593576
0.860075 0.92253 0.66688
0.859159 0.933944 0.720775
0 0.76582 0.0298619
0 0.765774 0.0298619
0 0.765743 0.0298619
0 0.765713 0.0298619
0 0.765682 0.0298619
0 0.765652 0.0298466
0 0.765591 0.0298466
0 0.765484 0.0298314
0 0.765316 0.0298009
0 0.764965 0.0297856
0 0.764324 0.0297856
0 0.763394 0.0297551
0 0.762081 0.0296635
0.214939 0.769528 0.0382239
0.401099 0.767071 0.0375677
0.542611 0.762509 0.0363317
0.654368 0.757763 0.0360418
0.735927 0.756436 0.0370794
0.791653 0.758419 0.0384527
0.827665 0.763943 0.0391241
0.854765 0.771176 0.0395972
0.874708 0.780255 0.0397803
0.873747 0.791028 0.0396735
0.872923 0.804059 0.0396277
0.872038 0.818906 0.0396124
0.871336 0.836011 0.139956
0.869963 0.853498 0.233661
0.867948 0.870344 0.322881
0.865736 0.885817 0.412528
0.863554 0.900252 0.500755
0.861418 0.913375 0.590738
0.859968 0.925048 0.665354
0.858976 0.935622 0.71989
0 0.830182 0.0373693
0 0.830091 0.0373693
0 0.829999 0.0373541
0 0.829908 0.0373388
0 0.829816 0.0373236
0 0.829709 0.0373083
0 0.829572 0.0372931
0 0.829374 0.0372625
0 0.829099 0.037232
0 0.828687 0.0371557
0 0.828016 0.0370947
0 0.826886 0.0370184
0 0.825376 0.0368811
0.131258 0.829847 0.042771
0.363409 0.82855 0.04271
0.513542 0.82356 0.0399786
0.628779 0.818128 0.0379797
0.714809 0.813809 0.0381628
0.773648 0.813062 0.0389105
0.812085 0.815702 0.0391699
0.841001 0.81915 0.0394293
0.862837 0.823819 0.0396277
0.871427 0.829755 0.0396277
0.87097 0.837583 0.0396429
0.870436 0.847318 0.0396735
0.869963 0.859098 0.145037
0.868818 0.871351 0.239521
0.867048 0.88333 0.328923
0.865064 0.895109 0.417578
0.863066 0.90692 0.504692
0.861128 0.91809 0.586954
0.859678 0.928176 0.663233
0.858686 0.937697 0.7187
0 0.877867 0.0438087
0 0.877745 0.0437934
0 0.877607 0.0437781
0 0.87747 0.0437629
0 0.877333 0.0437476
0 0.87718 0.0437171
0 0.876982 0.0437018
0 0.876722 0.0436561
0 0.876371 0.0436103
0 0.875868 0.0435187
0 0.875135 0.0434119
0 0.874098 0.0432746
0 0.872587 0.043122
0.103441 0.875319 0.047364
0.352667 0.873594 0.046891
0.503059 0.867903 0.0431373
0.615564 0.862348 0.0400549
0.694926 0.858717 0.0389105
0.752773 0.856809 0.0390173
0.795727 0.856565 0.039292
0.827741 0.857404 0.0395514
0.851682 0.859327 0.0397192
0.869612 0.862364 0.0397345
0.869352 0.866865 0.039765
0.869032 0.872801 0.0397803
0.868696 0.880323 0.159548
0.867674 0.888121 0.250584
0.866102 0.896284 0.338323
0.864317 0.905135 0.424811
0.862501 0.914321 0.510155
0.860731 0.923323 0.589776
0.859251 0.931899 0.660365
0.858274 0.940688 0.717067
0 0.914031 0.0486
0 0.913848 0.0485847
0 0.913649 0.0485695
0 0.913481 0.0485542
0 0.913298 0.0485237
0 0.913115 0.0485084
0 0.912886 0.0484779
0 0.912566 0.0484321
0 0.912154 0.0483864
0 0.911604 0.0482948
0 0.910857 0.048188
0 0.909834 0.0480507
0 0.908461 0.0478828
0.173129 0.912123 0.0525978
0.372107 0.907378 0.049134
0.510918 0.901137 0.0449378
0.614099 0.895399 0.0415656
0.687633 0.891508 0.0399786
0.741894 0.889281 0.0395972
0.784344 0.88806 0.0396582
0.816678 0.887648 0.0397803
0.841871 0.887953 0.0398871
0.861677 0.889036 0.0399329
0.868025 0.891051 0.0398566
0.867842 0.894255 0.0398718
0.867506 0.898833 0.183978
0.866529 0.903761 0.268238
0.86508 0.909239 0.35198
0.863508 0.915465 0.43505
0.86186 0.922179 0.517723
0.860258 0.929015 0.595071
0.858961 0.93608 0.660624
0.858061 0.943603 0.715114
0 0.940185 0.0517128
0 0.939986 0.0516976
0 0.939773 0.0516823
0 0.939147 0.051667
0 0.938949 0.0516518
0 0.93875 0.0516213
0 0.938521 0.0515908
0 0.938201 0.0515602
0 0.937789 0.0515145
0 0.937224 0.0514382
0 0.936492 0.0513466
0 0.9355 0.0512245
0 0.934173 0.0510719
0.27982 0.936339 0.0535897
0.421363 0.93077 0.0492103
0.53608 0.924712 0.0450904
0.622751 0.919356 0.0420691
0.687678 0.915587 0.0405432
0.737514 0.913191 0.0400244
0.777508 0.91165 0.0399176
0.808438 0.91078 0.0399481
0.833661 0.910338 0.0399786
0.854002 0.910414 0.0399939
0.86688 0.911162 0.0399023
0.866789 0.913039 0.128664
0.866285 0.915434 0.216876
0.865309 0.918242 0.293446
0.864012 0.921553 0.371038
0.862638 0.925582 0.449378
0.861189 0.930114 0.528054
0.859754 0.935134 0.60206
0.85861 0.941085 0.66479
0.858061 0.946822 0.714382
0 0.958923 0.0539712
0 0.958267 0.0541085
0 0.957778 0.0541695
0 0.957427 0.0542153
0 0.957214 0.0542
0 0.957 0.0541848
0 0.956756 0.0541695
0 0.95642 0.0541543
0 0.955978 0.0541238
0 0.955413 0.0540627
0 0.954864 0.0539406
0.135683 0.958175 0.0569619
0.281437 0.956634 0.0551003
0.391135 0.952392 0.0512703
0.488838 0.947616 0.0475776
0.571893 0.942702 0.0442054
0.638804 0.937972 0.0418708
0.692805 0.93463 0.0406806
0.737453 0.932204 0.0402228
0.77409 0.93051 0.0400854
0.802976 0.929427 0.0400549
0.827039 0.92871 0.0400244
0.847059 0.928283 0.0400092
0.862928 0.928374 0.0734264
0.865629 0.928908 0.187778
0.864988 0.929717 0.257755
0.864027 0.930938 0.326299
0.862913 0.932662 0.396399
0.861723 0.935042 0.468818
0.860441 0.937987 0.541817
0.85919 0.941894 0.611124
0.858228 0.945983 0.670283
0.857801 0.950408 0.717418
0 0.972641 0.0552987
0 0.972 0.055436
0 0.971527 0.0555123
0 0.971191 0.0555581
4.57771e-05 0.970977 0.0555581
6.10361e-05 0.970794 0.0555428
0.0795605 0.97293 0.0574502
0.149508 0.974014 0.058381
0.204395 0.973709 0.0580911
0.258442 0.972488 0.0569314
0.314504 0.970596 0.0550698
0.373129 0.968277 0.052781
0.434058 0.965637 0.0503243
0.497032 0.962417 0.0476539
0.557351 0.958816 0.0450599
0.612619 0.955306 0.0428626
0.660609 0.952255 0.0413519
0.703136 0.949691 0.0404974
0.741222 0.947478 0.040177
0.773434 0.9458 0.0400702
0.799741 0.94461 0.0400244
0.822339 0.94374 0.0399786
0.841474 0.943145 0.101213
0.857008 0.942672 0.182162
0.864332 0.942168 0.243534
0.863615 0.94197 0.30457
0.86273 0.942184 0.365896
0.861799 0.942931 0.428183
0.860761 0.944198 0.493751
0.859663 0.945922 0.559716
0.85861 0.948135 0.622843
0.857832 0.950957 0.677455
0.857603 0.954147 0.721431
0.361501 0.981079 0.0535592
0.372137 0.980392 0.0532387
0.381903 0.979889 0.0528725
0.391119 0.979446 0.0525216
0.399954 0.979019 0.0521859
0.408499 0.978607 0.0518502
0.418585 0.978103 0.0514534
0.431464 0.977432 0.0509346
0.4477 0.976593 0.0502785
0.467857 0.975509 0.049424
0.491722 0.974258 0.0483558
0.519005 0.972808 0.0470588
0.549599 0.971115 0.045594
0.583246 0.969116 0.0440986
0.617609 0.966918 0.04271
0.651881 0.964843 0.0813001
0.685389 0.962844 0.0981765
0.717922 0.960998 0.113817
0.748196 0.959335 0.130068
0.775097 0.957824 0.147799
0.798642 0.956542 0.167529
0.819318 0.955489 0.189883
0.837003 0.954513 0.215854
0.851667 0.953536 0.255314
0.862913 0.952529 0.303243
0.862226 0.951797 0.355322
0.861463 0.951415 0.409857
0.860655 0.951461 0.466178
0.85977 0.951888 0.523964
0.858854 0.952712 0.582269
0.858015 0.953964 0.637736
0.85742 0.955764 0.686534
0.857237 0.958007 0.726436
0.5467 0.980026 0.244511
0.550942 0.979736 0.244587
0.554803 0.979553 0.244587
0.558511 0.9794 0.244572
0.562112 0.979263 0.244556
0.565652 0.979126 0.244541
0.570153 0.978821 0.244816
0.575631 0.978454 0.244816
0.582712 0.977966 0.244862
0.591546 0.977401 0.244907
0.602136 0.976745 0.244968
0.614404 0.976013 0.245106
0.629023 0.975189 0.245426
0.646235 0.974151 0.246143
0.665827 0.97293 0.247456
0.687678 0.971557 0.2495
0.710948 0.970153 0.252552
0.734615 0.96875 0.256901
0.757519 0.967407 0.262867
0.778775 0.966155 0.270878
0.798947 0.96492 0.281376
0.817365 0.963729 0.294881
0.833371 0.962631 0.312032
0.847196 0.961624 0.333471
0.858534 0.960601 0.367544
0.860868 0.959594 0.410132
0.860258 0.958907 0.45745
0.859541 0.95845 0.507958
0.858793 0.958312 0.558587
0.858061 0.958541 0.60885
0.85745 0.959182 0.65565
0.857008 0.960296 0.697688
0.856733 0.961852 0.732769
0.643549 0.975708 0.355322
0.645335 0.975586 0.355444
0.647242 0.975433 0.355627
0.649226 0.975235 0.35584
0.651041 0.975082 0.356008
0.65272 0.975006 0.356115
0.654597 0.974945 0.356191
0.657053 0.974884 0.356283
0.660273 0.974792 0.356405
0.664408 0.974701 0.356573
0.669551 0.974655 0.356756
0.675944 0.974624 0.35697
0.683864 0.974624 0.357305
0.693751 0.974563 0.357916
0.705653 0.974441 0.358923
0.719448 0.974289 0.360433
0.734722 0.974166 0.36257
0.751202 0.973388 0.365805
0.767697 0.972396 0.369848
0.784604 0.971374 0.375265
0.801282 0.970321 0.382406
0.816953 0.969284 0.391745
0.831067 0.968292 0.4038
0.843687 0.967346 0.41915
0.854459 0.966491 0.438422
0.859602 0.965545 0.469703
0.859083 0.964706 0.508965
0.858488 0.964034 0.551522
0.857877 0.963607 0.595743
0.857343 0.963516 0.637354
0.856931 0.963775 0.67602
0.856641 0.964401 0.710826
0.856458 0.965347 0.740841
0.703807 0.973144 0.457389
0.704662 0.973129 0.45745
0.705623 0.973068 0.457572
0.706676 0.972961 0.457755
0.707835 0.972824 0.457984
0.708888 0.972732 0.458183
0.709987 0.972671 0.458305
0.711315 0.972641 0.458412
0.713024 0.972625 0.458549
0.715236 0.97261 0.458717
0.717998 0.972641 0.458885
0.721431 0.972702 0.459068
0.725765 0.972793 0.459342
0.731334 0.972839 0.459831
0.738277 0.972839 0.460624
0.746578 0.972793 0.461769
0.7561 0.972763 0.463325
0.766964 0.972732 0.465446
0.779034 0.972717 0.468299
0.791897 0.972702 0.472129
0.80502 0.972671 0.47718
0.817746 0.972625 0.483818
0.830076 0.97232 0.492699
0.841245 0.971481 0.503731
0.850996 0.970672 0.517723
0.858305 0.969863 0.535088
0.857954 0.969085 0.562692
0.857527 0.968383 0.596994
0.857084 0.96788 0.631952
0.856748 0.96762 0.666133
0.856535 0.96762 0.697581
0.856565 0.967819 0.725521
0.856489 0.968307 0.750713
0.744762 0.971389 0.551949
0.746395 0.970932 0.552666
0.749905 0.969726 0.554467
0.755886 0.967575 0.557671
0.757412 0.967147 0.558343
