BBLuts/BB_102_0390_LUT.cube
TITLE "Generated by Resolve"
LUT_3D_SIZE 33
0.00860609 0.00970474 0.00415045
0.00860609 0.00970474 0.00415045
0.00860609 0.00970474 0.00415045
0.00860609 0.00970474 0.00415045
0.0135042 0.00961318 0.00402838
0.0690776 0.00903334 0.00314336
0.127413 0.0089723 0.00267033
0.169879 0.00909438 0.00248722
0.212558 0.00933852 0.00239567
0.261646 0.00970474 0.00238041
0.31722 0.0102541 0.00247196
0.377127 0.010956 0.00265507
0.441398 0.011841 0.00296025
0.514977 0.0129549 0.00341802
0.600641 0.014374 0.0040589
0.693462 0.0160525 0.00486763
0.788525 0.0178683 0.00579843
0.883894 0.0198062 0.00683604
0.970489 0.0216373 0.0078584
1 0.0231327 0.0087129
1 0.0235142 0.00892653
1 0.0235447 0.00894179
1 0.292821 0.00415045
1 0.458244 0.0346227
1 0.586206 0.0775616
1 0.700908 0.127749
0.995117 0.804273 0.186587
0.989227 0.886168 0.259907
0.98471 0.947463 0.34905
0.981033 0.99472 0.440665
0.978103 1 0.534051
0.975555 1 0.627207
0.973465 1 0.711025
0.00860609 0.00970474 0.00415045
0.00860609 0.00970474 0.00415045
0.00860609 0.00970474 0.00415045
0.00860609 0.00970474 0.00415045
0.0140993 0.00959792 0.00401312
0.0801404 0.00900282 0.00303655
0.131044 0.0089723 0.00265507
0.172839 0.00910964 0.00248722
0.217273 0.00936904 0.00239567
0.267002 0.00975052 0.00238041
0.322652 0.0103151 0.00248722
0.381125 0.0110018 0.00267033
0.442695 0.0118563 0.00297551
0.516503 0.0129702 0.00343328
0.60209 0.0144045 0.00407416
0.694362 0.0160678 0.00486763
0.789288 0.0178836 0.00581369
0.883894 0.0198062 0.00683604
0.970397 0.0216373 0.0078584
1 0.0231327 0.00869764
1 0.0235142 0.00892653
1 0.0445411 0.00831617
1 0.319173 0.00386053
1 0.470924 0.0201572
1 0.5935 0.0740063
1 0.705745 0.126024
0.994919 0.806928 0.186038
0.989136 0.88751 0.2598
0.984665 0.94815 0.348791
0.981018 0.995087 0.440513
0.978088 1 0.533959
0.975555 1 0.627161
0.973465 1 0.710994
0.00860609 0.00970474 0.00415045
0.00860609 0.00970474 0.00415045
0.00860609 0.00973526 0.00415045
0.00863661 0.00987259 0.00415045
0.0140536 0.00987259 0.00401312
0.0859236 0.00898756 0.00297551
0.131518 0.0089723 0.00265507
0.175143 0.0091249 0.00247196
0.221698 0.0093843 0.00239567
0.270726 0.00979629 0.00239567
0.324956 0.0103456 0.00248722
0.382055 0.011017 0.00267033
0.44445 0.0118715 0.00297551
0.51841 0.0130007 0.00343328
0.603571 0.014435 0.00407416
0.695613 0.016083 0.00488289
0.7897 0.0178988 0.00581369
0.88426 0.0198062 0.0068513
0.970275 0.0216373 0.0078584
1 0.0231174 0.00869764
1 0.0235142 0.00892653
1 0.111742 0.00675975
1 0.345052 0.00360113
1 0.482582 0.00950637
1 0.600504 0.0707713
1 0.710079 0.124483
0.994736 0.809369 0.185534
0.989044 0.888747 0.259724
0.984619 0.948775 0.348547
0.980987 0.995438 0.44036
0.978073 1 0.533867
0.97554 1 0.6271
0.973465 1 0.710979
0.00848402 0.0111696 0.0041352
0.00846876 0.0112459 0.0041352
0.00843824 0.0116579 0.0041352
0.00877394 0.0183413 0.0040589
0.0330816 0.0234989 0.00349432
0.0870832 0.0115206 0.00292973
0.128923 0.0113985 0.00263981
0.172488 0.0115663 0.00244144
0.219944 0.01149 0.00234989
0.271656 0.00994888 0.00239567
0.327123 0.0103609 0.00248722
0.38378 0.0110475 0.00268559
0.446586 0.011902 0.00299077
0.520348 0.0130312 0.00344854
0.605066 0.0144503 0.00408942
0.696544 0.0160983 0.00489815
0.790478 0.0179141 0.00582895
0.884565 0.0198215 0.0068513
0.970138 0.0216373 0.0078584
1 0.0231022 0.00869764
1 0.0235142 0.00892653
1 0.183185 0.00555428
1 0.365606 0.00340276
1 0.492348 0.00233463
1 0.606561 0.0680095
1 0.713985 0.12311
0.994568 0.811643 0.185046
0.988952 0.889937 0.259617
0.984558 0.949432 0.348302
0.980972 0.995773 0.440208
0.978058 1 0.533776
0.97554 1 0.627054
0.973449 1 0.710948
0.00321965 0.0719768 0.00386053
0.00292973 0.0753033 0.00384527
0.00265507 0.0785382 0.00384527
0.00239567 0.0817121 0.00383001
0.00227359 0.0830091 0.00383001
0.0694591 0.0813458 0.00250248
0.11693 0.0789044 0.00202945
0.163149 0.0734417 0.00178531
0.213611 0.0611124 0.00172427
0.271015 0.0186618 0.00224308
0.327779 0.0154421 0.00239567
0.385595 0.0115053 0.00268559
0.448646 0.0119478 0.00300603
0.522332 0.0130617 0.0034638
0.606973 0.0144961 0.00410468
0.697856 0.0161288 0.00489815
0.791241 0.0179294 0.00582895
0.884886 0.0198215 0.0068513
0.96997 0.021622 0.00784314
1 0.0231022 0.00868238
1 0.0235142 0.00892653
1 0.223804 0.00497444
1 0.383368 0.00323491
1 0.502556 0.00225834
1 0.612985 0.0644083
1 0.717983 0.121553
0.9944 0.813809 0.184604
0.988876 0.891112 0.259525
0.984512 0.950072 0.348058
0.980941 0.996094 0.44007
0.978058 1 0.5337
0.975525 1 0.626993
0.973449 1 0.710918
0 0.109346 0.0037995
0 0.112016 0.0037995
0 0.114763 0.0037995
0 0.116915 0.0037995
0 0.117998 0.0037995
0.0443427 0.117082 0.00267033
0.103624 0.115953 0.00190738
0.154177 0.113725 0.0015259
0.206622 0.109285 0.00131228
0.26302 0.100435 0.0012665
0.321935 0.0829328 0.00144961
0.385489 0.0266117 0.00239567
0.449821 0.0214084 0.00280766
0.524392 0.014023 0.0034638
0.608743 0.0145266 0.00411994
0.69897 0.016144 0.00491341
0.792111 0.0179446 0.00584421
0.885222 0.0198367 0.0068513
0.969772 0.021622 0.00784314
1 0.0230869 0.00866712
1 0.0517433 0.00810254
1 0.257008 0.00456245
1 0.398856 0.00309758
1 0.51136 0.0021973
1 0.618982 0.0609598
1 0.722118 0.119814
0.994217 0.816236 0.1841
0.988785 0.892226 0.259449
0.984466 0.950698 0.347829
0.980911 0.996445 0.439902
0.978042 1 0.533608
0.975525 1 0.626932
0.973449 1 0.710872
0 0.148272 0.00376898
0 0.1505 0.00376898
0 0.152651 0.00376898
0 0.153979 0.00376898
0 0.15494 0.00376898
0 0.155245 0.00376898
0.0784314 0.153689 0.00198367
0.140963 0.152514 0.00137331
0.197345 0.15021 0.00105287
0.256382 0.145586 0.000900282
0.316411 0.13698 0.0009308
0.378286 0.122942 0.00114443
0.44538 0.0962539 0.00164797
0.525154 0.0333257 0.0030518
0.610147 0.0257725 0.00386053
0.700618 0.017258 0.00489815
0.792767 0.0179599 0.00584421
0.885267 0.0198367 0.0068513
0.969207 0.0216068 0.00784314
1 0.0230716 0.00866712
1 0.116182 0.00666819
1 0.289906 0.00418097
1 0.415137 0.00294499
1 0.521737 0.00213626
1 0.625574 0.0571756
1 0.726802 0.117861
0.994003 0.819135 0.18349
0.988678 0.893812 0.259358
0.984421 0.951415 0.347555
0.980896 0.996826 0.439734
0.978027 1 0.533501
0.975509 1 0.626871
0.973449 1 0.710842
0 0.192126 0.0037232
0 0.194034 0.0037232
0 0.195453 0.0037232
0 0.196551 0.0037232
0 0.197223 0.0037232
0 0.197803 0.0037232
0.0237888 0.196963 0.00273136
0.114122 0.195743 0.00137331
0.182605 0.194247 0.000869764
0.245808 0.19144 0.00062562
0.308919 0.185672 0.000564584
0.373617 0.177386 0.000656138
0.441642 0.165026 0.0009308
0.518639 0.144137 0.00146487
0.606241 0.099443 0.00254826
0.700038 0.0429999 0.00428778
0.792081 0.0381781 0.0053254
0.885573 0.0219272 0.00680552
0.968872 0.0216068 0.00782788
1 0.0753643 0.00724804
1 0.198718 0.00531014
1 0.328145 0.00376898
1 0.436225 0.00277714
1 0.53576 0.00202945
1 0.635065 0.0495308
1 0.732982 0.115251
0.993713 0.822995 0.182681
0.98851 0.895949 0.259251
0.984329 0.952651 0.347127
0.98085 0.997391 0.43949
0.977996 1 0.533349
0.975509 1 0.62678
0.973434 1 0.710796
0 0.242847 0.00369268
0 0.244266 0.00369268
0 0.245228 0.00369268
0 0.245991 0.00369268
0 0.246555 0.00369268
0 0.247135 0.00369268
0 0.247395 0.00369268
0.0662547 0.245548 0.00177005
0.154696 0.243702 0.000823987
0.227848 0.241184 0.000411994
0.29659 0.2374 0.000259403
0.366079 0.231846 0.000274662
0.437583 0.224079 0.000457771
0.516487 0.212116 0.000823987
0.601816 0.19559 0.00141909
0.691539 0.172442 0.00227359
0.784405 0.137591 0.00349432
0.881804 0.0661479 0.00569161
0.962737 0.0764172 0.00640879
1 0.174853 0.00540169
1 0.274739 0.00433356
1 0.370245 0.00335698
1 0.462104 0.00256352
1 0.553918 0.00190738
1 0.647684 0.0376898
0.999329 0.741848 0.111299
0.993332 0.828138 0.181598
0.988296 0.898863 0.259083
0.984207 0.954345 0.346548
0.980789 0.998337 0.439109
0.977966 1 0.533135
0.975479 1 0.626657
0.973434 1 0.710719
0 0.298573 0.00366217
0 0.299214 0.00366217
0 0.299611 0.00366217
0 0.299931 0.00366217
0 0.300404 0.00366217
0 0.300481 0.00366217
0 0.30042 0.00366217
0 0.300099 0.00366217
0.0989242 0.2972 0.00115969
0.198199 0.295155 0.000320439
0.277302 0.292744 1.5259e-05
0.353582 0.289036 0
0.430274 0.283604 4.57771e-05
0.513222 0.275502 0.000350958
0.59971 0.266285 0.000808728
0.6878 0.255619 0.00143435
0.777447 0.244816 0.00221256
0.867247 0.236912 0.00308232
0.946181 0.245365 0.00375372
1 0.282887 0.0039826
1 0.343648 0.00358587
1 0.416632 0.00292973
1 0.494469 0.00231937
1 0.576928 0.00177005
1 0.664332 0.0216831
0.998398 0.753643 0.105852
0.992798 0.83537 0.180102
0.988006 0.90277 0.2589
0.984039 0.956649 0.345754
0.980697 0.999619 0.43859
0.97792 1 0.532738
0.975464 1 0.626459
0.973419 1 0.710613
0 0.357504 0.00364691
0 0.358129 0.00364691
0 0.358511 0.00364691
0 0.358831 0.00364691
0 0.35906 0.00364691
0 0.359228 0.00364691
0 0.359319 0.00364691
0 0.359533 0.00364691
0 0.359152 0.00364691
0.134936 0.355505 0.000579843
0.245808 0.353841 0
0.332662 0.351507 0
0.416876 0.347692 0
0.505959 0.342245 0
0.596201 0.33666 0.00030518
0.685161 0.331044 0.000839246
0.773251 0.326787 0.00148013
0.860502 0.326268 0.00218204
0.937316 0.33695 0.00277714
0.997101 0.365621 0.00311284
1 0.410681 0.00297551
1 0.467109 0.002533
1 0.53315 0.00204471
1 0.606332 0.00158694
1 0.6851 0.00250248
0.997208 0.768994 0.099382
0.992081 0.844892 0.178119
0.987625 0.908171 0.258686
0.983825 0.959686 0.344686
0.98056 1 0.437858
0.977844 1 0.532219
0.975418 1 0.626108
0.973388 1 0.71046
0 0.424231 0.00366217
0 0.424491 0.00366217
0 0.424842 0.00366217
0 0.425437 0.00366217
0 0.425681 0.00366217
0 0.425864 0.00366217
0 0.426032 0.00366217
0 0.426108 0.00366217
0 0.426032 0.00366217
0.020325 0.424536 0.0021973
0.180285 0.421958 1.5259e-05
0.298116 0.420569 0
0.39443 0.418616 0
0.491341 0.415625 0
0.587335 0.411902 0
0.679774 0.40882 0.00030518
0.768612 0.408057 0.000869764
0.853895 0.410636 0.00149538
0.928038 0.421256 0.00202945
0.986648 0.443442 0.00239567
1 0.477348 0.00242618
1 0.522667 0.002121
1 0.578088 0.00175479
1 0.642115 0.00138857
0.999649 0.712764 0.00103761
0.995743 0.788006 0.0920272
0.991165 0.857145 0.175631
0.987091 0.915389 0.258503
0.983505 0.963989 0.34435
0.980407 1 0.436927
0.977752 1 0.531518
0.975372 1 0.62562
0.973358 1 0.710185
0 0.501015 0.00367742
0 0.501183 0.00367742
0 0.501488 0.00367742
0 0.501762 0.00367742
0 0.501976 0.00367742
0 0.50251 0.00367742
0 0.502708 0.00367742
0 0.502876 0.00367742
0 0.503029 0.00367742
0 0.503136 0.00367742
0.068574 0.500557 0.00109865
0.231769 0.499229 0
0.358068 0.497993 0
0.465888 0.496239 0
0.569345 0.493843 0
0.667872 0.49189 0
0.760586 0.491234 0.000335698
0.846128 0.493904 0.000900282
0.918013 0.503014 0.00141909
0.974838 0.52047 0.00178531
1 0.547265 0.0019379
1 0.583627 0.00172427
1 0.62974 0.00146487
1 0.684337 0.00117494
0.997147 0.746181 0.000885023
0.993881 0.811658 0.0810864
0.990051 0.872206 0.172641
0.986419 0.924636 0.258396
0.983093 0.96968 0.34493
0.980163 1 0.435721
0.97763 1 0.530571
0.975296 1 0.624964
0.973312 1 0.709789
0 0.587716 0.00373846
0 0.587777 0.00373846
0 0.588037 0.0037232
0 0.588266 0.0037232
0 0.588449 0.00373846
0 0.588632 0.00373846
0 0.588815 0.0037232
0 0.589029 0.00373846
0 0.589532 0.0037232
0 0.589609 0.0037232
0 0.589517 0.0037232
0.116915 0.585763 0.000274662
0.295979 0.584268 0
0.427817 0.582528 0
0.541253 0.580682 0
0.647593 0.578637 0
0.746685 0.577646 0
0.835065 0.579034 0.000381476
0.906355 0.585794 0.000869764
0.961349 0.59971 0.00123598
1 0.620798 0.00146487
1 0.649897 0.00134279
1 0.687449 0.00115969
0.998138 0.733013 0.0009308
0.994308 0.784482 0.000717174
0.991714 0.839063 0.0672923
0.988693 0.890471 0.168917
0.98558 0.936095 0.258488
0.982559 0.976959 0.345861
0.979858 1 0.434241
0.977447 1 0.52929
0.975189 1 0.624109
0.973266 1 0.70927
0 0.67837 0.0037995
0 0.67837 0.0037995
0 0.678477 0.0037995
0 0.67863 0.0037995
0 0.678752 0.0037995
0 0.678843 0.0037995
0 0.67895 0.0037995
0 0.679057 0.0037995
0 0.679133 0.0037995
0 0.679103 0.0037995
0 0.679271 0.0037995
0 0.678752 0.0037995
0.184344 0.67364 0
0.372793 0.671931 0
0.503136 0.669947 0
0.61825 0.668086 0
0.724834 0.666423 0
0.817716 0.666789 0
0.890959 0.671168 0.000381476
0.945418 0.681315 0.000732433
0.987549 0.697841 0.000991836
0.99823 0.720546 0.000991836
0.996857 0.75024 0.000854505
0.994186 0.786175 0.000701915
0.991211 0.826322 0.000549325
0.989242 0.869276 0.0489662
0.987152 0.911315 0.165637
0.984543 0.95021 0.258961
0.981903 0.985855 0.347189
0.979461 1 0.434195
0.977203 1 0.527626
0.975052 1 0.622904
0.973175 1 0.708568
0 0.770108 0.00387579
0 0.770108 0.00387579
0 0.770108 0.00387579
0 0.770199 0.00387579
0 0.77023 0.00387579
0 0.770275 0.00387579
0 0.770291 0.00387579
0 0.770336 0.00387579
0 0.770291 0.00387579
0 0.770169 0.00387579
0 0.769848 0.00387579
0 0.769589 0.00387579
0.0202487 0.766308 0.00175479
0.277668 0.762051 0
0.453437 0.760327 0
0.580148 0.75819 0
0.69482 0.756344 0
0.79321 0.75555 0
0.869596 0.758053 0
0.926223 0.764797 0.000274662
0.968292 0.776471 0.000549325
0.991241 0.793332 0.000656138
0.99205 0.814466 0.000595102
0.990204 0.84007 0.000503548
0.988067 0.869154 0.000396735
0.986481 0.901091 0.0238499
0.985458 0.934386 0.162814
0.983352 0.966567 0.260807
0.981109 0.996689 0.349233
0.978973 1 0.436225
0.976852 1 0.526665
0.974853 1 0.621302
0.973068 1 0.707561
0 0.859541 0.00395209
0 0.859541 0.00395209
0 0.859541 0.00395209
0 0.859541 0.00395209
0 0.859525 0.00395209
0 0.85951 0.00395209
0 0.859464 0.00395209
0 0.859403 0.00395209
0 0.859236 0.00395209
0 0.85893 0.00396735
0 0.858457 0.00395209
0 0.857633 0.00395209
0 0.856641 0.00395209
0.169802 0.85034 0
0.390555 0.847395 0
0.536522 0.845243 0
0.659434 0.842664 0
0.763027 0.840894 0
0.843473 0.84094 0
0.903426 0.844068 0
0.948013 0.850431 0.00015259
0.979873 0.860594 0.000366217
0.987152 0.874296 0.000381476
0.986465 0.891035 0.000320439
0.985016 0.910735 0.000259403
0.983505 0.93286 0.00187686
0.983642 0.959319 0.162676
0.98204 0.984665 0.264408
0.980209 1 0.352804
0.978363 1 0.439048
0.976455 1 0.526818
0.974609 1 0.619623
0.972915 1 0.706172
0 0.93518 0.00404364
0 0.93518 0.00404364
0 0.93518 0.00404364
0 0.93518 0.00404364
0 0.93518 0.00404364
0 0.935119 0.00404364
0 0.935012 0.00404364
0 0.934829 0.00404364
0 0.934508 0.00404364
0 0.934035 0.00404364
0 0.933349 0.00404364
0 0.932235 0.00404364
0 0.930678 0.00402838
0.0736706 0.925093 0.000549325
0.323491 0.920943 0
0.498192 0.917922 0
0.628489 0.914794 0
0.734966 0.912169 0
0.817533 0.910658 0
0.880369 0.910842 0
0.928069 0.91339 0
0.962234 0.918471 7.62951e-05
0.981826 0.926101 0.000198367
0.983108 0.936522 0.000183108
0.982193 0.949477 0.000137331
0.981613 0.96553 0.0160678
0.981826 0.984726 0.169314
0.980652 1 0.270787
0.979217 1 0.358129
0.97763 1 0.443473
0.975952 1 0.5299
0.974304 1 0.617945
0.972732 1 0.704448
0 0.993194 0.00410468
0 0.993194 0.00410468
0 0.993194 0.00410468
0 0.993194 0.00410468
0 0.993194 0.00410468
0 0.993194 0.00410468
0 0.993194 0.00410468
0 0.992981 0.00410468
0 0.992584 0.00410468
0 0.991913 0.00410468
0 0.990997 0.00410468
0 0.989731 0.00410468
0 0.987991 0.00410468
0.0148165 0.983368 0.00178531
0.273213 0.97763 0
0.474067 0.974395 0
0.607645 0.971008 0
0.714153 0.967773 0
0.796246 0.965515 0
0.860151 0.96434 0
0.909834 0.964584 0
0.945953 0.966796 0
0.97348 0.970916 3.0518e-05
0.979767 0.977005 6.10361e-05
0.979599 0.985138 4.57771e-05
0.980117 0.996704 0.0595407
0.980072 1 0.184924
0.979263 1 0.280598
0.978134 1 0.365881
0.976791 1 0.449638
0.975372 1 0.534813
0.973907 1 0.621073
0.972488 1 0.702403
0 1 0.00416571
0 1 0.00416571
0 1 0.00416571
0 1 0.00416571
0 1 0.00416571
0 1 0.00416571
0 1 0.00416571
0 1 0.00416571
0 1 0.00416571
0 1 0.00416571
0 1 0.00416571
0 1 0.00416571
0 1 0.00416571
0.0127871 1 0.00183108
0.27715 1 0
0.467994 1 0
0.598184 1 0
0.700847 1 0
0.780392 1 0
0.843412 1 0
0.893339 1 0
0.931014 1 0
0.960266 1 0
0.976104 1 0
0.977356 1 0
0.978546 1 0.0985275
0.978485 1 0.206409
0.977874 1 0.29572
0.976959 1 0.376501
0.975906 1 0.458228
0.974716 1 0.541512
0.973449 1 0.626154
0.972168 1 0.704479
0 1 0.00421149
0 1 0.00421149
0 1 0.00421149
0 1 0.00421149
0 1 0.00421149
0 1 0.00421149
0 1 0.00421149
0 1 0.00421149
0 1 0.00421149
0 1 0.00421149
0 1 0.00419623
0 1 0.00419623
0 1 0.00419623
0 1 0.00354009
0.322896 1 0
0.482551 1 0
0.602304 1 0
0.696941 1 0
0.771588 1 0
0.832059 1 0
0.88014 1 0
0.918471 1 0
0.948775 1 0
0.971878 1 0
0.975448 1 0.00350958
0.97702 1 0.139635
0.976944 1 0.235248
0.976486 1 0.315496
0.975814 1 0.391791
0.974975 1 0.469657
0.973999 1 0.550683
0.972915 1 0.632898
0.971801 1 0.708583
0 1 0.00424201
0 1 0.00424201
0 1 0.00424201
0 1 0.00424201
0 1 0.00424201
0 1 0.00424201
0 1 0.00424201
0 1 0.00424201
0 1 0.00424201
0 1 0.00424201
0 1 0.00424201
0 1 0.00424201
0 1 0.00410468
0.125231 1 0
0.38407 1 0
0.514015 1 0
0.616983 1 0
0.700557 1 0
0.768521 1 0
0.825208 1 0
0.870771 1 0
0.908095 1 0
0.938369 1 0
0.962295 1 0.0018616
0.97435 1 0.0991989
0.975677 1 0.194659
0.975555 1 0.271336
0.975219 1 0.341482
0.974716 1 0.411933
0.97406 1 0.485603
0.973251 1 0.5626
0.97232 1 0.641901
0.971359 1 0.714336
0 1 0.00410468
0 1 0.00410468
0 1 0.00410468
0 1 0.00410468
0 1 0.00410468
0 1 0.00410468
0 1 0.00410468
0 1 0.00410468
0 1 0.00410468
0 1 0.00410468
0 1 0.00410468
0 1 0.00410468
0 1 0.0040589
0.311437 1 0
0.451148 1 0
0.555489 1 0
0.640558 1 0
0.711543 1 0
0.771572 1 0
0.822782 1 0
0.864973 1 0
0.900755 1 0.000885023
0.930159 1 0.00215152
0.955245 1 0.0858473
0.97232 1 0.176089
0.974426 1 0.247959
0.974319 1 0.312322
0.97406 1 0.3738
0.973663 1 0.437919
0.973129 1 0.506203
0.972473 1 0.578912
0.97171 1 0.653284
0.970901 1 0.721889
0.277333 1 0.000808728
0.277333 1 0.000808728
0.277333 1 0.000808728
0.277333 1 0.000808728
0.277317 1 0.000808728
0.277317 1 0.000808728
0.277317 1 0.000808728
0.277317 1 0.000808728
0.277302 1 0.000808728
0.277287 1 0.000808728
0.277287 1 0.000808728
0.277256 1 0.000808728
0.277226 1 0.000808728
0.408545 1 0.00030518
0.518822 1 0.000259403
0.601022 1 0.000396735
0.669718 1 0.00062562
0.728145 1 0.000915541
0.77998 1 0.00123598
0.82504 1 0.00158694
0.863874 1 0.043183
0.897581 1 0.0984207
0.925811 1 0.141787
0.948867 1 0.191775
0.967712 1 0.246464
0.97293 1 0.301885
0.973205 1 0.356023
0.972992 1 0.411658
0.972671 1 0.469947
0.972244 1 0.532494
0.97171 1 0.599695
0.971069 1 0.668391
0.970413 1 0.731289
0.508705 1 0.170855
0.508705 1 0.170855
0.508705 1 0.170855
0.508705 1 0.170855
0.508705 1 0.170855
0.508705 1 0.170855
0.508705 1 0.170855
0.508705 1 0.170855
0.508705 1 0.170855
0.50869 1 0.170855
0.50869 1 0.170855
0.50869 1 0.170855
0.508675 1 0.170855
0.508659 1 0.170855
0.577386 1 0.173831
0.647181 1 0.178378
0.702068 1 0.183734
0.750195 1 0.190158
0.794034 1 0.19855
0.832303 1 0.208896
0.865904 1 0.22182
0.896086 1 0.237751
0.921859 1 0.257542
0.943603 1 0.280766
0.961776 1 0.314778
0.971206 1 0.356558
0.972213 1 0.403326
0.97203 1 0.453925
0.971771 1 0.5075
0.971405 1 0.564599
0.970962 1 0.625681
0.970459 1 0.68687
0.969909 1 0.743526
0.640787 1 0.300191
0.640787 1 0.300191
0.640787 1 0.300191
0.640787 1 0.300191
0.640787 1 0.300191
0.640787 1 0.300191
0.640787 1 0.300191
0.640787 1 0.300191
0.640787 1 0.300191
0.640787 1 0.300191
0.640787 1 0.300191
0.640787 1 0.300191
0.640772 1 0.300191
0.640772 1 0.300191
0.640742 1 0.300191
0.684611 1 0.302434
0.732586 1 0.305776
0.772946 1 0.309697
0.808743 1 0.314458
0.840696 1 0.320699
0.869581 1 0.328496
0.896544 1 0.338415
0.919768 1 0.350881
0.939864 1 0.366827
0.957046 1 0.386221
0.969573 1 0.416373
0.971344 1 0.455406
0.971176 1 0.500191
0.970947 1 0.549508
0.970642 1 0.601923
0.970275 1 0.656046
0.969863 1 0.708949
0.969421 1 0.758114
0.727977 1 0.403265
0.727977 1 0.403265
0.727977 1 0.403265
0.727977 1 0.403265
0.727977 1 0.403265
0.727977 1 0.403265
0.727977 1 0.403265
0.727977 1 0.403265
0.727977 1 0.403265
0.727977 1 0.403265
0.727977 1 0.403265
0.727977 1 0.403265
0.727977 1 0.403265
0.727977 1 0.403265
0.727962 1 0.403265
0.727962 1 0.403265
0.759564 1 0.405386
0.795148 1 0.408576
0.824353 1 0.412253
0.850568 1 0.416678
0.87538 1 0.422461
0.898726 1 0.42974
0.919249 1 0.438987
0.937514 1 0.450752
0.953368 1 0.465888
0.966552 1 0.484398
0.97026 1 0.513466
0.970397 1 0.551476
0.970199 1 0.595209
0.969924 1 0.642451
0.969619 1 0.689204
0.969299 1 0.733852
0.968948 1 0.775174
0.791135 1 0.501106
0.791135 1 0.501106
0.791135 1 0.501106
0.791135 1 0.501106
0.791135 1 0.501106
0.791135 1 0.501106
0.791135 1 0.501106
0.791135 1 0.501106
0.791135 1 0.501106
