BBLuts/BB_106_0420_LUT.cube
TITLE "Generated by Resolve"
LUT_3D_SIZE 5
0 0 0
0.13904 0 0
0.808988 0 0
1 0.483284 0.0884413
1 0.978607 0.670298
0 0.15697 0
0.118517 0.157855 0
0.818051 0.0251621 0
1 0.575097 0.0544594
1 0.980041 0.669718
0 0.814176 0
0 0.813581 0
0.786404 0.800763 0
1 0.866667 0
1 0.989761 0.66537
0.630503 1 0.149889
0.690196 1 0.147646
0.894377 1 0.153124
1 1 0.286412
1 1 0.685267
1 1 0.754299
1 1 0.754345
1 1 0.75462
1 1 0.757183
1 1 0.776791
0 0 0.12137
0.121294 0 0.12398
0.809293 0 0.110811
1 0.464256 0.234485
1 0.978073 0.684245
0 0.12549 0.107958
0.12488 0.120546 0.102388
0.810452 0 0.0970779
1 0.562142 0.215045
1 0.979538 0.683742
0 0.809201 0
0 0.80853 0
0.792798 0.796185 0
1 0.864042 0.0450446
1 0.989319 0.680003
0.640177 1 0.14876
0.697932 1 0.1467
0.896391 1 0.152728
1 1 0.286366
1 1 0.685191
1 1 0.754299
1 1 0.754345
1 1 0.75462
1 1 0.757183
1 1 0.776791
0 0 0.660014
0 0 0.660212
0.815061 0 0.646311
1 0.157504 0.684321
1 0.975052 0.743282
0 0 0.658442
0 0 0.658656
0.826001 0 0.644846
1 0.39086 0.684916
1 0.976608 0.743023
0 0.744823 0.617624
0 0.745357 0.617929
0.764248 0.7337 0.616709
1 0.827192 0.639292
1 0.986954 0.741176
0.636439 1 0.487938
0.69189 1 0.485298
0.885313 1 0.483833
1 1 0.547723
1 1 0.727779
1 1 0.754253
1 1 0.754299
1 1 0.754574
1 1 0.757137
1 1 0.776791
0 0 0.855894
0 0 0.855894
0 0 0.855894
1 0 0.857984
1 0.940414 0.82562
0 0 0.855894
0 0 0.855894
0 0 0.855894
1 0 0.857984
1 0.943786 0.825376
0 0 0.855894
0 0 0.855894
0.303304 0 0.852186
1 0 0.857984
1 0.963973 0.823957
0.0489662 1 0.857252
0.0487526 1 0.857053
0.705486 1 0.826062
1 1 0.817365
1 1 0.819715
1 1 0.802625
1 1 0.80264
1 1 0.802716
1 1 0.803525
1 1 0.81033
0 0.237705 0.850294
0 0.237705 0.850294
0 0.23772 0.850294
0 0.237888 0.850294
1 0.713344 0.853513
0 0.237675 0.850294
0 0.237675 0.850294
0 0.237705 0.850294
0 0.237873 0.850294
1 0.713497 0.853483
0 0.237552 0.850294
0 0.237552 0.850294
0 0.237568 0.850294
0.35848 0.223133 0.853788
1 0.71458 0.853391
0 0.236271 0.850309
0 0.236271 0.850309
0 0.236286 0.850309
1 0 0.857984
1 0.718074 0.853056
0.980026 1 0.838209
0.982238 1 0.838209
0.997055 1 0.838163
1 1 0.838132
1 1 0.838315
