BBLuts/BB_101_0180_LUT.cube
TITLE "Generated by Resolve"
LUT_3D_SIZE 5
0.0245212 0.0245212 0.0245212
0.258717 0.0251316 0.0253605
0.813428 0.00224308 0.00257877
0.996933 0.604837 0.215579
0.991928 0.932403 0.830076
0.0275578 0.277974 0.0237888
0.231861 0.280919 0.0243076
0.819562 0.117311 0.00479133
0.997086 0.663645 0.166674
0.991958 0.93341 0.829557
0.0436561 0.817868 0.0262303
0.043534 0.817502 0.0261234
0.796231 0.81004 0.0314031
0.996963 0.851728 0.043183
0.992081 0.939941 0.825742
0.694972 0.983841 0.317845
0.732052 0.981201 0.316991
0.862531 0.972381 0.330968
0.992187 0.963729 0.512383
0.992279 0.963043 0.844251
0.968261 0.971313 0.909056
0.968597 0.971313 0.909102
0.971023 0.971313 0.909377
0.984298 0.971313 0.911864
0.991989 0.971237 0.930678
0.0246128 0.0244755 0.263951
0.232639 0.0251316 0.264729
0.813184 0.002121 0.248753
0.997543 0.592142 0.426825
0.991836 0.932036 0.842771
0.0278477 0.237507 0.243671
0.239322 0.232944 0.238437
0.813962 0.00215152 0.228275
0.99794 0.654765 0.403311
0.991852 0.933074 0.842329
0.0427558 0.814755 0.0254063
0.0426337 0.814343 0.0253147
0.800336 0.80708 0.0311284
0.99675 0.850187 0.165469
0.991974 0.939651 0.839033
0.701091 0.983383 0.316564
0.736828 0.980819 0.315892
0.863874 0.972259 0.330404
0.992264 0.963699 0.512322
0.992279 0.963027 0.844175
0.968292 0.971313 0.909056
0.968643 0.971313 0.909102
0.971069 0.971313 0.909361
0.984314 0.971298 0.911864
0.991989 0.971237 0.930678
0.0183566 0.0179904 0.806012
0.0183566 0.0180056 0.80618
0.816144 0 0.79556
0.991547 0.267521 0.828031
0.991577 0.92987 0.897932
0.0183566 0.0180056 0.804639
0.0183719 0.0180056 0.804822
0.823163 0 0.794171
0.997864 0.532235 0.829664
0.991592 0.930968 0.897704
0.0371405 0.772778 0.775845
0.0372015 0.773114 0.77612
0.780987 0.7664 0.778958
0.991852 0.826749 0.799954
0.991714 0.937957 0.896071
0.699168 0.978439 0.676997
0.733608 0.975921 0.675959
0.857466 0.967376 0.677119
0.985458 0.959503 0.726024
0.992096 0.962493 0.883803
0.968704 0.971313 0.90901
0.969024 0.971313 0.909056
0.971405 0.971313 0.909316
0.984451 0.971298 0.911818
0.991989 0.971237 0.930678
0.0205539 0.0199588 0.987366
0.0205539 0.0199588 0.987366
0.0205539 0.0199588 0.987366
0.981796 0.0175021 0.988113
0.991226 0.905211 0.976471
0.0205539 0.0199588 0.987366
0.0205539 0.0199588 0.987366
0.0205539 0.0199588 0.987366
0.981796 0.0175021 0.988113
0.991257 0.907591 0.976287
0.0205539 0.0199588 0.987366
0.0205539 0.0199588 0.987366
0.444877 0.014374 0.985382
0.981796 0.0175021 0.988113
0.99144 0.921859 0.975174
0.0979782 0.990356 0.990784
0.0977798 0.989029 0.9906
0.741543 0.965454 0.974243
0.972076 0.951873 0.969268
0.992035 0.959625 0.971725
0.966552 0.971298 0.955444
0.966873 0.971298 0.955444
0.969192 0.971298 0.955535
0.982025 0.971298 0.956359
0.992004 0.971237 0.962921
0.0275425 0.374166 0.987564
0.0275425 0.374166 0.987564
0.0275425 0.374182 0.987564
0.0275425 0.374395 0.987564
0.995544 0.749859 0.995789
0.0275425 0.374151 0.987564
0.0275425 0.374151 0.987564
0.0275425 0.374166 0.987564
0.0275425 0.374365 0.987564
0.995529 0.74995 0.995773
0.0275425 0.373983 0.987564
0.0275425 0.373983 0.987564
0.0275425 0.374014 0.987564
0.505913 0.355108 0.991165
0.995499 0.750652 0.995727
0.027512 0.372473 0.987564
0.027512 0.372473 0.987564
0.027512 0.372488 0.987564
0.981796 0.0175021 0.988113
0.995361 0.752941 0.99556
0.921279 0.971252 0.989075
0.922805 0.971252 0.989075
0.932662 0.971237 0.989075
0.970016 0.971267 0.989151
0.992294 0.971496 0.98941
