BBLuts/BB_104_0070_LUT.cube
TITLE "Generated by Resolve"
LUT_3D_SIZE 5
0.0184329 0.0276799 0.0437629
0.196338 0.0294499 0.0466773
0.721172 0.288945 0.375418
0.849928 0.637675 0.66244
0.836912 0.824079 0.739483
0.00175479 0.197498 0.0293584
0.14342 0.202502 0.0328832
0.725963 0.337133 0.389532
0.849012 0.653437 0.659953
0.836851 0.824872 0.738201
0 0.720424 0
0 0.720134 0
0.677577 0.719081 0.0149538
0.842954 0.75787 0.604135
0.836484 0.83006 0.728023
0.00598154 0.864271 0.049485
0.00582895 0.863493 0.0492409
0.597955 0.85803 0.0439765
0.835416 0.848951 0.0318456
0.834409 0.848447 0.732143
0.81323 0.854887 0.812345
0.813535 0.854887 0.81239
0.815702 0.854902 0.812848
0.827359 0.85507 0.816419
0.834272 0.855528 0.836713
0.0387884 0.0411994 0.209003
0.195148 0.0426184 0.211292
0.721157 0.29662 0.430762
0.85005 0.635294 0.665644
0.836835 0.82385 0.754421
0.0138552 0.178027 0.181399
0.17467 0.177264 0.181537
0.721782 0.297719 0.42771
0.84918 0.650492 0.663279
0.836774 0.824659 0.753399
0 0.717922 0
0 0.717586 0
0.682124 0.716716 0.0147402
0.842939 0.756878 0.608042
0.836347 0.829831 0.745632
0.00595102 0.864118 0.049424
0.00579843 0.863355 0.0491951
0.611032 0.85745 0.0426032
0.835492 0.84892 0.0318456
0.834424 0.848447 0.732036
0.81326 0.854887 0.812345
0.813581 0.854887 0.812406
0.815732 0.854917 0.812833
0.827375 0.85507 0.816419
0.834272 0.855528 0.836713
0.574487 0.548089 0.737514
0.574624 0.548333 0.737667
0.727733 0.565728 0.738079
0.849561 0.644526 0.768887
0.837201 0.823041 0.811734
0.57322 0.545998 0.736309
0.573404 0.546304 0.736477
0.732982 0.56614 0.737179
0.84921 0.649226 0.766583
0.83711 0.82388 0.811322
0 0.689952 0.699428
0 0.690196 0.699641
0.679026 0.690562 0.708751
0.842161 0.744396 0.743023
0.836606 0.829175 0.808469
0.00579843 0.863355 0.0491951
0.00564584 0.862608 0.0489662
0.604471 0.857114 0.0432136
0.832792 0.848432 0.0318151
0.834318 0.848035 0.78793
0.813626 0.854887 0.812314
0.813916 0.854887 0.812375
0.816037 0.854917 0.812802
0.827482 0.85507 0.816388
0.834272 0.855528 0.836713
0.734279 0.728054 0.894667
0.734279 0.728054 0.894667
0.734279 0.728054 0.894667
0.847913 0.73753 0.8972
0.84152 0.810987 0.883513
0.734279 0.728054 0.894667
0.734279 0.728054 0.894667
0.734279 0.728054 0.894667
0.847913 0.73753 0.8972
0.841398 0.812497 0.883284
0.734279 0.728054 0.894667
0.734279 0.728054 0.894667
0.735027 0.728069 0.894682
0.847913 0.73753 0.8972
0.840558 0.821881 0.88191
0 0.866224 0.884855
0 0.865202 0.884794
0.59443 0.854032 0.879301
0.822705 0.842359 0.874739
0.837522 0.848478 0.87686
0.814374 0.856077 0.860197
0.814633 0.856077 0.860212
0.816602 0.856092 0.860349
0.827344 0.856245 0.861448
0.835767 0.856626 0.867948
0.734188 0.728923 0.894652
0.734188 0.728923 0.894652
0.734188 0.728923 0.894652
0.734188 0.728923 0.894652
0.846738 0.752026 0.896437
0.734188 0.728923 0.894652
0.734188 0.728923 0.894652
0.734188 0.728923 0.894652
0.734188 0.728923 0.894652
0.846738 0.752056 0.896437
0.734188 0.728923 0.894652
0.734188 0.728923 0.894652
0.734188 0.728923 0.894652
0.735195 0.728862 0.894667
0.846723 0.752178 0.896422
0.734188 0.728923 0.894652
0.734188 0.728923 0.894652
0.734188 0.728923 0.894652
0.847913 0.73753 0.8972
0.846693 0.75259 0.896406
0.782391 0.857511 0.890776
0.783581 0.857511 0.890776
0.791333 0.857557 0.890837
0.820615 0.857801 0.891264
0.837659 0.858 0.89163
