BBLuts/BB_104_0130_LUT.cube
TITLE "Generated by Resolve"
LUT_3D_SIZE 33
0 0 0
0 0 0
0 0 0
0 0 0
0 0 0
0.00456245 0 0
0.0484474 0 0
0.0807507 0 0
0.114946 0 0
0.159411 0 0
0.211704 0 0
0.273396 0 0
0.344991 0 0
0.425361 0 0
0.515465 0 0.00715648
0.60882 0.0538338 0.0883345
0.698848 0.190051 0.210834
0.778286 0.327703 0.331411
0.84332 0.442023 0.430304
0.893584 0.52668 0.504631
0.902647 0.541482 0.517601
0.902647 0.541482 0.517601
0.902251 0.545907 0.517998
0.901274 0.556329 0.517678
0.899016 0.579355 0.515785
0.894469 0.620829 0.510323
0.887373 0.680278 0.497932
0.880079 0.743023 0.475975
0.874495 0.79472 0.445289
0.870344 0.835309 0.41912
0.866575 0.86595 0.44744
0.862699 0.888624 0.539193
0.859556 0.907012 0.622568
0 0 0
0 0 0
0 0 0
0 0 0
0 0 0
0.0133822 0 0
0.051545 0 0
0.0833448 0 0
0.119448 0 0
0.165057 0 0
0.217563 0 0
0.27863 0 0
0.348226 0 0
0.427451 0 0
0.51722 0 0.0080415
0.609979 0.0551766 0.0897993
0.699504 0.191165 0.21181
0.778546 0.328191 0.331807
0.843229 0.441901 0.430198
0.893248 0.526131 0.504158
0.902647 0.541482 0.517601
0.902647 0.541482 0.517601
0.902159 0.546853 0.517617
0.901122 0.557961 0.517403
0.898772 0.581842 0.515419
0.894118 0.623743 0.509758
0.887037 0.683085 0.497002
0.87985 0.744945 0.474708
0.874388 0.795834 0.443641
0.870298 0.835996 0.417151
0.866545 0.866331 0.446097
0.862669 0.888853 0.538659
0.859556 0.907164 0.6224
0 0 0
0 0 0
0 0 0
0 0 0
0 0 0
0.0186313 0 0
0.0525978 0 0
0.0858167 0 0
0.124178 0 0
0.170321 0 0
0.222034 0 0
0.281422 0 0
0.350912 0 0
0.429679 0 0
0.519005 0 0.00895705
0.611093 0.0564889 0.0912337
0.700175 0.192264 0.212787
0.778805 0.328649 0.332219
0.843137 0.441733 0.430045
0.892912 0.525582 0.503655
0.902647 0.541482 0.517601
0.902647 0.541482 0.517601
0.902068 0.547845 0.516976
0.900954 0.55967 0.517113
0.898497 0.58439 0.515023
0.893797 0.626673 0.509163
0.886702 0.685863 0.49604
0.879652 0.746792 0.473411
0.874281 0.796948 0.441978
0.870237 0.836667 0.415122
0.866514 0.866712 0.444709
0.862654 0.889082 0.538155
0.859525 0.907286 0.622217
0 0 0
0 0 0
0 0 0
0 0 0
0 0 0
0.0226596 0 0
0.0530861 0 0
0.0860304 0 0
0.124987 0 0
0.172473 0 0
0.224933 0 0
0.283955 0 0
0.353521 0 0
0.431922 0 0
0.520821 0 0.0099031
0.612268 0.0578622 0.0927291
0.700832 0.193332 0.213733
0.779034 0.329061 0.33257
0.843015 0.44152 0.429862
0.892546 0.524971 0.503136
0.902647 0.541482 0.517601
0.902647 0.541482 0.517601
0.901961 0.549004 0.516869
0.900786 0.561486 0.516793
0.898238 0.587015 0.514626
0.893431 0.629648 0.508553
0.886366 0.688579 0.495125
0.879454 0.748638 0.472114
0.874174 0.798032 0.440299
0.870207 0.837339 0.413077
0.866499 0.867094 0.443336
0.862623 0.889326 0.537606
0.85951 0.907423 0.622049
0 0 0
0 0 0
0 0.00108339 0
0 0.00299077 0
0 0.0037232 0
0.00903334 0.0040589 0
0.042771 0.00292973 0
0.0781415 0 0
0.12079 0 0
0.173434 0 0
0.226612 0 0
0.286275 0 0
0.356023 0 0
0.434211 0 0
0.522667 0 0.0108949
0.613428 0.059266 0.0942245
0.701473 0.194415 0.214664
0.779232 0.329442 0.332891
0.842878 0.441291 0.429664
0.89218 0.524376 0.502602
0.902647 0.541482 0.517601
0.902525 0.542855 0.517464
0.901854 0.550225 0.516747
0.900603 0.563363 0.516426
0.897963 0.589654 0.514214
0.89308 0.632624 0.507927
0.886061 0.691249 0.494194
0.879255 0.750454 0.470771
0.874083 0.799115 0.438605
0.870146 0.837995 0.410986
0.866453 0.86746 0.441962
0.862608 0.88954 0.537102
0.859495 0.907546 0.621866
0 0.0195926 0
0 0.02121 0
0 0.0228122 0
0 0.0240787 0
0 0.0246891 0
0 0.0252842 0
0.0337377 0.0249332 0
0.0715801 0.0236057 0
0.115862 0.0203708 0
0.171176 0.0137636 0
0.223667 0.00314336 0
0.288304 0 0
0.358572 0 0
0.436637 0 0
0.524636 0 0.0119783
0.614679 0.0607919 0.0958419
0.702144 0.195529 0.215656
0.779461 0.329839 0.333242
0.842725 0.441047 0.42945
0.891768 0.52369 0.502007
0.902647 0.541482 0.517601
0.902327 0.545022 0.51725
0.901717 0.551583 0.516609
0.900404 0.565408 0.515999
0.897658 0.592508 0.513741
0.892729 0.635737 0.507256
0.885725 0.694011 0.493202
0.879057 0.752316 0.469383
0.873976 0.800229 0.436805
0.8701 0.838682 0.408804
0.866438 0.867857 0.440467
0.862577 0.889784 0.536522
0.859464 0.907698 0.621683
0 0.0432593 0
0 0.0446174 0
0 0.0459754 0
0 0.0467384 0
0 0.0472267 0
0 0.0474098 0
0.0159457 0.0484932 0
0.0624552 0.0469215 0
0.109255 0.0451362 0
0.168719 0.0413977 0
0.232395 0.0347448 0
0.285863 0.0284428 0
0.359518 0.0107881 0
0.439765 0 0
0.527169 0 0.0134127
0.616297 0.0628061 0.0979324
0.703014 0.196994 0.216953
0.779736 0.330343 0.333669
0.842512 0.440665 0.429129
0.891203 0.522789 0.501213
0.902647 0.541482 0.517601
0.902205 0.54641 0.517128
0.901549 0.55346 0.516411
0.90013 0.568154 0.515251
0.897276 0.596216 0.51313
0.892241 0.63975 0.506355
0.885313 0.697536 0.49192
0.878798 0.754681 0.467536
0.873854 0.801648 0.434424
0.870039 0.839551 0.405921
0.866392 0.86836 0.43859
0.862547 0.890089 0.53579
0.859449 0.907866 0.621424
0 0.0703899 0
0 0.0715953 0
0 0.0724804 0
0 0.0730755 0
0 0.0734874 0
0 0.0737316 0
0 0.0742962 0
0.0407111 0.0753643 0
0.0980392 0.0719768 0
0.162005 0.0694591 0
0.229068 0.0651408 0
0.284306 0.064271 0
0.360784 0.0576333 0
0.441993 0.0508278 0
0.530449 0.0418097 0.0147707
0.618463 0.0655375 0.10074
0.704204 0.198978 0.218677
0.780087 0.330999 0.334264
0.842222 0.440162 0.428687
0.890425 0.521508 0.500084
0.902434 0.543954 0.517357
0.902022 0.548272 0.516945
0.901289 0.556191 0.516136
0.899763 0.57203 0.514351
0.896727 0.601175 0.512261
0.891615 0.645075 0.505135
0.884779 0.702083 0.490166
0.878462 0.757717 0.465064
0.873671 0.803494 0.431235
0.869963 0.840711 0.401984
0.866361 0.869017 0.435996
0.862501 0.890501 0.534859
0.859419 0.90811 0.621103
0 0.107195 0
0 0.108385 0
0 0.109056 0
0 0.109712 0
0 0.110185 0
0 0.110521 0
0 0.110704 0
0.00259403 0.111986 0
0.0694133 0.110704 0
0.146807 0.105135 0
0.219913 0.101991 0
0.27921 0.103365 0
0.361196 0.0991836 0
0.445548 0.0994583 0
0.534768 0.113771 0.0166781
0.622415 0.154971 0.105211
0.70547 0.232151 0.22063
0.780575 0.331868 0.335012
0.841749 0.439368 0.428
0.889067 0.522881 0.498207
0.90219 0.546685 0.517098
0.901762 0.55111 0.516655
0.900908 0.560204 0.515709
0.899199 0.577554 0.513664
0.895979 0.607767 0.511025
0.890761 0.652094 0.50341
0.884092 0.707927 0.487785
0.878065 0.761624 0.461723
0.873457 0.80589 0.426871
0.869871 0.842191 0.396628
0.8663 0.869871 0.432517
0.862455 0.89102 0.533562
0.859373 0.908415 0.620676
0 0.155276 0
0 0.155673 0
0 0.156039 0
0 0.156359 0
0 0.156542 0
0 0.156588 0
0 0.156497 0
0 0.156161 0
0.0243076 0.157595 0
0.108843 0.153964 0
0.201541 0.149325 0
0.267262 0.153109 0
0.357107 0.149355 0
0.447593 0.149111 0
0.539071 0.161074 0.0176547
0.625834 0.196689 0.108217
0.706783 0.264485 0.222385
0.77969 0.357534 0.334142
0.840345 0.449546 0.4262
0.887129 0.524361 0.495537
0.901869 0.550042 0.516777
0.90135 0.555596 0.516197
0.900313 0.566217 0.515038
0.89839 0.585443 0.512657
0.894972 0.616632 0.509194
0.889662 0.661341 0.500999
0.883238 0.715373 0.484504
0.877546 0.766552 0.457145
0.873182 0.808942 0.420874
0.869734 0.844114 0.389212
0.866239 0.871 0.427741
0.862379 0.891707 0.531868
0.859327 0.908812 0.620111
0 0.209949 0
0 0.21033 0
0 0.210758 0
0 0.211048 0
0 0.211276 0
0 0.211414 0
0 0.21146 0
0 0.211353 0
0 0.210941 0
0.0413977 0.213642 0
0.162768 0.20705 0
0.243534 0.21297 0
0.344701 0.209812 0
0.444831 0.209293 0
0.541192 0.217868 0.0143435
0.628626 0.24477 0.108827
0.707973 0.297658 0.22356
0.779248 0.375525 0.333669
0.838666 0.457069 0.42388
0.884306 0.526665 0.4916
0.901335 0.555764 0.516182
0.900664 0.562768 0.515419
0.899413 0.575357 0.513954
0.897215 0.596674 0.511086
0.893553 0.628672 0.506294
0.888197 0.673442 0.497536
0.88217 0.724727 0.479942
0.87689 0.772747 0.450858
0.872862 0.812848 0.412467
0.869596 0.846571 0.378454
0.866148 0.872435 0.421225
0.862303 0.892576 0.529595
0.859251 0.909346 0.619379
0 0.27715 0
0 0.277562 0
0 0.277913 0
0 0.278218 0
0 0.278462 0
0 0.27863 0
0 0.278782 0
0 0.278843 0
0 0.278691 0
0 0.278355 0
0.0565042 0.282826 0
0.196078 0.28481 0
0.318059 0.283558 0
0.432013 0.283101 0
0.536126 0.287984 0
0.627939 0.30602 0.0996719
0.707561 0.34374 0.221027
0.777768 0.402762 0.33135
0.835752 0.471153 0.419791
0.880079 0.53283 0.485664
0.900404 0.56553 0.515099
0.899519 0.57438 0.514061
0.898009 0.589227 0.512154
0.895506 0.612055 0.508583
0.89163 0.644999 0.501976
0.886366 0.688777 0.4925
0.880873 0.736248 0.473518
0.876127 0.780301 0.442603
0.87245 0.817792 0.400397
0.869444 0.849729 0.361975
0.866041 0.874311 0.41207
0.862181 0.893736 0.526513
0.859159 0.910018 0.618418
0 0.359396 0
0 0.359777 0
0 0.360128 0
0 0.360403 0
0 0.360616 0
0 0.36083 0
0 0.361013 0
0 0.361151 0
0 0.361303 0
0 0.361395 0
0 0.361395 0
0.0750744 0.368887 0
0.263264 0.372168 0
0.403082 0.37145 0
0.518898 0.373083 0
0.618982 0.382742 0.0606241
0.703059 0.404974 0.207263
0.774365 0.444739 0.324681
0.831083 0.496559 0.412909
0.874022 0.546944 0.477058
0.898741 0.582055 0.5131
0.897627 0.592889 0.511635
0.895811 0.609384 0.509056
0.893034 0.633234 0.50454
0.889052 0.666514 0.496513
0.884169 0.7075 0.485161
0.879347 0.750088 0.464302
0.875242 0.789395 0.430991
0.872007 0.823926 0.382467
0.869307 0.853742 0.336263
0.865919 0.876738 0.398932
0.862028 0.895216 0.522377
0.859037 0.910887 0.617105
0 0.451133 0
0 0.451438 0
0 0.451698 0
0 0.451911 0
0 0.45211 0
0 0.452293 0
0 0.452461 0
0 0.452644 0
0 0.452766 0
0 0.452811 0
0 0.452644 0
0 0.452186 0
0.117632 0.461921 0
0.348333 0.463371 0
0.487404 0.462516 0
0.600031 0.465034 0
0.692714 0.478584 0.165393
0.767636 0.502998 0.307591
0.823682 0.537072 0.400565
0.865385 0.57409 0.463951
0.895949 0.608194 0.509255
0.894591 0.619959 0.507134
0.892531 0.637476 0.503639
0.889616 0.661875 0.497795
0.885801 0.693568 0.487877
0.881651 0.729519 0.474159
0.877653 0.766155 0.450797
0.87422 0.800168 0.41384
0.871534 0.831449 0.352148
0.869307 0.858778 0.291966
0.865812 0.879805 0.379187
0.86186 0.897093 0.516716
0.858885 0.912016 0.615396
0 0.545922 0
0 0.54609 0
0 0.546242 0
0 0.546365 0
0 0.546471 0
0 0.546548 0
0 0.546639 0
0 0.5467 0
0 0.546731 0
0 0.546654 0
0 0.546426 0
0 0.54583 0
0 0.544701 0
0.2009 0.555108 0
0.432822 0.55436 0
0.568612 0.553826 0
0.672267 0.558801 0.00135805
0.754116 0.573327 0.25864
0.811902 0.59324 0.374823
0.853254 0.616693 0.442496
0.885145 0.642023 0.492134
0.890105 0.657801 0.498848
0.888014 0.67512 0.494011
0.885313 0.697734 0.48632
0.882231 0.724575 0.474235
0.87895 0.754147 0.457115
0.875822 0.7841 0.430533
0.873137 0.812818 0.38674
0.871153 0.840482 0.301778
0.869642 0.865171 0.192874
0.865766 0.883741 0.345037
0.861646 0.899489 0.508888
0.858701 0.913436 0.613092
0 0.635752 0
0 0.635828 0
0 0.635874 0
0 0.63592 0
0 0.635935 0
0 0.63595 0
0 0.635966 0
0 0.635935 0
0 0.635874 0
0 0.635691 0
0 0.635355 0
0 0.634714 0
0 0.633555 0
0 0.631922 0
0.300389 0.642237 0
0.518441 0.640955 0
0.642435 0.641123 0
0.73138 0.647135 0.0155337
0.793942 0.658808 0.304845
0.836744 0.672557 0.401495
0.868727 0.689235 0.458351
0.884459 0.705165 0.48336
0.882826 0.719356 0.476921
0.880842 0.736965 0.467094
0.878599 0.757565 0.451881
0.87628 0.780133 0.429725
0.874037 0.803372 0.398062
0.872175 0.827344 0.334112
0.87126 0.851347 0.174289
0.869657 0.87187 0
0.866011 0.888838 0.278096
0.861387 0.902434 0.497887
0.858457 0.915221 0.610086
0 0.720485 0
0 0.72047 0
0 0.720455 0
0 0.720409 0
0 0.720394 0
0 0.720348 0
0 0.720272 0
0 0.720165 0
0 0.719966 0
0 0.719661 0
0 0.719158 0
0 0.718334 0
0 0.717052 0
0 0.715282 0
0 0.713039 0
0.412207 0.72282 0
0.601755 0.720317 0
0.702632 0.720943 0
0.769955 0.725109 0
0.817456 0.733547 0.284016
0.851087 0.74226 0.394568
0.87512 0.753246 0.446479
0.877989 0.763531 0.446494
0.876738 0.775647 0.43357
0.875349 0.789929 0.413687
0.873915 0.806104 0.380987
0.872541 0.82417 0.330663
0.871946 0.843885 0.185885
0.870619 0.862226 0
0.868864 0.87924 0
0.866957 0.895369 0.0170138
0.861112 0.906065 0.481956
0.858152 0.917433 0.606012
0 0.791241 0
0 0.791165 0
0 0.791074 0
0 0.790982 0
0 0.790875 0
0 0.790753 0
0 0.790616 0
0 0.790402 0
0 0.790082 0
0 0.789624 0
0 0.788922 0
0 0.787884 0
0 0.786435 0
0 0.784527 0
0 0.782055 0
0 0.779049 0
0.542336 0.785367 0
0.67219 0.782895 0
0.746563 0.783505 0
0.797772 0.786252 0
0.835477 0.791684 0.103471
0.860441 0.796582 0.339223
0.874159 0.803082 0.388357
0.873564 0.810727 0.367498
0.872938 0.820554 0.329335
0.872557 0.832624 0.248112
0.87216 0.846067 0
0.870848 0.859754 0
0.869429 0.87364 0
0.867933 0.887602 0
0.866377 0.90135 0
0.860822 0.910414 0.457755
0.857771 0.920165 0.600458
0 0.84445 0
0 0.844312 0
0 0.844175 0
0 0.844038 0
0 0.843885 0
0 0.843732 0
0 0.843519 0
0 0.843229 0
0 0.842817 0
0 0.842237 0
0 0.841398 0
0 0.840284 0
0 0.838758 0
0 0.836774 0
0 0.834257 0
0 0.831144 0
0.430106 0.835782 0
0.641215 0.830198 0
0.724636 0.828855 0
0.779797 0.829297 0
0.819547 0.831083 0
0.847959 0.834211 0
0.869734 0.838865 0.022797
0.872404 0.843442 0
0.871855 0.849454 0
0.871122 0.856916 0
0.870253 0.865599 0
0.869245 0.875166 0
0.868116 0.885634 0
0.86685 0.896788 0
0.865522 0.908064 0
0.860578 0.91548 0.424155
0.857328 0.923415 0.592752
0 0.885237 0
0 0.885054 0
0 0.884901 0
0 0.884703 0
0 0.884535 0
0 0.884337 0
0 0.884077 0
0 0.883726 0
0 0.883238 0
0 0.882597 0
0 0.881758 0
0 0.880613 0
0 0.879088 0
0 0.877134 0
0 0.874662 0
0 0.871611 0
0 0.868193 0
0.607034 0.867597 0
0.704051 0.86482 0
0.762982 0.863951 0
0.804639 0.864149 0
0.834943 0.865293 0
0.858335 0.867338 0
0.86978 0.870085 0
0.869429 0.873381 0
0.868955 0.877821 0
0.86833 0.883452 0
0.867567 0.890211 0
0.866667 0.897978 0
0.865644 0.906462 0
0.864561 0.915328 0
0.859968 0.920836 0.410697
0.856825 0.927245 0.581979
0 0.91487 0
0 0.914641 0
0 0.914458 0
0 0.91426 0
0 0.914061 0
0 0.913848 0
0 0.913573 0
0 0.913191 0
0 0.912703 0
0 0.912077 0
0 0.911223 0
0 0.910094 0
0 0.908629 0
0 0.906752 0
0 0.904372 0
0 0.901488 0
0 0.89836 0
0.573083 0.895933 0
0.687419 0.892027 0
0.749508 0.89041 0
0.791882 0.889754 0
0.823392 0.889815 0
0.848081 0.890532 0
0.86659 0.891997 0
0.867124 0.893721 0
0.866819 0.896406 0
0.866361 0.900084 0
0.865812 0.904662 0
0.865125 0.910094 0
0.864347 0.916228 0
0.863523 0.922866 0
0.859266 0.926696 0.398306
0.856168 0.931426 0.581369
0 0.937041 0
0 0.936828 0
0 0.936645 0
0 0.936431 0
0 0.936217 0
0 0.936034 0
0 0.93576 0
0 0.935378 0
0 0.934905 0
0 0.93431 0
0 0.933486 0
0 0.932433 0
0 0.93106 0
0 0.929305 0
0 0.927123 0
0 0.924575 0
0 0.921859 0
0.545693 0.918441 0
0.67541 0.91368 0
0.73901 0.911696 0
0.781216 0.910658 0
0.813031 0.910185 0
0.838346 0.910155 0
0.857725 0.910658 0
0.864897 0.911467 0
0.864713 0.91284 0
0.864424 0.914977 0
0.864042 0.917861 0
0.863569 0.921416 0
0.863005 0.925673 0
0.862394 0.930571 0
0.858381 0.932799 0.393164
0.855421 0.935958 0.583856
0 0.953796 0
0 0.953613 0
0 0.953414 0
0 0.953231 0
0 0.953033 0
0 0.952834 0
0 0.952575 0
0 0.952255 0
0 0.951812 0
0 0.951247 0
0 0.950072 0
0 0.949096 0
0 0.947829 0
0 0.946258 0
0 0.944396 0
0 0.94229 0
0 0.940047 0
0.543664 0.935546 0
0.671244 0.930663 0
0.732677 0.928603 0
0.773404 0.927398 0
0.804822 0.926604 0
0.829923 0.926131 0
0.849622 0.926055 0
0.862806 0.926299 0
0.862745 0.926741 0
0.862593 0.92781 0
0.862364 0.929519 0
0.862028 0.931807 0
0.861646 0.934722 0
0.861219 0.93817 0
0.857267 0.938796 0.403754
0.854597 0.940642 0.58909
0 0.965225 0
0 0.965072 0
0 0.964904 0
0 0.964721 0
0 0.964553 0
0 0.964385 0
0 0.964141 0
0 0.963851 0
0 0.963455 0
0 0.962936 0
0 0.96228 0
0 0.961471 0
0 0.960433 0
0 0.959197 0
0 0.957732 0
0 0.9561 0
0 0.95436 0
0.576776 0.947555 0
0.67686 0.943725 0
0.731258 0.941848 0
0.769009 0.940642 0
0.799069 0.939742 0
0.823301 0.939101 0
0.842618 0.938704 0
0.85832 0.938582 0
0.860899 0.938582 0
0.860853 0.938964 0
0.860731 0.939834 0
0.860548 0.941207 0
0.860319 0.943053 0
0.860075 0.945357 0
0.855879 0.944289 0.435523
0.853712 0.945281 0.597986
0 0.973068 0
0 0.972915 0
0 0.972778 0
0 0.972656 0
0 0.972519 0
0 0.972381 0
0 0.972213 0
0 0.972 0
0 0.971695 0
0 0.971328 0
0 0.97084 0
0 0.970245 0
0 0.969497 0
0 0.968612 0
0 0.967544 0
0 0.966354 0
0.442771 0.963806 0
0.622858 0.956786 0
0.690623 0.954238 0
0.734478 0.952743 0
0.768139 0.951598 0
0.795773 0.95024 0
0.818433 0.949523 0
0.837018 0.948989 0
0.852338 0.948653 0
0.85922 0.948394 0
0.859266 0.948348 0
0.859251 0.948623 0
0.85919 0.949294 0
0.859098 0.950378 0
0.859022 0.952239 0
0.854353 0.949157 0.483085
0.852827 0.949752 0.610636
0 0.974746 0
0 0.974746 0
0 0.974746 0
0 0.974746 0
0 0.974746 0
0 0.974746 0
0 0.974746 0
0 0.974762 0
0 0.974762 0
0 0.974762 0
0 0.974777 0
0 0.974777 0
0 0.974792 0
0 0.974807 0
0 0.974624 0
0.476783 0.970764 0
0.605615 0.965606 0
0.666789 0.963211 0
0.709316 0.9617 0
0.742626 0.960571 0
0.770993 0.959594 0
0.795224 0.958724 0
0.815641 0.958007 0
0.833005 0.957427 0
0.847654 0.956954 0
0.857816 0.956619 0
0.857908 0.956313 0
0.857969 0.956252 0
0.858015 0.956497 0
0.85803 0.957046 0
0.858091 0.9579 0
0.852857 0.953918 0.534051
0.851987 0.954345 0.626841
0 0.974853 0
0 0.974853 0
0 0.974853 0
0 0.974853 0
0 0.974853 0
0 0.974853 0
0 0.974868 0
0 0.974868 0
0 0.974868 0
0 0.974884 0
0.273335 0.977798 0
0.436667 0.973175 0
0.514382 0.970535 0
0.568521 0.968704 0
0.611139 0.967453 0
0.646326 0.966628 0
0.67747 0.966125 0
0.705196 0.965866 0
0.730816 0.965805 0
0.754726 0.96585 0
0.776944 0.965606 0
0.797116 0.964874 0
0.814801 0.964218 0
0.830533 0.963623 0
0.844038 0.963119 0
0.855192 0.962753 0
0.856794 0.962371 0
0.856916 0.962112 0
0.857038 0.962112 0
0.85716 0.962325 0
0.853254 0.958938 0.437293
0.851621 0.957732 0.581827
0.85127 0.958068 0.646159
0.626688 0.967117 0
0.628702 0.967056 0
0.630686 0.96701 0
0.632609 0.966964 0
0.634485 0.966934 0
0.636408 0.966888 0
0.638819 0.966842 0
0.641901 0.966781 0
0.645838 0.96669 0
