BBLuts/BB_103_0610_LUT.cube
TITLE "Generated by Resolve"
LUT_3D_SIZE 33
0.00999466 0.0103304 0.0108949
0.00999466 0.0103304 0.0108949
0.00999466 0.0103304 0.0108949
0.00999466 0.0103304 0.0108949
0.00999466 0.0103304 0.0108949
0.090959 0.0106355 0.0112612
0.180514 0.0127413 0.0135195
0.243717 0.0141451 0.0150454
0.305974 0.015198 0.0161746
0.379553 0.0156863 0.0167239
0.464851 0.0151369 0.0162051
0.53991 0.0132753 0.0142824
0.579065 0.0102693 0.0111238
0.614969 0.00686656 0.00755322
0.656291 0.00276188 0.00325017
0.699336 0.000106813 0.000488289
0.740261 0.0009308 0.00137331
0.777951 0.00581369 0.00654612
0.810208 0.0128176 0.0139467
0.835294 0.019089 0.0205692
0.840116 0.0200961 0.021622
0.840116 0.0200961 0.021622
0.833417 0.299702 0.121584
0.831113 0.559197 0.205661
0.829175 0.619379 0.271
0.827436 0.669352 0.345708
0.825086 0.713649 0.436255
0.822934 0.748287 0.559869
0.821302 0.772671 0.624659
0.82005 0.790387 0.669917
0.818952 0.803372 0.714641
0.818051 0.813077 0.756848
0.817472 0.820966 0.790921
0.00999466 0.0103304 0.0108949
0.00999466 0.0103304 0.0108949
0.00999466 0.0103304 0.0108949
0.00999466 0.0103304 0.0108949
0.00999466 0.0103304 0.0108949
0.109361 0.0110323 0.0116884
0.186633 0.0128786 0.0136721
0.248646 0.0142367 0.0151369
0.313634 0.0152895 0.0162814
0.38822 0.0156863 0.0167391
0.473838 0.0150149 0.016083
0.54464 0.013077 0.0140688
0.580453 0.010132 0.0109712
0.61593 0.00677501 0.00746166
0.657099 0.00268559 0.00317388
0.69987 9.15541e-05 0.00047303
0.740566 0.000961318 0.00138857
0.778088 0.00584421 0.00656138
0.810162 0.0128176 0.0139315
0.835142 0.0190585 0.0205234
0.840116 0.0200961 0.021622
0.840116 0.0200961 0.021622
0.833387 0.355825 0.0991836
0.830854 0.569451 0.195895
0.829084 0.623392 0.266133
0.827329 0.672038 0.342763
0.825025 0.715389 0.433158
0.822904 0.749264 0.558663
0.821302 0.773205 0.624399
0.82005 0.790692 0.669764
0.818952 0.803525 0.714549
0.818051 0.813184 0.756786
0.817472 0.821012 0.79089
0.00999466 0.0103304 0.0108949
0.00999466 0.0103304 0.0108949
0.00999466 0.0103304 0.0108949
0.00999466 0.0103304 0.0108949
0.00999466 0.0103304 0.0108949
0.120195 0.0112764 0.0119631
0.188754 0.0129244 0.0137331
0.253315 0.0143282 0.0152438
0.32163 0.0153658 0.0163729
0.396353 0.015671 0.0167239
0.480278 0.0149081 0.0159762
0.547066 0.0129702 0.013962
0.581628 0.0100099 0.0108492
0.616938 0.00668345 0.00735485
0.657923 0.00260929 0.00309758
0.700404 7.62951e-05 0.000442512
0.740871 0.000976577 0.00141909
0.77821 0.00585946 0.0065919
0.810117 0.0128023 0.0139162
0.834958 0.0190127 0.0204776
0.840116 0.0200961 0.021622
0.840116 0.0200961 0.021622
0.833371 0.400946 0.0480201
0.830686 0.574716 0.185061
0.829007 0.627283 0.261051
0.827222 0.674662 0.339788
0.824948 0.717098 0.430182
0.822873 0.75021 0.557427
0.821286 0.773724 0.624155
0.82005 0.790997 0.669627
0.818952 0.803693 0.714458
0.818051 0.813291 0.756741
0.817472 0.821073 0.79086
0.00999466 0.0103304 0.0108949
0.00999466 0.0103304 0.0108949
0.00999466 0.0103304 0.0108949
0.00958267 0.0196841 0.0106661
0.0484779 0.0293126 0.0110628
0.12845 0.0114748 0.0121614
0.189731 0.0129549 0.0137484
0.253742 0.0143435 0.015259
0.323003 0.0153811 0.0163882
0.399649 0.0156558 0.0167239
0.484215 0.014847 0.0158999
0.549203 0.0128634 0.0138552
0.582757 0.0099031 0.0107424
0.617975 0.00657664 0.00726329
0.658763 0.002533 0.00302129
0.700938 7.62951e-05 0.000442512
0.741161 0.0010071 0.00144961
0.778332 0.00588998 0.00660716
0.810056 0.0127871 0.013901
0.834775 0.018967 0.0204318
0.840116 0.0200961 0.021622
0.840116 0.0200961 0.021622
0.833143 0.439338 0.0513161
0.830503 0.580331 0.172747
0.828916 0.631052 0.255787
0.827115 0.677226 0.336812
0.824887 0.718761 0.428687
0.822858 0.751156 0.556191
0.821286 0.774227 0.623896
0.82005 0.791287 0.669474
0.818952 0.803861 0.714366
0.818051 0.813382 0.75668
0.817472 0.821134 0.790829
0.00935378 0.101137 0.0122225
0.00936904 0.106035 0.0123293
0.00936904 0.11075 0.0124514
0.00936904 0.115267 0.0125429
0.0093843 0.117021 0.0125887
0.113512 0.115328 0.0118868
0.17937 0.112093 0.0122683
0.245518 0.104097 0.0128176
0.317464 0.0848402 0.0134279
0.401114 0.0156558 0.0167239
0.486458 0.0148013 0.0158541
0.55108 0.0127871 0.0137636
0.583841 0.00978103 0.0106203
0.619028 0.00648508 0.00715648
0.659617 0.00247196 0.00294499
0.701488 4.57771e-05 0.000411994
0.741466 0.00102235 0.00146487
0.778424 0.00590524 0.00662242
0.809995 0.0127718 0.0138857
0.834592 0.0189212 0.0203861
0.840116 0.0200961 0.021622
0.835492 0.110872 0.0149538
0.832807 0.474586 0.0535439
0.830335 0.585824 0.158328
0.828824 0.634714 0.250309
0.827008 0.679866 0.333822
0.824811 0.720378 0.427207
0.822843 0.752087 0.554986
0.821271 0.774731 0.623636
0.820035 0.791577 0.669322
0.818952 0.804013 0.714275
0.818051 0.813489 0.756634
0.817472 0.821195 0.790799
0.00939956 0.154177 0.0134279
0.00939956 0.157946 0.0135195
0.00939956 0.161639 0.0135805
0.00939956 0.164569 0.0136416
0.0093843 0.165957 0.0136721
0.0830396 0.164889 0.0125429
0.167391 0.163531 0.0124208
0.237919 0.160372 0.0126345
0.312016 0.153246 0.012604
0.393988 0.138598 0.01178
0.481407 0.109209 0.0102083
0.552697 0.0126955 0.0136721
0.584955 0.00967422 0.0105135
0.620127 0.00637827 0.00704967
0.660517 0.00239567 0.0028687
0.702083 3.0518e-05 0.000396735
0.741772 0.00105287 0.00149538
0.778531 0.0059205 0.00665293
0.809918 0.0127565 0.0138705
0.834379 0.0188602 0.0203098
0.840116 0.0200961 0.021622
0.833814 0.250202 0.0302586
0.832471 0.503548 0.0549935
0.830182 0.591302 0.139391
0.828717 0.638437 0.244343
0.826902 0.682429 0.330648
0.82475 0.722026 0.425696
0.822812 0.753033 0.553689
0.821271 0.77525 0.623377
0.820035 0.791882 0.669169
0.818952 0.804181 0.714183
0.818051 0.813581 0.756573
0.817472 0.821256 0.790768
0.00920119 0.208591 0.0144198
0.00918593 0.211688 0.0144656
0.00915541 0.21474 0.0144961
0.00915541 0.216464 0.0145266
0.00914015 0.217563 0.0145418
0.00914015 0.21796 0.0145418
0.143069 0.215869 0.0128023
0.225269 0.214343 0.0128481
0.30428 0.210605 0.012726
0.389776 0.20267 0.0117189
0.478706 0.187457 0.00947585
0.547829 0.162707 0.00590524
0.582238 0.116289 0.00184634
0.621561 0.00624094 0.00689708
0.661692 0.00228885 0.00276188
0.702831 1.5259e-05 0.000396735
0.742168 0.00108339 0.0015259
0.778668 0.00595102 0.00668345
0.809812 0.012726 0.0138399
0.834089 0.0187991 0.0202487
0.840116 0.0200961 0.021622
0.8336 0.336767 0.0411536
0.832029 0.532189 0.055787
0.83006 0.598047 0.0971847
0.828595 0.643061 0.236271
0.82678 0.685649 0.326604
0.824674 0.724086 0.423819
0.822782 0.754223 0.552041
0.821256 0.775906 0.623041
0.820035 0.792264 0.668971
0.818952 0.804395 0.714061
0.818051 0.813718 0.756497
0.817472 0.821332 0.790722
0.00839246 0.268849 0.0148623
0.00834669 0.271473 0.0148623
0.00830091 0.273426 0.0148623
0.00827039 0.274708 0.0148623
0.00823987 0.275639 0.0148623
0.00822461 0.276143 0.0148623
0.0605783 0.275029 0.0136263
0.200198 0.27361 0.0129549
0.290105 0.271763 0.0130159
0.380575 0.266468 0.012253
0.473823 0.256031 0.0101778
0.547036 0.240574 0.00657664
0.581582 0.217792 0.0019379
0.61735 0.180606 0
0.658091 0.102739 0
0.703853 0 0.000366217
0.742718 0.00111391 0.00157168
0.778851 0.00598154 0.00671397
0.809659 0.0126955 0.0138094
0.833692 0.0186923 0.0201419
0.834287 0.181003 0.021973
0.833295 0.415839 0.0493935
0.831464 0.55938 0.0556191
0.829938 0.60647 0.0527047
0.828428 0.648951 0.224781
0.826612 0.689769 0.321157
0.824567 0.726726 0.421408
0.822751 0.755749 0.549859
0.821241 0.776761 0.622599
0.820035 0.792767 0.668711
0.818936 0.804685 0.713909
0.818051 0.813901 0.75639
0.817456 0.821439 0.790677
0.00619516 0.337835 0.0140383
0.00610361 0.339788 0.0139773
0.00605783 0.340887 0.0139467
0.0059968 0.342 0.0139162
0.00596628 0.342763 0.0138857
0.00593576 0.343297 0.0138857
0.0059205 0.343633 0.0138705
0.139223 0.341466 0.0120851
0.26125 0.339376 0.0126497
0.361761 0.335393 0.0126192
0.462821 0.32842 0.0112764
0.544198 0.317586 0.00833143
0.581292 0.30222 0.00450141
0.617884 0.280781 0.00077821
0.657328 0.251682 0
0.697643 0.21117 0
0.736919 0.148867 0
0.779095 0.00602731 0.00675975
0.809445 0.0126345 0.0137484
0.827115 0.190082 0.0207828
0.83357 0.350057 0.0426947
0.832578 0.494881 0.054612
0.830915 0.576791 0.0546731
0.829679 0.616739 0.0524147
0.828199 0.656321 0.207828
0.826398 0.694987 0.313909
0.824445 0.730068 0.418341
0.822721 0.757702 0.54696
0.821241 0.777874 0.622019
0.82002 0.793408 0.66836
0.818936 0.805051 0.713695
0.818051 0.814115 0.756268
0.817456 0.821576 0.7906
0.00175479 0.414221 0.0109712
0.00170901 0.414816 0.0109255
0.00167849 0.415396 0.0109102
0.00164797 0.415869 0.0108797
0.00163272 0.416159 0.0108797
0.00161746 0.416236 0.0108644
0.00163272 0.416083 0.0108797
0.00166323 0.415564 0.0108949
0.201984 0.412848 0.0104219
0.328923 0.411215 0.011841
0.44126 0.40708 0.0116884
0.536995 0.39971 0.00979629
0.579538 0.388861 0.00709544
0.618265 0.374075 0.005066
0.658427 0.357458 0.00340276
0.698161 0.339117 0.00361639
0.736156 0.321172 0.00753796
0.77174 0.308629 0.0158083
0.801984 0.322087 0.0280003
0.825513 0.380346 0.0432746
0.832853 0.469764 0.0532845
0.831571 0.554604 0.0557412
0.830335 0.593606 0.0534371
0.829404 0.629145 0.0523079
0.827909 0.665461 0.180972
0.826123 0.701534 0.304189
0.824292 0.734234 0.414557
0.822675 0.760143 0.54313
0.82121 0.779278 0.621256
0.82002 0.794247 0.667918
0.818936 0.805524 0.71342
0.818036 0.81442 0.756085
0.817456 0.821759 0.790494
0 0.495689 0.00590524
0 0.496193 0.00585946
0 0.496712 0.00581369
0 0.497078 0.00578317
0 0.497368 0.00575265
0 0.497536 0.00575265
0 0.497597 0.00573739
0 0.497475 0.00575265
0 0.496925 0.00579843
0.268498 0.49572 0.00852979
0.404913 0.494438 0.0104677
0.521675 0.490486 0.0101625
0.575051 0.483375 0.00880446
0.616968 0.473793 0.00848402
0.658885 0.463157 0.00894179
0.698924 0.453758 0.0116274
0.736385 0.448386 0.0182498
0.771206 0.450202 0.0288701
0.800549 0.469673 0.0410925
0.823224 0.509957 0.0520485
0.83154 0.556054 0.0557107
0.83064 0.584543 0.0540932
0.82977 0.612833 0.0524758
0.829007 0.6439 0.0516976
0.827634 0.6766 0.125322
0.825803 0.70959 0.291051
0.824125 0.73933 0.409979
0.822629 0.76318 0.538033
0.821195 0.781064 0.620264
0.820005 0.795316 0.667323
0.818936 0.806149 0.713054
0.818036 0.814801 0.755871
0.817456 0.821988 0.790387
0 0.5635 0
0 0.563806 0
0 0.564065 0
0 0.564279 0
0 0.564431 0
0 0.564553 0
0 0.56466 0
0 0.564691 0
0 0.564599 0
0.074815 0.563684 0
0.339605 0.564752 0.00688182
0.490684 0.564034 0.00909438
0.566964 0.561868 0.00898756
0.612497 0.558846 0.00972
0.656916 0.555215 0.0112306
0.698512 0.552499 0.0149691
0.735973 0.552651 0.0223087
0.769894 0.556985 0.0327764
0.798093 0.567147 0.0431678
0.82005 0.577173 0.0508431
0.830396 0.591928 0.0535592
0.829816 0.611048 0.0525368
0.829267 0.634424 0.0521553
0.828458 0.661097 0.0504005
0.827405 0.690135 0.047303
0.825437 0.719219 0.273671
0.823941 0.745464 0.404425
0.822538 0.766812 0.537118
0.82118 0.783307 0.618952
0.820005 0.796674 0.66656
0.818936 0.806943 0.712566
0.818036 0.815305 0.755566
0.817456 0.822293 0.790219
0 0.598245 0
0 0.598398 0
0 0.598535 0
0 0.598657 0
0 0.598733 0
0 0.598825 0
0 0.598901 0
0 0.598962 0
0 0.599023 0
0 0.599054 0
0.173861 0.599084 0
0.422553 0.600137 0.00801099
0.554604 0.59968 0.00924697
0.604105 0.598566 0.00981155
0.651698 0.597253 0.0109712
0.695811 0.596292 0.013962
0.734691 0.596551 0.0205234
0.768292 0.598764 0.0301823
0.795499 0.6038 0.0399634
0.816739 0.612284 0.0479286
0.829511 0.624063 0.0523842
0.829145 0.639216 0.051957
0.82855 0.65832 0.0506447
0.827756 0.680766 0.0483864
0.826825 0.705516 0.0454719
0.825086 0.73022 0.251087
0.823758 0.75259 0.398169
0.822431 0.771099 0.536522
0.821164 0.786068 0.617273
0.819989 0.798352 0.665537
0.818921 0.80795 0.711925
0.818036 0.815946 0.755169
0.817456 0.822675 0.790005
0 0.637034 0
0 0.637171 0
0 0.637278 0
0 0.637369 0
0 0.637446 0
0 0.637522 0
0 0.637598 0
0 0.637675 0
0 0.63772 0
0 0.637736 0
0 0.637675 0
0.280385 0.638117 0.00672923
0.520638 0.638254 0.0117494
0.590951 0.63711 0.0107729
0.642374 0.635843 0.0108492
0.689937 0.634836 0.0130617
0.731563 0.634913 0.0196689
0.766171 0.636683 0.0294347
0.792767 0.640803 0.0388342
0.813107 0.647578 0.046128
0.828595 0.657038 0.0507515
0.828183 0.66891 0.0496529
0.827619 0.68423 0.0479896
0.826947 0.702358 0.0458381
0.826215 0.722637 0.0435645
0.824811 0.742382 0.2215
0.823575 0.760616 0.391867
0.822339 0.77612 0.5364
0.821149 0.789395 0.615381
0.819989 0.800412 0.66424
0.818921 0.809216 0.711101
0.818021 0.816754 0.75465
0.817441 0.823178 0.789715
0 0.67744 0
0 0.677516 0
0 0.677577 0
0 0.677638 0
0 0.677668 0
0 0.677714 0
0 0.677745 0
0 0.677775 0
0 0.677791 0
0 0.67776 0
0 0.677653 0
0 0.677394 0
0.420798 0.677592 0.0127108
0.572198 0.676417 0.0122072
0.629053 0.675242 0.011902
0.680476 0.674144 0.0130312
0.725444 0.673854 0.0184787
0.761807 0.674952 0.0274052
0.788693 0.678065 0.0359503
0.808438 0.683146 0.0422522
0.824109 0.690379 0.0465553
0.827054 0.699519 0.0461891
0.826612 0.711192 0.0447852
0.826123 0.725109 0.0433356
0.825696 0.740276 0.0423133
0.824659 0.755261 0.182467
0.823407 0.769299 0.386633
0.822217 0.781888 0.537087
0.821073 0.793225 0.616098
0.819989 0.802869 0.662562
0.818921 0.810803 0.710002
0.818021 0.817777 0.753964
0.817441 0.823804 0.789334
0 0.717006 0.00831617
0 0.717037 0.00833143
0 0.717067 0.00834669
0 0.717083 0.00834669
0 0.717083 0.00834669
0 0.717098 0.00834669
0 0.717098 0.00836194
0 0.717083 0.00834669
0 0.717067 0.00834669
0 0.716991 0.00831617
0 0.716823 0.00825513
0 0.716533 0.00814832
0.141238 0.71574 0.0111696
0.547127 0.715801 0.0200656
0.612467 0.714366 0.0178988
0.668101 0.712993 0.0166934
0.716457 0.7122 0.0192264
0.754879 0.712581 0.0258793
0.782681 0.714412 0.0329747
0.802701 0.71783 0.0383154
0.818006 0.722881 0.0419013
0.826001 0.729442 0.0429847
0.825772 0.737423 0.0424659
0.825544 0.746883 0.0420691
0.825345 0.757488 0.0419318
0.824704 0.768246 0.128145
0.82327 0.778317 0.384237
0.82211 0.788312 0.539315
0.820981 0.797574 0.617243
0.819974 0.805707 0.660899
0.818921 0.812741 0.708598
0.818021 0.819043 0.753063
0.817426 0.824582 0.788846
0.0103914 0.754528 0.0276646
0.0103914 0.754513 0.0276646
0.0103761 0.754513 0.0276493
0.0103761 0.754498 0.0276493
0.0103609 0.754482 0.0276341
0.0103456 0.754467 0.0276188
0.0103304 0.754437 0.0276036
0.0103151 0.754376 0.0275731
0.0102541 0.754299 0.027512
0.010193 0.754162 0.0274357
0.0100557 0.753933 0.0272831
0.00984207 0.753582 0.0270542
0.00952163 0.753017 0.026688
0.462669 0.752804 0.0363928
0.593713 0.750835 0.0314183
0.654505 0.748898 0.0270085
0.706127 0.747326 0.0252232
0.746334 0.746777 0.0281071
0.775311 0.747341 0.0328527
0.796231 0.748959 0.0369879
0.811963 0.751675 0.0399939
0.823438 0.755611 0.041886
0.825299 0.760479 0.0419471
0.825223 0.76643 0.0420844
0.825162 0.773297 0.0423743
0.825101 0.780865 0.0428321
0.823133 0.78764 0.386374
0.821988 0.795148 0.544045
0.82089 0.802319 0.619043
0.819898 0.808896 0.662455
0.818921 0.81503 0.706737
0.818006 0.820569 0.751888
0.817426 0.825574 0.78819
0.0308995 0.785245 0.050248
0.0308843 0.785199 0.0502174
0.0308537 0.785168 0.0501869
0.0308232 0.785122 0.0501564
0.0307774 0.785077 0.0501259
0.0307469 0.785031 0.0500801
0.0307012 0.78497 0.0500343
0.0306249 0.784878 0.0499428
0.0305333 0.784741 0.0498512
0.0303807 0.784543 0.0496834
0.0301671 0.784237 0.0494392
0.0298466 0.783795 0.0490883
0.0293889 0.783169 0.0485847
0.325811 0.782589 0.0540017
0.578454 0.78024 0.0480354
0.643992 0.777584 0.0399176
0.697749 0.775219 0.0340734
0.738628 0.773877 0.0333867
0.7682 0.773495 0.0356756
0.790051 0.773846 0.0384375
0.806439 0.774914 0.04065
0.818341 0.776822 0.0421454
0.825116 0.779461 0.0427405
0.825101 0.782971 0.0429847
0.825071 0.787381 0.0433051
0.824857 0.792416 0.0734874
0.822995 0.796872 0.396185
0.821836 0.802106 0.552407
0.820768 0.807279 0.621759
0.819806 0.812512 0.664637
0.818891 0.817639 0.706737
0.818006 0.82237 0.750347
0.817411 0.826764 0.787335
0.0480659 0.808087 0.0690776
0.0480201 0.808026 0.0690318
0.0479744 0.807965 0.068986
0.0479286 0.807904 0.0689403
0.0478828 0.807843 0.0688945
0.0478218 0.807782 0.0688182
0.0477607 0.807691 0.0687572
0.0476692 0.807553 0.0686503
0.0475319 0.807385 0.068513
0.0473487 0.807141 0.0682994
0.0470741 0.806775 0.0679942
0.0467079 0.806302 0.0675975
0.0462196 0.805646 0.0670634
0.254658 0.8047 0.0690623
0.573404 0.801938 0.0614939
0.639979 0.798764 0.0505837
0.693401 0.795941 0.0422217
0.733455 0.794125 0.0391089
0.762554 0.79321 0.0394751
0.784649 0.792874 0.04094
0.80148 0.793057 0.0423438
0.813855 0.793851 0.0433661
0.823529 0.795254 0.0440833
0.825055 0.797253 0.0441138
0.82504 0.799969 0.0443427
0.82417 0.802655 0.181186
0.822797 0.805493 0.416892
0.821637 0.808789 0.565301
0.820615 0.812451 0.625727
0.819699 0.816464 0.667704
0.818799 0.820523 0.709087
0.818006 0.824445 0.748989
0.817411 0.828183 0.786206
0.0609445 0.825498 0.0832227
0.0608835 0.825422 0.0831769
0.0608377 0.82536 0.0831159
0.0607767 0.825269 0.0830549
0.0607309 0.825193 0.0829938
0.0606699 0.825116 0.0829328
0.0605936 0.82501 0.0828412
0.0604868 0.824857 0.0827344
0.0603342 0.824643 0.0825666
0.0601358 0.824384 0.0823529
0.0598764 0.824018 0.082063
0.0595254 0.823529 0.0816815
0.0590677 0.822889 0.0811627
0.365194 0.821683 0.0823072
0.580987 0.818158 0.0695201
0.643351 0.814786 0.0573739
0.693248 0.811841 0.0479896
0.730861 0.809827 0.0435798
0.758587 0.808637 0.0426642
0.780179 0.807935 0.043183
0.796948 0.80763 0.0439918
0.80972 0.807721 0.0446479
0.819821 0.808225 0.0451209
0.825025 0.809171 0.0451362
0.825025 0.810636 0.0452583
0.823667 0.811566 0.265126
0.822492 0.813169 0.450904
0.821393 0.815213 0.582193
0.820432 0.817716 0.631312
0.819547 0.820584 0.671931
0.818692 0.823621 0.712276
0.817929 0.826673 0.751278
0.817395 0.829847 0.78471
0.0695659 0.838102 0.0927138
0.0695201 0.83801 0.0926528
0.0694591 0.837934 0.0925917
0.069398 0.837842 0.0925307
0.0693523 0.837766 0.0924697
0.0692912 0.837674 0.0924086
0.0691997 0.837552 0.0923171
0.0691081 0.8374 0.0922103
0.0689708 0.837186 0.0920577
0.0687877 0.836912 0.0918593
0.0685435 0.836545 0.0915999
0.0682383 0.836072 0.091249
0.0678264 0.835447 0.0908064
0.522774 0.832944 0.0854047
0.601602 0.829374 0.0713664
0.654963 0.826139 0.0595865
0.697978 0.823407 0.0507668
0.731441 0.821469 0.0462654
0.756924 0.820203 0.044831
0.777386 0.819348 0.044831
0.793484 0.818784 0.0452277
0.806241 0.818509 0.045655
0.816602 0.818524 0.0459602
0.824552 0.818891 0.0461128
0.824994 0.819593 0.0459602
0.823117 0.819364 0.347829
0.82208 0.820157 0.500298
0.821073 0.821302 0.600641
0.820203 0.822843 0.638956
0.819379 0.82472 0.677699
0.818555 0.82681 0.716731
0.817838 0.829114 0.754284
0.817349 0.831678 0.78613
0.0754253 0.847532 0.0991836
0.0753796 0.84744 0.0991226
0.0753185 0.847364 0.0990768
0.0752728 0.847272 0.0990158
0.0752117 0.847181 0.0989548
0.0751659 0.847105 0.0988937
0.0750896 0.846983 0.0988174
0.0749981 0.84683 0.0987106
0.0748913 0.846632 0.0985885
0.0747234 0.846357 0.0984207
0.0745251 0.846021 0.0981918
0.0742504 0.845563 0.0978866
0.502495 0.843198 0.0919051
0.582986 0.840116 0.0794842
0.630442 0.837247 0.0684367
0.671763 0.834516 0.0585489
0.706523 0.832242 0.0514839
0.734615 0.830564 0.0476844
0.757259 0.829374 0.0462043
0.776043 0.828473 0.0459297
0.791043 0.827832 0.0460975
0.803372 0.827405 0.0463569
0.813642 0.827146 0.0465553
0.821744 0.827146 0.0466468
0.823514 0.826276 0.273121
0.822507 0.826108 0.433188
0.821561 0.826276 0.55407
0.820706 0.826749 0.613336
0.819928 0.827558 0.649088
0.81915 0.828672 0.68542
0.818387 0.830045 0.722469
0.817731 0.831693 0.758206
0.817288 0.833646 0.788449
0.0793164 0.854475 0.103502
0.0792859 0.854398 0.103456
0.0792401 0.854307 0.10341
0.0791943 0.854231 0.103365
0.0791485 0.854154 0.103304
0.0791028 0.854063 0.103258
0.0790417 0.853956 0.103197
0.0789807 0.853819 0.10312
0.0788739 0.85362 0.102998
0.37612 0.852293 0.100252
0.512093 0.850858 0.094789
0.563928 0.848951 0.0869306
0.597757 0.846906 0.0786297
0.630518 0.844816 0.0705272
0.662181 0.842664 0.0625315
0.6916 0.84065 0.0556802
0.717784 0.838941 0.0508888
0.740124 0.837613 0.0481575
0.759594 0.836545 0.0469215
0.776181 0.835691 0.0465858
0.789792 0.83505 0.0466316
0.801419 0.834531 0.0467842
0.811261 0.83415 0.0469062
0.817945 0.832914 0.252644
0.822629 0.83212 0.404379
0.821775 0.831632 0.522393
0.820981 0.831403 0.598901
0.820279 0.831464 0.630045
0.819593 0.831815 0.662013
0.818891 0.832395 0.69546
0.818189 0.833204 0.729931
0.817609 0.834287 0.763256
0.817227 0.835676 0.79144
0.533165 0.856504 0.0951705
0.545083 0.856153 0.0936294
0.55111 0.855787 0.092134
0.556817 0.855436 0.0906691
0.562478 0.8551 0.0892653
0.568078 0.854765 0.0878462
0.574884 0.854337 0.0860914
0.583276 0.853819 0.0839399
0.593439 0.853178 0.0813306
0.605432 0.852415 0.0783246
0.61941 0.851514 0.0747539
0.635401 0.850431 0.0705577
0.653193 0.849195 0.0658732
0.672496 0.847837 0.0609903
0.692348 0.846464 0.0563516
0.711955 0.845151 0.0525063
0.730388 0.843992 0.0497597
0.747723 0.842969 0.0480201
0.763653 0.8421 0.0471656
0.777691 0.841352 0.0469062
0.7888 0.84004 0.179889
0.798962 0.839124 0.269261
0.807736 0.838361 0.339513
0.814817 0.837598 0.426902
0.820523 0.836851 0.520562
0.821027 0.836194 0.589746
0.820401 0.835752 0.621241
0.819791 0.835554 0.649287
0.819196 0.835569 0.677928
0.81857 0.835752 0.708095
0.817975 0.836149 0.739467
0.817472 0.836789 0.769589
0.817151 0.837705 0.795224
0.640452 0.8533 0.398398
0.642847 0.853117 0.398199
0.645182 0.852934 0.398001
0.647456 0.852781 0.397803
0.649683 0.852613 0.39765
0.651926 0.852445 0.397498
0.654902 0.852232 0.39733
0.658503 0.851957 0.397147
0.663066 0.851621 0.396948
0.668727 0.851209 0.396826
0.675654 0.85069 0.396796
0.683925 0.85008 0.397055
0.693568 0.849378 0.397803
0.704402 0.8486 0.399359
0.716136 0.847791 0.402167
0.728481 0.846952 0.406699
0.741344 0.846113 0.413275
0.754208 0.845304 0.422568
0.766491 0.844541 0.435279
0.777661 0.843824 0.452094
0.7879 0.843122 0.473838
0.797223 0.842451 0.50222
0.805341 0.84181 0.532662
0.812222 0.841184 0.564065
0.817884 0.840513 0.600488
0.820325 0.839857 0.621576
0.819821 0.839323 0.645335
0.819303 0.838941 0.670283
0.818753 0.838697 0.696376
0.818219 0.838636 0.723461
0.817716 0.838743 0.751186
0.817334 0.839063 0.777295
0.81706 0.839643 0.799924
0.696544 0.85008 0.586221
0.697627 0.850034 0.586221
0.698695 0.849989 0.586252
0.699748 0.849943 0.586267
0.700771 0.849912 0.586297
0.701823 0.849867 0.586313
0.703166 0.849821 0.586374
0.704875 0.84976 0.586419
0.707057 0.849668 0.586526
0.709819 0.849577 0.586679
0.713237 0.84947 0.586892
0.717479 0.849332 0.587228
0.722652 0.84918 0.587732
0.728817 0.849012 0.588479
0.73608 0.848707 0.589837
0.744137 0.848188 0.591409
0.752865 0.847639 0.593561
0.761975 0.847074 0.596445
0.771008 0.84651 0.599985
0.779843 0.845945 0.603311
0.788479 0.845365 0.6065
0.796597 0.8448 0.611276
0.803845 0.844236 0.617716
0.810254 0.843702 0.625788
0.815763 0.843198 0.635752
0.819623 0.842603 0.651453
0.819226 0.842084 0.671077
0.818769 0.841611 0.693019
0.818311 0.841245 0.716594
0.817853 0.841031 0.740749
0.817472 0.84097 0.764462
0.817182 0.841123 0.786297
0.816983 0.841459 0.805524
0.730678 0.847883 0.643412
0.731212 0.847883 0.643442
0.731762 0.847868 0.643473
0.73228 0.847852 0.643488
0.732815 0.847837 0.643519
0.733364 0.847822 0.643549
0.734051 0.847807 0.643595
0.734951 0.847791 0.643641
0.73611 0.847761 0.643702
0.737606 0.84773 0.643793
0.739513 0.8477 0.643931
0.741909 0.847654 0.644083
0.744884 0.847593 0.644327
0.748516 0.847547 0.644663
0.75285 0.847486 0.645106
0.75787 0.847425 0.645731
0.7635 0.847364 0.646586
0.769574 0.847303 0.64773
0.776135 0.847257 0.649256
0.783032 0.847211 0.651286
0.790143 0.846937 0.654108
0.796887 0.846464 0.657603
0.803143 0.846006 0.662135
0.808896 0.845533 0.667918
0.813947 0.84509 0.675258
0.818158 0.844663 0.684413
0.818586 0.844144 0.699077
0.818235 0.843687 0.717571
0.817868 0.84329 0.73785
0.817517 0.843 0.758785
0.817243 0.842878 0.778424
0.817044 0.842893 0.796216
