BBLuts/BB_104_0020_LUT.cube
TITLE "Generated by Resolve"
LUT_3D_SIZE 9
0 0 0
0 0 0
0.187793 0 0
0.455222 0 0
0.806622 0 0
1 0 0
1 0.617517 0.0428168
1 0.991241 0.36585
1 1 0.750225
0 0.0328527 0
0 0.0439307 0
0.191974 0.0191501 0
0.463905 0 0
0.809339 0 0
1 0 0
1 0.643656 0.0298924
1 0.993973 0.364614
1 1 0.750103
0 0.216938 0
0 0.221195 0
0.125536 0.221592 0
0.461387 0.195026 0
0.81059 0.079118 0
1 0.2327 0
1 0.677516 0.00527962
1 0.998444 0.362722
1 1 0.749905
0 0.519463 0
0 0.520562 0
0 0.521752 0
0.364889 0.525048 0
0.789792 0.512963 0
1 0.571923 0
1 0.775723 0
1 1 0.360739
1 1 0.748928
0 0.877836 0
0 0.877821 0
0 0.877531 0
0 0.874937 0
0.685954 0.876493 0
0.986481 0.883131 0
1 0.945739 0
1 1 0.370642
1 1 0.745159
0 1 0
0 1 0
0 1 0
0 1 0
0.625086 1 0
0.914351 1 0
1 1 0
1 1 0.418204
1 1 0.747662
0.533425 1 0.145754
0.533425 1 0.145754
0.533425 1 0.145754
0.533394 1 0.145739
0.73077 1 0.163531
0.903639 1 0.209918
1 1 0.323308
1 1 0.542199
1 1 0.7841
0.874083 1 0.632059
0.874083 1 0.632074
0.874083 1 0.632074
0.874083 1 0.632074
0.874067 1 0.632074
0.933028 1 0.64097
0.994919 1 0.666758
1 1 0.7337
1 1 0.859907
0.97409 1 0.903395
0.97409 1 0.903395
0.97409 1 0.903395
0.97409 1 0.903395
0.97409 1 0.903395
0.974075 1 0.903395
0.996201 1 0.907134
1 1 0.91751
1 1 0.943297
0 0 0.0215763
0 0 0.0219425
0.186023 0 0.0170443
0.455985 0 0.01178
0.807416 0 0.00270085
1 0 0
1 0.615579 0.0678416
1 0.991196 0.365866
1 1 0.75024
0 0.00358587 0.0157168
0.00944533 0.0174411 0.0139315
0.201587 0 0.0113069
0.458534 0 0.00396735
0.807187 0 0
1 0 0
1 0.642283 0.0498054
1 0.993942 0.364645
1 1 0.750103
0 0.20441 0
0 0.20824 0
0.146181 0.209049 0
0.459434 0.181872 0
0.80766 0.0418097 0
1 0.215335 0
1 0.6766 0.0205386
1 0.998444 0.362722
1 1 0.749905
0 0.513802 0
0 0.514809 0
0 0.515877 0
0.376623 0.518791 0
0.789212 0.50753 0
1 0.568139 0
1 0.774655 0
1 1 0.360739
1 1 0.748928
0 0.875883 0
0 0.875868 0
0 0.875547 0
0 0.872908 0
0.688869 0.874876 0
0.986572 0.882033 0
1 0.945373 0
1 1 0.370642
1 1 0.745159
0 1 0
0 1 0
0 1 0
0 1 0
0.627451 1 0
0.914626 1 0
1 1 0
1 1 0.418204
1 1 0.747662
0.53727 1 0.145571
0.53727 1 0.145571
0.537255 1 0.145571
0.53724 1 0.145571
0.731899 1 0.163287
0.903838 1 0.20972
1 1 0.323293
1 1 0.542199
1 1 0.7841
0.874342 1 0.632044
0.874342 1 0.632044
0.874342 1 0.632044
0.874342 1 0.632044
0.874327 1 0.632044
0.93315 1 0.640955
0.994965 1 0.666728
1 1 0.7337
1 1 0.859907
0.974105 1 0.903395
0.974105 1 0.903395
0.974105 1 0.903395
0.974105 1 0.903395
0.974105 1 0.903395
0.974105 1 0.903395
0.996216 1 0.907134
1 1 0.91751
1 1 0.943297
0 0 0.155032
0 0 0.155337
0.153246 0 0.150423
0.467811 0 0.139437
0.809628 0 0.132052
1 0 0.142916
1 0.605432 0.215702
1 0.990585 0.400397
1 1 0.75024
0 0 0.152331
0 0 0.152773
0.178103 0 0.146822
0.466667 0 0.135988
0.811002 0 0.127794
1 0 0.134905
1 0.634958 0.20853
1 0.993362 0.399207
1 1 0.750103
0 0.172671 0.138399
0 0.175891 0.138338
0.133791 0.171054 0.133745
0.447669 0.148287 0.132174
0.809415 0 0.118654
1 0.155825 0.13463
1 0.671244 0.197803
1 0.997894 0.397162
1 1 0.749905
0 0.500694 0.0590219
0 0.502251 0.0592966
0 0.503288 0.0604868
0.37879 0.506233 0.06421
0.787213 0.49572 0.0637522
1 0.559197 0.0737163
1 0.775326 0.155779
1 1 0.389288
1 1 0.748928
0 0.87216 0
0 0.87216 0
0 0.871839 0
0 0.869215 0
0.691569 0.870878 0
0.986557 0.878813 0
1 0.945861 0.00407416
1 1 0.372213
1 1 0.745159
0 1 0
0 1 0
0 1 0
0 1 0
0.631571 1 0
0.915267 1 0
1 1 0
1 1 0.41799
1 1 0.747662
0.542428 1 0.145327
0.542428 1 0.145327
0.542428 1 0.145327
0.542412 1 0.145312
0.73341 1 0.162966
0.904311 1 0.209476
1 1 0.323064
1 1 0.542138
1 1 0.7841
0.874723 1 0.632013
0.874723 1 0.632013
0.874723 1 0.632013
0.874723 1 0.632013
0.874723 1 0.632013
0.933288 1 0.640894
0.99501 1 0.666697
1 1 0.733684
1 1 0.859907
0.974136 1 0.903395
0.974136 1 0.903395
0.974136 1 0.903395
0.974136 1 0.903395
0.974136 1 0.903395
0.974136 1 0.903395
0.996231 1 0.907103
1 1 0.91751
1 1 0.943297
0 0 0.413321
0 0 0.413428
0 0 0.413703
0.422477 0 0.402899
0.832319 0 0.393011
1 0 0.402502
1 0.55877 0.464424
1 0.984726 0.566629
1 1 0.765469
0 0 0.411673
0 0 0.41181
0 0 0.411658
0.43856 0 0.400275
0.830472 0 0.39086
1 0 0.399435
1 0.596063 0.461555
1 0.987686 0.565942
1 1 0.765347
0 0.0238346 0.408499
0 0.0265202 0.408621
0 0.0274205 0.408499
0.446097 0 0.396323
0.824109 0 0.386923
1 0 0.395834
1 0.639735 0.457237
1 0.992477 0.564813
1 1 0.765179
0 0.443427 0.377874
0 0.444419 0.377951
0 0.446677 0.378607
0.361059 0.449393 0.382086
0.77322 0.438407 0.382986
1 0.509239 0.394736
1 0.754803 0.441779
1 1 0.560647
1 1 0.76434
0 0.864897 0.281331
0 0.864897 0.281331
0 0.865141 0.28217
0 0.862638 0.285603
0.691234 0.864897 0.304585
0.991485 0.875456 0.330007
1 0.9458 0.398413
1 1 0.546654
1 1 0.761013
0 1 0.025864
0 1 0.025864
0 1 0.025864
0 1 0.0274052
0.630182 1 0.0415503
0.920256 1 0.159869
1 1 0.309133
1 1 0.510765
1 1 0.751507
0.557992 1 0.143877
0.557992 1 0.143877
0.557992 1 0.143877
0.557992 1 0.143877
0.738048 1 0.161913
0.905547 1 0.208637
1 1 0.322698
1 1 0.541665
1 1 0.783993
0.876051 1 0.631876
0.876051 1 0.631876
0.876051 1 0.631876
0.876051 1 0.631876
0.876051 1 0.631876
0.933791 1 0.640742
0.995193 1 0.666575
1 1 0.733532
1 1 0.859846
0.974273 1 0.90338
0.974273 1 0.90338
0.974273 1 0.90338
0.974273 1 0.90338
0.974273 1 0.90338
0.974273 1 0.90338
0.996277 1 0.907088
1 1 0.917494
1 1 0.943297
0 0 0.755138
0 0 0.755138
0 0 0.755261
0.0724193 0 0.753155
0.792798 0 0.734646
1 0 0.730999
1 0.281712 0.759625
1 0.962875 0.791196
1 1 0.86978
0 0 0.755047
0 0 0.755047
0 0 0.755123
0.0800488 0 0.752483
0.797177 0 0.734005
1 0 0.730526
1 0.377798 0.75967
1 0.966567 0.790768
1 1 0.869718
0 0 0.753796
0 0 0.753796
0 0 0.753872
0.182727 0 0.749371
0.803723 0 0.732464
1 0 0.729198
1 0.476265 0.758663
1 0.972198 0.790082
1 1 0.869612
0 0.178485 0.748882
0 0.178485 0.748882
0 0.183124 0.748852
0.181292 0.175784 0.746899
0.802472 0.0634928 0.733928
1 0.151629 0.733883
1 0.666056 0.752667
1 0.992737 0.787472
1 1 0.869139
0 0.807721 0.702296
0 0.807721 0.702296
0 0.807782 0.702342
0 0.807523 0.702831
0.663096 0.809644 0.710643
0.984375 0.827909 0.715312
1 0.91635 0.73254
1 1 0.779553
1 1 0.867369
0 1 0.647272
0 1 0.647272
0 1 0.647211
0 1 0.647974
0.580041 1 0.661326
0.908812 1 0.674098
1 1 0.702922
1 1 0.762325
1 1 0.861082
0.536889 1 0.571344
0.536889 1 0.571344
0.536889 1 0.571344
0.536889 1 0.571344
0.721126 1 0.578088
0.897673 1 0.594324
1 1 0.636118
1 1 0.722545
1 1 0.843336
0.880278 1 0.631037
0.880278 1 0.631037
0.880278 1 0.631037
0.880278 1 0.631037
0.880278 1 0.631037
0.935393 1 0.640162
0.995697 1 0.666072
1 1 0.733288
1 1 0.859602
0.974807 1 0.903319
0.974807 1 0.903319
0.974807 1 0.903319
0.974807 1 0.903319
0.974807 1 0.903319
0.974792 1 0.903319
0.996475 1 0.907027
1 1 0.917433
1 1 0.943252
0 0 0.990326
0 0 0.990463
0 0 0.990463
0 0 0.990509
0.56199 0 0.975982
1 0 0.955642
1 0 0.956313
1 0.857664 0.963653
1 1 0.966598
0 0 0.990463
0 0 0.990463
0 0 0.990463
0 0 0.990509
0.561181 0 0.976028
1 0 0.955642
1 0 0.956222
1 0.86566 0.963165
1 1 0.966567
0 0 0.990402
0 0 0.990402
0 0 0.990402
0 0 0.990417
0.57351 0 0.975525
1 0 0.955505
1 0 0.956054
1 0.877882 0.962432
1 1 0.966491
0 0 0.989837
0 0 0.989837
0 0 0.989837
0 0 0.989853
0.635157 0 0.97261
1 0 0.954864
1 0 0.954314
1 0.918212 0.959854
1 1 0.966232
0 0.495995 0.975784
0 0.495995 0.975784
0 0.495995 0.975784
0 0.500694 0.975555
0.597147 0.501671 0.973281
1 0.524483 0.964096
1 0.753582 0.959228
1 1 0.953536
1 1 0.965225
0 1 0.923186
0 1 0.923186
0 1 0.923186
0 1 0.923186
0.317845 1 0.929595
0.887556 1 0.934936
1 1 0.937118
1 1 0.943908
1 1 0.962188
0.332235 1 0.908766
0.332235 1 0.908766
0.33344 1 0.908751
0.33344 1 0.908751
0.621744 1 0.912825
0.869291 1 0.916197
0.985153 1 0.921294
1 1 0.932799
1 1 0.955673
0.863767 1 0.877028
0.863767 1 0.877028
0.863767 1 0.877028
0.863767 1 0.877028
0.863767 1 0.877028
0.919554 1 0.879759
0.983917 1 0.88748
1 1 0.906645
1 1 0.941009
0.976486 1 0.90312
0.976486 1 0.90312
0.976486 1 0.90312
0.976486 1 0.90312
0.976486 1 0.90312
0.976486 1 0.90312
0.997101 1 0.906783
1 1 0.91725
1 1 0.943191
0 0 1
0 0 1
0 0 1
0 0 1
0 0 1
0.963973 0 1
1 0 1
1 0 1
1 1 1
0 0 1
0 0 1
0 0 1
0 0 1
0 0 1
0.963973 0 1
1 0 1
1 0 1
1 1 1
0 0 1
0 0 1
0 0 1
0 0 1
0 0 1
0.963973 0 1
1 0 1
1 0 1
1 1 1
0 0 1
0 0 1
0 0 1
0 0 1
0 0 1
0.970291 0 1
1 0 1
1 0 1
1 1 1
0 0 1
0 0 1
0 0 1
0 0 1
0 0 1
1 0 1
1 0 1
1 0.438087 1
1 1 1
0 0.843381 1
0 0.843381 1
0 0.843381 1
0 0.843381 1
0 0.847639 1
0.882582 0.85005 1
1 0.916396 1
1 1 1
1 1 1
0 1 1
0 1 1
0 1 1
0 1 1
0 1 1
0.807752 1 1
0.97612 1 1
1 1 1
1 1 1
0.823438 1 1
0.823438 1 1
0.823438 1 1
0.823438 1 1
0.823438 1 1
0.885588 1 1
0.971099 1 1
1 1 1
1 1 1
0.968994 1 1
0.968994 1 1
0.968994 1 1
0.968994 1 1
0.968994 1 1
0.968994 1 1
0.989792 1 1
1 1 1
1 1 1
0 0.0424964 1
0 0.0424964 1
0 0.0424964 1
0 0.0424964 1
0 0.0424964 1
0 0.0426032 1
1 0 1
1 0 1
1 0.717815 1
0 0.0424964 1
0 0.0424964 1
0 0.0424964 1
0 0.0424964 1
0 0.0424964 1
0 0.0426032 1
1 0 1
1 0 1
1 0.717815 1
0 0.0424964 1
0 0.0424964 1
0 0.0424964 1
0 0.0424964 1
0 0.0424964 1
0 0.0426032 1
1 0 1
1 0 1
1 0.717769 1
0 0.0424964 1
0 0.0424964 1
0 0.0424964 1
0 0.0424964 1
0 0.0424964 1
0 0.0426032 1
1 0 1
1 0 1
1 0.717632 1
0 0.0423743 1
0 0.0423743 1
0 0.0423743 1
0 0.0423743 1
0 0.0423743 1
0 0.0424659 1
1 0 1
1 0 1
1 0.71722 1
0 0.040589 1
0 0.040589 1
0 0.040589 1
0 0.040589 1
0 0.040589 1
0 0.0406806 1
1 0 1
1 0.00657664 1
1 0.912978 1
0 1 1
0 1 1
0 1 1
0 1 1
0 1 1
0 1 1
0.978378 1 1
1 1 1
1 1 1
0.447715 1 1
0.447715 1 1
0.447715 1 1
0.447715 1 1
0.447715 1 1
0.447715 1 1
0.947173 1 1
1 1 1
1 1 1
0.953902 1 1
0.953902 1 1
0.953902 1 1
0.953902 1 1
0.953902 1 1
0.953902 1 1
0.977203 1 1
1 1 1
1 1 1
0 0.307805 1
0 0.307805 1
0 0.307805 1
0 0.307805 1
0 0.307805 1
0 0.307805 1
0 0.307897 1
1 0.0779583 1
1 0.762051 1
0 0.307805 1
0 0.307805 1
0 0.307805 1
0 0.307805 1
0 0.307805 1
0 0.307805 1
0 0.307897 1
1 0.0779583 1
1 0.762051 1
0 0.307805 1
0 0.307805 1
0 0.307805 1
0 0.307805 1
0 0.307805 1
0 0.307805 1
0 0.307897 1
1 0.0779583 1
1 0.762051 1
0 0.307805 1
0 0.307805 1
0 0.307805 1
0 0.307805 1
0 0.307805 1
0 0.307805 1
0 0.307897 1
1 0.0779583 1
1 0.762051 1
0 0.307805 1
0 0.307805 1
0 0.307805 1
0 0.307805 1
0 0.307805 1
0 0.307805 1
0 0.307897 1
1 0.0779583 1
1 0.762051 1
0 0.307729 1
0 0.307729 1
0 0.307729 1
0 0.307729 1
0 0.307729 1
0 0.307729 1
0 0.30779 1
1 0.0790875 1
1 0.763882 1
0 0.306371 1
0 0.306371 1
0 0.306371 1
0 0.306371 1
0 0.306371 1
0 0.306371 1
0 0.306447 1
1 0.227466 1
1 0.767208 1
0 1 1
0 1 1
0 1 1
0 1 1
0 1 1
0 1 1
0 1 1
1 1 1
1 1 1
0.886915 1 1
0.886915 1 1
0.886915 1 1
0.886915 1 1
0.886915 1 1
0.886915 1 1
0.886915 1 1
1 1 1
1 1 1
