BBLuts/BB_104_0210_LUT.cube
TITLE "Generated by Resolve"
LUT_3D_SIZE 9
0.00137331 0 0.00244144
0.00137331 0 0.00244144
0.311772 0 0.00263981
0.66569 0 0
0.955398 0 0
1 0 0
0.991897 0.626337 0.0513619
1 0.841566 0.516075
0.991867 0.933303 0.782864
0 0.0831617 0
0 0.0995651 0
0.307485 0.062974 0
0.67303 0 0
0.957916 0 0
1 0 0
1 0.632258 0.0598306
1 0.845335 0.514275
0.991836 0.9337 0.78265
0 0.331823 0
0 0.33695 0
0.2121 0.332341 0
0.526284 0.319966 0
0.928283 0.118212 0
0.963745 0.340978 0
1 0.657847 0.025452
1 0.851026 0.510948
0.991684 0.934295 0.782193
0 0.631769 0
0 0.63241 0
0 0.632807 0
0.529671 0.615946 0
0.858167 0.591852 0
1 0.6121 0
1 0.734081 0
1 0.866209 0.499336
0.991424 0.936477 0.780804
0 0.860075 0
0 0.860014 0
0 0.859709 0
0 0.857755 0
0.7738 0.82153 0
1 0.811978 0
1 0.847166 0
1 0.896696 0.499489
0.990799 0.942077 0.776577
0 0.994369 0
0 0.993774 0
0 0.992782 0
0 0.989837 0
0.736141 0.954253 0
0.942382 0.935714 0
1 0.932738 0
0.998322 0.936263 0.526177
0.989395 0.953887 0.771313
0.617868 1 0.20267
0.634546 1 0.202731
0.6589 1 0.20444
0.716625 1 0.2094
0.814298 0.991577 0.227756
0.919585 0.980087 0.289555
0.989303 0.970275 0.443259
0.991714 0.967239 0.615122
0.986862 0.969039 0.795789
0.87538 0.987198 0.68542
0.876738 0.987137 0.685481
0.879118 0.986999 0.685542
0.88574 0.986648 0.685924
0.902541 0.985687 0.68719
0.934798 0.983642 0.691722
0.973571 0.981155 0.708446
0.986282 0.979461 0.757778
0.9841 0.977951 0.847929
0.950591 0.979477 0.879118
0.950729 0.979477 0.879149
0.950988 0.979477 0.879164
0.951904 0.979416 0.879225
0.954406 0.979217 0.879286
0.960586 0.978775 0.879713
0.972656 0.978119 0.881453
0.983093 0.977234 0.887572
0.982651 0.976928 0.905898
0.00047303 0 0.0948653
0.00047303 0 0.0952621
0.311452 0 0.0988937
0.666773 0 0.0946059
0.956725 0 0.0961624
1 0 0.149615
0.90779 0.651576 0.101366
1 0.84036 0.541375
0.991714 0.933043 0.788998
0 0.0426337 0.06598
0.0493935 0.0643168 0.062501
0.341085 0 0.0833143
0.670878 0 0.0735332
0.959182 0 0.0399786
1 0 0.100633
0.949279 0.658183 0.114626
1 0.844007 0.539498
0.991608 0.933425 0.788724
0 0.318883 0
0 0.323079 0
0.243198 0.31809 0
0.507805 0.313481 0
0.935424 0.0684672 0
1 0.300145 0
1 0.661006 0.136599
1 0.849897 0.536645
0.991562 0.934096 0.788403
0 0.629053 0
0 0.629755 0
0 0.630045 0
0.54197 0.612314 0
0.858076 0.589227 0
1 0.61001 0
1 0.731167 0
1 0.865171 0.527932
0.991302 0.936294 0.787015
0 0.859083 0
0 0.858991 0
0 0.858686 0
0 0.856687 0
0.776669 0.820371 0
1 0.811261 0
1 0.846784 0
1 0.896406 0.506798
0.990616 0.941863 0.782925
0 0.994171 0
0 0.993561 0
0 0.992569 0
0 0.989624 0
0.73785 0.954025 0
0.942641 0.935607 0
1 0.932647 0
0.998337 0.936202 0.526024
0.98938 0.953857 0.771908
0.620508 1 0.202213
0.636805 1 0.20238
0.661021 1 0.204013
0.718105 1 0.209003
0.814908 0.991531 0.227527
0.919738 0.980072 0.289357
0.989334 0.97026 0.443244
0.99173 0.967224 0.615061
0.986862 0.969039 0.795743
0.875563 0.987182 0.685405
0.876966 0.987121 0.68545
0.879332 0.986984 0.685496
0.885939 0.986633 0.685893
0.902678 0.985672 0.68716
0.934859 0.983658 0.691707
0.973602 0.981155 0.708415
0.986282 0.979446 0.757763
0.9841 0.977951 0.847913
0.950607 0.979477 0.879118
0.950759 0.979477 0.879149
0.951019 0.979477 0.879164
0.951919 0.979416 0.87921
0.954421 0.979217 0.879286
0.960601 0.978775 0.879713
0.972671 0.978119 0.881453
0.983093 0.977234 0.887572
0.982651 0.976928 0.905898
0 0 0.341772
0 0 0.342061
0.270268 0 0.343496
0.668971 0 0.329946
0.950683 0 0.333822
1 0 0.37731
0.987991 0.6121 0.308034
1 0.838529 0.578744
0.991409 0.932601 0.79823
0 0 0.334905
0 0 0.335576
0.314595 0 0.335637
0.668193 0 0.322896
0.953246 0 0.326604
1 0 0.365423
0.936645 0.654169 0.259358
1 0.842176 0.577066
0.991333 0.933074 0.79794
0 0.275456 0.259434
0 0.27895 0.25832
0.22562 0.266911 0.252399
0.614084 0.225391 0.250599
0.952361 0 0.30602
1 0.169055 0.289357
0.914015 0.69369 0.23769
1 0.848081 0.574334
0.991394 0.933776 0.797635
0 0.618845 0.067216
0 0.619608 0.0690318
0 0.619959 0.0715953
0.539757 0.602213 0.0632334
0.850858 0.580545 0.0604562
0.986023 0.625925 0.0484474
1 0.724025 0.271778
1 0.863554 0.566735
0.991135 0.935988 0.796323
0 0.857084 0
0 0.857008 0
0 0.856687 0
0 0.854719 0
0.779416 0.818357 0
1 0.809674 0
1 0.843381 0.0112306
1 0.895216 0.547189
0.990417 0.941558 0.79266
0 0.99382 0
0 0.993225 0
0 0.992248 0
0 0.989288 0
0.740887 0.953567 0
0.94313 0.935409 0
1 0.932509 0
0.998352 0.936141 0.52578
0.989181 0.953613 0.782254
0.624598 1 0.201648
0.640742 1 0.201709
0.664286 1 0.203418
0.7205 1 0.208377
0.816037 0.991394 0.227024
0.920027 0.980041 0.289006
0.989395 0.97023 0.443214
0.99173 0.967224 0.614939
0.986862 0.969024 0.795697
0.875853 0.987182 0.685374
0.877333 0.987106 0.685405
0.879683 0.986969 0.68545
0.886259 0.986618 0.685832
0.902907 0.985641 0.687099
0.934966 0.983658 0.691661
0.973648 0.981155 0.708385
0.986282 0.979446 0.757763
0.9841 0.977951 0.847913
0.950652 0.979477 0.879118
0.95079 0.979477 0.879133
0.951064 0.979477 0.879164
0.951965 0.979416 0.879194
0.954467 0.979217 0.879271
0.960632 0.978775 0.879698
0.972686 0.978119 0.881437
0.983093 0.977234 0.887572
0.982651 0.976928 0.905898
0 0 0.689937
0 0 0.690059
0 0 0.69012
0.643595 0 0.678233
0.960708 0 0.668208
1 0 0.67335
1 0.55404 0.606577
0.964401 0.849302 0.631525
0.990951 0.93167 0.821805
0 0 0.688121
0 0 0.688289
0.117617 0 0.690806
0.655314 0 0.676143
0.958892 0 0.666636
1 0 0.67126
1 0.581308 0.600015
0.972534 0.850172 0.636957
0.99089 0.932143 0.821607
0 0.102724 0.656962
0 0.111772 0.655619
0.144747 0.103761 0.659098
0.659785 0 0.67274
0.952758 0 0.664347
1 0 0.667506
1 0.620096 0.588022
0.985061 0.851209 0.645457
0.990845 0.932906 0.821332
0 0.577325 0.556924
0 0.579019 0.557061
0 0.580179 0.557687
0.521294 0.560769 0.547646
0.830411 0.536019 0.540948
1 0.56759 0.539925
0.987091 0.722377 0.514763
1 0.859724 0.655329
0.990677 0.935103 0.82031
0 0.840726 0.407889
0 0.840681 0.409079
0 0.840421 0.41091
0 0.838514 0.415473
0.764675 0.802472 0.401312
0.986877 0.7944 0.432975
1 0.831434 0.517632
1 0.891859 0.641642
0.989944 0.940764 0.817075
0 0.992874 0
0 0.992279 0
0 0.991333 0
0 0.988342 0
0.74078 0.952667 0
0.936126 0.930571 0.133639
1 0.923445 0.410636
0.996368 0.934066 0.609323
0.988647 0.952926 0.808637
0.636606 1 0.199084
0.65185 1 0.200107
0.673991 1 0.200961
0.727382 0.999741 0.206638
0.819394 0.991028 0.225544
0.920989 0.979889 0.287938
0.989578 0.970153 0.443107
0.991745 0.967178 0.614618
0.986862 0.969009 0.795529
0.876951 0.987121 0.685222
0.878416 0.987045 0.685252
0.880735 0.986908 0.685313
0.887205 0.986572 0.685664
0.903624 0.98558 0.686915
0.935302 0.983642 0.691539
0.973754 0.981155 0.708278
0.986282 0.979461 0.757733
0.9841 0.977951 0.847852
0.950759 0.979477 0.879103
0.950912 0.979477 0.879118
0.951202 0.979461 0.879133
0.952102 0.979416 0.879179
0.954574 0.979202 0.879255
0.960723 0.978759 0.879683
0.972732 0.978119 0.881422
0.983093 0.977249 0.887572
0.982651 0.976928 0.905898
0 0 0.952804
0 0 0.952895
0 0 0.953017
0.418555 0 0.948226
0.941863 0 0.92607
1 0 0.920241
1 0.246479 0.872099
1 0.815473 0.817517
0.985199 0.931121 0.864469
0 0 0.952193
0 0 0.95227
0 0 0.952407
0.462791 0 0.946014
0.947295 0 0.9252
1 0 0.91957
1 0.399863 0.846021
1 0.820676 0.815381
0.985931 0.93135 0.864927
0 0 0.951156
0 0 0.951247
0 0 0.951385
0.52311 0 0.942946
0.950744 0 0.923949
1 0 0.918532
1 0.528405 0.824796
1 0.827909 0.813611
0.986923 0.931746 0.865522
0 0.352743 0.874495
0 0.35697 0.873869
0 0.362371 0.873045
0.460822 0.336172 0.866423
0.903288 0.166384 0.873274
1 0.314565 0.839323
1 0.651972 0.800427
1 0.846906 0.807263
0.988663 0.933181 0.866331
0 0.803052 0.783902
0 0.803265 0.783948
0 0.803311 0.784054
0 0.802136 0.784588
0.745113 0.767147 0.762432
0.974914 0.764202 0.753536
1 0.812253 0.759686
0.962768 0.8972 0.768536
0.989075 0.938796 0.865064
0 0.976684 0.723003
0 0.976089 0.723247
0 0.975097 0.723568
0 0.972137 0.724437
0.695033 0.937789 0.705455
0.914351 0.918257 0.704356
0.995819 0.91516 0.72546
0.992523 0.929046 0.779126
0.987472 0.951186 0.858946
0.617319 1 0.621729
0.632898 0.999039 0.621225
0.655634 0.99733 0.620752
0.71017 0.992691 0.619577
0.804181 0.984329 0.619562
0.907835 0.973938 0.628153
0.979416 0.965972 0.662959
0.988754 0.964416 0.744381
0.985641 0.967727 0.845441
0.880247 0.986938 0.684749
0.881636 0.986862 0.68481
0.883696 0.986786 0.684901
0.889906 0.986465 0.685191
0.905791 0.985428 0.686397
0.936477 0.983581 0.691127
0.974151 0.981125 0.707958
0.986282 0.979446 0.757687
0.984115 0.977951 0.847684
0.951156 0.979477 0.879057
0.951324 0.979461 0.879042
0.951614 0.979446 0.879072
0.952499 0.979385 0.879118
0.954925 0.979171 0.879164
0.960998 0.978744 0.879622
0.972869 0.978103 0.881376
0.983093 0.977249 0.887526
0.982651 0.976928 0.905898
0 0 1
0 0 1
0 0 1
0 0 1
0.831662 0 1
1 0 1
1 0 1
1 0.746197 0.945541
0.989502 0.922896 0.927062
0 0 1
0 0 1
0 0 1
0 0 1
0.839261 0 1
1 0 1
1 0 1
1 0.755749 0.943679
0.989425 0.923506 0.926909
0 0 1
0 0 1
0 0 1
0 0 1
0.851209 0 1
1 0 1
1 0 1
1 0.769818 0.940795
0.989303 0.924483 0.926665
0 0 1
0 0 1
0 0 1
0 0 1
0.877623 0 1
1 0 1
1 0 1
1 0.803555 0.933944
0.988922 0.927047 0.925948
0 0.653498 1
0 0.654414 1
0 0.655726 1
0 0.658106 1
0.740444 0.623285 0.979278
1 0.621118 0.960174
1 0.730159 0.940612
0.998077 0.86099 0.921553
0.986191 0.934997 0.92166
0 0.962341 0.938994
0 0.961959 0.939025
0 0.961242 0.939055
0 0.958434 0.939025
0.618845 0.927459 0.920287
0.898634 0.903929 0.907012
0.988861 0.902937 0.903059
0.988846 0.92163 0.904707
0.980789 0.950118 0.915846
0.488548 1 0.903502
0.515633 0.999863 0.902266
0.55407 0.997147 0.900496
0.636576 0.990906 0.896727
0.761852 0.980285 0.890929
0.884489 0.968627 0.886152
0.963729 0.960861 0.885832
0.985443 0.960357 0.894194
0.984283 0.965774 0.913695
0.866896 0.984833 0.850996
0.868315 0.984756 0.850965
0.870604 0.984619 0.850919
0.876799 0.984131 0.850675
0.893111 0.983307 0.850645
0.924681 0.98146 0.851164
0.96347 0.97908 0.855451
0.983597 0.977615 0.871031
0.982773 0.97702 0.901137
0.952407 0.9794 0.878828
0.952575 0.979385 0.878843
0.95285 0.97937 0.878859
0.953674 0.979309 0.878874
0.955962 0.979065 0.87892
0.961837 0.978698 0.879423
0.973327 0.978088 0.881254
0.983108 0.977249 0.887419
0.982651 0.976928 0.905867
0 0 1
0 0 1
0 0 1
0 0 1
0 0 1
1 0 1
1 0 1
1 0 1
0.991516 0.898665 0.976913
0 0 1
0 0 1
0 0 1
0 0 1
0 0 1
1 0 1
1 0 1
1 0 1
0.991196 0.899626 0.976501
0 0 1
0 0 1
0 0 1
0 0 1
0 0 1
1 0 1
1 0 1
1 0 1
0.990967 0.901396 0.97612
0 0 1
0 0 1
0 0 1
0 0 1
0 0 1
1 0 1
1 0 1
1 0 1
0.990494 0.90631 0.975204
0 0 1
0 0 1
0 0 1
0 0 1
0.542184 0 1
1 0 1
1 0 1
1 0.65127 1
0.988876 0.918212 0.972519
0 0.877989 1
0 0.878202 1
0 0.878538 1
0 0.879637 1
0 0.875502 1
0.91078 0.82797 0.993774
0.998779 0.842954 0.984207
0.992294 0.89218 0.974731
0.986175 0.939315 0.967926
0 1 0.997711
0 1 0.997711
0 1 0.997726
0 1 0.997772
0.659876 0.982361 0.976287
0.86099 0.964157 0.966354
0.957168 0.955016 0.961639
0.984268 0.955352 0.960388
0.979034 0.964202 0.95819
0.835447 0.984604 0.959365
0.837186 0.984527 0.959319
0.840192 0.98436 0.959152
0.848615 0.983932 0.95874
0.869413 0.982712 0.95761
0.908492 0.980514 0.955581
0.953155 0.978012 0.953536
0.981628 0.976242 0.953399
0.981537 0.976181 0.957443
0.946731 0.978546 0.94078
0.946899 0.978531 0.94078
0.947173 0.978515 0.940764
0.948028 0.978469 0.940749
0.950317 0.978378 0.940734
0.956359 0.978058 0.940719
0.968093 0.977234 0.940764
0.981506 0.976486 0.942611
0.98172 0.976303 0.948928
0 0.0802777 1
0 0.0802777 1
0 0.0802777 1
0 0.0803082 1
0 0.0803998 1
0 0.080705 1
1 0 1
1 0 1
1 0.688426 1
0 0.0802167 1
0 0.0802167 1
0 0.0802472 1
0 0.0802777 1
0 0.0803998 1
0 0.0806744 1
1 0 1
1 0 1
1 0.688411 1
0 0.0801251 1
0 0.0801251 1
0 0.0801556 1
0 0.0801862 1
0 0.0802777 1
0 0.0805982 1
1 0 1
1 0 1
1 0.68838 1
0 0.0798962 1
0 0.0798657 1
0 0.0798962 1
0 0.0799268 1
0 0.0800336 1
0 0.0321508 1
1 0 1
1 0 1
1 0.688258 1
0 0.0790875 1
0 0.0790875 1
0 0.079118 1
0 0.0791485 1
0 0.0792401 1
0.588556 0 1
1 0 1
1 0 1
1 0.687907 1
0 0.0766003 1
0 0.0766003 1
0 0.0766003 1
0 0.0766308 1
0 0.0767376 1
0.954177 0 1
1 0 1
1 0.0399634 1
0.995499 0.86302 0.998184
0 0.990295 1
0 0.990326 1
0 0.990356 1
0 0.990509 1
0 0.990906 1
0.753353 0.943694 1
0.962325 0.926238 0.991592
0.986542 0.93257 0.989258
0.984009 0.951354 0.98674
0.677119 0.992935 0.999115
0.685176 0.992523 0.998734
0.697383 0.991821 0.998032
0.728832 0.990005 0.996262
0.793042 0.986465 0.992752
0.875669 0.981918 0.988266
0.943679 0.978042 0.98439
0.979858 0.974838 0.982757
0.981125 0.975021 0.982696
0.934905 0.978546 0.982666
0.935149 0.978531 0.982651
0.935531 0.978515 0.982635
0.936675 0.978439 0.982574
0.939925 0.978256 0.982391
0.947692 0.977722 0.981872
0.961913 0.976959 0.981155
0.977386 0.976043 0.980423
0.98085 0.975692 0.980575
0 0.431907 1
0 0.431907 1
0 0.431907 1
0 0.431922 1
0 0.431922 1
0 0.432013 1
0 0.432151 1
1 0.369863 1
1 0.72546 1
0 0.431907 1
0 0.431907 1
0 0.431907 1
0 0.431907 1
0 0.431922 1
0 0.431983 1
0 0.432151 1
1 0.370199 1
1 0.725505 1
0 0.431876 1
0 0.431876 1
0 0.431876 1
0 0.431907 1
0 0.431907 1
0 0.431983 1
0 0.432135 1
1 0.370794 1
1 0.725551 1
0 0.431846 1
0 0.431846 1
0 0.431846 1
0 0.431846 1
0 0.431876 1
0 0.431922 1
0 0.432074 1
1 0.372625 1
1 0.72575 1
0 0.431693 1
0 0.431693 1
0 0.431693 1
0 0.431693 1
0 0.431724 1
0 0.431769 1
0.509163 0.386282 1
1 0.37847 1
1 0.726314 1
0 0.431266 1
0 0.431266 1
0 0.431266 1
0 0.431296 1
0 0.431296 1
0 0.431357 1
0.945342 0.0922408 1
1 0.395331 1
1 0.727153 1
0 0.429953 1
0 0.429953 1
0 0.429953 1
0 0.429984 1
0 0.429984 1
0 0.430045 1
1 0 1
1 0.428458 1
1 0.728725 1
0 1 1
0 1 1
0 1 1
0 1 1
0 1 1
0 1 1
0.904097 0.971115 0.989136
0.982284 0.964172 0.985367
0.982086 0.967102 0.984833
0.882673 0.981369 0.988846
0.883482 0.981308 0.988785
0.88481 0.981231 0.988708
0.888502 0.981048 0.988556
0.898528 0.980514 0.988067
0.919844 0.979232 0.986877
0.950286 0.977478 0.98526
0.97464 0.976181 0.98407
0.981048 0.975952 0.98381
