BBLuts/BB_102_0650_LUT.cube
TITLE "Generated by Resolve"
LUT_3D_SIZE 9
0 0 0
0 0 0
0.150286 0 0
0.418173 0 0
0.736767 0 0
0.920516 0 0
0.905028 0.536034 0.0658427
0.877943 0.860365 0.360082
0.865492 0.961318 0.681788
0 0.00588998 0
0 0.0162966 0
0.158373 0 0
0.430106 0 0
0.738933 0 0
0.920516 0 0
0.902052 0.573693 0.0552071
0.877623 0.86453 0.357565
0.865461 0.961807 0.681559
0 0.172335 0
0 0.176059 0
0.106371 0.174563 0
0.431189 0.142718 0
0.739391 0.0175784 0
0.920119 0.167849 0
0.897597 0.621271 0.0343786
0.87715 0.870924 0.353582
0.8654 0.9626 0.681178
0 0.467903 0
0 0.469291 0
0 0.470039 0
0.347738 0.479194 0
0.724773 0.469078 0
0.900023 0.542382 0
0.885786 0.714031 0
0.875975 0.887617 0.342046
0.865248 0.964874 0.680049
0 0.800397 0
0 0.80032 0
0 0.799939 0
0 0.797375 0
0.651789 0.796658 0
0.851972 0.806699 0
0.874647 0.850767 0
0.873487 0.92137 0.3458
0.864851 0.970886 0.676616
0 0.971374 0
0 0.970657 0
0 0.969482 0
0 0.965911 0
0.626688 0.951919 0
0.808301 0.943954 0
0.868605 0.946044 0
0.869917 0.964096 0.393469
0.863966 0.983551 0.672633
0.522866 1 0.134508
0.540047 1 0.13431
0.564797 1 0.134234
0.622126 1 0.13547
0.712932 1 0.146105
0.803113 1 0.186221
0.862623 0.999832 0.299214
0.865644 0.997726 0.511086
0.862409 1 0.698116
0.770336 1 0.580957
0.771527 1 0.581094
0.773434 1 0.581338
0.778881 1 0.582071
0.792798 1 0.584329
0.819257 1 0.591196
0.850996 1 0.610819
0.861769 1 0.661997
0.860914 1 0.748211
0.833661 1 0.775372
0.833814 1 0.775402
0.834058 1 0.775418
0.834775 1 0.775509
0.83682 1 0.775769
0.841993 1 0.776547
0.851926 1 0.778836
0.860655 1 0.785046
0.860548 1 0.801526
0 0 0.00325017
0 0 0.00340276
0.151827 0 0.000198367
0.420005 0 0
0.737789 0 0
0.922957 0 0.00645457
0.906859 0.530617 0.12549
0.877668 0.859159 0.399771
0.865431 0.961135 0.68777
0 0 0
0 0 0
0.170047 0 0
0.425788 0 0
0.738094 0 0
0.921996 0 0
0.903914 0.569833 0.114687
0.877333 0.863355 0.39762
0.8654 0.961624 0.687556
0 0.16286 0
0 0.166003 0
0.126497 0.16466 0
0.42945 0.132113 0
0.737896 0 0
0.920272 0.147448 0
0.89958 0.619684 0.0951858
0.87686 0.869795 0.394125
0.865339 0.962417 0.68719
0 0.462654 0
0 0.463935 0
0 0.464469 0
0.360647 0.473045 0
0.724743 0.463951 0
0.900267 0.538781 0
0.88777 0.714107 0.00334173
0.875639 0.886641 0.38381
0.865187 0.964706 0.686107
0 0.799146 0
0 0.799023 0
0 0.798627 0
0 0.796017 0
0.654398 0.795468 0
0.852125 0.805875 0
0.874678 0.85034 0
0.873411 0.921096 0.355138
0.86479 0.970718 0.682872
0 0.97113 0
0 0.970413 0
0 0.969238 0
0 0.965652 0
0.628443 0.95169 0
0.808576 0.943832 0
0.868605 0.945953 0
0.869932 0.96405 0.39324
0.863966 0.98352 0.673198
0.525505 1 0.134157
0.542443 1 0.133974
0.566873 1 0.133928
0.623514 1 0.135225
0.713512 1 0.145953
0.803281 1 0.186099
0.862654 0.999802 0.299199
0.865644 0.997711 0.511025
0.862409 1 0.69807
0.77052 1 0.580926
0.77171 1 0.581079
0.773602 1 0.581308
0.779034 1 0.582055
0.792905 1 0.584298
0.819318 1 0.591165
0.851011 1 0.610788
0.861769 1 0.661982
0.860914 1 0.748196
0.833692 1 0.775372
0.833829 1 0.775402
0.834073 1 0.775418
0.834791 1 0.775509
0.836835 1 0.775769
0.842008 1 0.776547
0.851942 1 0.778836
0.860655 1 0.785046
0.860548 1 0.801526
0 0 0.110689
0 0 0.110887
0.130755 0 0.107149
0.434913 0 0.0926528
0.74049 0 0.0824903
0.925399 0 0.112505
0.909056 0.517555 0.227161
0.877256 0.857176 0.450706
0.865339 0.960845 0.696742
0 0 0.107103
0 0 0.107439
0.158572 0 0.102861
0.433188 0 0.0892805
0.742489 0 0.0786755
0.925307 0 0.105882
0.906081 0.55967 0.219959
0.876921 0.861448 0.448997
0.865309 0.961334 0.696544
0 0.139147 0.0940871
0 0.141543 0.0937514
0.120836 0.134127 0.0882734
0.417563 0.107988 0.08365
0.741146 0 0.0684977
0.925597 0.087129 0.10959
0.901823 0.613458 0.207446
0.876402 0.867979 0.44625
0.865248 0.962142 0.696208
0 0.451041 0.0137331
0 0.452552 0.0144198
0 0.453315 0.0153964
0.365743 0.46125 0.0229343
0.724788 0.453346 0.0297246
0.905364 0.531395 0.0665599
0.892027 0.713436 0.166201
0.875151 0.885054 0.438315
0.865095 0.964431 0.695216
0 0.796521 0
0 0.796414 0
0 0.796002 0
0 0.793362 0
0.656733 0.792996 0
0.852155 0.803952 0
0.877394 0.852079 0.0324254
0.872816 0.919905 0.416678
0.864683 0.970474 0.692241
0 0.970733 0
0 0.970016 0
0 0.968826 0
0 0.96527 0
0.631266 0.951324 0
0.809003 0.943618 0
0.86862 0.9458 0
0.869932 0.963973 0.392874
0.863844 0.983307 0.683421
0.529778 1 0.133593
0.546304 1 0.133455
0.570199 1 0.13344
0.625742 1 0.134844
0.714458 1 0.145678
0.803525 1 0.185885
0.862715 0.999786 0.299153
0.865644 0.997711 0.510903
0.862409 1 0.698024
0.770809 1 0.58088
0.772 1 0.581033
0.773877 1 0.581277
0.779293 1 0.58201
0.793103 1 0.584268
0.819409 1 0.591134
0.851057 1 0.610758
0.861769 1 0.661982
0.860914 1 0.74818
0.833722 1 0.775372
0.833875 1 0.775387
0.834119 1 0.775418
0.834821 1 0.775509
0.836866 1 0.775753
0.842023 1 0.776532
0.851942 1 0.77882
0.860655 1 0.785046
0.860548 1 0.801526
0 0 0.352621
0 0 0.352789
0 0 0.35288
0.407248 0 0.337682
0.756909 0 0.325277
0.925719 0 0.351812
0.913283 0.463554 0.446265
0.876249 0.851102 0.550546
0.865141 0.960052 0.719142
0 0 0.35024
0 0 0.350469
0.0371252 0 0.348516
0.424369 0 0.33431
0.755184 0 0.322637
0.925734 0 0.34876
0.909361 0.517769 0.442512
0.875868 0.855589 0.549447
0.86511 0.96054 0.71899
0 0.0248722 0.345418
0 0.0306249 0.345541
0.0648051 0.0240024 0.343206
0.431403 0 0.329732
0.749889 0 0.318364
0.925765 0 0.343023
0.904646 0.582803 0.4365
0.875303 0.862425 0.547707
0.865049 0.961364 0.718715
0 0.403265 0.307881
0 0.405249 0.308156
0 0.406622 0.308843
0.36144 0.413321 0.317082
0.717403 0.406073 0.323369
0.911574 0.488167 0.355306
0.893874 0.697215 0.41532
0.873884 0.880262 0.542824
0.864897 0.963699 0.717937
0 0.793698 0.213825
0 0.793683 0.214557
0 0.793393 0.215671
0 0.790997 0.218662
0.659434 0.789868 0.23415
0.855833 0.801678 0.272282
0.878874 0.848981 0.360952
0.87129 0.916426 0.530343
0.864469 0.969802 0.715587
0 0.969604 0
0 0.968887 0
0 0.967697 0
0 0.964126 0
0.631174 0.950301 0
0.811933 0.946624 0.0938277
0.87219 0.949371 0.267216
0.868513 0.961898 0.501366
0.8636 0.982757 0.708812
0.542153 1 0.13193
0.557595 1 0.131868
0.579965 1 0.131991
0.632288 1 0.1337
0.717281 1 0.144884
0.804303 1 0.18529
0.862882 0.999695 0.299046
0.86566 0.997665 0.510552
0.862409 1 0.697871
0.771695 1 0.580774
0.772869 1 0.580911
0.774731 1 0.581155
0.780056 1 0.581888
0.793698 1 0.584146
0.819715 1 0.591012
0.851148 1 0.610666
0.861769 1 0.661952
0.860914 1 0.748119
0.833829 1 0.775372
0.833982 1 0.775372
0.834211 1 0.775402
0.834943 1 0.775494
0.836957 1 0.775738
0.8421 1 0.776516
0.851987 1 0.778805
0.860655 1 0.785031
0.860548 1 0.801526
0 0 0.661875
0 0 0.661952
0 0 0.662074
0.222782 0 0.655924
0.742657 0 0.637919
0.923842 0 0.646662
0.926574 0.162203 0.680217
0.875944 0.833082 0.702678
0.864912 0.957946 0.762631
0 0 0.66128
0 0 0.661341
0 0 0.661479
0.253834 0 0.654398
0.747494 0 0.637293
0.923842 0 0.646006
0.923033 0.300221 0.684794
0.875395 0.83856 0.701885
0.864866 0.95848 0.762509
0 0 0.660288
0 0 0.660365
0 0 0.660502
0.29575 0 0.652018
0.750423 0 0.636225
0.923858 0 0.644907
0.914992 0.433433 0.683375
0.874586 0.846693 0.70071
0.864805 0.959335 0.762341
0 0.19559 0.65333
0 0.198856 0.653315
0 0.203067 0.653254
0.294774 0.196872 0.651591
0.748608 0.0708476 0.64155
0.925795 0.221897 0.661723
0.899199 0.633371 0.674067
0.872694 0.867308 0.697627
0.864637 0.961791 0.761822
0 0.753124 0.619516
0 0.753429 0.619654
0 0.753521 0.619806
0 0.751873 0.620081
0.645212 0.750912 0.623758
0.848997 0.768566 0.632349
0.877058 0.827909 0.647669
0.869368 0.908141 0.690776
0.864179 0.968185 0.760311
0 0.971389 0.596063
0 0.970718 0.59617
0 0.969573 0.596353
0 0.966079 0.596872
0.60557 0.948928 0.587381
0.800885 0.939223 0.594644
0.867811 0.941588 0.621668
0.865873 0.956878 0.677592
0.863233 0.981552 0.755871
0.529549 1 0.504662
0.545464 1 0.50428
0.568521 1 0.503822
0.622263 1 0.503319
0.709026 1 0.505898
0.796872 0.999023 0.520134
0.855543 0.995575 0.561502
0.863493 0.994781 0.646784
0.862013 0.999329 0.745037
0.77435 1 0.580392
0.775464 1 0.580545
0.777249 1 0.580789
0.782361 1 0.581521
0.795453 1 0.583795
0.820645 1 0.590661
0.851453 1 0.610361
0.861769 1 0.661891
0.860914 1 0.747982
0.83418 1 0.775326
0.834318 1 0.775341
0.834546 1 0.775372
0.835248 1 0.775448
0.837263 1 0.775708
0.842313 1 0.776486
0.852094 1 0.778775
0.860655 1 0.785
0.860548 1 0.801526
0 0 0.829114
0 0 0.829114
0 0 0.829145
0 0 0.829175
0.64303 0 0.806729
0.924178 0 0.807843
0.924178 0 0.808667
0.884642 0.754421 0.817884
0.864958 0.951919 0.815335
0 0 0.829038
0 0 0.829053
0 0 0.829068
0 0 0.829114
0.650401 0 0.806378
0.924178 0 0.807782
0.924178 0 0.808591
0.883207 0.765789 0.816587
0.864912 0.952544 0.815274
0 0 0.828931
0 0 0.828946
0 0 0.828962
0 0 0.828992
0.661967 0 0.805844
0.924178 0 0.807645
0.924178 0 0.808484
0.881148 0.78233 0.814694
0.864836 0.953552 0.815152
0 0 0.82858
0 0 0.828595
0 0 0.828611
0 0 0.828321
0.686961 0 0.804715
0.924163 0 0.807263
0.924163 0 0.806729
0.87657 0.821241 0.810285
0.864622 0.956451 0.814817
0 0.550393 0.814206
0 0.551934 0.81416
0 0.554437 0.814069
0 0.558297 0.813519
0.642802 0.557824 0.816495
0.900694 0.594736 0.824094
0.887129 0.735241 0.812696
0.870314 0.884733 0.803708
0.864088 0.963912 0.813901
0 0.958343 0.806821
0 0.957916 0.80676
0 0.957092 0.806638
0 0.953811 0.806134
0.530922 0.937835 0.795254
0.78941 0.924498 0.789456
0.863523 0.929824 0.791302
0.865263 0.949493 0.796765
0.86302 0.978897 0.811749
0.369314 1 0.788357
0.411795 1 0.786954
0.462516 1 0.785122
0.552071 1 0.781094
0.673259 0.999207 0.776776
0.779156 0.993606 0.776761
0.84419 0.990875 0.780453
0.862226 0.991943 0.789181
0.861662 0.998077 0.807401
0.764416 1 0.744732
0.76556 1 0.744778
0.767407 1 0.744839
0.772671 1 0.745068
0.78616 1 0.745754
0.812085 1 0.74789
0.843946 1 0.75404
0.860761 1 0.769787
0.860578 1 0.797345
0.835187 1 0.775204
0.835309 1 0.775219
0.835538 1 0.77525
0.83621 1 0.775326
0.838117 1 0.775586
0.842985 1 0.776364
0.852461 1 0.778653
0.860655 1 0.784894
0.860548 1 0.801511
0 0 0.876616
0 0 0.876616
0 0 0.876616
0 0 0.876616
0 0 0.876616
0.909133 0 0.864195
0.924422 0 0.864851
0.924422 0 0.864851
0.866529 0.926406 0.857862
0 0 0.876616
0 0 0.876616
0 0 0.876616
0 0 0.876616
0 0 0.876616
0.910277 0 0.86424
0.924422 0 0.864851
0.924422 0 0.864851
0.866438 0.927581 0.857771
0 0 0.876616
0 0 0.876616
0 0 0.876616
0 0 0.876616
0 0 0.876616
0.912108 0 0.864332
0.924422 0 0.864851
0.924422 0 0.864851
0.8663 0.929427 0.857618
0 0 0.876616
0 0 0.876616
0 0 0.876616
0 0 0.876616
0 0 0.876616
0.917479 0 0.864607
0.924422 0 0.864851
0.924422 0 0.864851
0.865919 0.934615 0.857191
0 0 0.876616
0 0 0.876616
0 0 0.876616
0 0 0.876616
0.311025 0 0.869322
0.924422 0 0.864851
0.924422 0 0.864851
0.899565 0.638315 0.884199
0.864973 0.947463 0.856123
0 0.857603 0.872053
0 0.857877 0.872068
0 0.858366 0.872084
0 0.859815 0.872129
0 0.854536 0.870527
0.799512 0.842344 0.861433
0.871656 0.865736 0.859174
0.867079 0.919554 0.855299
0.86334 0.970245 0.854124
0 1 0.870848
0 1 0.870771
0 1 0.870649
0 1 0.870298
0.576944 0.999344 0.853025
0.760815 0.988373 0.848234
0.839673 0.98529 0.848493
0.862135 0.987503 0.849134
0.861555 0.995361 0.851484
0.739208 1 0.84271
0.74078 1 0.842695
0.743236 1 0.84268
0.750256 1 0.842664
0.768109 1 0.842649
0.800275 1 0.842786
0.836774 1 0.843351
0.860288 1 0.844755
0.860258 1 0.848341
0.831357 1 0.831388
0.83151 1 0.831403
0.831724 1 0.831403
0.83241 1 0.831449
0.834363 1 0.831525
0.839323 1 0.8318
0.848981 1 0.832578
0.860044 1 0.834867
0.860319 1 0.840635
0 0.000869764 0.876783
0 0.000869764 0.876783
0 0.000869764 0.876783
0 0.000900282 0.876783
0 0.000961318 0.876783
0 0.00115969 0.876783
0.924422 0 0.864851
0.924422 0 0.864851
0.893736 0.685512 0.886091
0 0.000839246 0.876783
0 0.000839246 0.876783
0 0.000854505 0.876783
0 0.000869764 0.876783
0 0.000961318 0.876783
0 0.00114443 0.876783
0.924422 0 0.864851
0.924422 0 0.864851
0.893736 0.685496 0.886091
0 0.00077821 0.876783
0 0.00077821 0.876783
0 0.000808728 0.876783
0 0.000823987 0.876783
0 0.000869764 0.876783
0 0.00108339 0.876783
0.924422 0 0.864851
0.924422 0 0.864851
0.893736 0.68545 0.886091
0 0.000640879 0.876783
0 0.00062562 0.876783
0 0.000640879 0.876783
0 0.000656138 0.876783
0 0.000732433 0.876783
0 0 0.876875
0.924422 0 0.864851
0.924422 0 0.864851
0.893751 0.685313 0.886107
0 0.000122072 0.876799
0 0.000122072 0.876799
0 0.000137331 0.876799
0 0.00015259 0.876799
0 0.000213626 0.876783
0.351965 0 0.868101
0.924422 0 0.864851
0.924422 0 0.864851
0.893812 0.684871 0.886137
0 0 0.876799
0 0 0.876799
0 0 0.876799
0 0 0.876799
0 0 0.876799
0.757946 0 0.858457
0.924422 0 0.864851
0.925917 0 0.871626
0.86952 0.8878 0.874128
0 0.992889 0.892653
0 0.99292 0.892653
0 0.992966 0.892653
0 0.993133 0.892668
0 0.993622 0.892699
0.665934 0.960616 0.874113
0.84361 0.954498 0.873243
0.863661 0.963134 0.873167
0.862211 0.98349 0.873045
0.594995 1 0.875196
0.602853 1 0.874846
0.614588 1 0.874357
0.644587 1 0.873228
0.703105 1 0.871702
0.773648 1 0.871092
0.82945 1 0.871168
0.85919 1 0.871565
0.86038 1 0.871702
0.822324 1 0.869184
0.822507 1 0.869184
0.822812 1 0.869184
0.823728 1 0.869184
0.826307 1 0.8692
0.832731 1 0.86923
0.844511 1 0.869291
0.857221 1 0.869459
0.860121 1 0.869856
0 0.265415 0.877119
0 0.265415 0.877119
0 0.265415 0.877119
0 0.265431 0.877119
0 0.265431 0.877119
0 0.265492 0.877119
0 0.265629 0.877119
0.925383 0.279377 0.891463
0.887633 0.731258 0.882704
0 0.265415 0.877119
0 0.265415 0.877119
0 0.265415 0.877119
0 0.265415 0.877119
0 0.265431 0.877119
0 0.265476 0.877119
0 0.265629 0.877119
0.925368 0.279744 0.891478
0.887633 0.731319 0.882689
0 0.265385 0.877119
0 0.265385 0.877119
0 0.265385 0.877119
0 0.265415 0.877119
0 0.265415 0.877119
0 0.265476 0.877119
0 0.265599 0.877119
0.925338 0.280308 0.891493
0.887617 0.73138 0.882689
0 0.26537 0.877119
0 0.26537 0.877119
0 0.26537 0.877119
0 0.26537 0.877119
0 0.265385 0.877119
0 0.265431 0.877119
0 0.265553 0.877119
0.925277 0.282032 0.891539
0.887587 0.731609 0.882673
0 0.265232 0.877119
0 0.265232 0.877119
0 0.265232 0.877119
0 0.265232 0.877119
0 0.265263 0.877119
0 0.265309 0.877119
0.349111 0.248585 0.87924
0.925063 0.287312 0.891691
0.887495 0.732265 0.882628
0 0.264881 0.877134
0 0.264881 0.877134
0 0.264881 0.877134
0 0.264897 0.877134
0 0.264897 0.877134
0 0.264942 0.877134
0.779934 0.020798 0.867033
0.924407 0.302907 0.892103
0.887358 0.733257 0.882551
0 0.263767 0.877134
0 0.263767 0.877134
0 0.263767 0.877134
0 0.263783 0.877134
0 0.263783 0.877134
0 0.263828 0.877134
0.924422 0 0.864851
0.922942 0.333196 0.892699
0.887114 0.735103 0.882414
0 1 0.893706
0 1 0.893706
0 1 0.893706
0 1 0.893706
0 1 0.893706
0 1 0.893706
0.796979 0.999298 0.872663
0.860929 0.997375 0.87303
0.86099 1 0.872938
0.779538 1 0.87219
0.780209 1 0.87219
0.781262 1 0.872206
0.784329 1 0.872221
0.792493 1 0.872251
0.809995 1 0.872358
0.835004 1 0.872541
0.854932 1 0.872663
0.86038 1 0.872969
