BBLuts/BB_102_0270_LUT.cube
TITLE "Generated by Resolve"
LUT_3D_SIZE 9
0 0 0
0 0 0
0.323781 0 0
0.751247 0 0
1 0 0
1 0 0
1 0.892363 0
1 1 0.446357
1 1 1
0 0.0677348 0
0 0.085481 0
0.308629 0.0504921 0
0.765713 0 0
1 0 0
1 0 0
1 0.911131 0
1 1 0.443534
1 1 1
0 0.341802 0
0 0.347616 0
0.189899 0.346502 0
0.579904 0.342763 0
1 0.0983749 0
1 0.291035 0
1 0.906722 0
1 1 0.440024
1 1 1
0 0.735409 0
0 0.736919 0
0 0.738643 0
0.54052 0.72221 0
1 0.670985 0
1 0.834012 0
1 1 0
1 1 0.434089
1 1 1
0 1 0
0 1 0
0 1 0
0 1 0
1 1 0
1 1 0
1 1 0
1 1 0.443671
1 1 1
0 1 0
0 1 0
0 1 0
0 1 0
1 1 0
1 1 0
1 1 0
1 1 0.513054
1 1 1
0.802121 1 0.125597
0.802121 1 0.125597
0.802121 1 0.125597
0.80206 1 0.125612
1 1 0.131258
1 1 0.184756
1 1 0.351797
1 1 0.7364
1 1 1
1 1 0.929686
1 1 0.929717
1 1 0.929717
1 1 0.929717
1 1 0.929732
1 1 0.938323
1 1 0.9785
1 1 1
1 1 1
1 1 1
1 1 1
1 1 1
1 1 1
1 1 1
1 1 1
1 1 1
1 1 1
1 1 1
0 0 0.0885634
0 0 0.0895552
0.317784 0 0.0917525
0.750347 0 0.0793011
1 0 0.0440986
1 0 0.0161593
1 0.889738 0
1 1 0.446403
1 1 1
0 0.0160983 0.0628977
0.0239719 0.0422675 0.0584115
0.343648 0 0.0771344
0.755734 0 0.0577554
1 0 0
1 0 0
1 0.918685 0
1 1 0.443565
1 1 1
0 0.324468 0
0 0.329717 0
0.222461 0.328573 0
0.563622 0.330617 0
1 0.0445411 0
1 0.263203 0
1 0.917372 0
1 1 0.440024
1 1 1
0 0.72784 0
0 0.729259 0
0 0.730663 0
0.559472 0.712566 0
1 0.666239 0
1 0.831022 0
1 1 0
1 1 0.434089
1 1 1
0 1 0
0 1 0
0 1 0
0 1 0
1 1 0
1 1 0
1 1 0
1 1 0.443671
1 1 1
0 1 0
0 1 0
0 1 0
0 1 0
1 1 0
1 1 0
1 1 0
1 1 0.513054
1 1 1
0.809583 1 0.124697
0.809583 1 0.124697
0.809552 1 0.124697
0.809537 1 0.124681
1 1 0.130694
1 1 0.184405
1 1 0.351751
1 1 0.7364
1 1 1
1 1 0.929625
1 1 0.929625
1 1 0.929625
1 1 0.929625
1 1 0.929625
1 1 0.938262
1 1 0.978439
1 1 1
1 1 1
1 1 1
1 1 1
1 1 1
1 1 1
1 1 1
1 1 1
1 1 1
1 1 1
1 1 1
0 0 0.374792
0 0 0.375357
0.256687 0 0.375937
0.760815 0 0.354284
1 0 0.326802
1 0 0.329961
1 0.805188 0.0907301
1 1 0.502083
1 1 1
0 0 0.370123
0 0 0.370962
0.297459 0 0.370001
0.759014 0 0.347662
1 0 0.319066
1 0 0.315511
1 0.881621 0.0216678
1 1 0.499657
1 1 1
0 0.270024 0.290227
0 0.274205 0.289082
0.193713 0.266499 0.285191
0.686152 0.216449 0.277333
1 0 0.292699
1 0.161883 0.231678
1 0.955413 0
1 1 0.49601
1 1 1
0 0.701762 0.0840925
0 0.703899 0.084535
0 0.705242 0.087068
0.553674 0.687053 0.0810407
1 0.71046 0
1 0.8047 0
1 1 0.0843824
1 1 0.480125
1 1 1
0 1 0
0 1 0
0 1 0
0 1 0
1 1 0
1 1 0
1 1 0
1 1 0.446311
1 1 1
0 1 0
0 1 0
0 1 0
0 1 0
1 1 0
1 1 0
1 1 0
1 1 0.512688
1 1 1
0.820264 1 0.123354
0.820264 1 0.123354
0.820264 1 0.123354
0.820233 1 0.123369
1 1 0.129915
1 1 0.184024
1 1 0.351354
1 1 0.736248
1 1 1
1 1 0.929473
1 1 0.929473
1 1 0.929473
1 1 0.929473
1 1 0.929473
1 1 0.938109
1 1 0.978363
1 1 1
1 1 1
1 1 1
1 1 1
1 1 1
1 1 1
1 1 1
1 1 1
1 1 1
1 1 1
1 1 1
0 0 0.81387
0 0 0.814069
0 0 0.814542
0.675685 0 0.799344
1 0 0.761395
1 0 0.758251
1 0.658274 0.698894
1 1 0.808286
1 1 1
0 0 0.810925
0 0 0.81117
0.00521859 0 0.81297
0.702663 0 0.794003
1 0 0.757916
1 0 0.753002
1 0.712642 0.680247
1 1 0.808026
1 1 1
0 0.039292 0.784741
0 0.0437171 0.784024
0 0.0464485 0.785748
0.715267 0 0.787198
1 0 0.751934
1 0 0.741711
1 0.779736 0.663676
1 1 0.807141
1 1 1
0 0.614694 0.651484
0 0.616053 0.651469
0 0.61883 0.651926
0.5122 0.602655 0.645441
1 0.543191 0.613703
1 0.595621 0.581567
1 1 0.462562
1 1 0.797681
1 1 1
0 1 0.429953
0 1 0.429953
0 1 0.431296
0 1 0.436927
1 1 0.410864
1 1 0.412436
1 1 0.506371
1 1 0.763088
1 1 1
0 1 0
0 1 0
0 1 0
0 1 0
1 1 0
1 1 0.112215
1 1 0.337743
1 1 0.681682
1 1 1
0.852338 1 0.119524
0.852338 1 0.119524
0.852338 1 0.119524
0.852338 1 0.119524
1 1 0.127565
1 1 0.182559
1 1 0.350729
1 1 0.735317
1 1 1
1 1 0.929015
1 1 0.929015
1 1 0.929015
1 1 0.929015
1 1 0.929015
1 1 0.937682
1 1 0.978073
1 1 1
1 1 1
1 1 1
1 1 1
1 1 1
1 1 1
1 1 1
1 1 1
1 1 1
1 1 1
1 1 1
0 0 1
0 0 1
0 0 1
0.118547 0 1
1 0 1
1 0 1
1 0.304295 1
1 1 1
1 1 1
0 0 1
0 0 1
0 0 1
0.130556 0 1
1 0 1
1 0 1
1 0.418906 1
1 1 1
1 1 1
0 0 1
0 0 1
0 0 1
0.294865 0 1
1 0 1
1 0 1
1 0.542473 1
1 1 1
1 1 1
0 0.267185 1
0 0.267185 1
0 0.273701 1
0.249561 0.258915 1
1 0.0500496 1
1 0.140993 1
1 0.812711 1
1 1 1
1 1 1
0 1 1
0 1 1
0 1 1
0 1 1
1 1 1
1 1 1
1 1 1
1 1 1
1 1 1
0 1 1
0 1 1
0 1 1
0 1 1
0.872328 1 1
1 1 1
1 1 1
1 1 1
1 1 1
0.787823 1 0.858747
0.787823 1 0.858747
0.787823 1 0.858747
0.787823 1 0.858747
1 1 0.848386
1 1 0.856489
1 1 0.923796
1 1 1
1 1 1
1 1 0.926863
1 1 0.926863
1 1 0.926863
1 1 0.926863
1 1 0.926863
1 1 0.936156
1 1 0.97702
1 1 1
1 1 1
1 1 1
1 1 1
1 1 1
1 1 1
1 1 1
1 1 1
1 1 1
1 1 1
1 1 1
0 0 1
0 0 1
0 0 1
0 0 1
0.912734 0 1
1 0 1
1 0 1
1 1 1
1 1 1
0 0 1
0 0 1
0 0 1
0 0 1
0.911116 0 1
1 0 1
1 0 1
1 1 1
1 1 1
0 0 1
0 0 1
0 0 1
0 0 1
0.934661 0 1
1 0 1
1 0 1
1 1 1
1 1 1
0 0 1
0 0 1
0 0 1
0 0 1
1 0 1
1 0 1
1 0 1
1 1 1
1 1 1
0 0.67129 1
0 0.67129 1
0 0.67129 1
0 0.677485 1
0.919234 0.632883 1
1 0.602686 1
1 0.94789 1
1 1 1
1 1 1
0 1 1
0 1 1
0 1 1
0 1 1
0.39559 1 1
1 1 1
1 1 1
1 1 1
1 1 1
0.415503 1 1
0.415503 1 1
0.417334 1 1
0.417334 1 1
0.949477 1 1
1 1 1
1 1 1
1 1 1
1 1 1
1 1 1
1 1 1
1 1 1
1 1 1
1 1 1
1 1 1
1 1 1
1 1 1
1 1 1
1 1 1
1 1 1
1 1 1
1 1 1
1 1 1
1 1 1
1 1 1
1 1 1
1 1 1
0 0 1
0 0 1
0 0 1
0 0 1
0 0 1
1 0 1
1 0 1
1 0 1
1 1 1
0 0 1
0 0 1
0 0 1
0 0 1
0 0 1
1 0 1
1 0 1
1 0 1
1 1 1
0 0 1
0 0 1
0 0 1
0 0 1
0 0 1
1 0 1
1 0 1
1 0 1
1 1 1
0 0 1
0 0 1
0 0 1
0 0 1
0 0 1
1 0 1
1 0 1
1 0 1
1 1 1
0 0 1
0 0 1
0 0 1
0 0 1
0 0 1
1 0 1
1 0 1
1 0.489281 1
1 1 1
0 1 1
0 1 1
0 1 1
0 1 1
0 1 1
1 1 1
1 1 1
1 1 1
1 1 1
0 1 1
0 1 1
0 1 1
0 1 1
0 1 1
1 1 1
1 1 1
1 1 1
1 1 1
1 1 1
1 1 1
1 1 1
1 1 1
1 1 1
1 1 1
1 1 1
1 1 1
1 1 1
1 1 1
1 1 1
1 1 1
1 1 1
1 1 1
1 1 1
1 1 1
1 1 1
1 1 1
0 0.0702678 1
0 0.0702678 1
0 0.0702678 1
0 0.0702678 1
0 0.0702678 1
0 0.0704509 1
1 0 1
1 0 1
1 0.889464 1
0 0.0702678 1
0 0.0702678 1
0 0.0702678 1
0 0.0702678 1
0 0.0702678 1
0 0.0704509 1
1 0 1
1 0 1
1 0.889464 1
0 0.0702678 1
0 0.0702678 1
0 0.0702678 1
0 0.0702678 1
0 0.0702678 1
0 0.0704509 1
1 0 1
1 0 1
1 0.889387 1
0 0.0702678 1
0 0.0702678 1
0 0.0702678 1
0 0.0702678 1
0 0.0702678 1
0 0.0704509 1
1 0 1
1 0 1
1 0.889158 1
0 0.0700847 1
0 0.0700847 1
0 0.0700847 1
0 0.0700847 1
0 0.0700847 1
0 0.0702068 1
1 0 1
1 0 1
1 0.888502 1
0 0.0673228 1
0 0.0673228 1
0 0.0673228 1
0 0.0673228 1
0 0.0673228 1
0 0.0674449 1
1 0 1
1 0 1
1 1 1
0 1 1
0 1 1
0 1 1
0 1 1
0 1 1
0 1 1
1 1 1
1 1 1
1 1 1
0.597055 1 1
0.597055 1 1
0.597055 1 1
0.597055 1 1
0.597055 1 1
0.597055 1 1
1 1 1
1 1 1
1 1 1
1 1 1
1 1 1
1 1 1
1 1 1
1 1 1
1 1 1
1 1 1
1 1 1
1 1 1
0 0.431556 1
0 0.431556 1
0 0.431556 1
0 0.431556 1
0 0.431556 1
0 0.431556 1
0 0.431678 1
1 0.03682 1
1 0.959792 1
0 0.431556 1
0 0.431556 1
0 0.431556 1
0 0.431556 1
0 0.431556 1
0 0.431556 1
0 0.431678 1
1 0.03682 1
1 0.959792 1
0 0.431556 1
0 0.431556 1
0 0.431556 1
0 0.431556 1
0 0.431556 1
0 0.431556 1
0 0.431678 1
1 0.03682 1
1 0.959792 1
0 0.431556 1
0 0.431556 1
0 0.431556 1
0 0.431556 1
0 0.431556 1
0 0.431556 1
0 0.431678 1
1 0.03682 1
1 0.959792 1
0 0.431556 1
0 0.431556 1
0 0.431556 1
0 0.431556 1
0 0.431556 1
0 0.431556 1
0 0.431678 1
1 0.03682 1
1 0.959792 1
0 0.431449 1
0 0.431449 1
0 0.431449 1
0 0.431449 1
0 0.431449 1
0 0.431449 1
0 0.431525 1
1 0.0384527 1
1 0.962768 1
0 0.429755 1
0 0.429755 1
0 0.429755 1
0 0.429755 1
0 0.429755 1
0 0.429755 1
0 0.429831 1
1 0.234516 1
1 0.967758 1
0 1 1
0 1 1
0 1 1
0 1 1
0 1 1
0 1 1
0 1 1
1 1 1
1 1 1
1 1 1
1 1 1
1 1 1
1 1 1
1 1 1
1 1 1
1 1 1
1 1 1
1 1 1
