BBLuts/BB_103_0820_LUT.cube
TITLE "Generated by Resolve"
LUT_3D_SIZE 33
0.0204776 0.0107881 0.0142061
0.0204776 0.0107881 0.0142061
0.0204776 0.0107881 0.0142061
0.0204776 0.0107881 0.0142061
0.0204776 0.0107881 0.0142061
0.0703136 0.0113985 0.0147555
0.126375 0.0124361 0.0156863
0.16614 0.0132753 0.016434
0.205447 0.0141604 0.0172274
0.251362 0.0152438 0.018204
0.304417 0.0165408 0.0193637
0.361975 0.0180056 0.0206607
0.42475 0.0196689 0.0221408
0.495384 0.0216373 0.0238956
0.568689 0.0238651 0.025864
0.643107 0.0262608 0.027985
0.718486 0.0287327 0.0301518
0.793683 0.03122 0.0323491
0.861387 0.0334783 0.0343175
0.9149 0.0352636 0.0358892
0.924681 0.035584 0.0361791
0.924681 0.035584 0.0361791
0.903883 0.201663 0.0625772
0.883986 0.378012 0.082826
0.870619 0.498695 0.109941
0.859907 0.595819 0.144976
0.850736 0.679606 0.19144
0.843153 0.750149 0.260853
0.837461 0.804105 0.338582
0.833188 0.845655 0.413916
0.829984 0.877424 0.482353
0.827619 0.901732 0.54612
0.825772 0.921218 0.601511
0.0204776 0.0107881 0.0142061
0.0204776 0.0107881 0.0142061
0.0204776 0.0107881 0.0142061
0.0204776 0.0107881 0.0142061
0.0204776 0.0107881 0.0142061
0.0817426 0.0115816 0.0149233
0.130236 0.0125124 0.0157473
0.169253 0.0133364 0.016495
0.210254 0.0142672 0.0173342
0.256947 0.0153811 0.0183261
0.309987 0.0166781 0.0194858
0.36672 0.0181277 0.0207675
0.427527 0.0197452 0.0222019
0.497154 0.0216831 0.0239414
0.570123 0.0239109 0.0259098
0.644068 0.0262913 0.0280156
0.719066 0.0287633 0.0301671
0.793942 0.0312352 0.0323491
0.861311 0.0334783 0.0343175
0.914549 0.0352483 0.035874
0.924681 0.035584 0.0361791
0.924681 0.035584 0.0361791
0.900053 0.235386 0.0429541
0.882429 0.392035 0.0759442
0.869703 0.506966 0.106279
0.859342 0.6009 0.142947
0.85037 0.682979 0.189456
0.842924 0.752163 0.259785
0.837339 0.805234 0.338018
0.833112 0.846342 0.413596
0.829938 0.877791 0.48217
0.827588 0.901961 0.545998
0.825757 0.921355 0.601434
0.0204776 0.0107881 0.0142061
0.0204776 0.0107881 0.0142061
0.0204776 0.0107881 0.0142061
0.0204776 0.0107881 0.0142061
0.0204776 0.0107881 0.0142061
0.0885023 0.0117037 0.0150301
0.131563 0.0125429 0.0157778
0.172213 0.0134127 0.016556
0.21529 0.0143893 0.0174411
0.262119 0.0155032 0.0184329
0.314214 0.0167849 0.0195773
0.369253 0.0181888 0.0208286
0.429847 0.0198062 0.0222629
0.499062 0.0217441 0.0239872
0.571557 0.0239567 0.0259403
0.644999 0.0263218 0.0280308
0.719646 0.0287785 0.0301976
0.794217 0.0312352 0.0323644
0.861204 0.0334783 0.0343175
0.914199 0.0352483 0.035874
0.924681 0.035584 0.0361791
0.924681 0.035584 0.0361791
0.897047 0.263127 0.00863661
0.88098 0.405234 0.0685435
0.868818 0.514885 0.102586
0.858793 0.605859 0.140902
0.850004 0.68629 0.187549
0.84271 0.754131 0.258686
0.837217 0.806363 0.337453
0.833036 0.847013 0.413275
0.829908 0.878172 0.481971
0.827573 0.90219 0.545892
0.825742 0.921492 0.601373
0.0204776 0.0107881 0.0142061
0.0204776 0.0107881 0.0142061
0.0204776 0.0107881 0.0142061
0.0201114 0.0172122 0.0138857
0.0434577 0.0231174 0.0137331
0.0936599 0.0117952 0.0151217
0.132174 0.0125582 0.0157931
0.172473 0.0134127 0.0165713
0.216144 0.0144045 0.0174563
0.264225 0.0155489 0.0184787
0.31696 0.0168612 0.0196384
0.371572 0.0182498 0.0208743
0.432074 0.0198672 0.0223239
0.500969 0.0218051 0.024033
0.573022 0.0240024 0.0259861
0.645975 0.0263523 0.0280613
0.720226 0.0287938 0.0302129
0.794446 0.0312505 0.0323644
0.861082 0.033463 0.0343175
0.913802 0.0352178 0.0358587
0.924681 0.035584 0.0361791
0.924681 0.035584 0.0361791
0.894362 0.287037 0.00607309
0.879637 0.417365 0.0604257
0.867994 0.522454 0.0988327
0.858259 0.610742 0.138872
0.849638 0.689509 0.186481
0.842496 0.756085 0.257633
0.837095 0.807462 0.336889
0.832959 0.847669 0.41297
0.829862 0.878538 0.481804
0.827543 0.902419 0.545785
0.825727 0.92163 0.601312
0.0166323 0.0688182 0.0108492
0.0163882 0.0720073 0.0106508
0.0161746 0.0750896 0.0104524
0.0159609 0.0780499 0.0102693
0.0158694 0.0791943 0.010193
0.0804913 0.0786908 0.0103609
0.122393 0.0767376 0.0108949
0.164675 0.0716869 0.0118257
0.211002 0.0595254 0.01355
0.265156 0.0155795 0.0184939
0.318547 0.0168917 0.0196689
0.373648 0.0182956 0.0209201
0.434241 0.0199283 0.0223697
0.502907 0.0218509 0.0240787
0.574517 0.0240482 0.0260166
0.646952 0.0263828 0.0280919
0.72079 0.028809 0.0302281
0.794659 0.0312505 0.0323796
0.860929 0.033463 0.0343175
0.913405 0.0352178 0.0358434
0.924681 0.035584 0.0361791
0.917525 0.0890211 0.028748
0.891997 0.308309 0.0037995
0.87837 0.428931 0.051133
0.867185 0.529717 0.0949874
0.857725 0.615534 0.136843
0.849302 0.692668 0.185412
0.842283 0.758007 0.25658
0.836973 0.80856 0.336324
0.832883 0.848325 0.41265
0.829816 0.878904 0.481605
0.827512 0.902647 0.545663
0.825711 0.921767 0.601251
0.0140536 0.1037 0.00859083
0.0138705 0.106188 0.00842298
0.0136721 0.108644 0.00825513
0.0135348 0.110582 0.00813306
0.0134585 0.111513 0.00807202
0.0589914 0.111406 0.00794995
0.112444 0.110872 0.00827039
0.157382 0.109071 0.00883497
0.204776 0.104891 0.00976577
0.257053 0.0963149 0.0112612
0.312871 0.0787213 0.0137789
0.375509 0.0183413 0.0209659
0.436439 0.0199893 0.0224308
0.504952 0.021912 0.0241398
0.57612 0.024094 0.0260624
0.64799 0.0264286 0.0281224
0.72137 0.0288243 0.0302434
0.794888 0.0312657 0.0323796
0.860777 0.033463 0.0343023
0.912963 0.0352026 0.0358282
0.924681 0.035584 0.0361791
0.907439 0.172351 0.0187228
0.889769 0.328298 0.00169375
0.877134 0.440452 0.0392462
0.866392 0.537011 0.090898
0.857191 0.620432 0.134691
0.848936 0.695888 0.184329
0.842054 0.75996 0.255467
0.836851 0.809689 0.335744
0.832807 0.848997 0.412329
0.82977 0.879286 0.481422
0.827497 0.902876 0.545541
0.825696 0.92192 0.601175
0.0112764 0.139864 0.00613413
0.0111238 0.141924 0.00598154
0.010956 0.143969 0.00584421
0.0108644 0.145098 0.00576791
0.0108186 0.145846 0.00570687
0.0107881 0.146105 0.00569161
0.0944686 0.145693 0.00555428
0.146746 0.144991 0.00593576
0.197147 0.143038 0.0065919
0.251301 0.138888 0.00759899
0.307485 0.130663 0.00914015
0.366735 0.116899 0.0113527
0.431281 0.0895247 0.015198
0.507576 0.0219883 0.0242008
0.578195 0.0241703 0.0261234
0.649332 0.0264744 0.0281682
0.722148 0.0288548 0.0302586
0.795163 0.0312657 0.0323949
0.860563 0.0334478 0.0343023
0.912367 0.035172 0.0358129
0.924681 0.035584 0.0361791
0.901473 0.224155 0.0128939
0.88719 0.351507 0
0.875654 0.454643 0.0138857
0.8654 0.545998 0.0854658
0.856519 0.62649 0.131975
0.848493 0.699947 0.182971
0.841779 0.762448 0.254063
0.836683 0.811139 0.335012
0.832715 0.849867 0.411902
0.829725 0.879774 0.481178
0.827451 0.903197 0.545388
0.825666 0.922087 0.601083
0.00807202 0.180331 0.00328069
0.00793469 0.182086 0.00314336
0.00782788 0.183413 0.0030518
0.00775158 0.184283 0.00299077
0.00770581 0.184909 0.00294499
0.00767529 0.185245 0.00291447
0.0398718 0.184985 0.00263981
0.128023 0.184619 0.00273136
0.185153 0.183764 0.00318914
0.24213 0.181125 0.00396735
0.300603 0.17583 0.00514229
0.362325 0.168032 0.00671397
0.4271 0.156039 0.00891127
0.498329 0.13492 0.0122835
0.57348 0.0877699 0.0188296
0.651133 0.0265202 0.0282139
0.723186 0.0288853 0.0302892
0.795544 0.031281 0.0323949
0.860243 0.0334478 0.034287
0.911528 0.0351568 0.0357824
0.912322 0.131197 0.0235294
0.89601 0.272419 0.00764477
0.884169 0.37879 0
0.873854 0.472313 0
0.864164 0.557275 0.0779278
0.85568 0.634134 0.128374
0.847913 0.70515 0.181216
0.841428 0.765637 0.252216
0.836469 0.813001 0.334051
0.832593 0.850996 0.411353
0.829648 0.880415 0.480858
0.827405 0.903593 0.54519
0.82565 0.922332 0.600961
0.00427253 0.226917 0
0.00416571 0.228244 0
0.00410468 0.228977 0
0.00404364 0.22974 0
0.00399786 0.230243 0
0.00396735 0.23061 0
0.00395209 0.230823 0
0.0866255 0.230076 0
0.16379 0.228779 0
0.226841 0.226642 4.57771e-05
0.289708 0.22327 0.000946059
0.355322 0.218189 0.0021973
0.423285 0.21062 0.00387579
0.495216 0.199084 0.00616464
0.566674 0.182742 0.00915541
0.638392 0.158724 0.0131991
0.713634 0.11986 0.0192111
0.796033 0.0312963 0.0324102
0.85977 0.0334325 0.0342718
0.896849 0.137316 0.022385
0.900557 0.232136 0.0120241
0.890486 0.321904 0.00236515
0.880705 0.410239 0
0.871504 0.493767 0
0.862623 0.571298 0.0670634
0.854612 0.643732 0.123583
0.847196 0.711772 0.178973
0.84097 0.769711 0.249805
0.83621 0.815412 0.332753
0.832425 0.852445 0.410636
0.829557 0.881254 0.48043
0.827344 0.904112 0.544915
0.825605 0.922637 0.600809
0 0.278904 0
0 0.279316 0
0 0.279713 0
0 0.280034 0
0 0.280232 0
0 0.280293 0
0 0.280186 0
0 0.279835 0
0.123659 0.278096 0
0.203082 0.276783 0
0.272862 0.274647 0
0.343755 0.271214 0
0.41651 0.265904 0
0.491829 0.258015 0.000640879
0.563546 0.248875 0.00276188
0.632944 0.237873 0.00521859
0.703838 0.225589 0.00799573
0.774868 0.214969 0.0107424
0.836545 0.219394 0.01178
0.882002 0.251286 0.00953689
0.892317 0.305379 0.00411994
0.884764 0.373373 0
0.876814 0.445502 0
0.868711 0.519081 0
0.860746 0.588556 0.0502785
0.853269 0.65597 0.11722
0.846281 0.720088 0.176181
0.840406 0.774838 0.246677
0.835859 0.818509 0.331075
0.832212 0.854337 0.409689
0.829435 0.882353 0.479866
0.827268 0.904784 0.544564
0.825559 0.923049 0.600595
0 0.33431 0
0 0.334707 0
0 0.335119 0
0 0.335393 0
0 0.335622 0
0 0.33576 0
0 0.335805 0
0 0.335698 0
0 0.335286 0
0.162432 0.333227 0
0.246677 0.331945 0
0.325246 0.329747 0
0.40441 0.326055 0
0.485344 0.320806 0
0.559442 0.3149 0
0.628595 0.308949 0
0.697612 0.303868 9.15541e-05
0.766018 0.301625 0.00172427
0.825376 0.309468 0.00221256
0.870283 0.334234 0.000656138
0.884596 0.374975 0
0.878904 0.42652 0
0.872389 0.485649 0
0.865553 0.547921 0
0.858534 0.609628 0.0166629
0.851591 0.67129 0.10869
0.845151 0.730358 0.172702
0.839704 0.781247 0.242618
0.835431 0.822431 0.328908
0.831952 0.856733 0.408453
0.829282 0.883757 0.479133
0.827176 0.905669 0.544106
0.825498 0.923583 0.600336
0 0.398337 0
0 0.398703 0
0 0.399039 0
0 0.399313 0
0 0.399527 0
0 0.39968 0
0 0.399817 0
0 0.399863 0
0 0.399741 0
0.0403296 0.398474 0
0.202106 0.397055 0
0.295689 0.395804 0
0.38439 0.39382 0
0.472465 0.390753 0
0.550851 0.386923 0
0.622385 0.383429 0
0.691157 0.381674 0
0.757473 0.383246 0
0.814374 0.392447 0
0.858183 0.412161 0
0.877195 0.441993 0
0.872801 0.48188 0
0.867567 0.529549 0
0.861967 0.580484 0
0.856031 0.63473 0
0.849561 0.689815 0.0974136
0.843778 0.742824 0.168551
0.838834 0.789029 0.241291
0.834867 0.827375 0.326085
0.831617 0.85977 0.406851
0.829068 0.885557 0.478172
0.827039 0.906828 0.543496
0.825422 0.924285 0.59997
0 0.470237 0
0 0.470558 0
0 0.470863 0
0 0.471092 0
0 0.471275 0
0 0.471458 0
0 0.471611 0
0 0.471733 0
0 0.471855 0
0 0.471931 0
0.0953689 0.470329 0
0.246296 0.469612 0
0.352819 0.468757 0
0.450416 0.466926 0
0.535027 0.464485 0
0.611078 0.462181 0
0.68249 0.461158 0
0.748211 0.46305 0
0.803098 0.470588 0
0.845579 0.485847 0
0.869841 0.508873 0
0.866545 0.538903 0
0.862547 0.575265 0
0.857939 0.617334 0
0.852903 0.663264 0
0.847211 0.711376 0.0827497
0.842161 0.757534 0.163775
0.837827 0.798337 0.240009
0.834195 0.833478 0.322438
0.831189 0.863569 0.404761
0.828809 0.887861 0.476905
0.826886 0.908293 0.542702
0.82533 0.92517 0.599496
0 0.547326 0
0 0.54757 0
0 0.547784 0
0 0.547936 0
0 0.548104 0
0 0.548241 0
0 0.548379 0
0 0.548516 0
0 0.548608 0
0 0.548638 0
0 0.548516 0
0.151644 0.546334 0
0.304616 0.54548 0
0.418158 0.544244 0
0.511803 0.542489 0
0.593835 0.540551 0
0.669718 0.539269 0
0.73724 0.540154 0
0.790982 0.54548 0
0.832074 0.556359 0
0.862806 0.572869 0
0.860365 0.595163 0
0.857221 0.623865 0
0.853559 0.657313 0
0.849332 0.69604 0
0.844572 0.735668 0.0636912
0.840314 0.774334 0.158709
0.836622 0.809277 0.238865
0.833371 0.840848 0.318288
0.830671 0.868208 0.40209
0.828489 0.890761 0.475288
0.826673 0.91014 0.541665
0.825193 0.926329 0.598886
0 0.621027 0
0 0.621164 0
0 0.621271 0
0 0.621363 0
0 0.621454 0
0 0.621515 0
0 0.621576 0
0 0.621637 0
0 0.621637 0
0 0.621592 0
0 0.621408 0
0 0.620951 0
0.229435 0.618082 0
0.374731 0.616922 0
0.481819 0.615488 0
0.570626 0.613733 0
0.651774 0.612161 0
0.722454 0.612085 0
0.77705 0.615442 0
0.817411 0.62327 0
0.849073 0.63534 0
0.854139 0.652003 0
0.851728 0.674037 0
0.848798 0.700862 0
0.845533 0.730861 0
0.841749 0.761959 0.0386664
0.8383 0.792813 0.153994
0.835218 0.822019 0.238041
0.832425 0.849515 0.318669
0.830045 0.873747 0.398657
0.828077 0.894362 0.473152
0.826398 0.91249 0.540322
0.825025 0.927764 0.598062
0 0.691997 0
0 0.692058 0
0 0.692088 0
0 0.692134 0
0 0.692149 0
0 0.692149 0
0 0.692164 0
0 0.692149 0
0 0.692088 0
0 0.691951 0
0 0.691676 0
0 0.691142 0
0.0494392 0.688807 0
0.316121 0.686656 0
0.444434 0.685298 0
0.541955 0.68368 0
0.628168 0.682017 0
0.702403 0.68127 0
0.759121 0.682979 0
0.800534 0.688106 0
0.831983 0.696895 0
0.847883 0.709331 0
0.846159 0.725139 0
0.844083 0.744228 0
0.841703 0.766018 0
0.838911 0.789044 0.0043183
0.836149 0.81239 0.150668
0.833661 0.836347 0.238087
0.831342 0.859434 0.319661
0.829328 0.880186 0.395132
0.827588 0.898741 0.470436
0.826078 0.915373 0.538552
0.824826 0.92958 0.597009
0 0.761288 0
0 0.761273 0
0 0.761257 0
0 0.761227 0
0 0.761212 0
0 0.761166 0
0 0.761105 0
0 0.761013 0
0 0.760845 0
0 0.760601 0
0 0.760189 0
0 0.759503 0
0 0.758465 0
0.232181 0.754467 0
0.398962 0.752758 0
0.509957 0.750927 0
0.601068 0.748882 0
0.678172 0.747356 0
0.737469 0.747356 0
0.781338 0.749615 0
0.814313 0.754421 0
0.837903 0.762112 0
0.841031 0.772229 0
0.839673 0.784772 0
0.838087 0.79939 0
0.836301 0.815732 0
0.833906 0.833021 0.149691
0.831968 0.85182 0.239704
0.830152 0.870344 0.321706
0.828519 0.887617 0.396994
0.826993 0.903975 0.466941
0.825681 0.918868 0.536278
0.824567 0.931823 0.595651
0 0.819791 0
0 0.81973 0
0 0.819654 0
0 0.819577 0
0 0.819486 0
0 0.819409 0
0 0.819272 0
0 0.819104 0
0 0.81883 0
0 0.818448 0
0 0.817868 0
0 0.816999 0
0 0.815793 0
0.134279 0.81178 0
0.358419 0.809339 0
0.482658 0.807126 0
0.578042 0.804654 0
0.655909 0.802472 0
0.716396 0.801236 0
0.762615 0.801358 0
0.797559 0.803174 0
0.82266 0.806973 0
0.836637 0.812696 0
0.835798 0.820356 0
0.83476 0.83003 0
0.833387 0.841382 0
0.831632 0.853819 0.153002
0.830228 0.867765 0.243946
0.828901 0.881865 0.325338
0.827604 0.896071 0.399802
0.826337 0.910018 0.466285
0.825208 0.923003 0.533364
0.824262 0.934569 0.593866
0 0.864576 0
0 0.864469 0
0 0.864363 0
0 0.86424 0
0 0.864118 0
0 0.863981 0
0 0.863798 0
0 0.863554 0
0 0.863203 0
0 0.862715 0
0 0.861997 0
0 0.861051 0
0 0.85977 0
0.0774853 0.85597 0
0.340017 0.852888 0
0.468498 0.850462 0
0.56379 0.847791 0
0.639902 0.845335 0
0.699214 0.843519 0
0.746181 0.842557 0
0.782452 0.842725 0
0.809018 0.844327 0
0.829496 0.84741 0
0.832364 0.851972 0
0.831708 0.858076 0
0.830518 0.86508 0.0266575
0.82948 0.873594 0.162753
0.82855 0.883284 0.251972
0.827604 0.893965 0.331121
0.826596 0.905333 0.403937
0.825605 0.916808 0.469306
0.824674 0.927733 0.530678
0.82388 0.93785 0.591577
0 0.899489 0
0 0.899336 0
0 0.899199 0
0 0.899031 0
0 0.898894 0
0 0.898726 0
0 0.898497 0
0 0.898192 0
0 0.89778 0
0 0.897231 0
0 0.896498 0
0 0.895506 0
0 0.894209 0
0.138491 0.88983 0
0.348959 0.88716 0
0.469154 0.884718 0
0.558602 0.882063 0
0.630198 0.879561 0
0.686671 0.877531 0
0.732601 0.87602 0
0.768933 0.875273 0
0.796643 0.875441 0
0.818387 0.876585 0
0.82945 0.878843 0
0.829099 0.88217 0
0.828138 0.886 0.0734112
0.827527 0.891585 0.180453
0.826932 0.898466 0.2645
0.826261 0.906416 0.339742
0.825544 0.915114 0.409918
0.824811 0.924132 0.47364
0.824109 0.933013 0.533806
0.823453 0.941665 0.588586
0 0.925216 0
0 0.925032 0
0 0.924865 0
0 0.924681 0
0 0.924498 0
0 0.924315 0
0 0.924071 0
0 0.923751 0
0 0.923339 0
0 0.922774 0
0 0.922026 0
0 0.921035 0
0 0.919768 0
0.243687 0.914885 0
0.386465 0.912718 0
0.486137 0.910384 0
0.563806 0.907897 0
0.628031 0.905516 0
0.680049 0.903471 0
0.723629 0.901762 0
0.758541 0.900557 0
0.786374 0.899977 0
0.808881 0.900053 0
0.826368 0.900969 0
0.826871 0.902678 0
0.826078 0.904646 0.119631
0.825727 0.908354 0.206012
0.825376 0.913054 0.282292
0.824964 0.918654 0.352148
0.824506 0.924987 0.418326
0.824002 0.931746 0.479744
0.823499 0.938811 0.538048
0.82298 0.945922 0.590585
0 0.944686 0
0 0.944503 0
0 0.944335 0
0 0.944152 0
0 0.943969 0
0 0.943801 0
0 0.943557 0
0 0.943221 0
0 0.942809 0
0 0.942275 0
0 0.941558 0
0 0.940627 0
0.22121 0.936156 0
0.345098 0.934401 0
0.438697 0.93254 0
0.513481 0.930465 0
0.577173 0.928298 0
0.631846 0.926207 0
0.678355 0.924269 0
0.718395 0.922545 0
0.751003 0.921233 0
0.777951 0.920317 0
0.800397 0.919829 0
0.81796 0.919921 0
0.824445 0.919921 0.0743114
0.824292 0.921202 0.167025
0.82414 0.9234 0.239185
0.823972 0.926406 0.305425
0.823758 0.930114 0.369131
0.823499 0.934524 0.429786
0.823178 0.939529 0.487846
0.822843 0.944945 0.543801
0.822492 0.950545 0.59411
0 0.959167 0
0 0.958999 0
0 0.958831 0
0 0.958663 0
0 0.95848 0
0 0.958312 0
0 0.958083 0
0 0.957794 0
0 0.957397 0
0.131014 0.954055 0
0.226505 0.95288 0
0.303517 0.951843 0
0.372992 0.950683 0
0.436637 0.949325 0
0.494423 0.947799 0
0.547356 0.946075 0
0.596796 0.944274 0
0.641077 0.942489 0
0.681422 0.940734 0
0.71693 0.939132 0
0.746517 0.937789 0
0.772 0.936721 0
0.793561 0.935927 0
0.810559 0.93489 0.0604257
0.822797 0.934768 0.148806
0.822812 0.935241 0.216297
0.822812 0.9364 0.277424
0.822766 0.938201 0.334112
0.822675 0.940642 0.390631
0.822553 0.943679 0.444846
0.822385 0.947219 0.498527
0.822202 0.951171 0.551415
0.821988 0.955352 0.598825
0.245304 0.965896 0
0.260197 0.965698 0
0.274006 0.965515 0
0.28687 0.965331 0
0.298619 0.965164 0
0.31017 0.964996 0
0.324178 0.964752 0
0.341375 0.964477 0
0.36231 0.964126 0
0.386847 0.963668 0
0.41413 0.963104 0
0.443976 0.962402 0
0.476585 0.961547 0
0.511177 0.96051 0
0.547234 0.959319 0
0.584085 0.957992 0
0.620081 0.956573 0
0.655238 0.955093 0
0.68867 0.953582 0
0.718837 0.952163 0
0.74461 0.950408 0.0157015
0.767956 0.949142 0.0684367
0.788113 0.94818 0.109789
0.804868 0.94754 0.160372
0.818799 0.947219 0.213764
0.821607 0.947234 0.266499
0.821683 0.947692 0.317357
0.821729 0.948669 0.367544
0.821729 0.950149 0.416068
0.821698 0.952102 0.464042
0.821653 0.954467 0.512734
0.821591 0.957168 0.561303
0.8215 0.960143 0.604974
0.454902 0.972442 0.128862
0.459312 0.97232 0.129076
0.463584 0.972198 0.12929
0.467765 0.972107 0.129488
0.471855 0.971984 0.129702
0.476005 0.971862 0.129931
0.481239 0.971725 0.13022
0.487968 0.971099 0.130663
0.496269 0.970855 0.131167
0.506355 0.97055 0.131853
0.518761 0.970138 0.132738
0.533852 0.96965 0.133928
0.551659 0.969024 0.135515
0.572076 0.968292 0.137606
0.59469 0.967422 0.140368
0.619104 0.966461 0.144015
0.645228 0.965347 0.148775
0.672114 0.964141 0.15494
0.698466 0.962905 0.16286
0.722881 0.961715 0.172915
0.745602 0.960571 0.18558
0.766537 0.959518 0.201266
0.784939 0.958633 0.220264
0.800717 0.957931 0.242908
0.814084 0.957458 0.277256
0.82063 0.957198 0.316991
0.820768 0.957214 0.359579
0.820859 0.957595 0.402747
0.820935 0.958343 0.444785
0.820981 0.959503 0.487312
0.821027 0.960967 0.530739
0.821042 0.962722 0.573709
0.821027 0.964767 0.612818
0.559884 0.974243 0.255573
0.561929 0.974243 0.25568
0.563943 0.974258 0.255802
0.565896 0.974258 0.255909
0.567849 0.974273 0.256046
0.569848 0.974273 0.256138
0.572366 0.974289 0.256321
0.575616 0.974304 0.256519
0.579797 0.974319 0.256779
0.585092 0.974334 0.257145
0.591714 0.974365 0.257633
0.59997 0.974395 0.258274
0.610117 0.974441 0.259098
0.622354 0.974502 0.260227
0.63679 0.974395 0.261723
0.653391 0.973678 0.263767
0.671763 0.972396 0.266468
0.691203 0.971496 0.269963
0.710796 0.970535 0.274495
0.730129 0.969573 0.280369
0.749264 0.968582 0.287724
0.767346 0.967636 0.297002
0.783612 0.966796 0.308751
0.798062 0.966079 0.323369
0.81062 0.965515 0.341344
0.819928 0.965133 0.369741
0.820066 0.964904 0.403311
0.820188 0.964904 0.438788
0.82031 0.965209 0.476051
0.820417 0.96582 0.513573
0.820493 0.966674 0.551812
0.820569 0.967773 0.588602
0.820615 0.969085 0.622415
0.62858 0.974731 0.352361
0.629679 0.974746 0.352438
0.630762 0.974746 0.352529
0.63183 0.974746 0.35259
0.632898 0.974762 0.352667
0.633997 0.974762 0.352758
0.635386 0.974777 0.352865
0.637217 0.974777 0.352987
0.639582 0.974792 0.35317
0.642634 0.974807 0.353399
0.64654 0.974823 0.353719
0.651484 0.974853 0.354116
0.657633 0.974884 0.354681
0.665202 0.974929 0.355398
0.674296 0.97499 0.356359
0.684947 0.975052 0.35761
0.696971 0.975128 0.359289
0.710063 0.975204 0.361471
0.7243 0.975311 0.364324
0.739391 0.975418 0.368063
0.754788 0.975143 0.37293
0.769863 0.973907 0.379248
0.78381 0.973144 0.387167
0.796704 0.972457 0.39707
0.808133 0.971862 0.409339
0.817746 0.97142 0.424292
0.819547 0.971069 0.447776
0.819699 0.970871 0.477012
0.819821 0.970901 0.508492
0.819959 0.97113 0.542031
0.820081 0.971557 0.574716
0.820172 0.972168 0.605493
0.820249 0.972946 0.633677
0.678569 0.975235 0.43389
0.679164 0.97525 0.433936
0.679774 0.97525 0.433982
0.680369 0.97525 0.434028
0.680949 0.97525 0.434073
0.681575 0.975265 0.434119
0.682338 0.975265 0.434195
0.68336 0.975265 0.434272
0.684703 0.97528 0.434394
