BBLuts/BB_104_0130_LUT.cube
TITLE "Generated by Resolve"
LUT_3D_SIZE 9
0 0 0
0 0 0
0.114946 0 0
0.344991 0 0
0.698848 0.190051 0.210834
0.902647 0.541482 0.517601
0.899016 0.579355 0.515785
0.874495 0.79472 0.445289
0.859556 0.907012 0.622568
0 0 0
0 0.0037232 0
0.12079 0 0
0.356023 0 0
0.701473 0.194415 0.214664
0.902647 0.541482 0.517601
0.897963 0.589654 0.514214
0.874083 0.799115 0.438605
0.859495 0.907546 0.621866
0 0.107195 0
0 0.110185 0
0.0694133 0.110704 0
0.361196 0.0991836 0
0.70547 0.232151 0.22063
0.90219 0.546685 0.517098
0.895979 0.607767 0.511025
0.873457 0.80589 0.426871
0.859373 0.908415 0.620676
0 0.359396 0
0 0.360616 0
0 0.361303 0
0.263264 0.372168 0
0.703059 0.404974 0.207263
0.898741 0.582055 0.5131
0.889052 0.666514 0.496513
0.872007 0.823926 0.382467
0.859037 0.910887 0.617105
0 0.720485 0
0 0.720394 0
0 0.719966 0
0 0.717052 0
0.601755 0.720317 0
0.851087 0.74226 0.394568
0.875349 0.789929 0.413687
0.870619 0.862226 0
0.858152 0.917433 0.606012
0 0.91487 0
0 0.914061 0
0 0.912703 0
0 0.908629 0
0 0.89836 0
0.791882 0.889754 0
0.867124 0.893721 0
0.865125 0.910094 0
0.856168 0.931426 0.581369
0 0.973068 0
0 0.972519 0
0 0.971695 0
0 0.969497 0
0.442771 0.963806 0
0.768139 0.951598 0
0.852338 0.948653 0
0.85919 0.949294 0
0.852827 0.949752 0.610636
0.713207 0.966003 0
0.715679 0.966003 0
0.719539 0.965972 0
0.73019 0.965972 0
0.755123 0.966049 0
0.796841 0.9664 0
0.841413 0.967056 0
0.852415 0.963775 0.428992
0.850843 0.961883 0.690547
0.817334 0.961959 0.726864
0.817533 0.961975 0.726909
0.817838 0.961975 0.726955
0.818784 0.962005 0.727123
0.821469 0.962036 0.727596
0.828214 0.962158 0.728969
0.841001 0.962402 0.732738
0.851926 0.962768 0.741573
0.852689 0.963409 0.762158
0 0 0
0 0 0
0.11989 0 0.00201419
0.346212 0 0.00503548
0.698772 0.192081 0.224399
0.902632 0.541695 0.519158
0.899184 0.577798 0.51722
0.874479 0.793729 0.457465
0.859556 0.906905 0.631434
0 0 0
0 0 0
0.133989 0 0
0.35169 0 0
0.699916 0.192798 0.218784
0.902632 0.541619 0.518685
0.898131 0.588006 0.515663
0.874052 0.798138 0.451316
0.859495 0.907439 0.630793
0 0.0996109 0
0 0.102113 0
0.094667 0.0998093 0
0.359457 0.0915084 0
0.702602 0.218173 0.216434
0.90222 0.546212 0.517128
0.896178 0.606104 0.512596
0.873411 0.804944 0.44062
0.859373 0.908293 0.629694
0 0.354742 0
0 0.355886 0
0 0.356374 0
0.279332 0.366873 0
0.702785 0.401617 0.20734
0.898848 0.581125 0.513222
0.88922 0.66508 0.497963
0.871885 0.823087 0.401221
0.859022 0.910765 0.626398
0 0.719066 0
0 0.718929 0
0 0.718486 0
0 0.715511 0
0.605783 0.718975 0
0.851286 0.741451 0.395804
0.87538 0.789487 0.414405
0.870649 0.862013 0
0.858106 0.917311 0.616358
0 0.91458 0
0 0.913771 0
0 0.912428 0
0 0.908339 0
0 0.898116 0
0.792248 0.889632 0
0.867155 0.893614 0
0.865125 0.910033 0
0.856168 0.931395 0.58262
0 0.972946 0
0 0.972412 0
0 0.971603 0
0 0.969421 0
0.452781 0.963424 0
0.768368 0.951583 0
0.852384 0.948623 0
0.85919 0.949279 0
0.852827 0.949737 0.610574
0.713603 0.966003 0
0.716045 0.966003 0
0.719875 0.965988 0
0.73048 0.965972 0
0.755337 0.966049 0
0.796933 0.9664 0
0.841443 0.967041 0
0.852415 0.963775 0.428901
0.850843 0.961883 0.690532
0.817365 0.961959 0.726864
0.817548 0.961975 0.726909
0.817868 0.96199 0.726955
0.818814 0.962005 0.727108
0.8215 0.962036 0.727596
0.828229 0.962158 0.728969
0.841016 0.962402 0.732738
0.851926 0.962768 0.741573
0.852689 0.963409 0.762158
0 0 0.0897231
0 0 0.0898909
0.113512 0 0.0913252
0.359121 0 0.092256
0.698726 0.196918 0.251728
0.902602 0.542046 0.521569
0.899443 0.575006 0.520989
0.874449 0.792081 0.478752
0.859586 0.906737 0.644327
0 0 0.0867018
0 0 0.0869764
0.132631 0 0.0883345
0.357549 0 0.0895247
0.701183 0.200671 0.253483
0.902617 0.542 0.521385
0.898451 0.584848 0.519448
0.874006 0.796551 0.473503
0.859495 0.907256 0.643748
0 0.0905013 0.0684977
0 0.0920882 0.0681315
0.105318 0.0854658 0.0781567
0.346334 0.0834058 0.07776
0.699748 0.197894 0.249485
0.902296 0.545312 0.52076
0.896559 0.602655 0.516457
0.873335 0.803433 0.464408
0.859373 0.908125 0.642802
0 0.342092 0
0 0.343404 0
0 0.34406 0
0.285481 0.354177 0
0.698268 0.391104 0.225895
0.899123 0.578286 0.515938
0.889647 0.661372 0.503258
0.871687 0.821714 0.432044
0.859037 0.910597 0.639918
0 0.716091 0
0 0.715969 0
0 0.715496 0
0 0.712505 0
0.609583 0.716182 0
0.851347 0.739498 0.397665
0.875471 0.78819 0.420188
0.870359 0.861402 0.149203
0.858091 0.917144 0.631205
0 0.914137 0
0 0.913314 0
0 0.911971 0
0 0.907897 0
0 0.897734 0
0.792828 0.889403 0
0.867155 0.893446 0
0.865141 0.909941 0
0.856046 0.931151 0.60383
0 0.972793 0
0 0.972259 0
0 0.97145 0
0 0.969299 0
0.467491 0.96286 0
0.768795 0.951537 0
0.852476 0.948592 0
0.85919 0.949264 0
0.852842 0.949722 0.610483
0.714183 0.965988 0
0.716625 0.965988 0
0.720424 0.965988 0
0.730953 0.965972 0
0.755673 0.966049 0
0.797086 0.9664 0
0.841489 0.967056 0
0.852415 0.963775 0.428901
0.850843 0.961883 0.690517
0.817395 0.961975 0.726864
0.817594 0.961975 0.726894
0.817929 0.961975 0.726955
0.818845 0.962005 0.727108
0.821546 0.962036 0.727581
0.828244 0.962158 0.728954
0.841031 0.962402 0.732723
0.851926 0.962768 0.741573
0.852689 0.963409 0.762158
0.0587472 0.024445 0.302129
0.058854 0.0245212 0.302281
0.0589151 0.0245518 0.302358
0.344854 0.0273594 0.297017
0.718074 0.251469 0.364233
0.902403 0.544457 0.53724
0.900069 0.569085 0.545113
0.874388 0.787274 0.544854
0.859754 0.906371 0.674647
0.0570993 0.0233005 0.299931
0.0572671 0.0234073 0.300114
0.119112 0.0241245 0.299992
0.358831 0.0269017 0.294499
0.71606 0.248127 0.361563
0.902403 0.544381 0.536828
0.899214 0.577478 0.543496
0.873884 0.791882 0.541711
0.859678 0.906905 0.67422
0.0452735 0.0698253 0.295293
0.0446937 0.0737163 0.295399
0.129519 0.071809 0.295659
0.364385 0.0252384 0.290501
0.709834 0.238621 0.355535
0.902419 0.544259 0.53611
0.897551 0.593576 0.540475
0.873121 0.798947 0.536431
0.859556 0.907774 0.673533
0 0.307103 0.251041
0 0.308782 0.251133
0 0.310002 0.251682
0.330694 0.307759 0.29012
0.683238 0.359228 0.326543
0.899886 0.570779 0.530831
0.890913 0.650324 0.528008
0.871183 0.817685 0.519097
0.859174 0.910262 0.671489
0 0.703151 0
0 0.70312 0
0 0.702785 0
0 0.700038 0
0.607248 0.70428 0
0.849775 0.730663 0.425177
0.875669 0.782864 0.459342
0.867643 0.856611 0.448432
0.858198 0.916808 0.6654
0 0.912856 0
0 0.912032 0
0 0.910658 0
0 0.906584 0
0 0.896452 0
0.792309 0.888289 0
0.867292 0.892561 0
0.865309 0.909316 0
0.856001 0.93077 0.64744
0 0.97229 0
0 0.971801 0
0 0.971008 0
0 0.968902 0
0.502663 0.96144 0
0.770016 0.9514 0
0.852689 0.948501 0
0.859205 0.949203 0
0.852842 0.949706 0.610193
0.715999 0.965988 0
0.718379 0.965988 0
0.722118 0.965972 0
0.732403 0.965972 0
0.756649 0.966049 0
0.797528 0.9664 0
0.841596 0.967041 0
0.852415 0.963775 0.428672
0.850843 0.961883 0.690425
0.817548 0.961959 0.726848
0.817746 0.96199 0.726894
0.818051 0.96199 0.726925
0.818998 0.962005 0.727092
0.821668 0.962036 0.727581
0.828351 0.962158 0.728954
0.841077 0.962402 0.732708
0.851926 0.962768 0.741558
0.852689 0.963409 0.762158
0.432059 0.421866 0.634104
0.432151 0.421973 0.63418
0.432303 0.422156 0.634318
0.444709 0.421088 0.633356
0.701808 0.444556 0.633982
0.899367 0.583642 0.663798
0.898558 0.592721 0.674891
0.875654 0.776059 0.682506
0.860731 0.90576 0.727733
0.431266 0.420951 0.633463
0.431357 0.421057 0.633539
0.431525 0.421256 0.633677
0.446586 0.420005 0.632547
0.707057 0.445411 0.633616
0.899397 0.583383 0.663294
0.898268 0.595178 0.673579
0.875013 0.78114 0.681254
0.860639 0.90631 0.727489
0.429999 0.41944 0.63241
0.430106 0.419562 0.632502
0.430274 0.419776 0.632639
0.449943 0.418296 0.631266
0.710246 0.445121 0.632654
0.899428 0.582925 0.662425
0.897536 0.60116 0.671305
0.874067 0.78883 0.679301
0.860502 0.90721 0.727108
0.419883 0.427237 0.62591
0.419867 0.427558 0.625925
0.419791 0.427924 0.625925
0.442542 0.426291 0.624933
0.708553 0.446387 0.627527
0.899123 0.585031 0.657404
0.893278 0.634791 0.662943
0.871641 0.808865 0.673686
0.860121 0.909758 0.725963
0 0.668818 0.571984
0 0.669154 0.572106
0 0.669261 0.57229
0 0.667552 0.572854
0.608896 0.672145 0.585428
0.844221 0.704753 0.614603
0.876402 0.767254 0.632151
0.866743 0.850141 0.658457
0.859068 0.916487 0.722637
0 0.90901 0
0 0.908217 0
0 0.906874 0
0 0.9028 0
0 0.892287 0
0.781323 0.881697 0.405524
0.863066 0.884886 0.54844
0.860258 0.902098 0.619852
0.856718 0.930587 0.713741
0 0.971435 0
0 0.970916 0
0 0.970153 0
0 0.968048 0
0.455146 0.962219 0
0.764202 0.950164 0
0.848005 0.947723 0
0.855451 0.944762 0.459495
0.853147 0.949416 0.691707
0.721309 0.965988 0
0.723522 0.965972 0
0.727001 0.965972 0
0.736645 0.965972 0
0.759579 0.966064 0
0.798856 0.966415 0
0.842008 0.967071 0
0.852415 0.96379 0.428138
0.850828 0.961883 0.690211
0.81799 0.96199 0.726818
0.818189 0.96199 0.726848
0.818494 0.96199 0.726909
0.819409 0.962005 0.727062
0.822034 0.962036 0.727535
0.828626 0.962158 0.728923
0.841215 0.962402 0.732677
0.851926 0.962768 0.741512
0.852689 0.963409 0.762158
0.646983 0.675853 0.807782
0.646998 0.675853 0.807797
0.647013 0.675883 0.807813
0.647074 0.675944 0.807858
0.676799 0.670588 0.803494
0.890349 0.698146 0.805371
0.890288 0.698955 0.806104
0.88307 0.748333 0.794888
0.863615 0.903349 0.786816
0.646906 0.675746 0.807721
0.646922 0.675761 0.807721
0.646937 0.675776 0.807736
0.646983 0.675853 0.807782
0.679194 0.670466 0.803357
0.890349 0.69807 0.80531
0.890303 0.698878 0.806043
0.882322 0.753674 0.793896
0.863523 0.903975 0.786679
0.646784 0.675593 0.807614
0.646799 0.675624 0.807614
0.646815 0.675624 0.80763
0.646845 0.675685 0.80766
0.683284 0.670298 0.803143
0.890349 0.697932 0.805188
0.890303 0.698772 0.805951
0.881132 0.76228 0.79237
0.863371 0.904982 0.78645
0.646387 0.67512 0.807263
0.646403 0.67512 0.807279
0.646418 0.675151 0.807294
0.646097 0.674754 0.807019
0.693614 0.669871 0.802594
0.890379 0.697566 0.804852
0.89041 0.697032 0.804364
0.877836 0.786526 0.78822
0.862928 0.907881 0.785794
0.631052 0.675853 0.795941
0.630976 0.67599 0.795911
0.630838 0.676188 0.795834
0.630137 0.676051 0.7953
0.676829 0.672831 0.792996
0.886244 0.702037 0.79559
0.884291 0.736126 0.789425
0.871321 0.837308 0.779812
0.861769 0.915404 0.783963
0 0.903136 0.767452
0 0.902678 0.767437
0 0.901778 0.767391
0 0.898268 0.767239
0.418219 0.887373 0.764904
0.776745 0.871321 0.759274
0.862119 0.878553 0.763317
0.863081 0.899168 0.767178
0.859251 0.930663 0.779644
0 0.973037 0.739986
0 0.972473 0.740139
0 0.971603 0.740368
0 0.969268 0.741054
0.386374 0.960311 0.737743
0.74638 0.943801 0.731731
0.833738 0.941192 0.739803
0.855833 0.943023 0.751369
0.855512 0.950881 0.771481
0.709361 0.960922 0.676677
0.711513 0.960891 0.676783
0.714931 0.960876 0.676966
0.724422 0.960845 0.677531
0.747097 0.960845 0.679301
0.786252 0.961089 0.684565
0.829679 0.961669 0.697292
0.851377 0.96231 0.72137
0.852476 0.963226 0.757031
0.819303 0.96199 0.726711
0.819471 0.96199 0.726757
0.81976 0.962005 0.726802
0.820645 0.96202 0.72694
0.823148 0.962051 0.727428
0.82948 0.962158 0.728801
0.841657 0.962402 0.732555
0.851926 0.962768 0.74139
0.852689 0.963394 0.762142
0.69868 0.73959 0.85362
0.69868 0.73959 0.85362
0.69868 0.73959 0.85362
0.69868 0.73959 0.85362
0.69868 0.73959 0.85362
0.873274 0.753933 0.856199
0.887938 0.756451 0.856428
0.887938 0.756451 0.856428
0.86978 0.885176 0.832563
0.69868 0.73959 0.85362
0.69868 0.73959 0.85362
0.69868 0.73959 0.85362
0.69868 0.73959 0.85362
0.69868 0.73959 0.85362
0.874372 0.754116 0.856214
0.887938 0.756451 0.856428
0.887938 0.756451 0.856428
0.869642 0.886198 0.832395
0.69868 0.73959 0.85362
0.69868 0.73959 0.85362
0.69868 0.73959 0.85362
0.69868 0.73959 0.85362
0.69868 0.73959 0.85362
0.876158 0.754421 0.856245
0.887938 0.756451 0.856428
0.887938 0.756451 0.856428
0.869413 0.887831 0.832151
0.69868 0.73959 0.85362
0.69868 0.73959 0.85362
0.69868 0.73959 0.85362
0.69868 0.73959 0.85362
0.69868 0.73959 0.85362
0.881376 0.755306 0.856321
0.887938 0.756451 0.856428
0.887938 0.756451 0.856428
0.868757 0.8925 0.831449
0.69868 0.73959 0.85362
0.69868 0.73959 0.85362
0.69868 0.73959 0.85362
0.69868 0.73959 0.85362
0.699931 0.73962 0.853635
0.887938 0.756451 0.856428
0.887938 0.756451 0.856428
0.886549 0.762463 0.851499
0.867048 0.904295 0.829618
0.664622 0.825559 0.840787
0.664546 0.825742 0.840772
0.664393 0.826047 0.840742
0.66392 0.826963 0.84062
0.663645 0.823072 0.839612
0.803952 0.817212 0.837644
0.875929 0.835981 0.835782
0.870359 0.878492 0.830304
0.863645 0.926024 0.82594
0 0.97966 0.832563
0 0.978988 0.832563
0 0.977874 0.832532
0 0.974609 0.832486
0.44033 0.959884 0.824765
0.742458 0.943053 0.816907
0.835004 0.940078 0.818128
0.86038 0.942718 0.81912
0.85919 0.951354 0.820798
0.700526 0.964721 0.808759
0.702815 0.964721 0.808743
0.706416 0.964675 0.808713
0.716472 0.96463 0.808637
0.740642 0.964569 0.80856
0.782528 0.964782 0.80882
0.82768 0.965331 0.809842
0.855695 0.965866 0.811963
0.856031 0.966125 0.8159
0.819516 0.964446 0.796277
0.819684 0.964446 0.796292
0.819974 0.964446 0.796292
0.820829 0.964462 0.796353
0.82324 0.964492 0.796475
0.829358 0.964599 0.796887
0.841245 0.964828 0.798016
0.85481 0.965179 0.800885
0.855329 0.96556 0.807401
0.69865 0.739788 0.853605
0.69865 0.739788 0.853605
0.69865 0.739788 0.853605
0.69865 0.739788 0.853605
0.69865 0.739788 0.853605
0.69865 0.739788 0.853605
0.887938 0.756451 0.856428
0.887938 0.756451 0.856428
0.88574 0.772732 0.855207
0.69865 0.739788 0.853605
0.69865 0.739788 0.853605
0.69865 0.739788 0.853605
0.69865 0.739788 0.853605
0.69865 0.739788 0.853605
0.69865 0.739788 0.853605
0.887938 0.756451 0.856428
0.887938 0.756451 0.856428
0.88574 0.772717 0.855207
0.69865 0.739788 0.853605
0.69865 0.739788 0.853605
0.69865 0.739788 0.853605
0.69865 0.739788 0.853605
0.69865 0.739788 0.853605
0.69865 0.739788 0.853605
0.887938 0.756451 0.856428
0.887938 0.756451 0.856428
0.88574 0.772717 0.855207
0.69865 0.739788 0.853605
0.69865 0.739788 0.853605
0.69865 0.739788 0.853605
0.69865 0.739788 0.853605
0.69865 0.739788 0.853605
0.69865 0.739681 0.853605
0.887938 0.756451 0.856428
0.887938 0.756451 0.856428
0.88574 0.772686 0.855207
0.69865 0.739773 0.853605
0.69865 0.739773 0.853605
0.69865 0.739773 0.853605
0.69865 0.739773 0.853605
0.69865 0.739773 0.853605
0.700313 0.739635 0.853635
0.887938 0.756451 0.856428
0.887938 0.756451 0.856428
0.885756 0.772625 0.855207
0.69865 0.739773 0.853605
0.69865 0.739773 0.853605
0.69865 0.739773 0.853605
0.69865 0.739773 0.853605
0.69865 0.739773 0.853605
0.755611 0.741985 0.854185
0.887938 0.756451 0.856428
0.887922 0.756603 0.856413
0.875074 0.857527 0.849744
0.578973 0.937835 0.846693
0.578866 0.937881 0.846708
0.578744 0.937926 0.846693
0.578332 0.938109 0.846708
0.57705 0.938598 0.846708
0.687434 0.917998 0.845258
0.845731 0.913329 0.84593
0.866514 0.921889 0.84567
0.863416 0.941482 0.844129
0.54902 0.971176 0.844663
0.558663 0.970794 0.844282
0.573007 0.97026 0.843732
0.609094 0.969009 0.842466
0.67718 0.967361 0.84062
0.758938 0.966949 0.83978
0.823453 0.967559 0.840024
0.857542 0.96701 0.84062
0.858564 0.967544 0.840787
0.814817 0.967269 0.837858
0.815045 0.967269 0.837858
0.815381 0.967269 0.837858
0.816449 0.967285 0.837873
0.81944 0.96733 0.837888
0.826871 0.967422 0.83798
0.840497 0.96762 0.838178
0.855177 0.96788 0.838514
0.858274 0.967956 0.839048
0.698466 0.74078 0.853574
0.698466 0.74078 0.853574
0.698466 0.74078 0.853574
0.698466 0.74078 0.853574
0.698466 0.74078 0.853574
0.698466 0.74078 0.853574
0.698466 0.74078 0.853574
0.887816 0.757336 0.856367
0.884535 0.781857 0.854536
0.698466 0.74078 0.853574
0.698466 0.74078 0.853574
0.698466 0.74078 0.853574
0.698466 0.74078 0.853574
0.698466 0.74078 0.853574
0.698466 0.74078 0.853574
0.698466 0.74078 0.853574
0.887816 0.757351 0.856367
0.884535 0.781872 0.854536
0.698466 0.74078 0.853574
0.698466 0.74078 0.853574
0.698466 0.74078 0.853574
0.698466 0.74078 0.853574
0.698466 0.74078 0.853574
0.698466 0.74078 0.853574
0.698466 0.74078 0.853574
0.887816 0.757351 0.856367
0.884535 0.781903 0.854536
0.698466 0.74078 0.853574
0.698466 0.74078 0.853574
0.698466 0.74078 0.853574
0.698466 0.74078 0.853574
0.698466 0.74078 0.853574
0.698466 0.74078 0.853574
0.698466 0.74078 0.853574
0.887816 0.757351 0.856367
0.88452 0.781949 0.854536
0.698466 0.74078 0.853574
0.698466 0.74078 0.853574
0.698466 0.74078 0.853574
0.698466 0.74078 0.853574
0.698466 0.74078 0.853574
0.698466 0.74078 0.853574
0.70013 0.740673 0.853574
0.887816 0.757382 0.856367
0.884489 0.782116 0.854505
0.698466 0.74078 0.853574
0.698466 0.74078 0.853574
0.698466 0.74078 0.853574
0.698466 0.74078 0.853574
0.698466 0.74078 0.853574
0.698466 0.74078 0.853574
0.76762 0.742977 0.854337
0.8878 0.757473 0.856352
0.884474 0.782361 0.85449
0.698466 0.74078 0.853574
0.698466 0.74078 0.853574
0.698466 0.74078 0.853574
0.698466 0.74078 0.853574
0.698466 0.74078 0.853574
0.698466 0.74078 0.853574
0.887938 0.756451 0.856428
0.88777 0.757656 0.856321
0.884413 0.782834 0.854459
0 0.983795 0.857481
0 0.983795 0.857481
0 0.983795 0.857481
0 0.983795 0.857481
0 0.983795 0.857481
0 0.983795 0.857481
0.788693 0.957183 0.841764
0.860975 0.955566 0.842908
0.860395 0.958831 0.842588
0.766094 0.967071 0.840604
0.766857 0.967071 0.840604
0.768093 0.967071 0.840604
0.771634 0.967102 0.84062
0.781064 0.967163 0.840681
0.801266 0.967376 0.840833
0.83006 0.967742 0.841184
0.852949 0.968109 0.841535
0.858549 0.9682 0.841627
