BBLuts/BB_101_0190_LUT.cube
TITLE "Generated by Resolve"
LUT_3D_SIZE 33
0 0 0
0 0 0
0 0 0
0 0 0
0 0 0
0.0317235 0 0
0.100298 0 0
0.14902 0 0
0.197345 0 0
0.253666 0 0
0.317388 0 0
0.385763 0 0
0.460304 0 0
0.541939 0 0
0.621317 0 0
0.700435 0 0
0.781369 0 0
0.862348 0 0
0.93579 0 0
0.993225 0 0
1 0 0
1 0 0
0.997635 0.179095 0.0370642
0.995468 0.379767 0.08336
0.994568 0.513466 0.132479
0.994018 0.613382 0.189425
0.993637 0.696162 0.259541
0.993347 0.766583 0.355428
0.993133 0.820386 0.459144
0.992981 0.861784 0.555886
0.992859 0.893721 0.636393
0.992782 0.91783 0.711452
0.992737 0.937118 0.77673
0 0 0
0 0 0
0 0 0
0 0 0
0 0 0
0.0457008 0 0
0.105013 0 0
0.15285 0 0
0.203296 0 0
0.260426 0 0
0.324041 0 0
0.39115 0 0
0.463706 0 0
0.543954 0 0
0.622782 0 0
0.701457 0 0
0.781994 0 0
0.862638 0 0
0.935699 0 0
0.992844 0 0
1 0 0
1 0 0
0.997208 0.218448 0.0164187
0.995377 0.39501 0.0763714
0.994537 0.52221 0.128878
0.994003 0.61828 0.187457
0.993637 0.69955 0.25745
0.993347 0.768612 0.35433
0.993133 0.82153 0.458564
0.992981 0.862455 0.555596
0.992859 0.894102 0.63624
0.992782 0.918059 0.711345
0.992737 0.937255 0.776654
0 0 0
0 0 0
0 0 0
0 0 0
0 0 0
0.0539712 0 0
0.10663 0 0
0.156466 0 0
0.209506 0 0
0.266682 0 0
0.329076 0 0
0.39408 0 0
0.466529 0 0
0.546105 0 0
0.624277 0 0
0.702464 0 0
0.78262 0 0
0.862913 0 0
0.935592 0 0
0.992447 0 0
1 0 0
1 0 0
0.997101 0.250568 0
0.995315 0.409384 0.0686351
0.994507 0.530587 0.125154
0.994003 0.623056 0.185473
0.993637 0.702876 0.255421
0.993347 0.770596 0.353231
0.993133 0.822675 0.458
0.992981 0.863142 0.555291
0.992859 0.894469 0.636072
0.992782 0.918288 0.711254
0.992737 0.937392 0.776593
0 0 0
0 0 0
0 0 0
0 0 0
0 0 0
0.0602731 0 0
0.107393 0 0
0.156802 0 0
0.210559 0 0
0.269215 0 0
0.332341 0 0
0.396735 0 0
0.469261 0 0
0.548272 0 0
0.625772 0 0
0.703502 0 0
0.783246 0 0
0.863172 0 0
0.935454 0 0
0.99202 0 0
1 0 0
1 0 0
0.996826 0.277806 0
0.99527 0.423041 0.0598917
0.994492 0.538613 0.121324
0.993988 0.627756 0.183474
0.993637 0.706096 0.25449
0.993347 0.772564 0.352132
0.993133 0.823789 0.45742
0.992981 0.863798 0.555001
0.992859 0.89485 0.63592
0.992782 0.918517 0.711147
0.992737 0.93753 0.776547
0 0.0376287 0
0 0.0412909 0
0 0.0448157 0
0 0.0482185 0
0 0.049546 0
0.0496834 0.0482795 0
0.100603 0.0457008 0
0.151843 0.0395056 0
0.207568 0.0250706 0
0.270344 0 0
0.334234 0 0
0.39913 0 0
0.471885 0 0
0.550469 0 0
0.627314 0 0
0.70454 0 0
0.783856 0 0
0.863401 0 0
0.935302 0 0
0.991592 0 0
1 0 0
1 0.0484474 0
0.996597 0.301854 0
0.995224 0.436088 0.0496071
0.994476 0.546319 0.117357
0.993973 0.632364 0.181476
0.993637 0.70927 0.253544
0.993347 0.774487 0.351064
0.993133 0.824887 0.45684
0.992981 0.864469 0.554696
0.992859 0.895216 0.635752
0.992782 0.918746 0.71104
0.992737 0.937667 0.776486
0 0.075761 0
0 0.0779736 0
0 0.0800641 0
0 0.0816815 0
0 0.0824292 0
0.0272984 0.0856184 0
0.090486 0.0840772 0
0.146746 0.0824598 0
0.204578 0.0772106 0
0.267491 0.066804 0
0.332479 0.0459602 0
0.401266 0 0
0.47454 0 0
0.552789 0 0
0.628946 0 0
0.705653 0 0
0.784482 0 0
0.863645 0 0
0.935134 0 0
0.991119 0 0
1 0 0
0.998505 0.145174 0
0.996414 0.324331 0
0.995209 0.44918 0.0361181
0.994446 0.55407 0.113069
0.993973 0.637079 0.179355
0.993622 0.712489 0.252583
0.993347 0.776455 0.34992
0.993133 0.826032 0.45623
0.992981 0.865141 0.554406
0.992859 0.895598 0.635584
0.992782 0.91899 0.710933
0.992737 0.937819 0.776425
0.00302129 0.105455 0.00302129
0.00373846 0.1075 0.00373846
0.00427253 0.109636 0.00427253
0.00456245 0.110811 0.00456245
0.00476081 0.111589 0.00476081
0.00482185 0.111864 0.00482185
0.0796826 0.119249 0.00151064
0.130953 0.12079 0.00952163
0.199283 0.121096 0
0.26508 0.115785 0
0.331502 0.105714 0
0.399832 0.089189 0
0.474418 0.0568551 0
0.555749 0 0
0.631083 0 0
0.707103 0 0
0.785306 0 0
0.863951 0 0
0.93489 0 0
0.990463 0 0
1 0 0
0.99762 0.205478 0
0.996216 0.350332 0
0.995285 0.465476 0.00611887
0.99443 0.563622 0.107301
0.993957 0.64303 0.176638
0.993622 0.716579 0.251362
0.993347 0.778958 0.348486
0.993133 0.827482 0.455467
0.992981 0.866011 0.553994
0.992859 0.896086 0.635386
0.992782 0.919295 0.710796
0.992737 0.938003 0.776333
0.0136416 0.147524 0.0136416
0.0140841 0.149386 0.0140841
0.014435 0.150759 0.014435
0.0146487 0.151659 0.0146487
0.0148165 0.152316 0.0148165
0.0149081 0.152682 0.0149081
0.0440375 0.154833 0.0171511
0.125429 0.160784 0.0237583
0.180697 0.164706 0.016495
0.258625 0.164492 0
0.328222 0.157794 0
0.400122 0.148135 0
0.476646 0.133532 0
0.555627 0.108248 0
0.631144 0.052781 0
0.709041 0 0
0.786435 0 0
0.864347 0 0
0.934554 0 0
0.989578 0 0
0.99942 0.0973831 0
0.996979 0.261173 0
0.996002 0.38085 0
0.995422 0.485481 0
0.994415 0.575647 0.0991531
0.993957 0.650675 0.172992
0.993622 0.721798 0.249805
0.993347 0.782162 0.346578
0.993133 0.829343 0.454459
0.992981 0.867155 0.553475
0.992859 0.896742 0.635096
0.992782 0.919707 0.710613
0.992737 0.938247 0.776226
0.0256504 0.196216 0.0256504
0.0259861 0.197604 0.0259861
0.0261845 0.198367 0.0261845
0.0263828 0.199161 0.0263676
0.0265049 0.19971 0.0265049
0.0265965 0.200092 0.0265965
0.0266575 0.20032 0.0266575
0.1019 0.205783 0.0325322
0.173297 0.209918 0.0381781
0.235187 0.213321 0.0248722
0.3205 0.21268 0
0.397482 0.206134 0
0.478248 0.196597 0
0.558938 0.182361 0
0.633219 0.162493 0
0.707424 0.1337 0
0.784237 0.0875715 0
0.864881 0 0
0.934035 0 0
0.98378 0.104738 0
0.997497 0.214786 0
0.996475 0.317143 0
0.995789 0.415183 0
0.995315 0.508522 0
0.9944 0.590463 0.0871595
0.993942 0.660426 0.168109
0.993606 0.728435 0.247791
0.993347 0.786267 0.344091
0.993133 0.831785 0.453117
0.992981 0.86862 0.552789
0.992859 0.897581 0.63473
0.992782 0.920226 0.710353
0.992737 0.938567 0.776074
0.0390478 0.250278 0.0390478
0.0391546 0.250706 0.0391546
0.0392615 0.251118 0.0392615
0.0393378 0.251438 0.0393378
0.0393988 0.251652 0.0393988
0.0394141 0.251713 0.0394141
0.0393835 0.251606 0.0393835
0.039292 0.251225 0.039292
0.152132 0.258671 0.0480201
0.226062 0.262898 0.0538949
0.294347 0.267063 0.0353552
0.390036 0.266957 0
0.476524 0.260182 0
0.561563 0.25037 0
0.636576 0.239063 0
0.709804 0.225452 0
0.784665 0.210208 0
0.860014 0.19675 0
0.927382 0.200961 0
0.97995 0.237217 0
0.996628 0.298543 0
0.996033 0.374792 0
0.99556 0.455085 0
0.995209 0.535302 0
0.994415 0.606806 0.0681163
0.993927 0.672755 0.161517
0.993606 0.736782 0.245289
0.993347 0.791424 0.340825
0.993133 0.834897 0.451362
0.992981 0.870512 0.551888
0.992859 0.89868 0.634241
0.992782 0.920913 0.710048
0.992737 0.938979 0.775891
0.053315 0.306844 0.053315
0.0534218 0.30724 0.0534218
0.0535286 0.307652 0.0535286
0.0536049 0.307942 0.0536049
0.0536507 0.308171 0.0536507
0.0536965 0.308309 0.0536965
0.0536965 0.308354 0.0536965
0.0536812 0.308248 0.0536812
0.0535592 0.30782 0.0535592
0.206683 0.318059 0.0655375
0.284443 0.32256 0.0718242
0.361135 0.327626 0.0471199
0.469001 0.327871 0
0.561212 0.321187 0
0.639094 0.313726 0
0.712718 0.306188 0
0.786358 0.29958 0
0.859815 0.296117 0
0.925124 0.304112 0
0.97641 0.331258 0
0.996033 0.376593 0
0.995682 0.433509 0
0.995361 0.499886 0
0.995102 0.565911 0
0.994537 0.626978 0.0285344
0.993927 0.688121 0.152575
0.993606 0.747097 0.242176
0.993362 0.797879 0.336568
0.993133 0.838865 0.449088
0.992981 0.872938 0.550713
0.992874 0.900099 0.6336
0.992782 0.921798 0.709621
0.992737 0.939513 0.775647
0.0700236 0.371954 0.0700084
0.0701152 0.372335 0.0701152
0.0702068 0.372686 0.0702068
0.0702831 0.372976 0.0702831
0.0703441 0.37319 0.0703288
0.0703746 0.373358 0.0703746
0.0704051 0.373495 0.0704051
0.0704204 0.373541 0.0704204
0.0703899 0.373404 0.0703899
0.115663 0.376059 0.0737163
0.264958 0.385992 0.0856489
0.34992 0.390784 0.0926833
0.436744 0.397086 0.0606851
0.554574 0.398596 0
0.63769 0.393668 0
0.714137 0.389136 0
0.78793 0.386481 0
0.859586 0.38735 0
0.922454 0.396521 0
0.972061 0.417639 0
0.99559 0.451057 0
0.995377 0.495857 0
0.995163 0.546395 0
0.994995 0.599481 0
0.994842 0.651652 0
0.993927 0.706706 0.140551
0.993606 0.759609 0.238468
0.993362 0.805692 0.335882
0.993149 0.843839 0.446113
0.992981 0.876005 0.549157
0.992874 0.901915 0.632746
0.992782 0.922972 0.709072
0.992737 0.940215 0.775326
0.0897078 0.445533 0.0897078
0.0897993 0.445884 0.0897993
0.0898756 0.446189 0.0898756
0.0899519 0.446418 0.0899519
0.0899977 0.446616 0.0899977
0.0900435 0.446799 0.0900435
0.0900893 0.446952 0.0900893
0.0901198 0.447089 0.0901198
0.0901503 0.447211 0.0901503
0.0901808 0.447288 0.0901808
0.191546 0.454002 0.0979629
0.330129 0.463584 0.109377
0.425177 0.469749 0.117647
0.521111 0.477363 0.0811627
0.629572 0.48069 0
0.710674 0.477302 0
0.787411 0.475364 0
0.858518 0.476722 0
0.919066 0.484443 0
0.966766 0.500404 0
0.995254 0.524483 0
0.995132 0.556344 0
0.99501 0.594537 0
0.994888 0.634455 0
0.994797 0.680385 0
0.993957 0.728359 0.12462
0.993606 0.77438 0.234272
0.993347 0.81503 0.335439
0.993149 0.849973 0.442237
0.992981 0.879835 0.547127
0.992874 0.90425 0.631632
0.992782 0.924453 0.708339
0.992737 0.941115 0.774884
0.111971 0.525383 0.111971
0.112047 0.525628 0.112047
0.112108 0.525841 0.112108
0.112169 0.526009 0.112154
0.112215 0.526177 0.112215
0.112245 0.526314 0.112245
0.112291 0.526452 0.112291
0.112337 0.526604 0.112337
0.112367 0.526696 0.112367
0.112367 0.526726 0.112367
0.112337 0.526604 0.112337
0.27126 0.535714 0.124636
0.408301 0.54377 0.136217
0.509911 0.549249 0.145281
0.596979 0.555947 0.110658
0.700893 0.560891 0
0.782452 0.558801 0
0.855421 0.559045 0
0.914488 0.564141 0
0.960235 0.575235 0
0.99501 0.592203 0
0.994949 0.613138 0
0.994873 0.640803 0
0.994812 0.674434 0
0.994751 0.713222 0
0.994003 0.752743 0.103517
0.993606 0.791272 0.229938
0.993347 0.826047 0.335378
0.993149 0.857404 0.437919
0.992996 0.884855 0.544488
0.992874 0.907164 0.630182
0.992782 0.926329 0.707378
0.992737 0.942275 0.774319
0 0.64361 0
0 0.643732 0
0 0.643854 0
0 0.643946 0
0 0.644022 0
0 0.644083 0
0 0.644144 0
0 0.64419 0
0 0.644205 0
0 0.64416 0
0 0.643977 0
0 0.643534 0
0.368933 0.608774 0.153521
0.497124 0.614893 0.164736
0.588129 0.619379 0.173571
0.683375 0.633127 0
0.771389 0.631342 0
0.847684 0.630655 0
0.907469 0.633402 0
0.952087 0.640589 0
0.987808 0.652338 0
0.994812 0.669108 0
0.994781 0.691173 0
0.994751 0.718044 0
0.99472 0.748119 0
0.99411 0.779171 0.0751965
0.993606 0.809827 0.226276
0.993347 0.838834 0.335973
0.993149 0.866117 0.439521
0.992996 0.890455 0.541054
0.992874 0.910811 0.628275
0.992782 0.928695 0.706111
0.992737 0.94374 0.773556
0 0.714427 0
0 0.714488 0
0 0.714519 0
0 0.714565 0
0 0.71458 0
0 0.71458 0
0 0.714595 0
0 0.71458 0
0 0.714519 0
0 0.714382 0
0 0.714107 0
0 0.713573 0
0.0833143 0.711009 0
0.439475 0.691005 0.0841535
0.561532 0.700648 0.0190738
0.661311 0.703441 0
0.753948 0.701122 0
0.833982 0.699748 0
0.895888 0.700969 0
0.941344 0.705715 0
0.976471 0.714229 0
0.994736 0.726543 0
0.994736 0.742382 0
0.99472 0.761517 0
0.99472 0.783383 0
0.994293 0.806409 0.0354314
0.993606 0.829496 0.224521
0.993347 0.853239 0.337819
0.993149 0.876081 0.442054
0.992996 0.896956 0.537636
0.992874 0.915236 0.625803
0.992798 0.931609 0.704433
0.992737 0.945571 0.77258
0 0.78352 0
0 0.783505 0
0 0.783505 0
0 0.783475 0
0 0.783444 0
0 0.783413 0
0 0.783352 0
0 0.783261 0
0 0.783093 0
0 0.782849 0
0 0.782422 0
0 0.78175 0
0 0.780713 0
0.315648 0.775967 0
0.513848 0.773419 0
0.634714 0.770886 0
0.732448 0.7682 0
0.815473 0.766064 0
0.879606 0.765591 0
0.927749 0.767468 0
0.964065 0.772 0
0.99057 0.779492 0
0.99472 0.789624 0
0.99472 0.802197 0
0.99472 0.816892 0
0.994736 0.833295 0
0.993606 0.850217 0.22594
0.993332 0.868788 0.341802
0.993149 0.887404 0.446052
0.992996 0.904418 0.540764
0.992889 0.920516 0.622568
0.992798 0.935134 0.702251
0.992737 0.947845 0.771282
0 0.841978 0
0 0.841917 0
0 0.84184 0
0 0.841764 0
0 0.841672 0
0 0.841581 0
0 0.841459 0
0 0.841276 0
0 0.841016 0
0 0.840635 0
0 0.840055 0
0 0.839185 0
0 0.83798 0
0.203662 0.833616 0
0.473655 0.830243 0
0.612757 0.827314 0
0.714092 0.824216 0
0.797848 0.821454 0
0.863096 0.819745 0
0.913527 0.819501 0
0.951629 0.821012 0
0.979324 0.824628 0
0.994736 0.830243 0
0.994736 0.837934 0
0.994736 0.847654 0
0.994553 0.859022 0
0.993591 0.871107 0.232868
0.993332 0.885145 0.349096
0.993133 0.89897 0.452216
0.992996 0.912902 0.545129
0.992889 0.926604 0.622538
0.992798 0.939315 0.699428
0.992737 0.950622 0.769574
0 0.887129 0
0 0.887022 0
0 0.8869 0
0 0.886793 0
0 0.886671 0
0 0.886534 0
0 0.886351 0
0 0.886091 0
0 0.885756 0
0 0.885267 0
0 0.88455 0
0 0.883604 0
0 0.881956 0
0.139193 0.877958 0
0.456779 0.87396 0
0.603235 0.870832 0
0.703761 0.867567 0
0.785565 0.864561 0
0.849485 0.862303 0
0.900587 0.86096 0
0.93991 0.860838 0
0.968933 0.862226 0
0.991531 0.865156 0
0.994766 0.869718 0
0.994766 0.875837 0
0.994156 0.882765 0.073106
0.993576 0.891325 0.247822
0.993317 0.900725 0.361089
0.993133 0.911116 0.46125
0.992996 0.92221 0.551202
0.992874 0.933425 0.626581
0.992798 0.944091 0.696925
0.992737 0.953933 0.76733
0 0.922087 0
0 0.921935 0
0 0.921798 0
0 0.92163 0
0 0.921477 0
0 0.921309 0
0 0.92108 0
0 0.92079 0
0 0.920363 0
0 0.919814 0
0 0.919081 0
0 0.91809 0
0 0.916793 0
0.219104 0.912093 0
0.472236 0.908629 0
0.607553 0.905547 0
0.702174 0.902342 0
0.779095 0.899336 0
0.839902 0.896895 0
0.88983 0.895033 0
0.929122 0.89398 0
0.959182 0.89395 0
0.98294 0.894911 0
0.994781 0.897093 0
0.994797 0.900435 0
0.993927 0.904051 0.135027
0.993515 0.909346 0.272526
0.993286 0.915953 0.378653
0.993118 0.923613 0.473945
0.992981 0.932021 0.559533
0.992874 0.94078 0.63209
0.992798 0.949386 0.701076
0.992737 0.957778 0.764385
0 0.947845 0
0 0.947677 0
0 0.947494 0
0 0.947326 0
0 0.947143 0
0 0.94696 0
0 0.946715 0
0 0.946395 0
0 0.945968 0
0 0.945403 0
0 0.944656 0
0 0.943679 0
0 0.942397 0
0.349752 0.936904 0
0.51902 0.934081 0
0.627848 0.931197 0
0.710796 0.928252 0
0.779812 0.925429 0
0.835798 0.922988 0
0.88278 0.920958 0
0.920851 0.919478 0
0.950973 0.918669 0
0.975402 0.918578 0
0.994079 0.919341 0
0.994827 0.921065 0
0.993744 0.922698 0.196567
0.993454 0.926131 0.306813
0.993255 0.930556 0.402045
0.993088 0.935866 0.490944
0.992966 0.941909 0.570794
0.992874 0.948409 0.639582
0.992798 0.9552 0.706584
0.992737 0.962066 0.767147
0 0.967376 0
0 0.967193 0
0 0.967025 0
0 0.966842 0
0 0.966659 0
0 0.966476 0
0 0.966232 0
0 0.965911 0
0 0.965499 0
0 0.96495 0
0 0.964233 0
0 0.963302 0
0.325551 0.958312 0
0.473716 0.956054 0
0.580957 0.953719 0
0.659205 0.951217 0
0.727596 0.948638 0
0.786374 0.946181 0
0.836439 0.943908 0
0.879591 0.941894 0
0.915129 0.940322 0
0.944244 0.939193 0
0.968551 0.938521 0
0.98764 0.938476 0
0.993942 0.938186 0.140551
0.993591 0.939193 0.259358
0.993362 0.941146 0.350195
0.993194 0.943877 0.432639
0.993072 0.947311 0.512734
0.99295 0.951461 0.585702
0.992859 0.956207 0.649561
0.992782 0.961349 0.713817
0.992737 0.966705 0.77171
0 0.981888 0
0 0.98172 0
0 0.981552 0
0 0.981384 0
0 0.981201 0
0 0.981033 0
0 0.980804 0
0 0.980514 0
0 0.980117 0
0.218296 0.976516 0
0.334051 0.975082 0
0.425299 0.973739 0
0.508354 0.972259 0
0.580667 0.970596 0
0.640635 0.968734 0
0.697566 0.966705 0
0.750637 0.964569 0
0.798276 0.962493 0
0.841703 0.960449 0
0.879957 0.958572 0
0.91223 0.957 0
0.939742 0.955718 0
0.963058 0.954757 0
0.981125 0.953384 0.124941
0.993652 0.952926 0.237964
0.993439 0.953155 0.323095
0.993271 0.95407 0.399023
0.993149 0.955627 0.470878
0.993027 0.957809 0.53959
0.992935 0.960601 0.603281
0.992844 0.963882 0.662715
0.992782 0.967575 0.723201
0.992737 0.971511 0.777646
0.358221 0.988067 0
0.375998 0.987823 0
0.392142 0.987594 0
0.40705 0.98735 0
0.421134 0.987137 0
0.43505 0.986908 0
0.452064 0.986618 0
0.473136 0.986267 0
0.49781 0.985809 0
0.525689 0.985245 0
0.556695 0.984543 0
0.59057 0.983673 0
0.623713 0.982651 0
0.660258 0.981414 0
0.698985 0.980011 0
0.738552 0.978439 0
0.777249 0.976791 0
0.815061 0.975052 0
0.851072 0.973312 0
0.88394 0.971664 0
0.911528 0.969589 0.0709239
0.936553 0.968032 0.137362
0.95819 0.966796 0.189899
0.976089 0.965866 0.254475
0.990967 0.96524 0.321492
0.993317 0.965011 0.387182
0.993194 0.96527 0.450553
0.993072 0.966003 0.513085
0.992981 0.967254 0.571176
0.992905 0.968994 0.62475
0.992828 0.971115 0.679667
0.992767 0.973556 0.735134
0.992737 0.976303 0.785214
0.60238 0.992859 0.22034
0.606729 0.992721 0.220569
0.610986 0.992569 0.220798
0.61529 0.992447 0.221027
0.619501 0.992309 0.221256
0.623774 0.992157 0.221515
0.62916 0.991989 0.221836
0.636042 0.99176 0.222263
0.644755 0.99147 0.222827
0.655634 0.991104 0.22359
0.669047 0.990616 0.224598
0.685222 0.990036 0.22594
0.704326 0.989303 0.227771
0.726253 0.988434 0.230198
0.75053 0.987411 0.233448
0.776761 0.986267 0.237781
0.804852 0.98497 0.243488
0.833783 0.983551 0.250935
0.862135 0.982101 0.260578
0.888762 0.980697 0.272938
0.913207 0.979339 0.288518
0.935729 0.978058 0.307881
0.95552 0.976959 0.33138
0.972457 0.976043 0.359411
0.986755 0.975311 0.401465
0.993194 0.974838 0.451331
0.993103 0.974655 0.504631
0.993011 0.974823 0.556146
0.992935 0.975372 0.604761
0.992874 0.976318 0.651286
0.992813 0.977554 0.700847
0.992767 0.97908 0.749905
0.992721 0.980911 0.794705
0.713268 0.993606 0.379339
0.715465 0.993606 0.379446
0.717632 0.993591 0.379599
0.719753 0.993591 0.379721
0.721859 0.993591 0.379858
0.72401 0.993576 0.379965
0.726726 0.993576 0.380163
0.730236 0.993561 0.380392
0.734752 0.993561 0.380713
0.740444 0.993545 0.381125
0.7476 0.99353 0.381674
0.756512 0.993515 0.382406
0.767468 0.993484 0.383368
0.780713 0.993469 0.384665
0.796292 0.993255 0.386328
0.814145 0.992416 0.38854
0.83386 0.991424 0.391485
0.85478 0.990372 0.395438
0.875883 0.989258 0.400641
0.897063 0.988113 0.407492
0.917647 0.986954 0.416373
0.937102 0.98584 0.427802
0.954604 0.984802 0.44239
0.970138 0.983917 0.460914
0.983612 0.983169 0.483619
0.993088 0.982574 0.517693
0.993027 0.982177 0.557702
0.99295 0.98201 0.599207
0.992889 0.982132 0.639277
0.992828 0.982528 0.681941
0.992782 0.983185 0.725444
0.992752 0.984085 0.767422
0.992721 0.985214 0.806165
0.786969 0.99324 0.499748
0.788159 0.99324 0.499825
0.789334 0.99324 0.499916
0.790478 0.99324 0.499992
0.791638 0.99324 0.500084
0.792828 0.99324 0.500175
0.794339 0.993225 0.500282
0.796307 0.993225 0.50042
0.798871 0.993225 0.500618
0.802167 0.993225 0.500893
0.806394 0.99321 0.501244
0.811749 0.99321 0.501686
0.818402 0.993194 0.502312
0.826596 0.993179 0.50312
0.836439 0.993179 0.504189
0.847959 0.993164 0.505623
0.86099 0.993149 0.507515
0.875181 0.993133 0.510033
0.890959 0.993118 0.513329
0.907332 0.993103 0.517647
0.923964 0.992691 0.523262
0.940139 0.99173 0.530495
0.955154 0.990829 0.539727
0.969024 0.98999 0.551369
0.981292 0.989258 0.565866
0.991592 0.988663 0.583642
0.992935 0.988174 0.609247
0.992889 0.987823 0.64097
0.992844 0.987686 0.676768
0.992798 0.987732 0.714855
0.992767 0.987976 0.752056
0.992737 0.988403 0.787198
0.992721 0.989029 0.819471
0.840635 0.993027 0.596201
0.841291 0.993027 0.596246
0.841947 0.993027 0.596307
0.842588 0.993027 0.596353
0.843229 0.993027 0.596384
0.843885 0.993011 0.596445
0.844724 0.993011 0.596521
0.845838 0.993011 0.596597
0.847272 0.993011 0.596719
