BBLuts/BB_106_0420_LUT.cube
TITLE "Generated by Resolve"
LUT_3D_SIZE 33
0 0 0
0 0 0
0 0 0
0 0 0
0 0 0
0.00169375 0 0
0.0585794 0 0
0.0982834 0 0
0.13904 0 0
0.190112 0 0
0.251041 0 0
0.320638 0 0
0.400839 0 0
0.490333 0 0
0.592325 0 0
0.703136 0 0
0.808988 0 0
0.904021 0 0
0.984344 0 0
1 0 0
1 0 0
1 0 0
1 0.129671 0.00724804
1 0.337102 0.0572213
1 0.483284 0.0884413
1 0.609247 0.125078
1 0.722393 0.17171
1 0.808728 0.248371
1 0.867262 0.34255
1 0.908614 0.434501
1 0.938369 0.527779
1 0.96051 0.610239
1 0.978607 0.670298
0 0 0
0 0 0
0 0 0
0 0 0
0 0 0
0.0138857 0 0
0.0623941 0 0
0.101442 0 0
0.144228 0 0
0.196368 0 0
0.257649 0 0
0.326513 0 0
0.40444 0 0
0.492653 0 0
0.594369 0 0
0.704555 0 0
0.80975 0 0
0.904356 0 0
0.984253 0 0
1 0 0
1 0 0
1 0 0
1 0.168139 0
1 0.353613 0.0520333
1 0.493111 0.0858167
1 0.615976 0.123323
1 0.726772 0.169772
1 0.811109 0.247303
1 0.868498 0.341985
1 0.909316 0.434165
1 0.93875 0.527581
1 0.960739 0.610132
1 0.978744 0.670237
0 0 0
0 0 0
0 0 0
0 0 0
0 0 0
0.020798 0 0
0.0637217 0 0
0.104448 0 0
0.149722 0 0
0.202213 0 0
0.262684 0 0
0.329656 0 0
0.407431 0 0
0.49514 0 0
0.596445 0 0
0.705928 0 0
0.810529 0 0
0.904662 0 0
0.984131 0 0
1 0 0
1 0 0
1 0 0
1 0.199664 0
1 0.369207 0.0462806
1 0.502647 0.0830701
1 0.622538 0.121538
1 0.731044 0.167926
1 0.813428 0.24622
1 0.869734 0.341451
1 0.910018 0.433829
1 0.939132 0.527382
1 0.960967 0.610025
1 0.978882 0.670176
0 0 0
0 0 0
0 0 0
0 0 0
0 0 0
0.0260166 0 0
0.0643168 0 0
0.104707 0 0
0.150668 0 0
0.204578 0 0
0.265965 0 0
0.332525 0 0
0.41033 0 0
0.497642 0 0
0.59855 0 0
0.707362 0 0
0.811292 0 0
0.904952 0 0
0.983978 0 0
1 0 0
1 0 0
1 0 0
1 0.227802 0
1 0.383993 0.0397192
1 0.511971 0.0802319
1 0.629007 0.119768
1 0.735195 0.166934
1 0.815717 0.245167
1 0.870939 0.340871
1 0.910704 0.433509
1 0.939498 0.527199
1 0.961212 0.609934
1 0.979019 0.67013
0 0.00764477 0
0 0.0109102 0
0 0.0141451 0
0 0.0175326 0
0 0.0188449 0
0.0204623 0.0187991 0
0.0624704 0.0169375 0
0.104311 0.0120394 0
0.152163 0 0
0.205631 0 0
0.267842 0 0
0.335119 0 0
0.413123 0 0
0.500191 0 0
0.600702 0 0
0.708797 0 0
0.812055 0 0
0.905211 0 0
0.98381 0 0
1 0 0
1 0 0
1 0.00306706 0
1 0.253025 0
1 0.398047 0.0320287
1 0.521141 0.0772564
1 0.635416 0.117983
1 0.739239 0.165957
1 0.81796 0.244129
1 0.872129 0.340307
1 0.911391 0.433173
1 0.939879 0.527001
1 0.961425 0.609827
1 0.979156 0.670069
0 0.0430762 0
0 0.0454414 0
0 0.0477607 0
0 0.0495766 0
0 0.0504463 0
0.00122072 0.0500343 0
0.0559243 0.0487831 0
0.100191 0.0468147 0
0.147997 0.0422675 0
0.203555 0.0327306 0
0.266743 0.0134432 0
0.337423 0 0
0.415961 0 0
0.502892 0 0
0.602991 0 0
0.710323 0 0
0.812818 0 0
0.90547 0 0
0.983627 0 0
1 0 0
1 0 0
1 0.0953078 0
1 0.276677 0
1 0.412024 0.0218357
1 0.530449 0.0740368
1 0.642008 0.116106
1 0.743343 0.164965
1 0.820249 0.24303
1 0.873365 0.339727
1 0.912108 0.432853
1 0.940276 0.526802
1 0.961669 0.60972
1 0.979309 0.670024
0 0.0766461 0
0 0.0785382 0
0 0.0803998 0
0 0.0814527 0
0 0.0821241 0
0 0.0823682 0
0.0417334 0.0806897 0
0.0932631 0.0796674 0
0.144045 0.0772106 0
0.20177 0.0718242 0
0.265461 0.0614786 0
0.335927 0.0446479 0
0.416861 0.0135653 0
0.506355 0 0
0.605966 0 0
0.712306 0 0
0.81384 0 0
0.905821 0 0
0.983368 0 0
1 0 0
1 0 0
1 0.154299 0
1 0.304097 0
1 0.428717 0
1 0.542016 0.069688
1 0.650278 0.113695
1 0.748501 0.163714
1 0.823148 0.241642
1 0.874937 0.338979
1 0.912993 0.43241
1 0.940764 0.526543
1 0.961975 0.609583
1 0.979477 0.669932
0 0.11368 0
0 0.115297 0
0 0.116518 0
0 0.117311 0
0 0.117891 0
0 0.118196 0
0 0.117922 0
0.0786755 0.116182 0
0.136049 0.114931 0
0.196689 0.111208 0
0.263249 0.103761 0
0.337453 0.0925765 0
0.419379 0.0764172 0
0.507149 0.0510109 0
0.610208 0 0
0.714946 0 0
0.815229 0 0
0.906279 0 0
0.983001 0 0
1 0 0
1 0.0494392 0
1 0.210559 0
1 0.336278 0
1 0.449271 0
1 0.556695 0.0635233
1 0.660853 0.110491
1 0.755077 0.162142
1 0.826841 0.239826
1 0.876951 0.338003
1 0.914183 0.43183
1 0.941436 0.526207
1 0.962386 0.609415
1 0.979736 0.669841
0 0.15697 0
0 0.158221 0
0 0.158923 0
0 0.15964 0
0 0.160128 0
0 0.160464 0
0 0.160678 0
0.0413214 0.159091 0
0.118517 0.157855 0
0.185107 0.155138 0
0.256794 0.14995 0
0.336477 0.14168 0
0.423636 0.130053 0
0.514305 0.114366 0
0.61445 0.0936141 0
0.71873 0.0660563 0
0.818051 0.0251621 0
0.906874 0 0
0.982437 0 0
1 0.0551156 0
1 0.163531 0
1 0.269108 0
1 0.373861 0
1 0.474937 0
1 0.575097 0.0544594
1 0.674159 0.106233
1 0.763363 0.160143
1 0.83154 0.237461
1 0.879576 0.336706
1 0.915694 0.431083
1 0.942275 0.525765
1 0.962905 0.609155
1 0.980041 0.669718
0 0.207172 0
0 0.207568 0
0 0.207965 0
0 0.208286 0
0 0.208484 0
0 0.20853 0
0 0.208438 0
0 0.208072 0
0.0814679 0.206638 0
0.164126 0.205859 0
0.24329 0.202762 0
0.329915 0.19675 0
0.424338 0.187854 0
0.521279 0.176394 0
0.624826 0.163806 0
0.729961 0.150607 0
0.828443 0.138705 0
0.918166 0.131441 0
0.995697 0.14229 0
1 0.184237 0
1 0.249531 0
1 0.3299 0
1 0.417258 0
1 0.505531 0
1 0.597955 0.0400854
1 0.690776 0.100572
1 0.773678 0.157671
1 0.83743 0.234394
1 0.882902 0.335012
1 0.917662 0.430091
1 0.943404 0.525154
1 0.963607 0.60885
1 0.980453 0.669535
0 0.263798 0
0 0.26421 0
0 0.264622 0
0 0.264927 0
0 0.265156 0
0 0.265309 0
0 0.265354 0
0 0.265248 0
0 0.264805 0
0.124804 0.265461 0
0.218524 0.264851 0
0.314504 0.261265 0
0.418204 0.254887 0
0.524208 0.247044 0
0.633478 0.238819 0
0.740841 0.232105 0
0.839399 0.229053 0
0.928939 0.231937 0
1 0.247486 0
1 0.281926 0
1 0.331792 0
1 0.393896 0
1 0.465217 0
1 0.54258 0
1 0.625635 0.00965896
1 0.711147 0.0930495
1 0.786252 0.154681
1 0.844724 0.230426
1 0.887144 0.332815
1 0.92015 0.428809
1 0.944839 0.524392
1 0.964492 0.608438
1 0.98146 0.669322
0 0.333318 0
0 0.333745 0
0 0.334127 0
0 0.334447 0
0 0.334691 0
0 0.334874 0
0 0.335027 0
0 0.335073 0
0 0.33492 0
0 0.335393 0
0.173037 0.338476 0
0.285359 0.337865 0
0.40148 0.334386 0
0.518074 0.329778 0
0.634531 0.324559 0
0.746853 0.321202 0
0.846098 0.322332 0
0.93373 0.329549 0
1 0.34609 0
1 0.374273 0
1 0.412955 0
1 0.460716 0
1 0.51873 0
1 0.58584 0
1 0.659464 0
1 0.735286 0.0832227
1 0.801266 0.151186
1 0.853422 0.229587
1 0.892439 0.329946
1 0.923323 0.427131
1 0.946685 0.523354
1 0.965667 0.607889
1 0.982162 0.669032
0 0.418479 0
0 0.418875 0
0 0.419226 0
0 0.419516 0
0 0.41973 0
0 0.419944 0
0 0.420127 0
0 0.420279 0
0 0.420417 0
0 0.420508 0
0.0636912 0.423102 0
0.233768 0.427787 0
0.370245 0.426856 0
0.499992 0.423972 0
0.62417 0.420462 0
0.743374 0.418219 0
0.846372 0.419669 0
0.933043 0.426596 0
1 0.440635 0
1 0.463081 0
1 0.493034 0
1 0.530831 0
1 0.57882 0
1 0.635279 0
1 0.698848 0
1 0.762646 0.0707561
1 0.818647 0.147326
1 0.863676 0.228946
1 0.898939 0.326223
1 0.927245 0.424949
1 0.949035 0.522011
1 0.967147 0.607172
1 0.983063 0.668635
0 0.513588 0
0 0.513909 0
0 0.514183 0
0 0.514397 0
0 0.514611 0
0 0.514794 0
0 0.514977 0
0 0.51516 0
0 0.515282 0
0 0.515312 0
0 0.51516 0
0.135683 0.520821 0
0.319677 0.522667 0
0.469764 0.5196 0
0.602731 0.516197 0
0.730877 0.513726 0
0.841642 0.514855 0
0.931151 0.520867 0
0.999496 0.532738 0
1 0.550988 0
1 0.575616 0
1 0.605615 0
1 0.644221 0
1 0.690776 0
1 0.742168 0
1 0.792554 0.0548257
1 0.838087 0.14345
1 0.875608 0.228626
1 0.906752 0.322057
1 0.932036 0.422156
1 0.951995 0.520256
1 0.969024 0.606226
1 0.984222 0.668116
0 0.614679 0
0 0.614862 0
0 0.61503 0
0 0.615152 0
0 0.615259 0
0 0.615351 0
0 0.615457 0
0 0.615534 0
0 0.615549 0
0 0.615473 0
0 0.615213 0
0 0.614572 0
0.23653 0.621073 0
0.424918 0.618845 0
0.57113 0.615839 0
0.708736 0.613092 0
0.828962 0.613138 0
0.923186 0.617395 0
0.992096 0.626322 0
1 0.640436 0
1 0.659968 0
1 0.683543 0
1 0.713268 0
1 0.748363 0
1 0.786145 0
1 0.82385 0.0340581
1 0.858915 0.140169
1 0.889265 0.228901
1 0.915709 0.323415
1 0.937789 0.418585
1 0.955673 0.517937
1 0.971389 0.604974
1 0.985672 0.66743
0 0.716884 0
0 0.716976 0
0 0.717037 0
0 0.717083 0
0 0.717098 0
0 0.717128 0
0 0.717144 0
0 0.717098 0
0 0.717037 0
0 0.716823 0
0 0.716426 0
0 0.715679 0
0.0504463 0.716411 0
0.361547 0.720729 0
0.53225 0.717083 0
0.679286 0.713283 0
0.80911 0.711604 0
0.908782 0.713726 0
0.979278 0.719585 0
1 0.729122 0
1 0.742504 0
1 0.759197 0
1 0.779065 0
1 0.802472 0
1 0.828443 0
1 0.855131 0.00361639
1 0.8804 0.138491
1 0.904387 0.230304
1 0.925872 0.325673
1 0.944411 0.415045
1 0.960159 0.514946
1 0.974334 0.603311
1 0.987488 0.666545
0 0.814176 0
0 0.814145 0
0 0.81413 0
0 0.814099 0
0 0.814069 0
0 0.814008 0
0 0.813931 0
0 0.813794 0
0 0.813581 0
0 0.813245 0
0 0.81265 0
0 0.811734 0
0 0.810285 0
0.27628 0.815778 0
0.490379 0.810773 0
0.647868 0.805158 0
0.786404 0.800763 0
0.890791 0.799878 0
0.963928 0.802075 0
1 0.80676 0
1 0.813886 0
1 0.823835 0
1 0.835691 0
1 0.850141 0
1 0.866667 0
1 0.884718 0
1 0.902464 0.139315
1 0.920455 0.2336
1 0.936934 0.329274
1 0.951812 0.418112
1 0.965515 0.51104
1 0.977874 0.601129
1 0.989761 0.66537
0 0.892912 0
0 0.892836 0
0 0.892744 0
0 0.892638 0
0 0.892515 0
0 0.892409 0
0 0.892241 0
0 0.891997 0
0 0.891646 0
0 0.891157 0
0 0.890379 0
0 0.88925 0
0 0.887663 0
0.185153 0.890288 0
0.457053 0.885115 0
0.624811 0.877165 0
0.768429 0.870085 0
0.874754 0.86659 0
0.949294 0.866056 0
1 0.867353 0
1 0.870253 0
1 0.875013 0
1 0.881407 0
1 0.889769 0
1 0.900221 0
1 0.912413 0
1 0.924208 0.144381
1 0.936706 0.239857
1 0.948455 0.334844
1 0.960174 0.422477
1 0.971557 0.510918
1 0.982544 0.598245
1 0.992538 0.663828
0.0124666 0.950454 0
0.0124208 0.950317 0
0.0123598 0.950164 0
0.012314 0.950027 0
0.0122683 0.949859 0
0.0122072 0.949691 0
0.0121157 0.949462 0
0.0120089 0.949157 0
0.0118715 0.94873 0
0.0116426 0.948104 0
0.0113375 0.947219 0
0.0109407 0.946029 0
0.0103914 0.944396 0
0.143771 0.944747 0
0.448463 0.93901 0
0.617975 0.92929 0
0.760143 0.920638 0
0.864469 0.915572 0
0.937758 0.91342 0
0.992889 0.91284 0
1 0.913481 0
1 0.91545 0
1 0.918807 0
1 0.923537 0
1 0.929931 0
1 0.936797 0.0316014
1 0.944396 0.155734
1 0.952239 0.250309
1 0.960418 0.342962
1 0.969284 0.428687
1 0.978195 0.515648
1 0.987335 0.595636
1 0.99585 0.661799
0.0273899 0.993973 0
0.0273442 0.99379 0
0.0272831 0.993622 0
0.0272221 0.993423 0
0.0271763 0.993225 0
0.0271 0.993042 0
0.0270085 0.992752 0
0.0269017 0.992386 0
0.0267491 0.991867 0
0.0265354 0.991196 0
0.0262455 0.990295 0
0.025864 0.989105 0
0.0253605 0.987503 0
0.220966 0.988464 0
0.470665 0.978424 0
0.629374 0.967941 0
0.762142 0.958801 0
0.859968 0.953033 0
0.929808 0.949996 0
0.983154 0.948409 0
1 0.947784 0
1 0.948074 0
1 0.949264 0
1 0.951446 0
1 0.954864 0
1 0.957977 0.0743877
1 0.962356 0.175128
1 0.967163 0.265873
1 0.972595 0.354116
1 0.978805 0.43743
1 0.985809 0.522103
1 0.992493 0.599786
1 0.99971 0.659113
0.0359808 1 0
0.0359197 1 0
0.0358587 1 0
0.0358129 1 0
0.0357519 1 0
0.0356909 1 0
0.0355993 1 0
0.0354925 1 0
0.035462 1 0
0.0354314 1 0
0.0354009 1 0
0.0351568 1 0
0.0347295 1 0
0.348806 1 0
0.524239 1 0
0.661387 0.995041 0
0.776211 0.986542 0
0.862898 0.980499 0
0.927016 0.977203 0
0.977569 0.975143 0
1 0.973892 0
1 0.973281 0
1 0.973312 0
1 0.974121 0
1 0.975769 0
1 0.976455 0.117464
1 0.978668 0.203204
1 0.981659 0.287526
1 0.984848 0.369574
1 0.988785 0.44947
1 0.993149 0.530861
1 0.998138 0.605127
1 1 0.66154
0.0421149 1 0
0.0420691 1 0
0.0420081 1 0
0.0419623 1 0
0.0419013 1 0
0.0418555 1 0
0.0417792 1 0
0.0416876 1 0
0.0415656 1 0
0.0413977 1 0
0.0411841 1 0
0.0408942 1 0
0.328878 1 0
0.479271 1 0
0.599115 1 0
0.707774 1 0
0.79971 1 0
0.872023 1 0
0.928847 0.999115 0
0.975189 0.996933 0
1 0.995453 0
1 0.994446 0
1 0.993851 0
1 0.99382 0
1 0.992691 0.0780346
1 0.992813 0.164401
1 0.993317 0.240299
1 0.994186 0.316106
1 0.995666 0.390082
1 0.997833 0.465782
1 1 0.542535
1 1 0.611978
1 1 0.665522
0.0461891 1 0.00102235
0.0461433 1 0.0010071
0.0460975 1 0.000961318
0.0460517 1 0.0009308
0.0460059 1 0.000900282
0.0459602 1 0.000869764
0.0458991 1 0.000823987
0.0458228 1 0.00077821
0.045716 1 0.000701915
0.234409 1 0.00144961
0.339666 1 0
0.432212 1 0
0.517174 1 0
0.600259 1 0
0.682948 1 0
0.761379 1 0
0.829725 1 0
0.886717 1 0
0.935317 1 0
0.976211 1 0
1 1 0
1 1 0
1 1 0
1 1 0.067277
1 1 0.147677
1 1 0.216648
1 1 0.284398
1 1 0.350942
1 1 0.41622
1 1 0.486885
1 1 0.557641
1 1 0.620813
1 1 0.67068
0.364904 1 0
0.382528 1 0
0.399023 1 0
0.414557 1 0
0.429236 1 0
0.443717 1 0
0.460746 1 0
0.481788 1 0
0.507164 1 0
0.536873 1 0
0.572427 1 0
0.613413 1 0
0.6598 1 0
0.711208 1 0
0.763943 1 0
0.815198 1 0
0.862562 1 0
0.906325 1 0
0.945891 1 0
0.980377 1 0
1 1 0.0299382
1 1 0.075761
1 1 0.112474
1 1 0.160403
1 1 0.215183
1 1 0.273075
1 1 0.332464
1 1 0.390127
1 1 0.449485
1 1 0.512963
1 1 0.576562
1 1 0.632074
1 1 0.677195
0.630503 1 0.149889
0.636728 1 0.14963
0.642817 1 0.149371
0.648798 1 0.149111
0.654658 1 0.148882
0.660639 1 0.148653
0.668223 1 0.148379
0.677928 1 0.148043
0.690196 1 0.147646
0.705348 1 0.147219
0.723842 1 0.146777
0.745846 1 0.146426
0.771298 1 0.146319
0.799695 1 0.146639
0.830121 1 0.147677
0.861784 1 0.149737
0.894377 1 0.153124
0.926528 1 0.158221
0.956985 1 0.165377
0.984466 1 0.175036
1 1 0.187625
1 1 0.203662
1 1 0.223606
1 1 0.248066
1 1 0.286412
1 1 0.332982
1 1 0.381872
1 1 0.433112
1 1 0.488502
1 1 0.544213
1 1 0.599161
1 1 0.645685
1 1 0.685267
0.780926 1 0.271092
0.78378 1 0.271046
0.786572 1 0.271031
0.789303 1 0.271
0.791989 1 0.270985
0.794751 1 0.27097
0.798215 1 0.270985
0.80267 1 0.27097
0.808347 1 0.270985
0.815503 1 0.271046
0.824369 1 0.271153
0.835279 1 0.271382
0.848539 1 0.271748
0.864256 1 0.272389
0.882658 1 0.273686
0.902876 1 0.275303
0.924605 1 0.277684
0.947112 1 0.281102
0.969345 1 0.285801
0.990936 1 0.292119
1 1 0.300404
1 1 0.311101
1 1 0.324742
1 1 0.341756
1 1 0.362097
1 1 0.394186
1 1 0.434623
1 1 0.481331
1 1 0.529931
1 1 0.578866
1 1 0.622721
1 1 0.661463
1 1 0.69485
0.869123 1 0.37882
0.870497 1 0.378866
0.871855 1 0.378912
0.873198 1 0.378958
0.87454 1 0.378988
0.875914 1 0.379049
0.877653 1 0.379095
0.879911 1 0.379171
0.882856 1 0.379278
0.886625 1 0.379446
0.891402 1 0.37966
0.897429 1 0.37995
0.90486 1 0.380377
0.913909 1 0.380987
0.924666 1 0.381826
0.937102 1 0.383001
0.950988 1 0.384665
0.965927 1 0.386923
0.981979 1 0.389975
0.999329 1 0.394034
1 1 0.399664
1 1 0.406729
1 1 0.415915
1 1 0.427909
1 1 0.443351
1 1 0.462852
1 1 0.493874
1 1 0.531823
1 1 0.573037
1 1 0.612558
1 1 0.647517
1 1 0.678721
1 1 0.70576
0.926986 1 0.478004
0.927687 1 0.478065
0.928405 1 0.478111
0.929091 1 0.478157
0.929778 1 0.478202
0.930495 1 0.478248
0.931395 1 0.47834
0.932601 1 0.478416
0.934142 1 0.478538
