BBLuts/BB_101_0120_LUT.cube
TITLE "Generated by Resolve"
LUT_3D_SIZE 5
0.00553903 0 0
0.183337 0 0.00157168
0.712856 0.00701915 0.0105592
0.894179 0.525689 0.0545815
0.844694 0.967086 0.585809
0 0.203265 0
0.129854 0.206256 0
0.70753 0.11368 0.00030518
0.887556 0.583062 0.0055848
0.844633 0.967575 0.585519
0 0.769162 0
0 0.768872 0
0.572473 0.758343 0
0.860334 0.818036 0
0.843839 0.97406 0.581277
0.424109 1 0.101656
0.424109 1 0.101656
0.597498 1 0.115328
0.829725 0.99881 0.240482
0.839963 1 0.607706
0.804364 1 0.694682
0.804364 1 0.694682
0.804364 1 0.694682
0.822828 1 0.697429
0.839063 1 0.723674
0.0069276 0 0.182376
0.155108 0 0.18378
0.712154 0.00746166 0.193698
0.896086 0.512383 0.205219
0.844694 0.967071 0.585824
0 0.165194 0.158755
0.133913 0.163684 0.15581
0.710002 0.0252995 0.178836
0.889036 0.572656 0.184756
0.844633 0.967559 0.585519
0 0.764141 0
0 0.763851 0
0.577539 0.753491 0
0.86038 0.8159 0
0.843839 0.97406 0.581277
0.432349 1 0.101244
0.432349 1 0.101244
0.599786 1 0.11487
0.829801 0.998749 0.240299
0.839963 1 0.607706
0.804395 1 0.694682
0.804395 1 0.694682
0.804395 1 0.694682
0.822843 1 0.697414
0.839063 1 0.723674
0.0125887 0.00199893 0.671321
0.0125887 0.00199893 0.671397
0.703639 0.0113222 0.674739
0.92697 0.269047 0.666072
0.845502 0.965057 0.675456
0.0125734 0.00198367 0.670268
0.0125734 0.00198367 0.670329
0.713375 0.0114748 0.673381
0.910384 0.411307 0.648875
0.845441 0.965576 0.675273
0 0.70164 0.576974
0 0.701701 0.576989
0.55079 0.693919 0.579492
0.866163 0.785962 0.5897
0.844617 0.972442 0.672969
0.426322 1 0.440436
0.426322 1 0.440436
0.588525 1 0.445579
0.824948 0.998474 0.493812
0.840269 1 0.651835
0.804944 1 0.694621
0.804944 1 0.694621
0.804944 1 0.694621
0.823041 1 0.697353
0.839063 1 0.723659
0.0155184 0.00529488 0.896712
0.0155184 0.00529488 0.896712
0.0155184 0.00529488 0.896712
0.959365 0.0183413 0.907073
0.850828 0.927611 0.798886
0.0155184 0.00529488 0.896712
0.0155184 0.00529488 0.896712
0.0155184 0.00529488 0.896712
0.959365 0.0183413 0.907073
0.850645 0.929076 0.798642
0.0155184 0.00529488 0.896712
0.0155184 0.00529488 0.896712
0.0155184 0.00529488 0.896712
0.959365 0.0183413 0.907073
0.848722 0.945037 0.795972
0 1 0.781826
0 1 0.781826
0 1 0.781826
0.808835 0.989364 0.784131
0.841688 1 0.785504
0.801144 1 0.764981
0.801144 1 0.764981
0.801144 1 0.764981
0.818479 1 0.765728
0.839368 1 0.773205
0 0.284092 0.872953
0 0.284092 0.872953
0 0.284092 0.872953
0 0.284153 0.872938
0.883116 0.657572 0.842527
0 0.284092 0.872953
0 0.284092 0.872953
0 0.284092 0.872953
0 0.284153 0.872938
0.883116 0.657572 0.842527
0 0.284092 0.872953
0 0.284092 0.872953
0 0.284092 0.872953
0 0.284153 0.872938
0.883116 0.657572 0.842527
0 0.283009 0.873045
0 0.283009 0.873045
0 0.283009 0.873045
0 0.283055 0.873045
0.882597 0.661982 0.842084
0.733013 1 0.804746
0.733013 1 0.804746
0.733013 1 0.804746
0.733013 1 0.804746
0.839567 1 0.805402
