BBLuts/BB_104_0360_LUT.cube
TITLE "Generated by Resolve"
LUT_3D_SIZE 33
0 0 0.00447089
0 0 0.00447089
0 0 0.00447089
0 0 0.00447089
0 0 0.00447089
0.0247501 0 0.00503548
0.0705882 0 0.00555428
0.104494 0 0.00578317
0.140291 0 0.00579843
0.186618 0 0.0055848
0.243809 0 0.00518807
0.309056 0 0.00500496
0.384909 0 0.00660716
0.469398 0 0.0149538
0.554177 0.018616 0.043183
0.620066 0.0827955 0.128115
0.683665 0.223667 0.261097
0.740597 0.364797 0.392065
0.787762 0.481346 0.498833
0.824628 0.556191 0.566781
0.83125 0.567956 0.577554
0.83125 0.567956 0.577554
0.831128 0.57142 0.577935
0.830808 0.579385 0.577859
0.830045 0.593149 0.576776
0.828397 0.619318 0.573144
0.825666 0.65774 0.564172
0.822934 0.698329 0.547005
0.820966 0.731807 0.520943
0.819593 0.758144 0.496742
0.818143 0.778027 0.52462
0.816358 0.792721 0.596551
0.814878 0.804883 0.652567
0 0 0.00447089
0 0 0.00447089
0 0 0.00447089
0 0 0.00447089
0 0 0.00447089
0.0339208 0 0.00514229
0.0738231 0 0.0055848
0.10721 0 0.00578317
0.144991 0 0.00578317
0.192508 0 0.00555428
0.249958 0 0.00514229
0.314595 0 0.00503548
0.388098 0 0.00677501
0.471672 0 0.0153201
0.555673 0.0192721 0.0440833
0.620874 0.0841688 0.129686
0.684138 0.224811 0.26215
0.740795 0.365286 0.392493
0.787701 0.481209 0.498726
0.824399 0.555734 0.566384
0.83125 0.567956 0.577554
0.83125 0.567956 0.577554
0.831098 0.572168 0.577661
0.830762 0.580514 0.577676
0.829953 0.594598 0.576516
0.82826 0.62121 0.572732
0.825544 0.659541 0.563455
0.822843 0.699565 0.545953
0.820935 0.73254 0.519448
0.819593 0.758587 0.494774
0.818143 0.778271 0.5234
0.816342 0.792874 0.596231
0.814878 0.804959 0.652445
0 0 0.00447089
0 0 0.00447089
0 0 0.00447089
0 0 0.00447089
0 0 0.00447089
0.0393835 0 0.00521859
0.0749371 0 0.0055848
0.109789 0 0.00579843
0.14992 0 0.00576791
0.197986 0 0.00550851
0.254673 0 0.00512703
0.317571 0 0.00505074
0.390753 0 0.00691234
0.474083 0 0.0157168
0.557183 0.0199588 0.0450141
0.621653 0.0855268 0.131212
0.684611 0.22594 0.263188
0.740978 0.365759 0.39292
0.787625 0.481041 0.498573
0.824155 0.555291 0.565957
0.83125 0.567956 0.577554
0.83125 0.567956 0.577554
0.831083 0.572946 0.577157
0.830701 0.581659 0.577478
0.829862 0.596124 0.576257
0.828138 0.623117 0.57232
0.825406 0.661341 0.562722
0.822782 0.700755 0.544884
0.820905 0.733257 0.517922
0.819577 0.75903 0.492744
0.818143 0.778531 0.522133
0.816342 0.793011 0.595911
0.814878 0.805051 0.652323
0 0 0.00447089
0 0 0.00447089
0 0 0.00447089
0 0 0.00416571
0.00299077 0.00172427 0.00416571
0.0435798 0 0.00526436
0.0754559 0 0.00560006
0.110018 0 0.00579843
0.150774 0 0.00576791
0.200229 0 0.00549325
0.257725 0 0.00509651
0.320256 0 0.00508125
0.393347 0 0.00704967
0.476493 0 0.0161593
0.558694 0.0206607 0.0459754
0.622477 0.0869306 0.132815
0.685069 0.227039 0.26421
0.741146 0.366186 0.393286
0.787533 0.480827 0.49839
0.82388 0.554803 0.565515
0.83125 0.567956 0.577554
0.83125 0.567956 0.577554
0.831037 0.573846 0.577096
0.830655 0.582834 0.577264
0.82977 0.597726 0.575982
0.828 0.625025 0.571878
0.825284 0.663096 0.56202
0.822705 0.701961 0.543801
0.820874 0.733959 0.516365
0.819562 0.759457 0.490684
0.818128 0.778759 0.520867
0.816327 0.793179 0.59556
0.814862 0.805142 0.652201
0 0.0303349 0.00158694
0 0.0323796 0.00141909
0 0.0343481 0.00125124
0 0.0362707 0.00109865
0 0.0370031 0.00103761
0.0299687 0.0373388 0.00190738
0.0648203 0.0362097 0.00250248
0.101366 0.0327764 0.00311284
0.145556 0.0242771 0.00378424
0.201236 0 0.00549325
0.259495 0 0.00509651
0.322713 0 0.00509651
0.395865 0 0.00720226
0.47892 0 0.0166018
0.56025 0.0213931 0.0469978
0.623301 0.088365 0.134417
0.685527 0.228138 0.265217
0.741299 0.366567 0.393606
0.787442 0.480598 0.498192
0.823606 0.554314 0.565057
0.83125 0.567956 0.577554
0.83122 0.569039 0.577462
0.831006 0.574792 0.57702
0.830594 0.584009 0.577005
0.829679 0.599359 0.575692
0.827863 0.626947 0.57142
0.825162 0.66482 0.561288
0.822644 0.703136 0.542687
0.820844 0.734661 0.514794
0.819547 0.759884 0.488579
0.818128 0.779004 0.5196
0.816327 0.793317 0.595254
0.814847 0.805219 0.652079
0 0.0529488 0
0 0.0545815 0
0 0.056199 0
0 0.0574655 0
0 0.0580911 0
0.0110323 0.0587015 0
0.0550546 0.058793 0.000686656
0.0936751 0.0576791 0.0012665
0.138811 0.0545815 0.00172427
0.195422 0.0479744 0.00210575
0.257572 0.0347601 0.00268559
0.32488 0 0.00512703
0.398428 0 0.00735485
0.481483 0 0.0170901
0.561883 0.0222171 0.0480964
0.624186 0.0899367 0.136156
0.686015 0.229282 0.26627
0.741451 0.366979 0.393973
0.787335 0.480354 0.497963
0.823316 0.553765 0.564569
0.83125 0.567956 0.577554
0.831159 0.570733 0.577325
0.830961 0.575845 0.576944
0.830518 0.585245 0.576699
0.829557 0.601114 0.575372
0.827726 0.628962 0.570932
0.82504 0.666606 0.560525
0.822568 0.704341 0.541512
0.820813 0.735393 0.5131
0.819547 0.760327 0.486336
0.818112 0.779263 0.518212
0.816312 0.793469 0.594903
0.814847 0.805325 0.651957
0 0.0768444 0
0 0.0782177 0
0 0.0795911 0
0 0.0803693 0
0 0.0808576 0
0 0.0810407 0
0.0384527 0.0821698 0
0.0829786 0.0821088 0
0.130144 0.0807507 0
0.190326 0.077348 0.000274662
0.254917 0.0706188 0.000701915
0.324392 0.059968 0.00177005
0.400839 0.0411841 0.00555428
0.484718 0.000320439 0.0177462
0.563989 0.0233005 0.0495613
0.625315 0.0919966 0.138399
0.686625 0.230777 0.267674
0.74165 0.367498 0.394415
0.787182 0.479973 0.497642
0.822904 0.553033 0.563882
0.83125 0.567956 0.577554
0.831113 0.571832 0.577264
0.8309 0.577279 0.576822
0.830427 0.586847 0.57615
0.829435 0.603418 0.574945
0.827543 0.631556 0.570275
0.824872 0.668894 0.559518
0.822477 0.705867 0.539971
0.820783 0.736309 0.510887
0.819532 0.760891 0.483314
0.818112 0.779583 0.516457
0.816297 0.793683 0.594446
0.814832 0.805432 0.651774
0 0.104356 0
0 0.105562 0
0 0.106477 0
0 0.107073 0
0 0.1075 0
0 0.107744 0
0 0.1084 0
0.0650339 0.109545 0
0.116381 0.109346 0
0.180911 0.107332 0
0.24976 0.102907 0
0.323995 0.0966659 9.15541e-05
0.403723 0.089189 0.00411994
0.48957 0.0814069 0.0167239
0.567956 0.0712291 0.0514839
0.626856 0.0948043 0.141421
0.68748 0.232792 0.269535
0.741909 0.36817 0.395026
0.786954 0.479469 0.4972
0.822339 0.55198 0.562936
0.831189 0.569909 0.577401
0.831052 0.573266 0.577142
0.830823 0.579278 0.576638
0.830304 0.589044 0.575494
0.829236 0.606546 0.574334
0.827298 0.634989 0.56939
0.824674 0.671824 0.558145
0.822354 0.707835 0.537881
0.820722 0.737499 0.507851
0.819516 0.761639 0.479133
0.818097 0.780011 0.514031
0.816281 0.793942 0.593881
0.814817 0.805585 0.65156
0 0.141833 0
0 0.143053 0
0 0.14374 0
0 0.144411 0
0 0.144884 0
0 0.14522 0
0 0.145418 0
0.0262608 0.146929 0
0.0931868 0.146944 0
0.163043 0.145342 0
0.239216 0.141909 0
0.319997 0.136919 0
0.4056 0.131991 0.00299077
0.494728 0.131579 0.0170748
0.573434 0.145632 0.0543221
0.631586 0.187793 0.147509
0.689143 0.266804 0.27219
0.74226 0.36907 0.395804
0.786633 0.47866 0.496498
0.821454 0.553124 0.56141
0.831113 0.57203 0.577249
0.830976 0.575479 0.576974
0.830686 0.58201 0.576364
0.830106 0.592142 0.575036
0.828946 0.610788 0.573449
0.826978 0.639536 0.568124
0.824414 0.675608 0.556268
0.822217 0.710369 0.535027
0.820661 0.739055 0.503655
0.819501 0.7626 0.473289
0.818097 0.780575 0.510735
0.816266 0.794278 0.593118
0.814801 0.805783 0.651255
0 0.191089 0
0 0.191485 0
0 0.191867 0
0 0.192203 0
0 0.192386 0
0 0.192447 0
0 0.19234 0
0 0.192004 0
0.0504463 0.19382 0
0.1299 0.194003 0
0.218845 0.192218 0
0.309133 0.188403 0
0.403265 0.183932 3.0518e-05
0.498405 0.183017 0.0159609
0.578149 0.194842 0.0559243
0.634852 0.231189 0.151385
0.690837 0.300191 0.274632
0.742351 0.394797 0.395407
0.785977 0.488777 0.494896
0.820203 0.554345 0.559197
0.831006 0.574655 0.577035
0.830839 0.578851 0.576684
0.830488 0.585718 0.575936
0.829831 0.596765 0.574365
0.82858 0.616587 0.572152
0.826551 0.645502 0.566323
0.824094 0.68043 0.553674
0.822049 0.713573 0.531075
0.820584 0.741039 0.49781
0.819486 0.763851 0.465019
0.818097 0.781308 0.506157
0.816251 0.79472 0.592111
0.814786 0.806043 0.650874
0 0.246784 0
0 0.247181 0
0 0.247608 0
0 0.247883 0
0 0.248112 0
0 0.248264 0
0 0.24831 0
0 0.248203 0
0 0.247776 0
0.0703593 0.251011 0
0.179309 0.251957 0
0.286122 0.249943 0
0.39295 0.246281 0
0.49781 0.245212 0.0102388
0.581109 0.253391 0.0532692
0.637858 0.280491 0.152789
0.69247 0.334417 0.276493
0.74255 0.412421 0.39527
0.785061 0.495933 0.492714
0.818357 0.556237 0.555932
0.830839 0.578973 0.576669
0.83061 0.583627 0.576181
0.830182 0.590906 0.575219
0.829404 0.603708 0.573297
0.828046 0.624399 0.570016
0.825986 0.653315 0.563699
0.823697 0.686473 0.549996
0.82182 0.717586 0.525551
0.820493 0.743572 0.489418
0.819471 0.765454 0.453101
0.818082 0.782238 0.499794
0.81622 0.79556 0.590799
0.814755 0.806394 0.65037
0 0.31487 0
0 0.315297 0
0 0.315663 0
0 0.315984 0
0 0.316213 0
0 0.316396 0
0 0.316548 0
0 0.316594 0
0 0.316457 0
0 0.316106 0
0.0889296 0.321416 0
0.238727 0.323369 0
0.368154 0.321706 0
0.48777 0.320821 0
0.579324 0.325414 0.0386053
0.638895 0.343603 0.144045
0.693401 0.381964 0.274678
0.742336 0.440467 0.393469
0.78352 0.508919 0.488853
0.815686 0.561227 0.551019
0.830518 0.585306 0.575982
0.830213 0.590356 0.575296
0.829679 0.5991 0.574014
0.828779 0.613581 0.571557
0.827314 0.634943 0.566796
0.825284 0.663233 0.559823
0.82324 0.693935 0.544747
0.821576 0.722484 0.518105
0.820386 0.746777 0.476753
0.819455 0.767498 0.435843
0.818067 0.783459 0.490654
0.81619 0.796323 0.589014
0.81471 0.806821 0.649699
0 0.397559 0
0 0.39794 0
0 0.398276 0
0 0.398535 0
0 0.398749 0
0 0.398932 0
0 0.399115 0
0 0.399252 0
0 0.399405 0
0 0.399481 0
0 0.399481 0
0.112337 0.407797 0
0.313756 0.410925 0
0.460258 0.409781 0
0.5682 0.411078 0
0.634745 0.420462 0.103944
0.692027 0.44332 0.261311
0.741283 0.484611 0.387625
0.78114 0.531395 0.482216
0.812055 0.572412 0.543908
0.829953 0.59472 0.574655
0.829557 0.601358 0.573663
0.828885 0.611841 0.571893
0.827848 0.627344 0.568673
0.826322 0.648844 0.562722
0.824445 0.675334 0.554055
0.82269 0.702907 0.537041
0.821286 0.728374 0.507271
0.820294 0.750759 0.456764
0.819501 0.770092 0.40943
0.818067 0.785031 0.476814
0.816144 0.797269 0.586572
0.814664 0.807401 0.648783
0 0.490501 0
0 0.490791 0
0 0.491035 0
0 0.491249 0
0 0.491432 0
0 0.4916 0
0 0.491768 0
0 0.491936 0
0 0.492042 0
0 0.492088 0
0 0.491936 0
0 0.491493 0
0.162509 0.501884 0
0.407111 0.50309 0
0.545113 0.5019 0
0.623957 0.504082 0.0121462
0.687144 0.516365 0.218235
0.73846 0.537285 0.37084
0.777417 0.56495 0.469642
0.80708 0.590341 0.532982
0.828946 0.611078 0.572015
0.828428 0.618753 0.570535
0.827665 0.630091 0.568017
0.826535 0.645838 0.563684
0.825071 0.666331 0.556054
0.823529 0.689586 0.545144
0.822095 0.713314 0.525338
0.820966 0.735363 0.490501
0.820218 0.755627 0.425147
0.819623 0.773342 0.363561
0.818082 0.787015 0.454887
0.816083 0.798505 0.583047
0.814603 0.808133 0.647608
0 0.57116 0
0 0.571298 0
0 0.57142 0
0 0.571511 0
0 0.571588 0
0 0.571649 0
0 0.57171 0
0 0.571771 0
0 0.571786 0
0 0.571725 0
0 0.571542 0
0 0.571084 0
0 0.570214 0
0.257008 0.579446 0
0.49987 0.578775 0
0.606088 0.578088 0
0.67541 0.581598 0.0455329
0.731502 0.590265 0.319951
0.771252 0.601923 0.442435
0.800305 0.6168 0.51426
0.822812 0.633051 0.558587
0.826719 0.643214 0.564477
0.825925 0.654398 0.560815
0.824887 0.669032 0.554833
0.823743 0.686381 0.545113
0.822553 0.705531 0.530755
0.8215 0.724941 0.506691
0.820676 0.743557 0.46125
0.820233 0.761471 0.373541
0.819928 0.777417 0.257877
0.818173 0.789578 0.419303
0.816022 0.800061 0.577508
0.814527 0.809064 0.646021
0 0.628122 0
0 0.628183 0
0 0.628214 0
0 0.628229 0
0 0.628244 0
0 0.62826 0
0 0.628275 0
0 0.628244 0
0 0.628214 0
0 0.628092 0
0 0.627878 0
0 0.627466 0
0 0.626734 0
0 0.625681 0
0.367437 0.63357 0
0.577371 0.632593 0
0.657588 0.632456 0
0.718135 0.6365 0.0622263
0.761303 0.64419 0.371771
0.790799 0.652934 0.474083
0.813336 0.663584 0.530434
0.824567 0.673823 0.552483
0.823957 0.683009 0.547295
0.82324 0.694408 0.539193
0.822446 0.707744 0.526131
0.821653 0.722362 0.505806
0.820951 0.737438 0.473793
0.820493 0.752972 0.406485
0.820508 0.768414 0.237644
0.819287 0.781033 0
0.818448 0.792844 0.349569
0.815961 0.801984 0.568689
0.814435 0.810224 0.643931
0 0.682429 0
0 0.682414 0
0 0.682399 0
0 0.682368 0
0 0.682368 0
0 0.682338 0
0 0.682292 0
0 0.682216 0
0 0.682078 0
0 0.681895 0
0 0.681559 0
0 0.681041 0
0 0.680217 0
0 0.679072 0
0 0.677638 0
0.488182 0.685344 0
0.632731 0.683528 0
0.700771 0.683742 0
0.746365 0.68629 0
0.779782 0.692363 0.351415
0.80322 0.697932 0.468208
0.819928 0.704967 0.52108
0.822232 0.711604 0.521324
0.821805 0.719463 0.509422
0.821378 0.728725 0.490074
0.820951 0.739208 0.454658
0.82063 0.750912 0.402869
0.820737 0.763592 0.249805
0.819593 0.774777 0
0.819013 0.785809 0
0.818738 0.796948 0.0705425
0.8159 0.804349 0.555596
0.814298 0.811658 0.641123
0 0.727993 0
0 0.727947 0
0 0.727886 0
0 0.727825 0
0 0.727764 0
0 0.727687 0
0 0.727596 0
0 0.727459 0
0 0.727245 0
0 0.726955 0
0 0.726513 0
0 0.725841 0
0 0.72491 0
0 0.723674 0
0 0.722072 0
0 0.720134 0
0.596902 0.725582 0
0.682353 0.723812 0
0.732555 0.724056 0
0.767285 0.725734 0
0.793729 0.729747 0.159228
0.811444 0.733059 0.410895
0.821027 0.737255 0.462852
0.820874 0.742199 0.440482
0.820768 0.748562 0.401434
0.820844 0.756344 0.315709
0.820447 0.76463 0.0488746
0.819669 0.773175 0
0.819196 0.782193 0
0.818677 0.791257 0
0.818097 0.800443 0
0.815839 0.807172 0.53492
0.814145 0.813443 0.637339
0 0.762371 0
0 0.762295 0
0 0.762203 0
0 0.762112 0
0 0.76202 0
0 0.761913 0
0 0.761776 0
0 0.761578 0
0 0.761334 0
0 0.760952 0
0 0.760403 0
0 0.759686 0
0 0.758694 0
0 0.757412 0
0 0.755779 0
0 0.75378 0
0.511543 0.758236 0
0.663096 0.754452 0
0.71931 0.753445 0
0.756619 0.753628 0
0.783597 0.754711 0
0.803235 0.756664 0
0.818647 0.760037 0.0748913
0.820371 0.762798 0.0159915
0.819989 0.766491 0
0.819745 0.771328 0
0.819471 0.776974 0
0.81912 0.783169 0
0.818723 0.789975 0
0.818265 0.797482 0
0.817761 0.804807 0
0.815839 0.810483 0.503792
0.813977 0.815564 0.632212
0 0.788769 0
0 0.788663 0
0 0.788556 0
0 0.788434 0
0 0.788312 0
0 0.78819 0
0 0.788022 0
0 0.787793 0
0 0.787488 0
0 0.78706 0
0 0.786511 0
0 0.785779 0
0 0.784802 0
0 0.78352 0
0 0.781933 0
0 0.77995 0
0 0.777737 0
0.64123 0.778714 0
0.706645 0.776776 0
0.746441 0.77612 0
0.774655 0.776165 0
0.795499 0.776837 0
0.811444 0.778119 0
0.819303 0.779873 0
0.819181 0.78201 0
0.819013 0.784894 0
0.818799 0.788556 0
0.818509 0.792935 0
0.818173 0.798245 0
0.817792 0.803754 0
0.81738 0.809522 0
0.815625 0.813962 0.490471
0.813764 0.818067 0.625147
0 0.808225 0
0 0.808087 0
0 0.807965 0
0 0.807843 0
0 0.807706 0
0 0.807568 0
0 0.807385 0
0 0.807141 0
0 0.806821 0
0 0.806424 0
0 0.805859 0
0 0.805127 0
0 0.804181 0
0 0.802976 0
0 0.801434 0
0 0.799558 0
0 0.797528 0
0.620142 0.797375 0
0.696361 0.79443 0
0.738262 0.793286 0
0.766918 0.792798 0
0.788266 0.792767 0
0.80531 0.793194 0
0.817914 0.794095 0
0.818341 0.795483 0
0.818235 0.797223 0
0.818051 0.799619 0
0.817838 0.802594 0
0.817563 0.806119 0
0.817258 0.810101 0
0.816922 0.81442 0
0.815351 0.817777 0.477546
0.813474 0.820783 0.624811
0 0.822599 0
0 0.822461 0
0 0.822339 0
0 0.822202 0
0 0.822065 0
0 0.821942 0
0 0.821775 0
0 0.821515 0
0 0.821225 0
0 0.820829 0
0 0.820294 0
0 0.819623 0
0 0.818723 0
0 0.817594 0
0 0.816175 0
0 0.814511 0
0 0.812757 0
0.60351 0.811994 0
0.689021 0.808759 0
0.731914 0.807385 0
0.760418 0.806653 0
0.781964 0.806287 0
0.79939 0.80621 0
0.812558 0.8065 0
0.817456 0.807019 0
0.81738 0.807904 0
0.817258 0.809293 0
0.817105 0.811154 0
0.816922 0.813474 0
0.816678 0.816236 0
0.816434 0.819425 0
0.814969 0.821744 0.472068
0.813123 0.823728 0.626535
0 0.833188 0
0 0.833066 0
0 0.832944 0
0 0.832822 0
0 0.8327 0
0 0.832563 0
0 0.832395 0
0 0.832197 0
0 0.831891 0
0 0.831525 0
0 0.831052 0
0 0.830411 0
0 0.829602 0
0 0.82858 0
0 0.827375 0
0 0.826001 0
0 0.824552 0
0.602823 0.823087 0
0.686793 0.819791 0
0.728222 0.818372 0
0.755734 0.817517 0
0.776989 0.816953 0
0.793988 0.816602 0
0.807614 0.816526 0
0.816571 0.816648 0
0.816541 0.816938 0
0.81648 0.817639 0
0.816373 0.818738 0
0.816236 0.820233 0
0.816083 0.822126 0
0.815915 0.824369 0
0.814435 0.825635 0.483772
0.812741 0.82678 0.630076
0 0.840589 0
0 0.840497 0
0 0.840391 0
0 0.840269 0
0 0.840162 0
0 0.84004 0
0 0.839887 0
0 0.839704 0
0 0.839445 0
0 0.839109 0
0 0.838697 0
0 0.838163 0
0 0.837491 0
0 0.836698 0
0 0.835737 0
0 0.834684 0
0 0.833555 0
0.624292 0.830854 0
0.691035 0.82826 0
0.727718 0.826978 0
0.753216 0.826139 0
0.773556 0.825498 0
0.789944 0.82504 0
0.803311 0.82475 0
0.813962 0.824643 0
0.815717 0.824643 0
0.815686 0.824872 0
0.815641 0.825437 0
0.815564 0.826337 0
0.815473 0.827543 0
0.815396 0.829038 0
0.813703 0.829221 0.51545
0.812314 0.829786 0.636072
0 0.84567 0
0 0.845579 0
0 0.845487 0
0 0.845411 0
0 0.845319 0
0 0.845228 0
0 0.845121 0
0 0.844984 0
0 0.8448 0
0 0.844556 0
0 0.844236 0
0 0.843854 0
0 0.843366 0
0 0.842786 0
0 0.8421 0
0 0.841337 0
0.52961 0.841169 0
0.65507 0.836515 0
0.700694 0.834791 0
0.730266 0.833753 0
0.753002 0.832975 0
0.771679 0.832319 0
0.787015 0.831815 0
0.799878 0.831434 0
0.810254 0.831189 0
0.814923 0.831006 0
0.814954 0.830976 0
0.814954 0.831159 0
0.814923 0.831586 0
0.814908 0.832288 0
0.814908 0.833219 0
0.812863 0.832364 0.557488
0.811856 0.832685 0.644877
0 0.846769 0
0 0.846769 0
0 0.846769 0
0 0.846769 0
0 0.846769 0
0 0.846769 0
0 0.846769 0
0 0.846784 0
0 0.846784 0
0 0.846784 0
0 0.846799 0
0 0.846799 0
0 0.846799 0
0 0.846815 0
0 0.846693 0
0.55848 0.845685 0
0.643641 0.842268 0
0.684916 0.84065 0
0.713573 0.839612 0
0.736049 0.838834 0
0.755215 0.838163 0
0.771603 0.837552 0
0.785412 0.837049 0
0.797436 0.836637 0
0.807355 0.836316 0
0.814252 0.836072 0
0.814298 0.835874 0
0.814343 0.835843 0
0.814374 0.835996 0
0.814404 0.836347 0
0.814481 0.836912 0
0.812024 0.835172 0.594354
0.811444 0.83537 0.656306
0 0.84683 0
0 0.84683 0
0 0.84683 0
0 0.84683 0
0 0.84683 0
0 0.84683 0
0 0.846845 0
0 0.846845 0
0 0.846845 0
0 0.84686 0
0.359976 0.850156 0
0.524651 0.847242 0
0.586404 0.845518 0
0.619715 0.844312 0
0.64744 0.843458 0
0.671229 0.842893 0
0.69221 0.842527 0
0.710933 0.842329 0
0.728252 0.842237 0
0.744427 0.842252 0
0.759457 0.842054 0
0.773098 0.84155 0
0.785061 0.841093 0
0.795972 0.840681 0
0.805127 0.84033 0
0.81268 0.84007 0
0.813748 0.839811 0
0.813825 0.839658 0
0.813901 0.839643 0
0.814008 0.83978 0
0.812436 0.838453 0.517479
0.811322 0.837613 0.625544
0.811078 0.837781 0.669795
0.658015 0.843229 0
0.659373 0.843183 0
0.6607 0.843153 0
0.661997 0.843122 0
0.663264 0.843091 0
0.664561 0.843076 0
0.666178 0.84303 0
0.668254 0.842985 0
0.670909 0.842924 0
