BBLuts/BB_103_0790_LUT.cube
TITLE "Generated by Resolve"
LUT_3D_SIZE 9
0 0 0
0 0 0
0.178851 0 0
0.429053 0 0
0.733181 0 0
0.92752 0 0
0.893919 0.561669 0.150271
0.868635 0.846464 0.506844
0.858747 0.950683 0.79556
0 0.0347295 0
0 0.0472419 0
0.185763 0.0257267 0
0.439643 0 0
0.735378 0 0
0.92752 0 0
0.891905 0.588586 0.137652
0.868345 0.849989 0.505272
0.858717 0.951095 0.795392
0 0.221454 0
0 0.225803 0
0.129412 0.225574 0
0.43357 0.200412 0
0.734218 0.0612192 0
0.913924 0.243534 0
0.889189 0.620783 0.11635
0.867918 0.855085 0.502937
0.858671 0.95169 0.795148
0 0.491981 0
0 0.493095 0
0 0.493645 0
0.361364 0.493156 0
0.716442 0.482979 0
0.896178 0.536446 0
0.882322 0.700954 0
0.866743 0.869154 0.495735
0.858518 0.953521 0.794354
0 0.783642 0
0 0.783536 0
0 0.783169 0
0 0.780743 0
0.642344 0.774533 0
0.852888 0.779812 0
0.871611 0.826703 0
0.864149 0.899962 0.494728
0.858091 0.958679 0.791897
0 0.944533 0
0 0.943801 0
0 0.942672 0
0 0.939147 0
0.612131 0.932342 0
0.800732 0.924651 0
0.862776 0.926772 0.119799
0.860288 0.943954 0.531685
0.857114 0.970748 0.786068
0.536873 0.994583 0.292165
0.551293 0.994629 0.292988
0.570809 0.994293 0.294255
0.615732 0.992752 0.298268
0.696559 0.989364 0.311208
0.789685 0.984604 0.349813
0.854627 0.981262 0.447242
0.856764 0.981796 0.630701
0.855619 0.987488 0.806836
0.765682 0.99585 0.700389
0.766751 0.99585 0.700496
0.768338 0.995865 0.700679
0.773098 0.99588 0.701228
0.785962 0.995941 0.702998
0.812116 0.996063 0.708583
0.845243 0.996231 0.725277
0.855009 0.996307 0.771252
0.854688 0.996368 0.853529
0.830823 0.996277 0.879835
0.830945 0.996277 0.87985
0.831128 0.996277 0.879881
0.831693 0.996277 0.879942
0.833387 0.996292 0.880125
0.83798 0.996307 0.880735
0.847272 0.996353 0.882719
0.854551 0.996399 0.888991
0.85449 0.996399 0.905364
0 0 0.0314794
0 0 0.0317998
0.179675 0 0.0340124
0.429725 0 0.0347143
0.732921 0 0.040177
0.92726 0 0.0855268
0.894118 0.556588 0.230121
0.86862 0.845685 0.534691
0.858747 0.950591 0.799878
0 0.0059205 0.0203861
0.010956 0.0202792 0.0185855
0.198672 0 0.0217746
0.435019 0 0.0200351
0.733944 0 0.00276188
0.927321 0 0.053254
0.892058 0.584298 0.217792
0.868315 0.849256 0.533318
0.858717 0.950988 0.79971
0 0.21059 0
0 0.214359 0
0.151354 0.214496 0
0.432364 0.18851 0
0.736171 0 0
0.914839 0.226001 0
0.889281 0.617624 0.197177
0.867887 0.854398 0.531273
0.858656 0.951598 0.799481
0 0.487739 0
0 0.488792 0
0 0.489204 0
0.373434 0.488365 0
0.71606 0.478904 0
0.896391 0.53344 0
0.882155 0.699229 0.108965
0.866697 0.868574 0.525002
0.858503 0.953429 0.798733
0 0.782498 0
0 0.782376 0
0 0.781979 0
0 0.779538 0
0.644877 0.773373 0
0.853025 0.779034 0
0.871641 0.826276 0
0.864134 0.899748 0.506554
0.858076 0.958618 0.796384
0 0.944305 0
0 0.943557 0
0 0.942428 0
0 0.938918 0
0.613733 0.932174 0
0.801007 0.924514 0
0.862791 0.926696 0.11902
0.860288 0.943893 0.531533
0.857099 0.970703 0.789059
0.539117 0.994583 0.292012
0.553307 0.994644 0.292851
0.57258 0.994217 0.294102
0.616861 0.992706 0.298116
0.697124 0.989319 0.311086
0.789837 0.984573 0.349706
0.854658 0.981247 0.447227
0.856764 0.981796 0.63064
0.855619 0.987472 0.806806
0.76585 0.99585 0.700359
0.766903 0.99585 0.700481
0.76849 0.995865 0.700664
0.773236 0.99588 0.701213
0.786053 0.995941 0.702983
0.812177 0.996063 0.708568
0.845273 0.996231 0.725261
0.855009 0.996307 0.771252
0.854688 0.996368 0.853513
0.830839 0.996277 0.879835
0.830961 0.996277 0.87985
0.831144 0.996277 0.879881
0.831693 0.996277 0.879927
0.833402 0.996292 0.880125
0.837995 0.996307 0.880735
0.847288 0.996353 0.882719
0.854551 0.996399 0.888991
0.85449 0.996399 0.905364
0 0 0.195392
0 0 0.195636
0.153231 0 0.196475
0.439551 0 0.191821
0.732464 0 0.19939
0.926925 0 0.236912
0.89456 0.547311 0.336278
0.868605 0.844511 0.570977
0.858732 0.950439 0.806058
0 0 0.190295
0 0 0.190753
0.182284 0 0.185168
0.438209 0 0.186816
0.734569 0 0.193805
0.92694 0 0.228107
0.892424 0.576226 0.329061
0.868284 0.848127 0.569818
0.858701 0.950851 0.80592
0 0.180499 0.175418
0 0.183368 0.17499
0.140764 0.177005 0.170367
0.420127 0.156863 0.174029
0.733257 0 0.179477
0.91696 0.172839 0.211566
0.88954 0.611429 0.31783
0.867857 0.85333 0.568063
0.85864 0.951461 0.805676
0 0.475715 0.0695048
0 0.476967 0.0708782
0 0.477531 0.0726635
0.374121 0.476204 0.0769665
0.712077 0.467338 0.0841688
0.896742 0.523552 0.128283
0.882139 0.694926 0.280079
0.866651 0.86772 0.562753
0.858488 0.953277 0.804974
0 0.780331 0
0 0.780194 0
0 0.779812 0
0 0.777325 0
0.647242 0.771221 0
0.85304 0.77731 0
0.871366 0.825208 0.138933
0.864042 0.899245 0.547356
0.858061 0.958495 0.802747
0 0.943938 0
0 0.943191 0
0 0.942061 0
0 0.938933 0
0.616175 0.931884 0
0.801434 0.924315 0
0.862806 0.926543 0.117769
0.860304 0.943832 0.531289
0.857084 0.970626 0.795956
0.542443 0.994598 0.291768
0.556329 0.994659 0.292592
0.575235 0.99411 0.293858
0.618555 0.992615 0.297887
0.697963 0.989258 0.310872
0.790082 0.984543 0.349523
0.854704 0.981216 0.447196
0.856764 0.981765 0.630549
0.855619 0.987472 0.80679
0.766079 0.99585 0.700328
0.767147 0.99585 0.70045
0.768719 0.995865 0.700633
0.773434 0.99588 0.701183
0.786236 0.995941 0.702953
0.812268 0.996063 0.708537
0.845289 0.996231 0.725246
0.855009 0.996307 0.771252
0.854688 0.996368 0.853498
0.830869 0.996277 0.879835
0.830991 0.996277 0.87985
0.831174 0.996277 0.879866
0.831739 0.996277 0.879927
0.833417 0.996292 0.880125
0.83801 0.996307 0.880751
0.847303 0.996353 0.882719
0.854551 0.996399 0.888991
0.85449 0.996399 0.905364
0 0 0.447852
0 0 0.448005
0 0 0.448096
0.417121 0 0.446906
0.747723 0 0.450278
0.926314 0 0.471473
0.896391 0.514244 0.528435
0.868635 0.840681 0.651484
0.858701 0.949981 0.823194
0 0 0.445655
0 0 0.445869
0.049012 0 0.445838
0.431785 0 0.444587
0.745846 0 0.447807
0.926314 0 0.468635
0.89398 0.548012 0.525353
0.868315 0.84445 0.650675
0.858671 0.950378 0.823072
0 0.047837 0.441779
0 0.0552377 0.441962
0.0804761 0.0493172 0.441917
0.437507 0 0.440925
0.740581 0 0.444099
0.926329 0 0.4636
0.890791 0.590524 0.520684
0.867857 0.849897 0.6495
0.858625 0.950988 0.822873
0 0.43154 0.418158
0 0.433265 0.418463
0 0.434394 0.419089
0.365164 0.432868 0.420844
0.69955 0.424918 0.424781
0.898482 0.487205 0.442939
0.88278 0.6804 0.506111
0.86659 0.864881 0.645914
0.858457 0.952865 0.822263
0 0.770459 0.324727
0 0.770397 0.325521
0 0.770108 0.326696
0 0.767819 0.330144
0.64358 0.761807 0.341604
0.850675 0.769497 0.37702
0.870954 0.820584 0.466896
0.863874 0.897581 0.63592
0.85803 0.958114 0.820371
0 0.942901 0
0 0.942168 0
0 0.941024 0
0.0299687 0.937987 0
0.616968 0.930892 0
0.80061 0.923461 0.154986
0.862257 0.925872 0.384726
0.860075 0.943236 0.609857
0.857038 0.970382 0.814633
0.552529 0.994644 0.29099
0.56553 0.994324 0.291814
0.583291 0.993805 0.293095
0.623758 0.99234 0.297154
0.700587 0.989059 0.310185
0.790845 0.984436 0.348989
0.854871 0.98114 0.447089
0.856779 0.981735 0.630243
0.855619 0.987442 0.806668
0.766857 0.99585 0.700236
0.767895 0.99585 0.700359
0.769451 0.995865 0.700542
0.774121 0.99588 0.701091
0.786755 0.995941 0.702861
0.812558 0.996063 0.708446
0.84538 0.996231 0.72517
0.855009 0.996307 0.771237
0.854688 0.996368 0.853468
0.830961 0.996277 0.87982
0.831083 0.996277 0.879835
0.831266 0.996277 0.87985
0.831815 0.996277 0.879911
0.833494 0.996292 0.88011
0.838071 0.996307 0.880735
0.847318 0.996353 0.882704
0.854551 0.996399 0.888975
0.85449 0.996399 0.905364
0 0 0.742565
0 0 0.742626
0 0 0.742748
0.246647 0 0.742
0.736049 0 0.738949
0.925353 0 0.742901
0.906355 0.343603 0.757336
0.869245 0.827268 0.790402
0.858701 0.948501 0.860945
0 0 0.741955
0 0 0.742031
0 0 0.742153
0.278889 0 0.741253
0.741039 0 0.738323
0.925353 0 0.742275
0.902144 0.413626 0.755947
0.868879 0.831647 0.789899
0.858656 0.948928 0.860853
0 0 0.741039
0 0 0.741115
0 0 0.741238
0.319585 0 0.740108
0.743938 0 0.737316
0.925353 0 0.741222
0.897276 0.489448 0.753841
0.868345 0.837934 0.789181
0.858595 0.949569 0.860716
0 0.238117 0.735546
0 0.241627 0.735561
0 0.245991 0.735561
0.308049 0.236805 0.734722
0.737942 0.0780804 0.732769
0.910719 0.2645 0.735225
0.886641 0.625025 0.747509
0.866896 0.855131 0.787045
0.858442 0.951507 0.860304
0 0.732631 0.706477
0 0.732906 0.7066
0 0.732952 0.706752
0 0.731441 0.707057
0.630838 0.725734 0.70837
0.844968 0.739574 0.71313
0.871519 0.803265 0.731579
0.863798 0.892088 0.781567
0.857984 0.95697 0.859022
0 0.939849 0.665599
0 0.939116 0.665766
0 0.937987 0.66601
0 0.934432 0.666743
0.590829 0.927321 0.669779
0.790829 0.919478 0.679942
0.861479 0.922515 0.708278
0.859663 0.94107 0.769284
0.856947 0.969619 0.855329
0.547021 0.993973 0.579675
0.560113 0.993622 0.580011
0.577966 0.993103 0.58053
0.618921 0.991669 0.582193
0.695781 0.988403 0.587533
0.786099 0.98378 0.603037
0.850202 0.980484 0.646525
0.856413 0.981155 0.738521
0.855512 0.987106 0.844968
0.769238 0.995865 0.699947
0.770245 0.995865 0.700069
0.77174 0.99588 0.700221
0.776226 0.995895 0.700801
0.788403 0.995956 0.702571
0.813443 0.996063 0.708186
0.845655 0.996231 0.724926
0.855009 0.996307 0.771191
0.854688 0.996368 0.85333
0.831235 0.996277 0.879789
0.831357 0.996277 0.879805
0.831525 0.996277 0.87982
0.832074 0.996277 0.879881
0.833738 0.996292 0.880079
0.83827 0.996307 0.880705
0.847425 0.996353 0.882673
0.854551 0.996399 0.888945
0.85449 0.996399 0.905348
0 0 0.923415
0 0 0.923415
0 0 0.923445
0 0 0.923476
0.632761 0 0.918532
0.924697 0 0.914137
0.924697 0 0.915007
0.874052 0.765881 0.904692
0.858915 0.943694 0.912505
0 0 0.923339
0 0 0.923354
0 0 0.923369
0 0 0.923415
0.639887 0 0.918364
0.924697 0 0.914061
0.924697 0 0.914931
0.873365 0.774044 0.904189
0.858869 0.944183 0.912444
0 0 0.923232
0 0 0.923247
0 0 0.923262
0 0 0.923308
0.650416 0 0.91809
0.924697 0 0.913954
0.924697 0 0.914824
0.872389 0.785428 0.903487
0.858808 0.94493 0.912352
0 0 0.922911
0 0 0.922911
0 0 0.922927
0 0 0.922744
0.676219 0 0.917357
0.924697 0 0.913573
0.924712 0 0.912764
0.869932 0.814328 0.90161
0.85861 0.947143 0.912093
0 0.53782 0.911147
0 0.539162 0.911101
0 0.541192 0.911025
0 0.544945 0.910475
0.628763 0.536324 0.907607
0.891569 0.561791 0.903792
0.878767 0.710842 0.899062
0.865202 0.870176 0.89749
0.858091 0.953353 0.911345
0 0.927901 0.883177
0 0.927413 0.883146
0 0.926558 0.883085
0 0.923125 0.882811
0.510842 0.914656 0.882414
0.779721 0.90573 0.882399
0.861585 0.911467 0.884184
0.859785 0.934432 0.89131
0.856931 0.967391 0.909377
0.429435 0.993149 0.867979
0.454063 0.992752 0.867979
0.486778 0.992157 0.867979
0.55819 0.990463 0.868009
0.662196 0.986709 0.868162
0.76878 0.981613 0.869154
0.839384 0.978271 0.872969
0.856016 0.979507 0.88307
0.85536 0.986206 0.905104
0.7626 0.995926 0.832517
0.763607 0.995941 0.832563
0.765103 0.995941 0.832639
0.769619 0.995956 0.832853
0.781857 0.996017 0.833585
0.807126 0.996139 0.835889
0.839841 0.996292 0.842924
0.854658 0.996368 0.861418
0.854536 0.996399 0.89453
0.83209 0.996277 0.879683
0.832197 0.996292 0.879698
0.832364 0.996292 0.879713
0.832898 0.996292 0.879774
0.834501 0.996292 0.879973
0.838865 0.996323 0.880598
0.847745 0.996353 0.882582
0.854551 0.996399 0.888853
0.85449 0.996399 0.905333
0 0 0.970138
0 0 0.970138
0 0 0.970138
0 0 0.970138
0 0 0.970138
0.915557 0 0.970764
0.924483 0 0.970764
0.924483 0 0.970764
0.860578 0.922164 0.955688
0 0 0.970138
0 0 0.970138
0 0 0.970138
0 0 0.970138
0 0 0.970138
0.916762 0 0.970764
0.924483 0 0.970764
0.924483 0 0.970764
0.860502 0.923049 0.955627
0 0 0.970138
0 0 0.970138
0 0 0.970138
0 0 0.970138
0 0 0.970138
0.918547 0 0.970764
0.924483 0 0.970764
0.924483 0 0.970764
0.860395 0.924361 0.955535
0 0 0.970138
0 0 0.970138
0 0 0.970138
0 0 0.970138
0 0 0.970138
0.923949 0 0.970764
0.924483 0 0.970764
0.924483 0 0.970764
0.860059 0.928283 0.95523
0 0 0.970138
0 0 0.970138
0 0 0.970138
0 0 0.970138
0.219471 0 0.97026
0.924483 0 0.970764
0.924483 0 0.970764
0.884886 0.636011 0.968368
0.85919 0.938643 0.954452
0 0.820905 0.963424
0 0.821195 0.963424
0 0.821637 0.963378
0 0.823041 0.963287
0 0.818891 0.962112
0.794049 0.810452 0.959747
0.867658 0.838682 0.957
0.862272 0.902388 0.953674
0.857466 0.958846 0.952819
0 0.992981 0.94815
0 0.992981 0.948089
0 0.992691 0.947997
0 0.989517 0.947707
0.568063 0.984115 0.947494
0.74844 0.976654 0.947036
0.834699 0.972457 0.947021
0.856153 0.974884 0.947738
0.855406 0.983764 0.950423
0.738323 0.995895 0.941695
0.739666 0.995911 0.941695
0.74165 0.995911 0.941695
0.74757 0.995941 0.941695
0.763394 0.996017 0.94168
0.794507 0.996155 0.941726
0.832212 0.996338 0.942092
0.854353 0.996429 0.943603
0.854337 0.996429 0.94757
0.829236 0.996307 0.928206
0.829343 0.996307 0.928206
0.829526 0.996307 0.928222
0.830045 0.996307 0.928252
0.831647 0.996323 0.928328
0.835996 0.996338 0.928588
0.844923 0.996384 0.929442
0.854398 0.996429 0.932021
0.854368 0.996429 0.938918
0 0.0887465 0.970092
0 0.0887617 0.970092
0 0.0887617 0.970092
0 0.0887617 0.970092
0 0.0888075 0.970092
0 0.0889296 0.970092
0.924483 0 0.970764
0.909178 0.277089 0.970657
0.87921 0.702419 0.970443
0 0.088716 0.970092
0 0.088716 0.970092
0 0.0887465 0.970092
0 0.0887465 0.970092
0 0.088777 0.970092
0 0.0889296 0.970092
0.924483 0 0.970764
0.909148 0.27747 0.970657
0.87921 0.702403 0.970443
0 0.0887007 0.970092
0 0.0887007 0.970092
0 0.0887007 0.970092
0 0.088716 0.970092
0 0.0887617 0.970092
0 0.0888838 0.970092
0.924483 0 0.970764
0.909117 0.27805 0.970657
0.879225 0.702373 0.970459
0 0.0885786 0.970092
0 0.0885786 0.970092
0 0.0885786 0.970092
0 0.0886091 0.970092
0 0.0886549 0.970092
0 0.088777 0.970092
0.924483 0 0.970764
0.909026 0.279896 0.970657
0.879225 0.702281 0.970459
0 0.0882734 0.970092
0 0.0882734 0.970092
0 0.0882887 0.970092
0 0.0882887 0.970092
0 0.0883345 0.970092
0 0.0884565 0.970092
0.924483 0 0.970764
0.908843 0.283207 0.970657
0.879255 0.70193 0.970443
0 0.0872358 0.970092
0 0.0872358 0.970092
0 0.0872358 0.970092
0 0.0872663 0.970092
0 0.0872816 0.970092
0.697398 0 0.970581
0.924483 0 0.970764
0.908553 0.288624 0.970657
0.864424 0.876127 0.970352
0 0.959884 0.969665
0 0.95993 0.969665
0 0.959976 0.969665
0 0.960128 0.969665
0 0.960632 0.969665
0.632746 0.943069 0.970123
0.840528 0.936675 0.970291
0.858381 0.947372 0.970306
0.856367 0.97142 0.970291
0.613092 0.995346 0.970077
0.618616 0.995377 0.970077
0.626612 0.995407 0.970092
0.648661 0.995514 0.970108
0.697246 0.995743 0.970153
0.765682 0.996048 0.970199
0.824552 0.996323 0.97026
0.854246 0.99646 0.970275
0.854246 0.99646 0.970275
0.820722 0.996292 0.968856
0.820874 0.996292 0.968856
0.821103 0.996307 0.968856
0.821805 0.996307 0.968856
0.823896 0.996307 0.968856
0.829435 0.996338 0.968841
0.840421 0.996384 0.968856
0.852979 0.996445 0.968948
0.854261 0.99646 0.96936
0 0.366384 0.970001
0 0.366384 0.970001
0 0.366384 0.970001
0 0.366384 0.970001
0 0.3664 0.970001
0 0.36643 0.970001
0 0.366567 0.970001
0.901518 0.410925 0.970611
0.875685 0.743938 0.970428
0 0.366369 0.970001
0 0.366369 0.970001
0 0.366369 0.970001
0 0.366384 0.970001
0 0.366384 0.970001
0 0.366415 0.970001
0 0.366552 0.970001
0.901503 0.411109 0.970611
0.875669 0.743984 0.970428
0 0.366369 0.970001
0 0.366369 0.970001
0 0.366369 0.970001
0 0.366369 0.970001
0 0.366384 0.970001
0 0.366415 0.970001
0 0.366552 0.970001
0.901488 0.411368 0.970596
0.875669 0.74403 0.970428
0 0.366323 0.970001
0 0.366323 0.970001
0 0.366323 0.970001
0 0.366339 0.970001
0 0.366339 0.970001
0 0.366384 0.970001
0 0.366506 0.970001
0.901442 0.412238 0.970596
0.875654 0.744183 0.970428
0 0.366232 0.970001
0 0.366232 0.970001
0 0.366232 0.970001
0 0.366232 0.970001
0 0.366247 0.970001
0 0.366293 0.970001
0 0.366415 0.970001
0.901259 0.414954 0.970596
0.875608 0.744671 0.970428
0 0.365911 0.970001
0 0.365911 0.970001
0 0.365927 0.970001
0 0.365927 0.970001
0 0.365927 0.970001
0 0.365988 0.970001
0 0.363546 0.970001
0.90071 0.423499 0.970596
0.875547 0.745525 0.970428
0 0.36492 0.970001
0 0.36492 0.970001
0 0.36492 0.970001
0 0.364935 0.970001
0 0.364935 0.970001
0 0.364965 0.970001
0.924483 0 0.970764
0.899428 0.443442 0.970596
0.875425 0.747005 0.970428
0 0.992996 0.96965
0 0.992996 0.96965
0 0.992996 0.96965
0 0.992996 0.96965
0 0.992996 0.96965
0 0.992996 0.96965
0.782971 0.987335 0.97023
0.855253 0.984649 0.970291
0.854932 0.988403 0.970275
0.779232 0.996109 0.970214
0.779767 0.996109 0.970214
0.780545 0.996109 0.970214
0.782971 0.996124 0.970214
0.789899 0.996155 0.97023
0.806119 0.996231 0.970245
0.830503 0.996338 0.97026
0.85037 0.996429 0.970275
0.854246 0.99646 0.970275
