BBLuts/BB_103_0030_LUT.cube
TITLE "Generated by Resolve"
LUT_3D_SIZE 5
0 0 0
0.181262 0 0
0.720333 0 0
0.90071 0.558465 0.0485389
0.872663 0.969512 0.646494
0 0.207996 0
0.123217 0.209949 0
0.718212 0.0936751 0
0.895705 0.613596 0.0117952
0.872633 0.96997 0.64625
0 0.780301 0
0 0.780056 0
0.611551 0.771191 0
0.878569 0.825971 0
0.872206 0.976059 0.642588
0.489662 1 0.142306
0.489662 1 0.142306
0.647562 1 0.156222
0.862104 1 0.292683
0.869749 1 0.672709
0.836332 1 0.763958
0.836332 1 0.763958
0.836332 1 0.763958
0.853407 1 0.766781
0.868147 1 0.794293
0 0 0.146715
0.150546 0 0.143526
0.722713 0 0.140475
0.903395 0.547066 0.201709
0.872663 0.969512 0.64651
0 0.167788 0.132357
0.129915 0.16437 0.126619
0.721263 0 0.126925
0.899031 0.606622 0.185641
0.872633 0.96997 0.64625
0 0.775753 0
0 0.775479 0
0.616007 0.766751 0
0.880171 0.825849 0.010071
0.872206 0.976059 0.642588
0.497673 1 0.141848
0.497673 1 0.141848
0.649638 1 0.155718
0.862181 1 0.292454
0.869749 1 0.672709
0.836362 1 0.763958
0.836362 1 0.763958
0.836362 1 0.763958
0.853437 1 0.766781
0.868147 1 0.794293
0 0 0.657343
0 0 0.657435
0.711101 0 0.647532
0.921904 0.273381 0.66067
0.872358 0.966857 0.738262
0 0 0.656291
0 0 0.656352
0.719905 0 0.646006
0.910719 0.43621 0.656947
0.872312 0.967346 0.738125
0 0.722667 0.61709
0 0.722713 0.617121
0.591638 0.716396 0.615839
0.885008 0.8009 0.633051
0.871855 0.97377 0.7364
0.491417 1 0.508385
0.491417 1 0.508385
0.638849 1 0.512489
0.856504 0.99939 0.557504
0.869551 1 0.717998
0.836881 1 0.763897
0.836881 1 0.763897
0.836881 1 0.763897
0.85362 1 0.766705
0.868147 1 0.794263
0 0 0.890379
0 0 0.890379
0 0 0.890379
0.938979 0 0.884245
0.874128 0.930236 0.86479
0 0 0.890379
0 0 0.890379
0 0 0.890379
0.938979 0 0.884245
0.874037 0.931609 0.864683
0 0 0.890379
0 0 0.890379
0 0 0.890379
0.938979 0 0.884245
0.872938 0.946914 0.863462
0 1 0.857588
0 1 0.857588
0 1 0.857588
0.837995 0.988342 0.855482
0.868986 1 0.858274
0.832456 1 0.838422
0.832456 1 0.838422
0.832456 1 0.838422
0.848524 1 0.83917
0.867781 1 0.847074
0 0.29485 0.888609
0 0.29485 0.888609
0 0.29485 0.888609
0 0.294926 0.888609
0.891966 0.679957 0.883741
0 0.29485 0.888609
0 0.29485 0.888609
0 0.29485 0.888609
0 0.294926 0.888609
0.891966 0.679957 0.883741
0 0.29485 0.888609
0 0.29485 0.888609
0 0.29485 0.888609
0 0.294926 0.888609
0.891966 0.679957 0.883741
0 0.293614 0.888624
0 0.293614 0.888624
0 0.293614 0.888624
0 0.29366 0.888624
0.891676 0.684047 0.883711
0.768551 1 0.88098
0.768551 1 0.88098
0.768551 1 0.88098
0.768551 1 0.88098
0.867536 1 0.881453
