BBLuts/BB_101_0110_LUT.cube
TITLE "Generated by Resolve"
LUT_3D_SIZE 5
0 0 0
0.198001 0 0
0.7411 0.00914015 0.0125124
0.909285 0.547555 0.0588998
0.857877 0.984604 0.600458
0 0.219486 0
0.137667 0.221088 0
0.729427 0.12604 0
0.902739 0.604517 0.00460822
0.857816 0.985092 0.600168
0 0.796643 0
0 0.796368 0
0.589395 0.779644 0
0.876097 0.83975 0
0.857038 0.991485 0.595941
0.441291 1 0.114565
0.441291 1 0.114565
0.614145 1 0.12842
0.843778 1 0.257542
0.853193 1 0.622324
0.818082 1 0.708721
0.818082 1 0.708721
0.818082 1 0.708721
0.836286 1 0.711421
0.852262 1 0.737392
0 0 0.196109
0.167437 0 0.198642
0.739971 0.00906386 0.217029
0.910719 0.533852 0.220508
0.857877 0.984588 0.600473
0 0.177554 0.170001
0.141497 0.174441 0.165637
0.735988 0.0289921 0.199283
0.903487 0.59324 0.199145
0.857816 0.985077 0.600168
0 0.791577 0
0 0.791287 0
0.594461 0.774777 0
0.875212 0.837018 0
0.857038 0.991485 0.595941
0.449454 1 0.114076
0.449454 1 0.114076
0.616403 1 0.127932
0.843839 1 0.257343
0.853193 1 0.622324
0.818128 1 0.708721
0.818128 1 0.708721
0.818128 1 0.708721
0.836301 1 0.711406
0.852262 1 0.737392
0.00933852 0 0.693599
0.00935378 0 0.69369
0.732799 0.0145113 0.702281
0.944854 0.29163 0.684764
0.858625 0.982544 0.689632
0.00932326 0 0.692531
0.00932326 0 0.692592
0.742657 0.0148165 0.701045
0.925505 0.434546 0.665415
0.858564 0.983047 0.689464
0 0.726635 0.596155
0 0.726696 0.59617
0.565713 0.712734 0.593973
0.879362 0.805142 0.604379
0.85774 0.989822 0.687175
0.442603 1 0.455894
0.442603 1 0.455894
0.604318 1 0.460487
0.838529 1 0.508324
0.853468 1 0.666209
0.818677 1 0.708659
0.818677 1 0.708659
0.818677 1 0.708659
0.8365 1 0.71136
0.852262 1 0.737377
0.0148013 0.00450141 0.919066
0.0148013 0.00450141 0.919066
0.0148013 0.00450141 0.919066
0.990555 0.0270085 0.936507
0.86389 0.945556 0.811627
0.0148013 0.00450141 0.919066
0.0148013 0.00450141 0.919066
0.0148013 0.00450141 0.919066
0.990555 0.0270085 0.936507
0.863722 0.947005 0.811383
0.0148013 0.00450141 0.919066
0.0148013 0.00450141 0.919066
0.0148013 0.00450141 0.919066
0.990555 0.0270085 0.936507
0.861799 0.962768 0.808728
0 1 0.801526
0 1 0.801526
0 1 0.801526
0.822477 1 0.79704
0.854826 1 0.798383
0.814893 1 0.778164
0.814893 1 0.778164
0.814893 1 0.778164
0.831983 1 0.778897
0.852537 1 0.786267
0 0.307393 0.889738
0 0.307393 0.889738
0 0.307393 0.889738
0 0.307469 0.889723
0.896895 0.676997 0.85568
0 0.307393 0.889738
0 0.307393 0.889738
0 0.307393 0.889738
0 0.307469 0.889723
0.896895 0.676997 0.85568
0 0.307393 0.889738
0 0.307393 0.889738
0 0.307393 0.889738
0 0.307469 0.889723
0.896895 0.676997 0.85568
0 0.306264 0.88983
0 0.306264 0.88983
0 0.306264 0.88983
0 0.306325 0.88983
0.896345 0.681453 0.855207
0.747646 1 0.817349
0.747646 1 0.817349
0.747646 1 0.817349
0.747646 1 0.817349
0.852735 1 0.81796
