BBLuts/BB_103_0940_LUT.cube
TITLE "Generated by Resolve"
LUT_3D_SIZE 9
0.0699626 0.0676738 0.0522469
0.0699626 0.0676738 0.0522469
0.309163 0.0696422 0.0527657
0.577218 0.0759289 0.0569314
0.843275 0.0879072 0.0652323
1 0.09691 0.0716564
0.977188 0.685313 0.234806
0.949233 0.956588 0.616159
0.937087 1 0.904646
0.06215 0.146792 0.0523995
0.0607919 0.160876 0.0524758
0.314794 0.136034 0.0516365
0.585229 0.0762646 0.0571603
0.84535 0.088014 0.0652934
1 0.09691 0.0716564
0.975006 0.708705 0.221698
0.948943 0.959976 0.614908
0.937057 1 0.904479
0.0425269 0.352041 0.0542
0.0420691 0.356878 0.0542458
0.252064 0.353094 0.0509346
0.573831 0.327276 0.0521401
0.839933 0.186267 0.0607767
1 0.383932 0.060441
0.972091 0.740291 0.199863
0.948516 0.964843 0.613077
0.937011 1 0.904219
0.0109255 0.62829 0.0583352
0.0107729 0.629175 0.0583505
0.0106966 0.629618 0.0583658
0.501015 0.62388 0.0509346
0.812818 0.618128 0.0531167
0.979202 0.663371 0.0550851
0.964797 0.817853 0.0529793
0.947356 0.978317 0.607599
0.936858 1 0.903395
0 0.90576 0.0654154
0 0.905653 0.0654002
0 0.905303 0.0654002
0 0.902922 0.0653391
0.740368 0.88719 0.0509651
0.936965 0.89369 0.0521248
0.953841 0.938903 0.0520333
0.944747 1 0.606851
0.936446 1 0.900832
0 1 0.0688792
0 1 0.0688487
0 1 0.0688334
0 1 0.0687572
0.711208 1 0.0510872
0.887861 1 0.0512856
0.945357 1 0.201099
0.940658 1 0.637415
0.935515 1 0.894774
0.645167 1 0.381567
0.656962 1 0.382345
0.673228 1 0.383581
0.714153 1 0.387717
0.790326 1 0.401877
0.876677 1 0.446311
0.935805 1 0.560998
0.936461 1 0.73283
0.933867 1 0.916472
0.851743 1 0.804913
0.85275 1 0.805035
0.854215 1 0.805234
0.85861 1 0.805814
0.870497 1 0.807691
0.894621 1 0.813581
0.924987 1 0.831083
0.933547 1 0.879362
0.932525 1 0.965286
0.910338 1 0.992721
0.91046 1 0.992721
0.910613 1 0.992752
0.911131 1 0.992813
0.912688 1 0.993027
0.916915 1 0.993698
0.925444 1 0.995804
0.932082 1 1
0.931868 1 1
0.0705882 0.0686961 0.115312
0.0706035 0.0686961 0.115648
0.309316 0.0704814 0.117021
0.578332 0.0766461 0.123003
0.843473 0.088426 0.136721
1 0.0975052 0.18851
0.977264 0.680858 0.316533
0.94905 0.955688 0.639979
0.937041 1 0.909163
0.0657816 0.114748 0.104448
0.123003 0.130297 0.10193
0.332052 0.0707561 0.106905
0.582376 0.0766766 0.108736
0.844251 0.0882277 0.100053
1 0.0973831 0.156237
0.975036 0.70486 0.303059
0.948745 0.959106 0.638773
0.937011 1 0.908995
0.0436713 0.340063 0.0540627
0.0432746 0.344198 0.0541085
0.275685 0.340856 0.0508125
0.573129 0.314687 0.0522316
0.846113 0.0880446 0.0653239
1 0.365087 0.0608682
0.972091 0.737179 0.281254
0.948318 0.964034 0.636988
0.936965 1 0.908751
0.0114748 0.624887 0.0582589
0.0113375 0.625727 0.0582742
0.0112764 0.626062 0.0582742
0.512673 0.620127 0.0509346
0.812512 0.61503 0.0531624
0.979446 0.660868 0.0551308
0.965042 0.816709 0.191562
0.947158 0.9776 0.63154
0.936812 1 0.907973
0 0.904646 0.0653849
0 0.904524 0.0653849
0 0.904143 0.0653697
0 0.901732 0.0653239
0.742779 0.886076 0.0509651
0.937102 0.892943 0.0521401
0.953887 0.938476 0.0520333
0.944671 1 0.615946
0.9364 1 0.905531
0 1 0.068864
0 1 0.0688487
0 1 0.0688334
0 1 0.0687572
0.712734 1 0.0510719
0.888121 1 0.0512856
0.945373 1 0.200336
0.940673 1 0.637293
0.935485 1 0.897902
0.646983 1 0.381369
0.65861 1 0.382162
0.674708 1 0.383398
0.715221 1 0.387533
0.79086 1 0.401724
0.876814 1 0.446174
0.935836 1 0.560983
0.936461 1 0.732754
0.933867 1 0.916442
0.851896 1 0.804883
0.852888 1 0.80502
0.854353 1 0.805203
0.858747 1 0.805783
0.870604 1 0.807675
0.894667 1 0.813565
0.925002 1 0.831067
0.933547 1 0.879362
0.932525 1 0.96527
0.910353 1 0.992721
0.91046 1 0.992721
0.910643 1 0.992752
0.911147 1 0.992813
0.912703 1 0.993027
0.91693 1 0.993698
0.92546 1 0.995789
0.932082 1 1
0.931868 1 1
0.0715038 0.0705272 0.28011
0.0715038 0.0705272 0.280369
0.283589 0.071519 0.280049
0.586191 0.0779736 0.281041
0.84329 0.0890669 0.297246
1 0.0977951 0.34374
0.97731 0.672633 0.434485
0.948806 0.954345 0.672557
0.93698 1 0.915618
0.0714885 0.0704814 0.274891
0.0714885 0.0704814 0.275364
0.317281 0.0719768 0.274983
0.585245 0.0779126 0.275914
0.845289 0.0891432 0.2916
1 0.0977951 0.334295
0.97499 0.697459 0.425635
0.948501 0.957794 0.671473
0.93695 1 0.915465
0.0471199 0.308858 0.260655
0.0468299 0.311925 0.260227
0.265705 0.301915 0.252079
0.563653 0.282109 0.257191
0.844053 0.0890516 0.276951
1 0.309987 0.305699
0.971923 0.730739 0.412146
0.948074 0.962783 0.669871
0.936904 1 0.915221
0.0128939 0.616144 0.159014
0.012726 0.617121 0.160388
0.0126497 0.617563 0.162173
0.513756 0.611399 0.158251
0.809354 0.606897 0.16733
0.980316 0.653315 0.213291
0.964614 0.811994 0.368658
0.946883 0.976532 0.665019
0.936751 1 0.914488
0 0.90251 0.0653391
0 0.902373 0.0653239
0 0.901991 0.0653239
0 0.899565 0.0652628
0.745007 0.884016 0.0509651
0.937133 0.891279 0.0521401
0.953918 0.937926 0.220645
0.944335 1 0.651194
0.936324 1 0.912169
0 1 0.068864
0 1 0.0688487
0 1 0.0688182
0.11751 1 0.0592813
0.715053 1 0.0510719
0.888518 1 0.0512856
0.945388 1 0.199084
0.940673 1 0.637079
0.935409 1 0.905104
0.649699 1 0.381064
0.661128 1 0.381857
0.676951 1 0.383093
0.716808 1 0.387274
0.791638 1 0.401495
0.877043 1 0.44596
0.935882 1 0.560937
0.936461 1 0.732662
0.933867 1 0.916411
0.852125 1 0.804868
0.853101 1 0.80499
0.854566 1 0.805173
0.85893 1 0.805768
0.870756 1 0.80763
0.894759 1 0.813535
0.925032 1 0.831052
0.933547 1 0.879362
0.932525 1 0.965255
0.910384 1 0.992721
0.910491 1 0.992721
0.910658 1 0.992737
0.911177 1 0.992813
0.912718 1 0.993027
0.916945 1 0.993698
0.925475 1 0.995789
0.932082 1 1
0.931868 1 1
0.0719463 0.0725109 0.564233
0.0719463 0.0725109 0.564385
0.0719463 0.0725261 0.564477
0.567285 0.0782635 0.565774
0.857008 0.0900282 0.576684
1 0.0977646 0.600397
0.978347 0.644358 0.636118
0.948272 0.950088 0.754314
0.936812 1 0.933516
0.0719463 0.0724956 0.561975
0.0719463 0.0724956 0.562203
0.17055 0.0721141 0.561334
0.580163 0.078645 0.563653
0.855238 0.0899519 0.574182
1 0.0977646 0.59826
0.975647 0.672251 0.633143
0.947951 0.953689 0.753475
0.936782 1 0.933379
0.0614633 0.164569 0.557351
0.0605783 0.172763 0.557534
0.202792 0.164431 0.555764
0.584298 0.0787976 0.559991
0.850278 0.0897231 0.570306
1 0.0977646 0.594247
0.972122 0.70901 0.628779
0.947494 0.958892 0.752239
0.936721 1 0.933181
0.0165255 0.582528 0.535836
0.0162966 0.584039 0.536202
0.016144 0.584985 0.536919
0.504463 0.578256 0.531746
0.79704 0.572961 0.538201
0.981109 0.623438 0.559884
0.963943 0.796719 0.615869
0.946227 0.973236 0.748516
0.936568 1 0.93254
0 0.892912 0.435111
0 0.892866 0.436027
0 0.892561 0.437354
0 0.890303 0.441306
0.741192 0.874876 0.436652
0.934279 0.883452 0.479973
0.951827 0.932097 0.581201
0.943542 1 0.73814
0.936141 1 0.930571
0 1 0.0688334
0 1 0.0688182
0 1 0.0688029
0.153536 1 0.0581826
0.715801 1 0.0510719
0.887999 1 0.236225
0.943648 1 0.488548
0.939925 1 0.71104
0.935195 1 0.92459
0.657984 1 0.380102
0.668803 1 0.380911
0.683787 1 0.382177
0.721736 1 0.386404
0.794079 1 0.400717
0.87776 1 0.445319
0.936034 1 0.560845
0.936477 1 0.732341
0.933867 1 0.916289
0.852842 1 0.804761
0.853803 1 0.804898
0.855238 1 0.805081
0.859571 1 0.805661
0.871244 1 0.807553
0.895018 1 0.813443
0.925109 1 0.830976
0.933547 1 0.879332
0.932525 1 0.965209
0.91046 1 0.992706
0.910567 1 0.992721
0.910735 1 0.992721
0.911254 1 0.992798
0.912795 1 0.993011
0.916991 1 0.993683
0.92549 1 0.995773
0.932082 1 1
0.931868 1 1
0.0730144 0.0756085 0.851423
0.0730144 0.0756085 0.851499
0.0730144 0.0756085 0.851637
0.387549 0.0766003 0.850233
0.845121 0.0904402 0.854505
1 0.0982223 0.863462
0.989593 0.49305 0.868849
0.947845 0.936187 0.899306
0.936477 1 0.972992
0.0730144 0.0755932 0.850782
0.0730144 0.0755932 0.850874
0.0730144 0.0756085 0.850996
0.423178 0.0771191 0.849699
0.849851 0.0906386 0.853956
1 0.0982223 0.862791
0.983963 0.563653 0.866499
0.947463 0.940368 0.898787
0.936431 1 0.972885
0.0730144 0.0755932 0.849821
0.0730144 0.0755932 0.849897
0.0730144 0.0755932 0.850019
0.469383 0.0778515 0.84889
0.852583 0.0907454 0.852964
1 0.0982223 0.861692
0.978149 0.623484 0.863386
0.946929 0.94638 0.898024
0.936385 1 0.972747
0.0390021 0.37258 0.843824
0.0385901 0.376455 0.843854
0.0380713 0.381292 0.843885
0.44651 0.366522 0.839429
0.841657 0.205066 0.844144
0.996124 0.405539 0.846464
0.966644 0.741512 0.855116
0.945434 0.962798 0.895781
0.936217 1 0.97232
0 0.853773 0.821225
0 0.854047 0.821363
0 0.854093 0.821515
0 0.852598 0.821805
0.727016 0.837751 0.812222
0.927016 0.852445 0.818372
0.950652 0.913695 0.837674
0.942321 0.997711 0.890028
0.93576 1 0.970993
0 1 0.78262
0 1 0.782773
0 1 0.783001
0 1 0.783703
0.687846 1 0.772747
0.875669 1 0.783536
0.940551 1 0.813352
0.938231 1 0.877226
0.934752 1 0.967132
0.651484 1 0.680491
0.662303 1 0.680751
0.677287 1 0.681178
0.715206 1 0.682597
0.787655 1 0.687526
0.871534 1 0.703487
0.930312 1 0.749218
0.935241 1 0.844877
0.933425 1 0.956313
0.855055 1 0.804471
0.855985 1 0.804593
0.857359 1 0.804776
0.861509 1 0.805371
0.87277 1 0.807248
0.895842 1 0.813169
0.925368 1 0.830716
0.933547 1 0.879286
0.932525 1 0.965072
0.910719 1 0.99266
0.910826 1 0.992676
0.910994 1 0.992706
0.911498 1 0.992767
0.913024 1 0.992981
0.917174 1 0.993652
0.925582 1 0.995758
0.932082 1 1
0.931868 1 1
0.073518 0.0774395 1
0.073518 0.0774395 1
0.073518 0.0774395 1
0.073518 0.0774395 1
0.74583 0.0871595 1
1 0.0985122 1
1 0.0985122 1
0.951949 0.876509 1
0.936248 1 1
0.073518 0.0774243 1
0.073518 0.0774395 1
0.073518 0.0774395 1
0.073518 0.0774395 1
0.752651 0.0874189 1
1 0.0985122 1
1 0.0985122 1
0.951232 0.884337 1
0.936202 1 1
0.073518 0.0774395 1
0.073518 0.0774395 1
0.073518 0.0774395 1
0.073518 0.0774243 1
0.762722 0.0878004 1
1 0.0985122 1
1 0.0985122 1
0.95021 0.895247 1
0.936141 1 1
0.073518 0.0774243 1
0.073518 0.0774243 1
0.073518 0.0774243 1
0.073518 0.0774243 1
0.787335 0.0887465 1
1 0.0985122 1
1 0.0985122 1
0.947662 0.922911 1
0.935958 1 1
0 0.66453 1
0 0.665675 1
0 0.667414 1
0 0.670665 1
0.725643 0.657465 1
0.970657 0.681559 1
0.957 0.823651 1
0.942794 0.976226 1
0.935424 1 1
0 1 1
0 1 1
0 1 1
0 1 1
0.620279 1 0.995178
0.863767 1 0.995056
0.939223 1 0.997299
0.937316 1 1
0.934279 1 1
0.560327 1 0.980972
0.577859 1 0.980819
0.601663 1 0.980621
0.658335 1 0.980301
0.753582 1 0.980194
0.853239 1 0.981308
0.91841 1 0.985519
0.933593 1 0.99617
0.932754 1 1
0.847745 1 0.943008
0.848676 1 0.943069
0.850065 1 0.94313
0.854246 1 0.943374
0.865568 1 0.944167
0.888884 1 0.946654
0.918975 1 0.954131
0.932433 1 0.973541
0.932006 1 1
0.911513 1 0.992554
0.911604 1 0.992584
0.911757 1 0.992599
0.912245 1 0.99266
0.913725 1 0.992874
0.917723 1 0.993545
0.925872 1 0.995651
0.932082 1 1
0.931868 1 1
0.0736095 0.0778668 1
0.0736095 0.0778668 1
0.0736095 0.0778668 1
0.0736095 0.0778668 1
0.0736095 0.0778668 1
1 0.0982376 1
1 0.0986038 1
1 0.0986038 1
0.93756 1 1
0.0736095 0.0778668 1
0.0736095 0.0778668 1
0.0736095 0.0778668 1
0.0736095 0.0778668 1
0.0736095 0.0778668 1
1 0.0982834 1
1 0.0986038 1
1 0.0986038 1
0.937484 1 1
0.0736095 0.0778668 1
0.0736095 0.0778668 1
0.0736095 0.0778668 1
0.0736095 0.0778668 1
0.0736095 0.0778668 1
1 0.0983597 1
1 0.0986038 1
1 0.0986038 1
0.937377 1 1
0.0736095 0.0778668 1
0.0736095 0.0778668 1
0.0736095 0.0778668 1
0.0736095 0.0778668 1
0.0736095 0.0778668 1
1 0.0985733 1
1 0.0986038 1
1 0.0986038 1
0.937041 1 1
0.0736095 0.0778668 1
0.0736095 0.0778668 1
0.0736095 0.0778668 1
0.0736095 0.0778668 1
0.359365 0.0779278 1
1 0.0986038 1
1 0.0986038 1
0.963134 0.75053 1
0.936156 1 1
0 0.938293 1
0 0.938567 1
0 0.93901 1
0 0.940352 1
0 0.936339 1
0.877043 0.918242 1
0.944823 0.945693 1
0.939315 1 1
0.934432 1 1
0 1 1
0 1 1
0 1 1
0 1 1
0.665904 1 1
0.833692 1 1
0.913436 1 1
0.933135 1 1
0.932372 1 1
0.824231 1 1
0.825467 1 1
0.827314 1 1
0.832807 1 1
0.847486 1 1
0.87628 1 1
0.91104 1 1
0.93138 1 1
0.931334 1 1
0.908431 1 1
0.908537 1 1
0.90869 1 1
0.909178 1 1
0.910643 1 1
0.914656 1 1
0.92285 1 1
0.931533 1 1
0.931441 1 1
0.0564889 0.212329 1
0.0564889 0.21236 1
0.0564889 0.21236 1
0.0564889 0.21236 1
0.0564889 0.212406 1
0.0564736 0.212543 1
1 0.0986038 1
0.992813 0.418647 1
0.956939 0.814969 1
0.0564889 0.212314 1
0.0564889 0.212314 1
0.0564889 0.212329 1
0.0564889 0.212329 1
0.0564889 0.212375 1
0.0564736 0.212543 1
1 0.0986038 1
0.992782 0.419059 1
0.956939 0.814939 1
0.0565042 0.212284 1
0.0565042 0.212284 1
0.0565042 0.212284 1
0.0564889 0.212314 1
0.0564889 0.21236 1
0.0564736 0.212497 1
1 0.0986038 1
0.992737 0.419699 1
0.956939 0.814923 1
0.0565042 0.212161 1
0.0565042 0.212161 1
0.0565042 0.212161 1
0.0565042 0.212192 1
0.0565042 0.212238 1
0.0564889 0.212375 1
1 0.0986038 1
0.992584 0.421698 1
0.956939 0.814817 1
0.0565499 0.211826 1
0.0565499 0.211826 1
0.0565499 0.211841 1
0.0565499 0.211841 1
0.0565499 0.211887 1
0.0565347 0.212024 1
1 0.0986038 1
0.992309 0.42533 1
0.95697 0.814496 1
0.0566873 0.210712 1
0.0566873 0.210712 1
0.0566873 0.210712 1
0.0566873 0.210727 1
0.056672 0.210758 1
0.807507 0.0897231 1
1 0.0986038 1
0.991882 0.431266 1
0.941375 0.981262 1
0 1 1
0 1 1
0 1 1
0 1 1
0 1 1
0.725185 1 1
0.918883 1 1
0.935195 1 1
0.93315 1 1
0.706386 1 1
0.711604 1 1
0.719142 1 1
0.73991 1 1
0.785687 1 1
0.849348 1 1
0.903731 1 1
0.931044 1 1
0.931044 1 1
0.900221 1 1
0.900359 1 1
0.900572 1 1
0.901198 1 1
0.90312 1 1
0.908232 1 1
0.918349 1 1
0.929885 1 1
0.931044 1 1
0.0222171 0.515587 1
0.0222171 0.515587 1
0.0222171 0.515587 1
0.0222171 0.515587 1
0.0222019 0.515618 1
0.0222019 0.515648 1
0.0221866 0.515785 1
0.981964 0.559884 1
0.95314 0.854902 1
0.0222171 0.515572 1
0.0222171 0.515572 1
0.0222171 0.515572 1
0.0222171 0.515587 1
0.0222171 0.515587 1
0.0222019 0.515633 1
0.0221866 0.51577 1
0.981949 0.560052 1
0.95314 0.854948 1
0.0222171 0.515572 1
0.0222171 0.515572 1
0.0222171 0.515572 1
0.0222171 0.515572 1
0.0222171 0.515587 1
0.0222019 0.515633 1
0.0221866 0.51577 1
0.981933 0.560311 1
0.95314 0.854994 1
0.0222171 0.515541 1
0.0222171 0.515541 1
0.0222171 0.515541 1
0.0222171 0.515557 1
0.0222171 0.515557 1
0.0222171 0.515587 1
0.0222019 0.515724 1
0.981857 0.561151 1
0.953124 0.855131 1
0.0222324 0.51545 1
0.0222324 0.51545 1
0.0222324 0.51545 1
0.0222324 0.51545 1
0.0222324 0.515465 1
0.0222171 0.515496 1
0.0222019 0.515633 1
0.981628 0.563775 1
0.953079 0.855604 1
0.0222782 0.515114 1
0.0222782 0.515114 1
0.0222629 0.515129 1
0.0222629 0.515129 1
0.0222629 0.515129 1
0.0222629 0.51519 1
0.0225681 0.512718 1
0.980926 0.571908 1
0.953002 0.856428 1
0.0224002 0.514107 1
0.0224002 0.514107 1
0.0224002 0.514107 1
0.0224002 0.514138 1
0.0224002 0.514138 1
0.022385 0.514168 1
1 0.0986038 1
0.979339 0.588464 1
0.952865 0.857847 1
0 1 1
0 1 1
0 1 1
0 1 1
0 1 1
0 1 1
0.8654 1 1
0.932052 1 1
0.931731 1 1
0.861891 1 1
0.862379 1 1
0.863111 1 1
0.865354 1 1
0.871748 1 1
0.886732 1 1
0.909209 1 1
0.927474 1 1
0.931044 1 1
