BBLuts/BB_101_0050_LUT.cube
TITLE "Generated by Resolve"
LUT_3D_SIZE 33
0.0249332 0.024979 0.0260166
0.0249332 0.024979 0.0260166
0.0249332 0.024979 0.0260166
0.0249332 0.024979 0.0260166
0.0249332 0.024979 0.0260166
0.081178 0.0245518 0.0256199
0.148058 0.0246281 0.0257572
0.197147 0.0244755 0.0256504
0.247395 0.0240024 0.0251926
0.308232 0.022797 0.0239872
0.381415 0.0204471 0.0216068
0.463767 0.0167849 0.0178683
0.547616 0.0118563 0.0128023
0.614954 0.00613413 0.00689708
0.684855 0 0.000167849
0.759426 0 0
0.832502 0 0
0.900984 0 0
0.960616 0 0
1 0 0
1 0 0
1 0 0
1 0.222004 0.0828412
1 0.481758 0.154498
1 0.613977 0.209339
1 0.704005 0.272343
1 0.784833 0.350515
1 0.849439 0.468666
1 0.895171 0.591684
1 0.928573 0.672297
1 0.95317 0.751507
1 0.971618 0.827405
1 0.986557 0.889387
0.0249332 0.024979 0.0260166
0.0249332 0.024979 0.0260166
0.0249332 0.024979 0.0260166
0.0249332 0.024979 0.0260166
0.0249332 0.024979 0.0260166
0.0946212 0.0245823 0.0256657
0.152743 0.0246281 0.0257572
0.201053 0.0244602 0.0256199
0.253651 0.0239109 0.0251011
0.315785 0.0225986 0.0237888
0.389105 0.0201419 0.0212863
0.470832 0.0164492 0.0175174
0.550896 0.0116274 0.0125582
0.616556 0.00598154 0.00674449
0.686244 0 3.0518e-05
0.760372 0 0
0.833036 0 0
0.901228 0 0
0.96054 0 0
1 0 0
1 0 0
1 0 0
1 0.270726 0.0688334
1 0.50071 0.147478
1 0.621088 0.2056
1 0.708843 0.269978
1 0.788281 0.347814
1 0.851255 0.46714
1 0.896147 0.591089
1 0.929137 0.672023
1 0.953475 0.751354
1 0.971801 0.827314
1 0.986664 0.889326
0.0249332 0.024979 0.0260166
0.0249332 0.024979 0.0260166
0.0249332 0.024979 0.0260166
0.0249332 0.024979 0.0260166
0.0249332 0.024979 0.0260166
0.102617 0.0245823 0.0256809
0.15436 0.0246281 0.0257725
0.204807 0.0244297 0.0256046
0.260212 0.0238041 0.0249943
0.32282 0.0224002 0.0235904
0.39498 0.0198978 0.0210422
0.474571 0.0162509 0.017319
0.553613 0.0114443 0.0123751
0.61828 0.00582895 0.00657664
0.687663 0 0
0.761303 0 0
0.833585 0 0
0.901457 0 0
0.960449 0 0
1 0 0
1 0 0
1 0 0
1 0.31043 0.0348516
1 0.517632 0.139635
1 0.627985 0.201694
1 0.713573 0.267582
1 0.791394 0.34522
1 0.85301 0.465614
1 0.897093 0.590524
1 0.929702 0.671763
1 0.95378 0.751171
1 0.971984 0.827207
1 0.986786 0.889281
0.0249332 0.024979 0.0260166
0.0249332 0.024979 0.0260166
0.0249332 0.024979 0.0260166
0.0247501 0.0310521 0.0258488
0.0513161 0.0373999 0.0260319
0.108736 0.0245975 0.0256962
0.155108 0.0246281 0.0257572
0.205142 0.0244297 0.0256046
0.261326 0.0237888 0.024979
0.325689 0.0223239 0.0234989
0.398795 0.0197452 0.0208896
0.477928 0.0160983 0.0171511
0.556207 0.0112459 0.0121767
0.62002 0.0056611 0.00640879
0.689082 0 0
0.762264 0 0
0.834119 0 0
0.901671 0 0
0.960327 0 0
1 0 0
1 0 0
1 0 0
1 0.345617 0.0381018
1 0.532906 0.130663
1 0.634684 0.19765
1 0.718196 0.265171
1 0.79443 0.343923
1 0.854734 0.464103
1 0.898054 0.589944
1 0.930251 0.671504
1 0.954086 0.751019
1 0.972183 0.827115
1 0.986893 0.889235
0.0247959 0.08748 0.0261234
0.0247959 0.0910201 0.0261387
0.0247959 0.0944228 0.026154
0.0247959 0.0977188 0.0261692
0.0247807 0.0990005 0.0261692
0.0995956 0.0983444 0.0262913
0.149966 0.0956588 0.0262913
0.202014 0.089128 0.0260929
0.26038 0.0738994 0.025391
0.32694 0.0222782 0.0234684
0.401007 0.0196536 0.0207828
0.480919 0.0159457 0.0169985
0.558679 0.0110628 0.0119936
0.62179 0.00549325 0.00624094
0.690547 0 0
0.763226 0 0
0.834653 0 0
0.901854 0 0
0.960204 0 0
1 0 0
1 0 0
1 0.0635843 0.00248722
1 0.37702 0.0404669
1 0.546777 0.120119
1 0.641199 0.193423
1 0.722728 0.26276
1 0.797391 0.342641
1 0.856443 0.462638
1 0.89897 0.589349
1 0.9308 0.671244
1 0.954376 0.750851
1 0.972366 0.827008
1 0.986999 0.889174
0.0247501 0.126406 0.0262455
0.0247501 0.129229 0.0262455
0.0247349 0.131991 0.0262455
0.0247349 0.134188 0.0262455
0.0247196 0.135225 0.0262455
0.0771344 0.135332 0.0263676
0.141283 0.134417 0.0264134
0.196948 0.131685 0.0263066
0.25774 0.125597 0.0257115
0.327031 0.113329 0.0241703
0.402411 0.0893873 0.0213779
0.483543 0.0157931 0.016846
0.561181 0.0108949 0.0118105
0.623667 0.00531014 0.00605783
0.692119 0 0
0.764263 0 0
0.835203 0 0
0.902052 0 0
0.960067 0 0
1 0 0
1 0 0
1 0.178378 0.0181735
1 0.405982 0.0421912
1 0.55993 0.106264
1 0.647822 0.188846
1 0.727367 0.260197
1 0.800397 0.341344
1 0.858183 0.461097
1 0.899947 0.588754
1 0.93135 0.670985
1 0.954696 0.750683
1 0.972564 0.826902
1 0.987121 0.889113
0.0244907 0.167514 0.0261387
0.0244755 0.169879 0.0261234
0.024445 0.172213 0.0261082
0.024445 0.173526 0.0261082
0.0244297 0.17438 0.0260929
0.0244297 0.174685 0.0260929
0.122774 0.17464 0.0263828
0.187381 0.173449 0.0264439
0.252338 0.170153 0.0260777
0.324987 0.163149 0.0247807
0.402625 0.150057 0.0222782
0.486961 0.12903 0.0184024
0.564782 0.0906386 0.0129702
0.626078 0.00508125 0.00581369
0.694133 0 0
0.765591 0 0
0.83592 0 0
0.902296 0 0
0.959884 0 0
1 0 0
1 0 0
1 0.253285 0.028336
1 0.439796 0.0435492
1 0.575143 0.0757153
1 0.656077 0.182666
1 0.733181 0.256931
1 0.804181 0.339712
1 0.86038 0.459144
1 0.901167 0.587991
1 0.932067 0.670619
1 0.955093 0.750469
1 0.972808 0.826764
1 0.987259 0.889036
0.0237583 0.214618 0.0255589
0.0237125 0.216709 0.0255131
0.0236667 0.218265 0.0254826
0.0236515 0.219287 0.0254673
0.023621 0.220035 0.025452
0.023621 0.220447 0.0254368
0.0606546 0.220722 0.0256809
0.167834 0.220691 0.0262455
0.241291 0.219135 0.026276
0.317998 0.214328 0.0254215
0.399695 0.204913 0.0233768
0.489006 0.190982 0.0199588
0.569238 0.170748 0.0153964
0.630838 0.138521 0.00979629
0.697871 0.0735485 0.00166323
0.767376 0 0
0.836896 0 0
0.902632 0 0
0.959594 0 0
1 0 0
1 0.120729 0.00999466
1 0.324086 0.0361791
1 0.480385 0.0443427
1 0.589853 0.0448463
1 0.66656 0.173877
1 0.740642 0.252537
1 0.809033 0.337606
1 0.863203 0.456596
1 0.902754 0.586969
1 0.933013 0.670161
1 0.955627 0.750179
1 0.973129 0.826596
1 0.987472 0.888945
0.021973 0.270268 0.0239414
0.021912 0.27187 0.0238651
0.0218662 0.27277 0.0238346
0.0218204 0.273686 0.0237888
0.0217899 0.274311 0.0237583
0.0217746 0.274739 0.023743
0.0217594 0.275013 0.0237278
0.120089 0.275807 0.0248112
0.217823 0.274708 0.025742
0.302556 0.27129 0.0256962
0.391135 0.264881 0.0243992
0.487282 0.25478 0.0217288
0.572686 0.240375 0.0180819
0.636103 0.22034 0.0139773
0.704601 0.193317 0.00898756
0.774441 0.156832 0.00367742
0.841901 0.102968 0
0.903075 0 0
0.959182 0 0
1 0.128832 0.0102693
1 0.264942 0.0297856
1 0.396704 0.0417029
1 0.522179 0.0446326
1 0.607782 0.0450599
1 0.679728 0.160967
1 0.750103 0.246677
1 0.815152 0.334951
1 0.866804 0.453269
1 0.904814 0.585611
1 0.934218 0.669566
1 0.956313 0.749813
1 0.973556 0.826337
1 0.987716 0.888808
0.0185855 0.334264 0.0206607
0.018555 0.334783 0.0206302
0.0185245 0.335271 0.0205997
0.0184939 0.335683 0.0205844
0.0184787 0.335943 0.0205692
0.0184787 0.336004 0.0205539
0.0184787 0.335866 0.0205692
0.0185092 0.335424 0.0205997
0.169604 0.336904 0.0234836
0.275105 0.336004 0.0249027
0.373754 0.332204 0.0247196
0.478676 0.325002 0.0230259
0.572503 0.314137 0.0204013
0.640299 0.299565 0.0177157
0.711101 0.283055 0.0148623
0.781674 0.26479 0.0128176
0.850355 0.246769 0.0127871
0.915251 0.233417 0.0153964
0.972137 0.242847 0.0214847
1 0.29221 0.0315862
1 0.372671 0.040177
1 0.472526 0.0442512
1 0.564462 0.0447395
1 0.629847 0.0454414
1 0.69601 0.140566
1 0.761975 0.238804
1 0.822797 0.331655
1 0.871321 0.448966
1 0.907423 0.583825
1 0.93579 0.668772
1 0.957214 0.74931
1 0.974121 0.826032
1 0.988052 0.888624
0.0137942 0.404654 0.0159762
0.0137636 0.405158 0.0159304
0.0137179 0.405676 0.0158999
0.0136873 0.406043 0.0158694
0.0136721 0.406332 0.0158541
0.0136568 0.4065 0.0158389
0.0136568 0.406561 0.0158236
0.0136568 0.406439 0.0158389
0.0137026 0.40589 0.0158846
0.224323 0.409934 0.021912
0.342199 0.409125 0.023621
0.458625 0.404898 0.0233158
0.566079 0.397314 0.021912
0.641398 0.387472 0.0206455
0.715923 0.376547 0.0194705
0.788113 0.366445 0.0194858
0.856565 0.359701 0.0218814
0.921126 0.359289 0.0269932
0.976791 0.374594 0.033814
1 0.413626 0.0408789
1 0.474876 0.0442664
1 0.542412 0.0447089
1 0.600885 0.0449531
1 0.656199 0.0454871
1 0.715755 0.0989242
1 0.776638 0.228199
1 0.832166 0.327642
1 0.876921 0.443351
1 0.91075 0.581491
1 0.937774 0.667735
1 0.958373 0.748653
1 0.974838 0.82562
1 0.988495 0.888411
0.00770581 0.489906 0.0099794
0.00766003 0.490379 0.00994888
0.00764477 0.490822 0.00991836
0.00761425 0.491173 0.0099031
0.00759899 0.491432 0.00987259
0.00758373 0.491646 0.00985733
0.00756847 0.491814 0.00984207
0.00756847 0.491875 0.00984207
0.00756847 0.491707 0.00985733
0.0693523 0.493202 0.0124208
0.284413 0.498405 0.0204471
0.421744 0.497627 0.0223392
0.549813 0.493828 0.0221866
0.636133 0.488212 0.0219883
0.715633 0.481285 0.0218509
0.79115 0.475517 0.0229191
0.860136 0.474159 0.0262608
0.923415 0.479484 0.0317998
0.976761 0.495506 0.0377661
1 0.523674 0.0425574
1 0.560494 0.0447395
1 0.597696 0.0449226
1 0.639277 0.0455024
1 0.687083 0.0450446
1 0.73933 0.043473
1 0.794415 0.214191
1 0.843427 0.322911
1 0.88365 0.442374
1 0.914916 0.578408
1 0.940307 0.666377
1 0.959854 0.747784
1 0.975784 0.825086
1 0.989059 0.888106
0.00273136 0.573831 0.00515755
0.00271611 0.574166 0.00514229
0.00270085 0.574472 0.00512703
0.00270085 0.574716 0.00512703
0.00270085 0.574914 0.00512703
0.00268559 0.575082 0.00511177
0.00268559 0.57525 0.00511177
0.00267033 0.575387 0.00509651
0.00267033 0.575509 0.00509651
0.00267033 0.575586 0.00509651
0.144732 0.579705 0.012726
0.357336 0.583078 0.020676
0.517693 0.582528 0.0220493
0.622248 0.580377 0.0222782
0.707591 0.577234 0.0223697
0.788006 0.574304 0.0233158
0.859785 0.573953 0.0264439
0.92256 0.57792 0.0317388
0.973983 0.586267 0.0374304
1 0.600183 0.0423285
1 0.620813 0.0453193
1 0.647837 0.0455177
1 0.682078 0.0451362
1 0.722362 0.0440681
1 0.76733 0.0424506
1 0.814481 0.196155
1 0.85658 0.317647
1 0.89163 0.441733
1 0.920058 0.574365
1 0.94345 0.664607
1 0.961761 0.746654
1 0.976989 0.824369
1 0.989792 0.887709
0.00154116 0.640314 0.00418097
0.00154116 0.640528 0.00419623
0.00154116 0.640726 0.00418097
0.00154116 0.640879 0.00418097
0.00154116 0.641016 0.00418097
0.00154116 0.641154 0.00418097
0.00154116 0.641276 0.00419623
0.00154116 0.641398 0.00419623
0.00154116 0.641489 0.00418097
0.00154116 0.64152 0.00418097
0.00154116 0.641398 0.00419623
0.231052 0.647211 0.0172427
0.457633 0.648707 0.0225376
0.599619 0.646922 0.0225223
0.691737 0.644511 0.0224155
0.778225 0.642267 0.0232395
0.855482 0.64184 0.0266728
0.920256 0.64445 0.0322271
0.970565 0.651347 0.0378119
1 0.663111 0.0422827
1 0.679789 0.045182
1 0.701167 0.0446937
1 0.728634 0.0438544
1 0.761563 0.0426642
1 0.798871 0.0413367
1 0.836652 0.172992
1 0.871412 0.312352
1 0.900954 0.441611
1 0.926238 0.569772
1 0.94728 0.662318
1 0.964141 0.745159
1 0.978515 0.823423
1 0.990723 0.88719
0.00163272 0.71046 0.00456245
0.00163272 0.710582 0.00456245
0.00163272 0.710704 0.00456245
0.00164797 0.710796 0.00457771
0.00163272 0.710872 0.00456245
0.00163272 0.710933 0.00456245
0.00164797 0.710994 0.00457771
0.00164797 0.71104 0.00457771
0.00164797 0.711055 0.00457771
0.00164797 0.711009 0.00457771
0.00163272 0.710826 0.00456245
0.00163272 0.710384 0.00456245
0.353292 0.717281 0.0209964
0.564675 0.716411 0.0224765
0.668421 0.714488 0.0227207
0.761837 0.712337 0.0232853
0.845304 0.711421 0.0262608
0.91342 0.713024 0.0314641
0.964279 0.718044 0.0365911
1 0.726955 0.0404212
1 0.739849 0.043061
1 0.75639 0.0428626
1 0.777676 0.0420539
1 0.803403 0.0411994
1 0.83125 0.040589
1 0.860136 0.142885
1 0.887465 0.307942
1 0.911696 0.442344
1 0.933379 0.571496
1 0.951873 0.659358
1 0.967102 0.743206
1 0.980438 0.822187
1 0.991913 0.886488
0.00415045 0.780758 0.00746166
0.00415045 0.780835 0.00746166
0.00415045 0.780865 0.00747692
0.00415045 0.780896 0.00747692
0.00415045 0.780911 0.00747692
0.00416571 0.780926 0.00747692
0.00416571 0.780941 0.00747692
0.00415045 0.780911 0.00747692
0.00415045 0.780865 0.00747692
0.0041352 0.780728 0.0074464
0.00411994 0.780438 0.00743114
0.00407416 0.779919 0.00738537
0.113054 0.782147 0.0139162
0.498405 0.786404 0.0257877
0.639109 0.784573 0.0257115
0.73994 0.782177 0.0252689
0.829541 0.78056 0.0267338
0.901473 0.780987 0.0306706
0.954055 0.784085 0.0349584
0.992142 0.790341 0.0382086
1 0.799435 0.0403601
1 0.811337 0.0409857
1 0.826001 0.0406806
1 0.843427 0.0404517
1 0.863005 0.0403906
1 0.883757 0.1019
1 0.904204 0.305928
1 0.923659 0.44477
1 0.941527 0.574228
1 0.957183 0.656428
1 0.970718 0.740688
1 0.982803 0.820279
1 0.993393 0.885588
0.0135805 0.849073 0.0175479
0.0135805 0.849058 0.0175326
0.0135805 0.849042 0.0175326
0.0135805 0.849027 0.0175326
0.0135653 0.848997 0.0175326
0.0135653 0.848951 0.0175174
0.01355 0.84889 0.0175021
0.0135348 0.848814 0.0174868
0.0135042 0.848646 0.0174563
0.0134585 0.848417 0.0174105
0.0133822 0.848005 0.0173342
0.0132601 0.847333 0.0171969
0.0130617 0.846311 0.0169985
0.388067 0.852979 0.0337682
0.60592 0.85098 0.0332799
0.715908 0.847883 0.031281
0.811124 0.845014 0.0303197
0.886275 0.843854 0.0320592
0.940978 0.844724 0.0349432
0.980743 0.847532 0.0374609
1 0.852384 0.0392615
1 0.859556 0.0403754
1 0.868528 0.0404059
1 0.879561 0.0404974
1 0.892287 0.0406806
1 0.906325 0.0409857
1 0.921584 0.307729
1 0.936477 0.450004
1 0.950439 0.578485
1 0.96318 0.659159
1 0.975021 0.737362
1 0.985672 0.818143
1 0.995239 0.884398
0.0263981 0.905547 0.0310979
0.0263828 0.905501 0.0310826
0.0263676 0.905425 0.0310521
0.0263523 0.905348 0.0310369
0.0263218 0.905272 0.0310216
0.0263066 0.90518 0.0309911
0.0262608 0.905058 0.0309606
0.0262303 0.904891 0.0309148
0.0261692 0.904631 0.0308537
0.0260624 0.904265 0.0307469
0.0259251 0.903716 0.0305943
0.0257115 0.902892 0.0303807
0.0254215 0.901732 0.0300603
0.26421 0.906081 0.0419928
0.579767 0.904738 0.0430762
0.697185 0.900603 0.0390936
0.796124 0.896422 0.0357061
0.872419 0.893858 0.0353094
0.928176 0.893034 0.0367285
0.969619 0.893568 0.038407
1 0.895445 0.0397345
1 0.898878 0.0406043
1 0.903731 0.0409247
1 0.910262 0.0410773
1 0.918471 0.0412757
1 0.928176 0.0621653
1 0.938872 0.315984
1 0.949523 0.459571
1 0.959762 0.584833
1 0.969985 0.662974
1 0.979934 0.737346
1 0.989075 0.815351
1 0.997482 0.882826
0.0377356 0.947921 0.043061
0.0377203 0.947814 0.0430304
0.0376898 0.947707 0.0429999
0.0376593 0.947601 0.0429694
0.0376287 0.947478 0.0429389
0.037583 0.947341 0.0428931
0.0375372 0.947188 0.0428473
0.0374762 0.946944 0.0427863
0.0373999 0.946624 0.0426947
0.0372625 0.946166 0.0425574
0.0370794 0.945495 0.042359
0.0368353 0.94461 0.0420996
0.0365148 0.943404 0.0417639
0.202045 0.945785 0.0496376
0.569131 0.944717 0.0513619
0.690166 0.939757 0.0457008
0.788418 0.934813 0.0407568
0.863157 0.931441 0.0388647
0.917937 0.929686 0.0390936
0.959823 0.928969 0.0399786
0.991882 0.929213 0.0408179
1 0.930587 0.0413977
1 0.93315 0.0417945
1 0.936873 0.0417945
1 0.941955 0.0419318
1 0.948211 0.141817
1 0.955108 0.333837
1 0.962112 0.475654
1 0.969512 0.593881
1 0.977417 0.668315
1 0.985351 0.741527
1 0.99295 0.812879
1 1 0.880766
0.0464485 0.980346 0.0522469
0.0464179 0.980209 0.0522164
0.0463874 0.980087 0.0521706
0.0463417 0.979934 0.0521248
0.0463111 0.979797 0.0520943
0.0462806 0.979644 0.0520485
0.0462196 0.979431 0.0519875
0.0461433 0.979156 0.0519112
0.0460517 0.978775 0.0518044
0.0459144 0.978256 0.051667
0.0457313 0.977584 0.0514839
0.0455024 0.976669 0.0512398
0.045182 0.975479 0.0509041
0.297337 0.978576 0.0603342
0.584543 0.97496 0.0565957
0.696529 0.969573 0.049958
0.788418 0.964401 0.0443122
0.858579 0.960708 0.0416114
0.910765 0.95845 0.0410468
0.951659 0.957076 0.0413672
0.983597 0.95642 0.0418402
1 0.956527 0.0422217
1 0.957397 0.0424506
1 0.959121 0.0424201
1 0.961868 0.0424964
1 0.965515 0.207431
1 0.96968 0.36379
1 0.974273 0.499306
1 0.979461 0.605692
1 0.985214 0.675715
1 0.991196 0.747219
1 0.997177 0.817014
1 1 0.878019
0.0523232 1 0.0584268
0.0522774 1 0.0583963
0.0522469 1 0.0583505
0.0522011 1 0.05832
0.0521706 1 0.0582742
0.0521401 1 0.0582437
0.052079 1 0.0581674
0.0520027 1 0.0581064
0.0519112 1 0.0579995
0.0517891 1 0.0578775
0.0516365 1 0.0577096
0.0514076 1 0.0574807
0.051133 0.998932 0.0571908
0.456809 1 0.0650187
0.620935 0.996201 0.0581674
0.717678 0.99086 0.0513619
0.797375 0.986007 0.0459907
0.859876 0.982437 0.0432136
0.907851 0.980072 0.0423438
0.946624 0.978408 0.0423438
0.977218 0.977325 0.0425879
1 0.976761 0.0428168
1 0.976715 0.0429694
1 0.97734 0.0430152
1 0.978668 0.0429084
1 0.980682 0.275242
1 0.983078 0.406332
1 0.98584 0.529046
1 0.989151 0.618204
1 0.993042 0.685863
1 0.997238 0.75491
1 1 0.822705
1 1 0.880613
0.0562905 1 0.062623
0.0562448 1 0.0625925
0.0562142 1 0.062562
0.0561837 1 0.0625162
0.0561532 1 0.0624857
0.0561074 1 0.0624399
0.0560616 1 0.0623941
0.0560006 1 0.0623331
0.0559243 1 0.0622416
0.0558175 1 0.0621347
0.0556802 1 0.0619821
0.0554971 1 0.061799
0.42916 1 0.0686961
0.58793 1 0.0628214
0.673243 1 0.0566415
0.748699 1 0.0507057
0.813413 1 0.0463569
0.865995 0.999466 0.0440223
0.90866 0.997223 0.043122
0.944244 0.995514 0.0429694
0.972763 0.994293 0.0430762
0.996277 0.993439 0.0432136
1 0.99292 0.0433051
1 0.992874 0.0433204
1 0.993179 0.213779
1 0.993866 0.348058
1 0.994873 0.461402
1 0.996262 0.564416
1 0.998123 0.635706
1 1 0.699474
1 1 0.765148
1 1 0.829816
1 1 0.88484
0.0588998 1 0.0654002
0.0588846 1 0.0653697
0.058854 1 0.0653544
0.0588235 1 0.0653239
0.058793 1 0.0652781
0.0587625 1 0.0652476
0.0587167 1 0.0652171
0.0586709 1 0.065156
0.0585946 1 0.0650797
0.306157 1 0.0716869
0.441184 1 0.0706035
0.546761 1 0.0669413
0.614145 1 0.0624857
0.673442 1 0.0578622
0.731136 1 0.0530709
0.785504 1 0.0488746
0.834562 1 0.0459144
0.876478 1 0.0442359
0.913191 1 0.0435035
0.94464 1 0.0433204
0.970504 1 0.0433509
0.992691 1 0.0434272
1 1 0.0434882
1 1 0.197269
1 1 0.322698
1 1 0.426703
1 1 0.525399
1 1 0.603189
1 1 0.658274
1 1 0.717235
1 1 0.778531
1 1 0.838941
1 1 0.890288
0.472602 1 0.0711376
0.493706 1 0.0704356
0.512078 1 0.0697185
0.528435 1 0.068986
0.543145 1 0.0682689
0.557015 1 0.0675364
0.573022 1 0.0666056
0.588464 1 0.0654307
0.606409 1 0.0639963
0.628 1 0.0623331
0.653284 1 0.0602884
0.682353 1 0.0578164
0.714916 1 0.0550088
0.750195 1 0.0520333
0.787228 1 0.0491951
0.823728 1 0.0468299
0.858259 1 0.0451362
0.890867 1 0.0440833
0.920974 1 0.043595
0.947601 1 0.0434424
0.970352 1 0.140597
0.990646 1 0.210605
1 1 0.268223
1 1 0.342443
1 1 0.424811
1 1 0.510491
1 1 0.583337
1 1 0.636011
1 1 0.686229
1 1 0.739696
1 1 0.795666
1 1 0.850446
1 1 0.897215
0.69485 1 0.315297
0.699229 1 0.315206
0.703502 1 0.315114
0.707683 1 0.315022
0.711772 1 0.314946
0.715908 1 0.314885
0.721126 1 0.314824
0.727764 1 0.314778
0.736171 1 0.314733
0.746624 1 0.314778
0.759441 1 0.314916
0.774792 1 0.315312
0.792981 1 0.316167
0.813214 1 0.317678
0.835187 1 0.320241
0.858396 1 0.324254
0.882673 1 0.330159
0.907042 1 0.338476
0.930419 1 0.349752
0.951766 1 0.36463
0.97145 1 0.383795
0.989471 1 0.407858
1 1 0.437324
1 1 0.473793
1 1 0.528481
1 1 0.584085
1 1 0.629114
1 1 0.67274
1 1 0.718837
1 1 0.766888
1 1 0.8168
1 1 0.864469
1 1 0.905821
0.800092 1 0.504295
0.802121 1 0.504326
0.804105 1 0.504372
0.806058 1 0.504417
0.80798 1 0.504479
0.809964 1 0.504524
0.812451 1 0.504631
0.815641 1 0.504738
0.81973 1 0.504921
0.824887 1 0.505196
0.831327 1 0.505577
0.839261 1 0.506142
0.848966 1 0.50695
0.860563 1 0.508171
0.874266 1 0.510323
0.889464 1 0.512825
0.905989 1 0.516289
0.923262 1 0.52105
0.940459 1 0.527413
0.957275 1 0.535653
0.9738 1 0.546105
0.989364 1 0.559121
1 1 0.574945
1 1 0.593744
1 1 0.613001
1 1 0.63975
1 1 0.674113
1 1 0.712856
1 1 0.754604
1 1 0.79794
1 1 0.841108
1 1 0.880873
1 1 0.916091
0.864713 1 0.625605
0.865736 1 0.62565
0.866743 1 0.625711
0.86775 1 0.625757
0.868742 1 0.625803
0.869764 1 0.625864
0.871061 1 0.625925
0.872755 1 0.626017
0.874952 1 0.626139
0.877775 1 0.626307
0.881376 1 0.626535
0.885908 1 0.626841
0.891524 1 0.627268
0.89839 1 0.627863
0.9066 1 0.628656
0.916121 1 0.62974
0.926802 1 0.631235
0.938369 1 0.633234
0.950851 1 0.63592
0.964019 1 0.639475
0.9776 1 0.644388
0.990539 1 0.650507
1 1 0.658412
1 1 0.668559
1 1 0.681453
1 1 0.697597
1 1 0.723598
1 1 0.756313
1 1 0.792721
1 1 0.830808
1 1 0.866499
1 1 0.899016
1 1 0.927886
0.908858 1 0.70959
0.909392 1 0.709636
0.909941 1 0.709682
0.91046 1 0.709728
0.910994 1 0.709773
0.911543 1 0.709819
0.912245 1 0.709895
0.913146 1 0.709972
0.914336 1 0.710094
