BBLuts/BB_103_0520_LUT.cube
TITLE "Generated by Resolve"
LUT_3D_SIZE 33
0 0 0
0 0 0
0 0 0
0 0 0
0.00434882 0 0
0.0528572 0 0
0.0893873 0 0
0.126879 0 0
0.172274 0 0
0.227787 0 0
0.290761 0 0
0.361349 0 0
0.438071 0 0
0.524453 0 0
0.611292 0 0
0.695521 0 0
0.776883 0 0
0.851148 0 0
0.914992 0 0
0.953521 0 0
0.960815 0 0
0.966384 0 0
0.977508 0.195392 0
0.97258 0.397086 0.0242924
0.96527 0.543053 0.059556
0.957641 0.661219 0.107118
0.949325 0.760891 0.17116
0.942351 0.84062 0.25684
0.936919 0.898573 0.355383
0.93257 0.941497 0.453773
0.92874 0.973968 0.545419
0.925566 0.99826 0.631952
0.92314 1 0.704814
0 0 0
0 0 0
0 0 0
0 0 0
0.0111849 0 0
0.0549935 0 0
0.0920272 0 0
0.131441 0 0
0.177874 0 0
0.232914 0 0
0.294453 0 0
0.36408 0 0
0.440253 0 0
0.526177 0 0
0.612482 0 0
0.696284 0 0
0.777279 0 0
0.85124 0 0
0.914763 0 0
0.953277 0 0
0.960815 0 0
0.966781 0 0
0.976516 0.22707 0
0.971481 0.411719 0.0208133
0.964553 0.55227 0.0572671
0.957061 0.666865 0.104768
0.948943 0.764599 0.169482
0.942168 0.842756 0.255833
0.936843 0.899763 0.354849
0.932509 0.942199 0.453452
0.928725 0.974365 0.545251
0.925551 0.99852 0.63183
0.923125 1 0.704753
0 0 0
0 0 0
0 0 0
0 0 0
0.0168002 0 0
0.0542916 0 0
0.091722 0 0
0.132799 0 0
0.180407 0 0
0.236027 0 0
0.297307 0 0
0.366613 0 0
0.442466 0 0
0.527962 0 0
0.613703 0 0
0.697063 0 0
0.777676 0 0
0.851286 0 0
0.914504 0 0
0.953002 0 0
0.960815 0 0
0.967269 0 0
0.975906 0.255329 0
0.970367 0.42565 0.0169833
0.963851 0.561151 0.054902
0.956497 0.672389 0.102419
0.948577 0.768246 0.16788
0.94197 0.844877 0.25481
0.936751 0.900954 0.354314
0.932464 0.942901 0.453132
0.928695 0.974762 0.545068
0.925536 0.998764 0.631708
0.923125 1 0.704677
0 0 0
0 0 0
0 0 0
0 0 0
0.00440986 0 0
0.0470741 0 0
0.0865034 0 0
0.130434 0 0
0.181308 0 0
0.238025 0 0
0.299718 0 0
0.3691 0 0
0.444755 0 0
0.529839 0 0
0.614984 0 0
0.697856 0 0
0.778073 0 0
0.851347 0 0
0.91426 0 0
0.952728 0 0
0.961868 0 0
0.968902 0.0116426 0
0.975128 0.280751 0
0.969253 0.438972 0.012726
0.963134 0.569726 0.052491
0.955932 0.677806 0.100053
0.948211 0.771801 0.166308
0.941802 0.846937 0.253819
0.93666 0.902113 0.353765
0.932418 0.943587 0.452827
0.928664 0.975143 0.544869
0.925521 0.999008 0.631601
0.92311 1 0.704616
0 0.0252537 0
0 0.0275883 0
0 0.0294499 0
0 0.0303655 0
0 0.0302129 0
0.0365454 0.0282444 0
0.0792706 0.0249027 0
0.125277 0.0180209 0
0.178302 0.00445563 0
0.237675 0 0
0.301747 0 0
0.371649 0 0
0.447196 0 0
0.531868 0 0
0.616342 0 0
0.698695 0 0
0.77847 0 0
0.851377 0 0
0.91397 0 0
0.952438 0 0
0.964324 0 0
0.973236 0.0935073 0
0.974105 0.30454 0
0.968048 0.452125 0.00759899
0.962386 0.578317 0.0499123
0.955367 0.683299 0.0975814
0.94786 0.775402 0.164691
0.941619 0.849058 0.252811
0.936568 0.903304 0.353201
0.932372 0.944305 0.452491
0.928634 0.975555 0.544686
0.925505 0.999268 0.631464
0.923095 1 0.70454
0 0.057145 0
0 0.0591135 0
0 0.0603494 0
0 0.0610513 0
0 0.0614633 0
0.014435 0.0605631 0
0.0687724 0.058793 0
0.118105 0.0553597 0
0.173617 0.0488136 0
0.235111 0.0368811 0
0.301122 0.0142519 0
0.373632 0 0
0.450462 0 0
0.534432 0 0
0.618067 0 0
0.699748 0 0
0.778973 0 0
0.851423 0 0
0.913588 0 0
0.952056 0 0
0.965927 0 0
0.975311 0.159304 0
0.972595 0.330877 0
0.966293 0.467247 0
0.961486 0.588479 0.0466316
0.954665 0.68986 0.0944991
0.947417 0.779736 0.162707
0.94139 0.851591 0.251545
0.936461 0.904753 0.352529
0.932311 0.945159 0.452079
0.928603 0.976043 0.544457
0.92549 0.999557 0.631312
0.923095 1 0.704463
0 0.0936751 0
0 0.095079 0
0 0.0960403 0
0 0.0966354 0
0 0.0969558 0
0 0.0973983 0
0.0480201 0.0963302 0
0.106081 0.0944533 0
0.165423 0.0902876 0
0.23003 0.0823529 0
0.299214 0.0699168 0
0.37409 0.050782 0
0.452811 0.0185397 0
0.538003 0 0
0.621042 0 0
0.701183 0 0
0.77966 0 0
0.851484 0 0
0.913085 0 0
0.953857 0 0
0.970153 0.0330968 0
0.975647 0.216754 0
0.970535 0.361975 0
0.964096 0.486152 0
0.960296 0.601236 0.0423438
0.95378 0.698238 0.0913252
0.946883 0.785229 0.160128
0.941115 0.854826 0.249928
0.936324 0.906615 0.351644
0.932235 0.946288 0.45156
0.928573 0.976684 0.544137
0.92546 0.999969 0.631113
0.923079 1 0.704341
0 0.137087 0
0 0.138018 0
0 0.138827 0
0 0.139376 0
0 0.139742 0
0 0.140276 0
0.0104829 0.140505 0
0.0830396 0.139528 0
0.149844 0.136553 0
0.219562 0.130755 0
0.294011 0.12166 0
0.373312 0.108721 0
0.455283 0.0901808 0
0.541238 0.0610208 0
0.62414 0.0215763 0
0.705287 0 0
0.782559 0 0
0.85153 0 0
0.914748 0 0
0.958831 0.013962 0
0.974807 0.137499 0
0.974609 0.27538 0
0.968185 0.398611 0
0.962325 0.510094 0
0.958755 0.617044 0.0364843
0.952682 0.708812 0.0877546
0.946197 0.792157 0.156771
0.940764 0.858946 0.247807
0.936141 0.908995 0.350484
0.932128 0.947707 0.450889
0.928512 0.977508 0.54374
0.925429 1 0.630854
0.923049 1 0.704189
0 0.188449 0
0 0.188998 0
0 0.189502 0
0 0.189837 0
0 0.190021 0
0 0.190036 0
0 0.190616 0
0.0348211 0.190906 0
0.122362 0.189822 0
0.200931 0.186191 0
0.282429 0.179568 0
0.368551 0.169619 0
0.45597 0.1561 0
0.544472 0.138949 0
0.627649 0.11783 0
0.70927 0.0918288 0
0.787533 0.0570687 0
0.858518 0.0354314 0
0.921004 0.0641489 0
0.963424 0.139498 0
0.975494 0.234607 0
0.971893 0.336797 0
0.965682 0.438346 0
0.960403 0.538552 0
0.956802 0.635187 0.0278782
0.951278 0.722042 0.0831769
0.945342 0.800793 0.152392
0.940322 0.864118 0.24509
0.935912 0.912062 0.348989
0.932006 0.949569 0.450004
0.928435 0.978592 0.543221
0.925383 1 0.630518
0.923018 1 0.70399
0 0.247135 0
0 0.247593 0
0 0.247929 0
0 0.248157 0
0 0.248295 0
0 0.24831 0
0 0.248127 0
0 0.249149 0
0.0607156 0.250751 0
0.16907 0.250248 0
0.261112 0.246372 0
0.356649 0.239322 0
0.45153 0.229465 0
0.545037 0.217655 0
0.629816 0.204776 0
0.71191 0.192615 0
0.790539 0.183841 0
0.861875 0.185168 0
0.92256 0.207324 0
0.962081 0.254749 0
0.972702 0.321752 0
0.968002 0.40148 0
0.962783 0.484993 0
0.957824 0.571603 0
0.95404 0.656718 0.0130159
0.949538 0.738338 0.0771801
0.94432 0.811383 0.146731
0.939788 0.870512 0.241566
0.935637 0.915908 0.347036
0.931853 0.951919 0.448844
0.928359 0.979965 0.542535
0.925322 1 0.630076
0.922988 1 0.703746
0 0.315999 0
0 0.316396 0
0 0.316747 0
0 0.316991 0
0 0.317174 0
0 0.317296 0
0 0.317311 0
0 0.317082 0
0 0.320714 0
0.106203 0.323552 0
0.224369 0.323217 0
0.332662 0.319326 0
0.43827 0.313069 0
0.539162 0.305364 0
0.627817 0.297459 0
0.711284 0.291814 0
0.789288 0.290776 0
0.858869 0.298192 0
0.917067 0.319265 0
0.955489 0.356176 0
0.967697 0.406592 0
0.963897 0.466728 0
0.95964 0.53666 0
0.954543 0.609476 0
0.950134 0.682246 0
0.947463 0.7579 0.0698711
0.94313 0.82414 0.141695
0.939147 0.878309 0.237339
0.935286 0.920729 0.344518
0.93164 0.954864 0.447318
0.928237 0.981735 0.541634
0.925246 1 0.629496
0.922942 1 0.70341
0 0.39826 0
0 0.398581 0
0 0.398871 0
0 0.3991 0
0 0.399283 0
0 0.399451 0
0 0.399558 0
0 0.399573 0
0 0.401038 0
0.0127718 0.40589 0
0.15584 0.410071 0
0.29163 0.409995 0
0.412421 0.407034 0
0.523095 0.402747 0
0.618097 0.398108 0
0.705028 0.395529 0
0.78349 0.39704 0
0.851286 0.404837 0
0.907332 0.422004 0
0.9467 0.449866 0
0.96257 0.488472 0
0.959655 0.536309 0
0.955734 0.591592 0
0.950988 0.649927 0
0.946593 0.713222 0
0.945098 0.780514 0.0610819
0.941802 0.839078 0.137514
0.938399 0.887602 0.232181
0.934874 0.92665 0.341283
0.931395 0.958541 0.44538
0.928084 0.983963 0.540475
0.925155 1 0.628733
0.922881 1 0.702968
0 0.489632 0
0 0.489937 0
0 0.490196 0
0 0.490425 0
0 0.490608 0
0 0.490806 0
0 0.490974 0
0 0.491096 0
0 0.491157 0
0 0.49427 0
0.0500801 0.50135 0
0.223194 0.50573 0
0.372412 0.504753 0
0.496208 0.5019 0
0.599878 0.4981 0
0.692607 0.495979 0
0.774197 0.49781 0
0.842054 0.505241 0
0.896651 0.519631 0
0.937331 0.541512 0
0.957321 0.570367 0
0.954574 0.6065 0
0.951156 0.647974 0
0.94699 0.695659 0
0.943175 0.749142 0
0.942489 0.805951 0.0502632
0.940322 0.856245 0.133608
0.937545 0.898512 0.227649
0.934371 0.933837 0.337179
0.931075 0.96347 0.442863
0.927916 0.986786 0.538949
0.925048 1 0.627741
0.922805 1 0.702388
0 0.585733 0
0 0.585931 0
0 0.586099 0
0 0.586252 0
0 0.586374 0
0 0.586496 0
0 0.586618 0
0 0.586694 0
0 0.586694 0
0 0.586542 0
0 0.590677 0
0.10454 0.598077 0
0.312627 0.599954 0
0.45745 0.598383 0
0.573251 0.595865 0
0.673518 0.594156 0
0.760296 0.595392 0
0.829938 0.600916 0
0.883848 0.611688 0
0.924849 0.627375 0
0.948226 0.647761 0
0.948898 0.674006 0
0.945968 0.706874 0
0.942535 0.745098 0
0.939666 0.787625 0
0.939696 0.833371 0.0370489
0.938766 0.875227 0.130465
0.936599 0.911147 0.225757
0.933776 0.942336 0.332311
0.930724 0.968887 0.439628
0.927687 0.99028 0.53698
0.924895 1 0.626444
0.922713 1 0.701656
0 0.67512 0
0 0.675227 0
0 0.675303 0
0 0.675364 0
0 0.67541 0
0 0.675456 0
0 0.675471 0
0 0.675456 0
0 0.675364 0
0 0.675135 0
0 0.674632 0
0 0.681453 0
0.207355 0.68716 0
0.406317 0.687251 0
0.539574 0.685618 0
0.647623 0.683909 0
0.740337 0.684276 0
0.813077 0.687831 0
0.867826 0.695171 0
0.908721 0.706691 0
0.935378 0.722438 0
0.942779 0.742275 0
0.940642 0.766705 0
0.938262 0.795026 0
0.936294 0.826566 0
0.936797 0.861585 0.020798
0.937194 0.895552 0.128634
0.935531 0.925399 0.226337
0.933089 0.952087 0.329854
0.930312 0.975235 0.435554
0.927413 0.994553 0.534432
0.924712 1 0.62475
0.922591 1 0.700679
0 0.762646 0
0 0.762661 0
0 0.762676 0
0 0.762661 0
0 0.762661 0
0 0.762631 0
0 0.76257 0
0 0.762448 0
0 0.762249 0
0 0.761868 0
0 0.761227 0
0 0.762951 0
0.0856336 0.771267 0
0.341115 0.773983 0
0.499474 0.772519 0
0.617197 0.770138 0
0.715663 0.769223 0
0.791836 0.770809 0
0.848585 0.775143 0
0.890486 0.782467 0
0.92076 0.79295 0
0.935607 0.806516 0
0.936065 0.822843 0
0.9346 0.8421 0
0.933227 0.863905 0
0.933623 0.889052 0.00112917
0.935637 0.916869 0.128756
0.934417 0.941009 0.228931
0.932265 0.963333 0.331395
0.929824 0.982574 0.432105
0.927092 0.99968 0.531136
0.924498 1 0.622553
0.922454 1 0.699397
0 0.843153 0
0 0.843091 0
0 0.843046 0
0 0.842969 0
0 0.842893 0
0 0.842786 0
0 0.842634 0
0 0.842405 0
0 0.842054 0
0 0.84152 0
0 0.840696 0
0 0.839475 0
0.00291447 0.847028 0
0.266331 0.851591 0
0.459892 0.849714 0
0.588479 0.846189 0
0.691295 0.84358 0
0.76994 0.843076 0
0.828809 0.844633 0
0.872602 0.848127 0
0.905547 0.853819 0
0.926299 0.861799 0
0.932479 0.871794 0
0.931655 0.884062 0
0.930755 0.898497 0
0.931105 0.916259 0
0.934127 0.93872 0.132113
0.933227 0.957366 0.234043
0.93138 0.974975 0.335744
0.929213 0.99086 0.43267
0.926726 1 0.527138
0.924239 1 0.619699
0.922271 1 0.697734
0 0.908171 0
0 0.908064 0
0 0.907942 0
0 0.90782 0
0 0.907683 0
0 0.907515 0
0 0.907271 0
0 0.906935 0
0 0.906462 0
0 0.90576 0
0 0.904768 0
0 0.90341 0
0 0.908446 0
0.206546 0.913237 0
0.433524 0.910674 0
0.568673 0.906065 0
0.672801 0.902098 0
0.75172 0.900084 0
0.810987 0.899718 0
0.856626 0.90071 0
0.890883 0.903151 0
0.915419 0.907256 0
0.928435 0.913039 0
0.929259 0.920485 0
0.928939 0.930236 0
0.930526 0.943969 0.00982681
0.932708 0.960479 0.140459
0.932021 0.974136 0.242634
0.930449 0.987182 0.342626
0.928481 1 0.437675
0.926253 1 0.526513
0.923949 1 0.616068
0.922057 1 0.695583
0 0.958648 0
0 0.958495 0
0 0.958328 0
0 0.95816 0
0 0.957977 0
0 0.957748 0
0 0.957443 0
0 0.957031 0
0 0.956451 0
0 0.955657 0
0 0.954589 0
0 0.95317 0
0 0.957534 0
0.20267 0.961334 0
0.428656 0.957717 0
0.561288 0.952377 0
0.662257 0.94725 0
0.738705 0.944366 0
0.796887 0.942901 0
0.842695 0.942489 0
0.877745 0.943084 0
0.904509 0.944869 0
0.922362 0.947921 0
0.927245 0.952193 0
0.927474 0.959152 0
0.930236 0.970001 0.044419
0.931441 0.980591 0.155688
0.930846 0.990188 0.255879
0.929427 0.999908 0.352499
0.927672 1 0.445136
0.925628 1 0.531548
0.923568 1 0.61474
0.921813 1 0.69276
0 0.99675 0
0 0.996551 0
0 0.996353 0
0 0.996155 0
0 0.995956 0
0 0.995682 0
0 0.995346 0
0 0.994873 0
0 0.994247 0
0 0.993439 0
0 0.99237 0
0 0.990967 0
0.0107118 0.996368 0
0.26508 0.997742 0
0.448173 0.993027 0
0.56759 0.987366 0
0.660243 0.982498 0
0.731487 0.979263 0
0.786877 0.977249 0
0.831495 0.976074 0
0.866361 0.975616 0
0.893828 0.975952 0
0.91458 0.977142 0
0.924956 0.979324 0
0.926238 0.983597 0
0.929641 0.992294 0.0805829
0.930251 0.999161 0.178973
0.929641 1 0.274739
0.928359 1 0.366339
0.926772 1 0.455299
0.924926 1 0.538689
0.923079 1 0.61883
0.921508 1 0.691173
0 1 0
0 1 0
0 1 0
0 1 0
0 1 0
0 1 0
0 1 0
0 1 0
0 1 0
0 1 0
0 1 0
0 1 0
0.133547 1 0
0.35523 1 0
0.48896 1 0
0.586954 1 0
0.667002 1 0
0.730556 1 0
0.781689 1 0
0.823835 1 0
0.857404 1 0
0.884779 1 0
0.907073 1 0
0.921767 1 0
0.926482 1 0.0123293
0.928939 1 0.12314
0.929076 1 0.211261
0.928405 1 0.300237
0.92726 1 0.385122
0.925841 1 0.46891
0.924178 1 0.548318
0.922515 1 0.625742
0.921126 1 0.693736
0 1 0
0 1 0
0 1 0
0 1 0
0 1 0
0 1 0
0 1 0
0 1 0
0 1 0
0 1 0
0 1 0
0.146563 1 0
0.334691 1 0
0.449027 1 0
0.539025 1 0
0.615518 1 0
0.680735 1 0
0.735012 1 0
0.780743 1 0
0.819394 1 0
0.850874 1 0
0.877348 1 0
0.899718 1 0
0.917754 1 0.00531014
0.927367 1 0.0895705
0.928069 1 0.173129
0.927871 1 0.252552
0.927153 1 0.33077
0.926131 1 0.409155
0.924849 1 0.486763
0.923369 1 0.561028
0.921889 1 0.63476
0.920684 1 0.69926
0 1 0
0 1 0
0 1 0
0 1 0
0 1 0
0 1 0
0 1 0
0.000213626 1 0
0.120562 1 0
0.242267 1 0
0.325902 1 0
0.400458 1 0
0.469947 1 0
0.533516 1 0
0.5935 1 0
0.649531 1 0
0.69987 1 0
0.744427 1 0
0.783917 1 0
0.818463 1 0
0.847791 1 0
0.873213 1 0
0.895766 1 0.0114137
0.914839 1 0.0834974
0.926085 1 0.158312
0.927016 1 0.229145
0.926604 1 0.30071
0.925887 1 0.368765
0.924971 1 0.43888
0.923796 1 0.508888
0.922499 1 0.577508
0.921248 1 0.646235
0.920211 1 0.706325
0.317708 1 0.00148013
0.331304 1 0.00129702
0.344167 1 0.00112917
0.356405 1 0.000976577
0.368551 1 0.000823987
0.382635 1 0.000640879
0.399573 1 0.000442512
0.419745 1 0.000183108
0.443488 1 0
0.470939 1 0
0.501854 1 0
0.534066 1 0
0.570092 1 0
0.60853 1 0
0.647929 1 0
0.686793 1 0
0.7243 1 0
0.759762 1 0
0.792523 1 7.62951e-05
0.822736 1 0.014435
0.849775 1 0.0539101
0.873487 1 0.0888685
0.893828 1 0.125475
0.910842 1 0.173083
0.922988 1 0.229145
0.925811 1 0.289952
0.925307 1 0.349966
0.924636 1 0.412055
0.923766 1 0.474006
0.922744 1 0.535012
0.921614 1 0.59823
0.920577 1 0.660456
0.919738 1 0.715175
0.536767 1 0.142748
0.541238 1 0.142748
0.545617 1 0.142763
0.549889 1 0.142794
0.554223 1 0.142809
0.559411 1 0.142855
0.566003 1 0.142931
0.574304 1 0.143023
0.584649 1 0.143191
0.59733 1 0.14345
0.612604 1 0.143877
0.630549 1 0.144564
0.651209 1 0.145647
0.674189 1 0.14728
0.699062 1 0.149706
0.725444 1 0.153155
0.752682 1 0.157931
0.779644 1 0.164324
0.805463 1 0.172793
0.829908 1 0.183764
0.852399 1 0.197757
0.872969 1 0.215366
0.891081 1 0.237125
0.906661 1 0.265431
0.918868 1 0.305333
0.924529 1 0.351797
0.924025 1 0.404273
0.923369 1 0.458366
0.92256 1 0.512932
0.92166 1 0.566857
0.920745 1 0.623423
0.919921 1 0.677699
0.919249 1 0.72604
0.650782 1 0.277836
0.652918 1 0.277897
0.655024 1 0.277974
0.657084 1 0.278035
0.659205 1 0.278111
0.661738 1 0.278202
0.664988 1 0.278325
0.669139 1 0.278492
0.674357 1 0.278737
0.680888 1 0.279072
0.688945 1 0.27953
0.698756 1 0.280171
0.710582 1 0.281071
0.724788 1 0.282673
0.740719 1 0.284428
0.758404 1 0.286839
0.77734 1 0.290135
0.796811 1 0.294484
0.81677 1 0.300175
0.836194 1 0.307012
0.855146 1 0.315984
0.872877 1 0.327443
0.88893 1 0.342
0.903197 1 0.360204
0.915267 1 0.384512
0.922652 1 0.418906
0.922728 1 0.460899
0.922103 1 0.507057
0.921386 1 0.55375
0.920623 1 0.602838
0.919905 1 0.651774
0.91928 1 0.697627
0.918776 1 0.738903
0.723323 1 0.394339
0.724453 1 0.394415
0.725551 1 0.394476
0.726635 1 0.394553
0.727749 1 0.394629
0.729122 1 0.39472
0.730861 1 0.394842
0.733135 1 0.394995
0.736019 1 0.395224
0.739712 1 0.395514
0.744335 1 0.395895
0.750057 1 0.396399
0.757092 1 0.397101
0.765545 1 0.398016
0.775464 1 0.399252
0.786816 1 0.4009
0.799405 1 0.403098
0.813413 1 0.405997
0.828092 1 0.409781
0.843717 1 0.41503
0.859113 1 0.421408
0.87396 1 0.429572
0.887861 1 0.439933
0.900603 1 0.452903
0.911864 1 0.469139
0.919997 1 0.490379
0.921401 1 0.519707
0.920867 1 0.55642
0.920272 1 0.597711
0.919676 1 0.640482
0.919142 1 0.681575
0.9187 1 0.719478
0.918349 1 0.753597
0.77351 1 0.499031
0.774121 1 0.499092
0.774716 1 0.499153
0.775311 1 0.499199
0.775921 1 0.49926
0.776669 1 0.499336
0.777646 1 0.499428
0.778881 1 0.49955
0.780499 1 0.499718
