BBLuts/BB_103_0030_LUT.cube
TITLE "Generated by Resolve"
LUT_3D_SIZE 9
0 0 0
0 0 0
0.181262 0 0
0.41799 0 0
0.720333 0 0
0.937209 0 0
0.90071 0.558465 0.0485389
0.881315 0.859602 0.327779
0.872663 0.969512 0.646494
0 0.037171 0
0 0.0479133 0
0.183383 0.0251621 0
0.425345 0 0
0.72253 0 0
0.937087 0 0
0.898665 0.582971 0.0361639
0.881148 0.861738 0.326772
0.872648 0.969696 0.646418
0 0.207996 0
0 0.211826 0
0.123217 0.209949 0
0.417456 0.188144 0
0.718212 0.0936751 0
0.919829 0.232853 0
0.895705 0.613596 0.0117952
0.880888 0.865232 0.325246
0.872633 0.96997 0.64625
0 0.474281 0
0 0.475273 0
0 0.476356 0
0.335576 0.474159 0
0.695399 0.465156 0
0.898482 0.519905 0
0.888395 0.692088 0
0.879973 0.877806 0.323629
0.872541 0.971267 0.645502
0 0.780301 0
0 0.780301 0
0 0.780056 0
0 0.777966 0
0.611551 0.771191 0
0.847944 0.776913 0
0.878569 0.825971 0
0.877607 0.91014 0.331685
0.872206 0.976059 0.642588
0 0.95256 0
0 0.95256 0
0 0.95256 0
0 0.948547 0
0.564355 0.940169 0
0.79173 0.932311 0
0.870558 0.934783 0
0.874052 0.959213 0.371832
0.871275 0.988678 0.644526
0.489662 1 0.142306
0.489662 1 0.142306
0.489662 1 0.142306
0.489632 1 0.142306
0.647562 1 0.156222
0.782391 1 0.195544
0.862104 1 0.292683
0.870893 1 0.482139
0.869749 1 0.672709
0.758434 1 0.554528
0.758434 1 0.554543
0.758434 1 0.554543
0.758434 1 0.554543
0.758419 1 0.554543
0.804593 1 0.561425
0.852461 1 0.581567
0.869032 1 0.633722
0.868544 1 0.730694
0.836332 1 0.763958
0.836332 1 0.763958
0.836332 1 0.763958
0.836332 1 0.763958
0.836332 1 0.763958
0.836316 1 0.763958
0.853407 1 0.766781
0.868269 1 0.774685
0.868147 1 0.794293
0 0 0.0240635
0 0 0.0244297
0.179706 0 0.0214389
0.418692 0 0.0203708
0.721141 0 0.0187228
0.938903 0 0.0202029
0.901305 0.556542 0.0716259
0.881315 0.859571 0.327794
0.872663 0.969512 0.64651
0 0.00831617 0.0182803
0.0137026 0.0217746 0.0164034
0.193698 0 0.0159457
0.420859 0 0.0124056
0.720897 0 0
0.937728 0 0
0.899199 0.581506 0.0548104
0.881148 0.861708 0.326787
0.872648 0.969696 0.646418
0 0.196704 0
0 0.200153 0
0.141619 0.198688 0
0.415839 0.176532 0
0.716945 0.060502 0
0.920806 0.218173 0
0.896284 0.612589 0.0269627
0.880888 0.865232 0.325246
0.872633 0.96997 0.64625
0 0.469154 0
0 0.470054 0
0 0.471031 0
0.34551 0.468482 0
0.694987 0.460426 0
0.898573 0.516594 0
0.888457 0.691234 0
0.879973 0.877806 0.323629
0.872541 0.971267 0.645502
0 0.778744 0
0 0.778729 0
0 0.778454 0
0 0.776349 0
0.61387 0.769924 0
0.84802 0.776059 0
0.878599 0.825681 0
0.877607 0.91014 0.331685
0.872206 0.976059 0.642588
0 0.952163 0
0 0.952255 0
0 0.952255 0
0 0.948272 0
0.566232 0.939956 0
0.791943 0.932174 0
0.870573 0.934707 0
0.874052 0.959213 0.371832
0.871275 0.988678 0.644526
0.493095 1 0.142123
0.493095 1 0.142123
0.49308 1 0.142123
0.493065 1 0.142123
0.648447 1 0.156008
0.782559 1 0.195377
0.862135 1 0.292668
0.870893 1 0.482139
0.869749 1 0.672709
0.758648 1 0.554528
0.758648 1 0.554528
0.758648 1 0.554528
0.758648 1 0.554528
0.758633 1 0.554528
0.804685 1 0.56141
0.852476 1 0.581552
0.869032 1 0.633722
0.868544 1 0.730694
0.836347 1 0.763958
0.836347 1 0.763958
0.836347 1 0.763958
0.836347 1 0.763958
0.836347 1 0.763958
0.836347 1 0.763958
0.853422 1 0.766781
0.868269 1 0.774685
0.868147 1 0.794293
0 0 0.146715
0 0 0.14699
0.150546 0 0.143526
0.42884 0 0.138552
0.722713 0 0.140475
0.940841 0 0.157687
0.903395 0.547066 0.201709
0.881392 0.859007 0.356191
0.872663 0.969512 0.64651
0 0 0.14432
0 0 0.144717
0.173114 0 0.140612
0.427863 0 0.13547
0.723812 0 0.136721
0.940581 0 0.150591
0.901457 0.573571 0.195224
0.881224 0.861173 0.355184
0.872648 0.969696 0.646418
0 0.167788 0.132357
0 0.170687 0.132326
0.129915 0.16437 0.126619
0.405982 0.145953 0.126787
0.721263 0 0.126925
0.928145 0.166018 0.139391
0.899031 0.606622 0.185641
0.880964 0.864713 0.353445
0.872633 0.96997 0.64625
0 0.456794 0.064744
0 0.458152 0.0650187
0 0.459037 0.0661326
0.3467 0.456474 0.0648814
0.693172 0.449439 0.0662089
0.902205 0.507622 0.0774853
0.892683 0.690608 0.148516
0.880034 0.877394 0.346883
0.872541 0.971267 0.645502
0 0.775753 0
0 0.775753 0
0 0.775479 0
0 0.773388 0
0.616007 0.766751 0
0.848005 0.77351 0
0.880171 0.825849 0.010071
0.877623 0.909987 0.332967
0.872206 0.976059 0.642588
0 0.951705 0
0 0.951705 0
0 0.951705 0
0 0.947768 0
0.569512 0.93959 0
0.792447 0.931899 0
0.870588 0.934524 0
0.874052 0.959136 0.371649
0.871275 0.988678 0.644526
0.497673 1 0.141848
0.497673 1 0.141848
0.497673 1 0.141848
0.497658 1 0.141848
0.649638 1 0.155718
0.782925 1 0.195163
0.862181 1 0.292454
0.870893 1 0.482063
0.869749 1 0.672709
0.758938 1 0.554482
0.758938 1 0.554482
0.758938 1 0.554482
0.758938 1 0.554482
0.758938 1 0.554482
0.804791 1 0.561364
0.852522 1 0.581521
0.869032 1 0.633707
0.868544 1 0.730694
0.836362 1 0.763958
0.836362 1 0.763958
0.836362 1 0.763958
0.836362 1 0.763958
0.836362 1 0.763958
0.836362 1 0.763958
0.853437 1 0.766781
0.868269 1 0.774685
0.868147 1 0.794293
0 0 0.370153
0 0 0.370245
0 0 0.370474
0.391669 0 0.36437
0.741436 0 0.364263
0.941283 0 0.378241
0.906752 0.505989 0.414893
0.881621 0.854124 0.502968
0.872633 0.969284 0.658305
0 0 0.368704
0 0 0.368826
0.00378424 0 0.368368
0.405341 0 0.362371
0.739956 0 0.362448
0.941161 0 0.375647
0.904448 0.538491 0.411978
0.881453 0.856443 0.502419
0.872618 0.969451 0.658213
0 0.0315404 0.365164
0 0.0341192 0.36524
0.00515755 0.0343786 0.364614
0.411688 0 0.359167
0.734813 0 0.359045
0.940154 0 0.371527
0.901686 0.577493 0.407736
0.881193 0.860166 0.501503
0.872587 0.969741 0.658091
0 0.40824 0.341299
0 0.409094 0.34136
0 0.411017 0.341924
0.33022 0.408453 0.340276
0.682124 0.401328 0.342718
0.906935 0.462638 0.354528
0.89485 0.673609 0.393256
0.880217 0.87361 0.49807
0.872496 0.971038 0.657435
0 0.768521 0.265644
0 0.768521 0.265644
0 0.768734 0.266361
0 0.766705 0.26923
0.614374 0.760464 0.275074
0.850523 0.769116 0.2981
0.88394 0.824018 0.354528
0.877729 0.907881 0.485893
0.87216 0.97583 0.654856
0 0.953216 0.0450141
0 0.953216 0.0450141
0 0.953216 0.0450141
0 0.949477 0.0463722
0.567864 0.941207 0.0475013
0.795254 0.935195 0.151934
0.875105 0.93904 0.279866
0.874067 0.958541 0.453513
0.87126 0.988617 0.647501
0.510643 1 0.140429
0.510643 1 0.140429
0.510643 1 0.140429
0.510643 1 0.140429
0.6533 1 0.154772
0.783886 1 0.194446
0.862379 0.999924 0.292134
0.870893 1 0.481666
0.869749 1 0.672633
0.759976 1 0.554376
0.759976 1 0.554376
0.759976 1 0.554376
0.759976 1 0.554376
0.759976 1 0.554376
0.805188 1 0.561242
0.852659 1 0.58143
0.869032 1 0.6336
0.868544 1 0.730663
0.836469 1 0.763958
0.836469 1 0.763958
0.836469 1 0.763958
0.836469 1 0.763958
0.836469 1 0.763958
0.836469 1 0.763958
0.853468 1 0.766766
0.868269 1 0.77467
0.868147 1 0.794293
0 0 0.657343
0 0 0.657343
0 0 0.657435
0.0834669 0 0.655146
0.711101 0 0.647532
0.940902 0 0.649561
0.921904 0.273381 0.66067
0.882155 0.836988 0.67837
0.872358 0.966857 0.738262
0 0 0.657267
0 0 0.657267
0 0 0.657328
0.090547 0 0.654627
0.714626 0 0.647105
0.940902 0 0.649195
0.916426 0.353567 0.659113
0.881956 0.839872 0.678035
0.872343 0.967041 0.738201
0 0 0.656291
0 0 0.656291
0 0 0.656352
0.183841 0 0.652445
0.719905 0 0.646006
0.940917 0 0.648142
0.910719 0.43621 0.656947
0.881636 0.844266 0.677485
0.872312 0.967346 0.738125
0 0.17792 0.650294
0 0.17792 0.650294
0 0.18204 0.650263
0.176013 0.172671 0.646754
0.713497 0.0812085 0.642313
0.928222 0.163607 0.643366
0.899168 0.601541 0.650141
0.880491 0.860258 0.675425
0.872221 0.968704 0.737758
0 0.722667 0.61709
0 0.722667 0.61709
0 0.722713 0.617121
0 0.722515 0.617502
0.591638 0.716396 0.615839
0.844846 0.731197 0.619791
0.885008 0.8009 0.633051
0.877638 0.899992 0.669245
0.871855 0.97377 0.7364
0 0.952255 0.577234
0 0.952255 0.577234
0 0.952346 0.577188
0 0.949386 0.577737
0.526131 0.939864 0.578302
0.78526 0.931258 0.587243
0.874189 0.934752 0.609735
0.873655 0.955428 0.655879
0.870909 0.987091 0.731594
0.491417 1 0.508385
0.491417 1 0.508385
0.491417 1 0.508385
0.491417 1 0.508385
0.638849 1 0.512489
0.776791 1 0.524666
0.856504 0.99939 0.557504
0.870512 1 0.625055
0.869551 1 0.717998
0.763256 1 0.553719
0.763256 1 0.553719
0.763256 1 0.553719
0.763256 1 0.553719
0.763256 1 0.553719
0.806424 1 0.560784
0.85304 1 0.581033
0.869032 1 0.633402
0.868544 1 0.730465
0.836881 1 0.763897
0.836881 1 0.763897
0.836881 1 0.763897
0.836881 1 0.763897
0.836881 1 0.763897
0.836866 1 0.763897
0.85362 1 0.766705
0.868269 1 0.774624
0.868147 1 0.794263
0 0 0.839872
0 0 0.839979
0 0 0.839979
0 0 0.840009
0.518517 0 0.831006
0.935332 0 0.823301
0.939544 0 0.823911
0.88719 0.755138 0.810864
0.872343 0.960266 0.812375
0 0 0.839979
0 0 0.839979
0 0 0.839979
0 0 0.840009
0.5178 0 0.831022
0.935332 0 0.823301
0.939544 0 0.823835
0.886748 0.76141 0.810452
0.872328 0.960494 0.812345
0 0 0.839933
0 0 0.839933
0 0 0.839933
0 0 0.839933
0.528542 0 0.830777
0.935683 0 0.823209
0.939544 0 0.823713
0.886061 0.771023 0.809842
0.872297 0.960861 0.812299
0 0 0.83949
0 0 0.83949
0 0 0.83949
0 0 0.839506
0.584787 0 0.829389
0.936553 0 0.822736
0.939467 0 0.822248
0.883803 0.802594 0.807706
0.872175 0.962463 0.8121
0 0.455695 0.825986
0 0.455695 0.825986
0 0.455695 0.825986
0 0.459663 0.825818
0.541405 0.454322 0.819242
0.89633 0.476829 0.814252
0.893065 0.672984 0.808148
0.879011 0.869383 0.802655
0.871748 0.968414 0.811322
0 0.934508 0.790188
0 0.934508 0.790188
0 0.934508 0.790188
0 0.934508 0.790188
0.299428 0.922408 0.787106
0.768826 0.912871 0.788037
0.870039 0.919738 0.789654
0.873503 0.945953 0.794797
0.870665 0.983612 0.809018
0.313069 1 0.771756
0.313069 1 0.771756
0.314061 1 0.771725
0.314061 1 0.771725
0.560052 1 0.772335
0.75465 0.999756 0.773861
0.844877 0.996017 0.777569
0.86981 0.997467 0.786313
0.869108 1 0.804074
0.750347 1 0.74403
0.750347 1 0.74403
0.750347 1 0.74403
0.750347 1 0.74403
0.750347 1 0.74403
0.794079 1 0.745998
0.843915 1 0.751812
0.868299 1 0.7664
0.868162 1 0.792554
0.838178 1 0.76376
0.838178 1 0.76376
0.838178 1 0.76376
0.838178 1 0.76376
0.838178 1 0.76376
0.838178 1 0.76376
0.854093 1 0.766522
0.868269 1 0.774487
0.868147 1 0.794202
0 0 0.890379
0 0 0.890379
0 0 0.890379
0 0 0.890379
0 0 0.890379
0.849256 0 0.884459
0.938979 0 0.884245
0.938979 0 0.884245
0.874128 0.930236 0.86479
0 0 0.890379
0 0 0.890379
0 0 0.890379
0 0 0.890379
0 0 0.890379
0.849256 0 0.884459
0.938979 0 0.884245
0.938979 0 0.884245
0.874098 0.930739 0.864759
0 0 0.890379
0 0 0.890379
0 0 0.890379
0 0 0.890379
0 0 0.890379
0.849256 0 0.884459
0.938979 0 0.884245
0.938979 0 0.884245
0.874037 0.931609 0.864683
0 0 0.890379
0 0 0.890379
0 0 0.890379
0 0 0.890379
0 0 0.890379
0.854261 0 0.884443
0.938979 0 0.884245
0.938979 0 0.884245
0.873793 0.934997 0.864408
0 0 0.890379
0 0 0.890379
0 0 0.890379
0 0 0.890379
0 0 0.890379
0.889448 0 0.884352
0.938979 0 0.884245
0.911086 0.406424 0.881346
0.872938 0.946914 0.863462
0 0.752361 0.877104
0 0.752361 0.877104
0 0.752361 0.877104
0 0.752361 0.877104
0 0.755764 0.876966
0.765499 0.749035 0.872587
0.883421 0.801343 0.86952
0.876432 0.898634 0.864073
0.871138 0.971847 0.861326
0 1 0.857588
0 1 0.857588
0 1 0.857588
0 1 0.857588
0 1 0.857588
0.706676 0.993484 0.855131
0.837995 0.988342 0.855482
0.869749 0.991287 0.856138
0.868986 1 0.858274
0.719005 1 0.849363
0.719005 1 0.849363
0.719005 1 0.849363
0.719005 1 0.849363
0.719005 1 0.849363
0.767468 1 0.8495
0.834104 1 0.850034
0.866865 1 0.851514
0.86772 1 0.855055
0.832456 1 0.838422
0.832456 1 0.838422
0.832456 1 0.838422
0.832456 1 0.838422
0.832456 1 0.838422
0.832456 1 0.838422
0.848524 1 0.83917
0.866133 1 0.841489
0.867781 1 0.847074
0 0.0597238 0.890181
0 0.0597238 0.890181
0 0.0597238 0.890181
0 0.0597238 0.890181
0 0.0597238 0.890181
0 0.0598154 0.890181
0.938979 0 0.884245
0.937575 0.000122072 0.884581
0.894438 0.644862 0.883925
0 0.0597238 0.890181
0 0.0597238 0.890181
0 0.0597238 0.890181
0 0.0597238 0.890181
0 0.0597238 0.890181
0 0.0598154 0.890181
0.938979 0 0.884245
0.937575 0.000122072 0.884581
0.894438 0.644862 0.883925
0 0.0597238 0.890181
0 0.0597238 0.890181
0 0.0597238 0.890181
0 0.0597238 0.890181
0 0.0597238 0.890181
0 0.0598154 0.890181
0.938979 0 0.884245
0.937575 0.000122072 0.884581
0.894438 0.644816 0.883925
0 0.0597238 0.890181
0 0.0597238 0.890181
0 0.0597238 0.890181
0 0.0597238 0.890181
0 0.0597238 0.890181
0 0.0598154 0.890181
0.938979 0 0.884245
0.937575 0.000122072 0.884581
0.894453 0.644709 0.883925
0 0.0596017 0.890181
0 0.0596017 0.890181
0 0.0596017 0.890181
0 0.0596017 0.890181
0 0.0596017 0.890181
0 0.0596933 0.890181
0.938979 0 0.884245
0.937438 0.00221256 0.884596
0.894469 0.644388 0.883925
0 0.057969 0.890181
0 0.057969 0.890181
0 0.057969 0.890181
0 0.057969 0.890181
0 0.057969 0.890181
0 0.0580453 0.890181
0.938979 0 0.884245
0.935119 0.0415045 0.884886
0.883497 0.798688 0.88304
0 0.929656 0.882383
0 0.929656 0.882383
0 0.929656 0.882383
0 0.929656 0.882383
0 0.929656 0.882383
0 0.931685 0.882368
0.839902 0.910369 0.882124
0.872892 0.945556 0.882017
0.870146 0.983108 0.881727
0.412085 1 0.879484
0.412085 1 0.879484
0.412085 1 0.879484
0.412085 1 0.879484
0.412085 1 0.879484
0.412085 1 0.879484
0.815641 1 0.880385
0.864713 1 0.880552
0.867613 1 0.88072
0.820859 1 0.878752
0.820859 1 0.878752
0.820859 1 0.878752
0.820859 1 0.878752
0.820859 1 0.878752
0.820859 1 0.878752
0.838865 1 0.878813
0.862516 1 0.878981
0.867552 1 0.879362
0 0.29485 0.888609
0 0.29485 0.888609
0 0.29485 0.888609
0 0.29485 0.888609
0 0.29485 0.888609
0 0.29485 0.888609
0 0.294926 0.888609
0.931304 0.103197 0.885176
0.891966 0.679957 0.883741
0 0.29485 0.888609
0 0.29485 0.888609
0 0.29485 0.888609
0 0.29485 0.888609
0 0.29485 0.888609
0 0.29485 0.888609
0 0.294926 0.888609
0.931304 0.103197 0.885176
0.891966 0.679957 0.883741
0 0.29485 0.888609
0 0.29485 0.888609
0 0.29485 0.888609
0 0.29485 0.888609
0 0.29485 0.888609
0 0.29485 0.888609
0 0.294926 0.888609
0.931304 0.103197 0.885176
0.891966 0.679957 0.883741
0 0.29485 0.888609
0 0.29485 0.888609
0 0.29485 0.888609
0 0.29485 0.888609
0 0.29485 0.888609
0 0.29485 0.888609
0 0.294926 0.888609
0.931304 0.103197 0.885176
0.891966 0.679957 0.883741
0 0.29485 0.888609
0 0.29485 0.888609
0 0.29485 0.888609
0 0.29485 0.888609
0 0.29485 0.888609
0 0.29485 0.888609
0 0.294926 0.888609
0.931304 0.103197 0.885176
0.891966 0.679957 0.883741
0 0.294774 0.888609
0 0.294774 0.888609
0 0.294774 0.888609
0 0.294774 0.888609
0 0.294774 0.888609
0 0.294774 0.888609
0 0.294835 0.888609
0.931243 0.104173 0.885191
0.891859 0.681407 0.883726
0 0.293614 0.888624
0 0.293614 0.888624
0 0.293614 0.888624
0 0.293614 0.888624
0 0.293614 0.888624
0 0.293614 0.888624
0 0.29366 0.888624
0.923033 0.229892 0.885283
0.891676 0.684047 0.883711
0 1 0.881483
0 1 0.881483
0 1 0.881483
0 1 0.881483
0 1 0.881483
0 1 0.881483
0 1 0.881483
0.863127 1 0.881575
0.868467 1 0.881559
0.768551 1 0.88098
0.768551 1 0.88098
0.768551 1 0.88098
0.768551 1 0.88098
0.768551 1 0.88098
0.768551 1 0.88098
0.768551 1 0.88098
0.857237 1 0.881407
0.867536 1 0.881453
