BBLuts/BB_106_0320_LUT.cube
TITLE "Generated by Resolve"
LUT_3D_SIZE 5
0.0402533 0.0402533 0.0402533
0.180865 0.039765 0.039765
0.716716 0.0196841 0.0191806
0.897276 0.530755 0.154269
0.859266 0.928374 0.723125
0.0279698 0.201236 0.0375982
0.152346 0.203021 0.0386511
0.729274 0.078233 0.0220035
0.890227 0.600504 0.132113
0.858961 0.929381 0.722576
0 0.76582 0.0298619
0 0.765316 0.0298009
0.654368 0.757763 0.0360418
0.872038 0.818906 0.0396124
0.858976 0.935622 0.71989
0.5467 0.980026 0.244511
0.582712 0.977966 0.244862
0.710948 0.970153 0.252552
0.858534 0.960601 0.367544
0.856733 0.961852 0.732769
0.833265 0.970184 0.795727
0.844724 0.965881 0.804028
0.835859 0.970123 0.796109
0.848692 0.97026 0.798138
0.856092 0.970184 0.817075
0.0399176 0.040177 0.173983
0.163424 0.0399176 0.182727
0.723461 0.0196689 0.162921
0.936721 0.503502 0.297765
0.858976 0.928222 0.732326
0.0306401 0.174929 0.160708
0.162631 0.170504 0.163729
0.723415 0.0197299 0.149706
0.935225 0.576181 0.281895
0.858915 0.929137 0.732006
0 0.762188 0.0294804
0 0.761242 0.0295109
0.662257 0.753262 0.0362402
0.879698 0.815473 0.141527
0.858579 0.935546 0.729397
0.551354 0.980209 0.24361
0.587289 0.97763 0.244358
0.713344 0.969635 0.252613
0.858656 0.96054 0.367514
0.856764 0.961837 0.732738
0.833295 0.970184 0.795712
0.8448 0.965866 0.804044
0.839521 0.968719 0.798795
0.853132 0.968551 0.801419
0.855863 0.97026 0.816892
0.0334173 0.0338903 0.674647
0.0333104 0.0337377 0.679606
0.719097 0.016907 0.670756
0.945068 0.299367 0.744183
0.866011 0.923751 0.78529
0.0332799 0.0336767 0.680247
0.0334325 0.0339055 0.673381
0.737621 0.0151064 0.693645
0.945815 0.43917 0.742473
0.885878 0.917159 0.799847
0 0.707469 0.647059
0 0.71284 0.636347
0.659739 0.699184 0.665278
0.930449 0.77026 0.707576
0.886107 0.923644 0.798733
0.564797 0.971832 0.512154
0.586511 0.973617 0.506035
0.708507 0.965484 0.509911
0.86096 0.953643 0.58146
0.86183 0.959518 0.769772
0.833783 0.970138 0.795789
0.83772 0.968734 0.79852
0.837949 0.969451 0.797375
0.869932 0.962158 0.813703
0.856565 0.970001 0.817426
0.0328222 0.0336004 0.88307
0.03299 0.0339361 0.873213
0.03299 0.0339361 0.873213
0.904036 0.0286412 0.873747
0.920913 0.879561 0.910399
0.032639 0.0332494 0.893797
0.03299 0.0339361 0.873213
0.0328832 0.0337072 0.879957
0.904936 0.0284581 0.875944
0.926741 0.879301 0.915114
0.0324407 0.0328374 0.906401
0.03299 0.0339361 0.873182
0.201221 0.0338445 0.87248
0.910338 0.0273594 0.889128
0.928161 0.891386 0.915419
0.0354162 0.970214 0.912016
0 0.987686 0.872999
0.574182 0.963607 0.857389
0.85713 0.940887 0.868833
0.927718 0.930968 0.911681
0.842756 0.96614 0.844694
0.832242 0.970321 0.836301
0.834241 0.970321 0.836393
0.852796 0.968032 0.842054
0.870298 0.964828 0.856489
0.0250553 0.307851 0.900328
0.0172427 0.312581 0.873823
0.0172274 0.312596 0.873793
0.0201877 0.310948 0.883848
0.935119 0.71313 0.935347
0.0282902 0.305882 0.911315
0.0172427 0.312566 0.873823
0.0172274 0.312581 0.873793
0.0201724 0.310948 0.883787
0.934371 0.713481 0.93463
0.0282902 0.305776 0.911345
0.017258 0.312459 0.873823
0.0172427 0.312474 0.873823
0.0212711 0.310185 0.88748
0.935058 0.713848 0.935286
0.0287175 0.304417 0.912673
0.0173342 0.311315 0.873823
0.017319 0.31133 0.873808
0.900969 0.0292821 0.866255
0.934249 0.716365 0.934508
0.812879 0.959381 0.894575
0.78677 0.970123 0.871992
0.795453 0.970184 0.871977
0.833295 0.970397 0.871992
0.900313 0.953796 0.907759
