BBLuts/BB_103_0380_LUT.cube
TITLE "Generated by Resolve"
LUT_3D_SIZE 5
0 0 0
0.15314 0 0
0.714702 0 0
0.877546 0.570123 0.0467689
0.84181 0.942275 0.64921
0 0.174166 0
0.0990311 0.175723 0
0.713939 0.0576638 0
0.871443 0.62678 0.0130465
0.841779 0.942641 0.648981
0 0.78233 0
0 0.782071 0
0.61796 0.775769 0
0.852415 0.830396 0
0.841459 0.947585 0.645624
0.50901 0.992248 0.134707
0.50901 0.992248 0.134707
0.660227 0.982223 0.13959
0.837812 0.972671 0.275456
0.839231 0.972778 0.672816
0.811292 0.982177 0.749966
0.811292 0.982177 0.749966
0.811292 0.982177 0.749966
0.825147 0.982315 0.752285
0.83743 0.982284 0.774914
0 0 0.120912
0.125658 0 0.118502
0.71722 0 0.101976
0.881254 0.558785 0.188037
0.84181 0.94226 0.649226
0 0.13843 0.107805
0.105791 0.134905 0.102281
0.715999 0 0.090135
0.875715 0.621637 0.170932
0.841779 0.942626 0.648981
0 0.777691 0
0 0.777417 0
0.622126 0.771466 0
0.853727 0.830198 0.00856031
0.841459 0.947585 0.645624
0.516045 0.991699 0.133822
0.516045 0.991699 0.133822
0.662104 0.982071 0.139055
0.837858 0.972625 0.275212
0.839231 0.972778 0.672816
0.811322 0.982177 0.749966
0.811322 0.982177 0.749966
0.811322 0.982177 0.749966
0.825177 0.982315 0.752285
0.83743 0.982284 0.774914
0 0 0.657679
0 0 0.657771
0.704631 0 0.63798
0.902113 0.257588 0.675074
0.841138 0.939651 0.728969
0 0 0.656703
0 0 0.656764
0.712856 0 0.636622
0.890791 0.435004 0.672511
0.841108 0.940032 0.728862
0 0.725475 0.619257
0 0.725521 0.619287
0.596033 0.721645 0.62005
0.853574 0.803021 0.638224
0.840742 0.94522 0.727428
0.506203 0.987625 0.521431
0.506203 0.987625 0.521431
0.647868 0.977844 0.519646
0.829358 0.967651 0.563836
0.838895 0.972076 0.711986
0.811734 0.982177 0.74992
0.811734 0.982177 0.74992
0.811734 0.982177 0.74992
0.82533 0.982315 0.752224
0.83743 0.982284 0.774884
0 0 0.853803
0 0 0.853803
0 0 0.853803
0.905791 0 0.846815
0.842542 0.910353 0.831678
0 0 0.853803
0 0 0.853803
0 0 0.853803
0.905791 0 0.846815
0.842451 0.911452 0.831586
0 0 0.853803
0 0 0.853803
0 0 0.853803
0.905791 0 0.846815
0.841566 0.923491 0.830579
0 1 0.850172
0 1 0.850172
0 1 0.850172
0.81294 0.957076 0.824262
0.838407 0.967681 0.826429
0.808179 0.981933 0.810224
0.808179 0.981933 0.810224
0.808179 0.981933 0.810224
0.82121 0.982071 0.810849
0.837186 0.982147 0.817151
0 0.258122 0.852079
0 0.258122 0.852079
0 0.258122 0.852079
0 0.258198 0.852079
0.8663 0.694072 0.856596
0 0.258122 0.852079
0 0.258122 0.852079
0 0.258122 0.852079
0 0.258198 0.852079
0.8663 0.694072 0.856596
0 0.258122 0.852079
0 0.258122 0.852079
0 0.258122 0.852079
0 0.258198 0.852079
0.8663 0.694072 0.856596
0 0.256855 0.852094
0 0.256855 0.852094
0 0.256855 0.852094
0 0.256916 0.852079
0.865782 0.697948 0.856291
0.756329 0.981186 0.844923
0.756329 0.981186 0.844923
0.756329 0.981186 0.844923
0.756329 0.981186 0.844923
0.837263 0.982361 0.84564
