BBLuts/BB_106_0370_LUT.cube
LUT_3D_SIZE 9
0.000000 0.000000 0.000000
0.000000 0.000000 0.000000
0.167712 0.000000 0.000000
0.381628 0.000000 0.000000
0.733272 0.000000 0.000000
1.000000 0.000000 0.000000
1.000000 0.432761 0.117800
1.000000 0.789960 0.385290
1.000000 0.932036 0.737560
0.000000 0.047852 0.000000
0.000000 0.056611 0.000000
0.176989 0.038178 0.000000
0.391531 0.000000 0.000000
0.736233 0.000000 0.000000
1.000000 0.000000 0.000000
1.000000 0.465217 0.106340
1.000000 0.795407 0.383291
1.000000 0.932708 0.737270
0.000000 0.185138 0.000000
0.000000 0.188098 0.000000
0.146639 0.187167 0.000000
0.401144 0.168139 0.000000
0.741146 0.080598 0.000000
1.000000 0.177981 0.000000
1.000000 0.511360 0.083482
1.000000 0.803784 0.380087
1.000000 0.933791 0.736782
0.000000 0.409537 0.000000
0.000000 0.410559 0.000000
0.000000 0.411124 0.000000
0.353948 0.409140 0.000000
0.748470 0.397864 0.000000
1.000000 0.442603 0.000000
1.000000 0.618936 0.000000
1.000000 0.825849 0.370672
1.000000 0.936904 0.735332
0.000000 0.738705 0.000000
0.000000 0.738613 0.000000
0.000000 0.738186 0.000000
0.000000 0.735332 0.000000
0.682155 0.725322 0.000000
0.962600 0.729534 0.000000
1.000000 0.783780 0.000000
1.000000 0.870939 0.373983
1.000000 0.945113 0.730968
0.000000 0.936141 0.000000
0.000000 0.935286 0.000000
0.000000 0.933867 0.000000
0.000000 0.929549 0.000000
0.655421 0.918608 0.000000
0.909728 0.908049 0.000000
1.000000 0.909895 0.000000
1.000000 0.930068 0.413397
1.000000 0.962478 0.725978
0.525689 0.998215 0.185962
0.546609 0.997620 0.186755
0.576944 0.996719 0.188083
0.648722 0.994293 0.192172
0.770397 0.989273 0.204822
0.901884 0.982620 0.241047
0.992004 0.978012 0.335012
1.000000 0.978515 0.530297
1.000000 0.985550 0.759319
0.861082 1.000000 0.613825
0.862867 1.000000 0.614008
0.865721 1.000000 0.614282
0.873899 1.000000 0.615152
0.894835 1.000000 0.617792
0.934936 1.000000 0.625879
0.983215 1.000000 0.649393
1.000000 1.000000 0.713069
1.000000 1.000000 0.827405
0.959869 1.000000 0.864729
0.960082 1.000000 0.864759
0.960449 1.000000 0.864790
0.961532 1.000000 0.864912
0.964614 1.000000 0.865248
0.972396 1.000000 0.866285
0.987304 1.000000 0.869413
1.000000 1.000000 0.878157
1.000000 1.000000 0.901289
0.000000 0.000000 0.046845
0.000000 0.000000 0.047089
0.167941 0.000000 0.047807
0.382208 0.000000 0.048936
0.733135 0.000000 0.052033
1.000000 0.000000 0.081544
1.000000 0.426780 0.177676
1.000000 0.788785 0.418021
1.000000 0.931868 0.745327
0.000000 0.027161 0.038773
0.037476 0.037476 0.037476
0.183200 0.000000 0.040131
0.387259 0.000000 0.038209
0.734447 0.000000 0.023987
1.000000 0.000000 0.056916
1.000000 0.460090 0.167407
1.000000 0.794278 0.416236
1.000000 0.932540 0.745052
0.000000 0.177600 0.000000
0.000000 0.180102 0.000000
0.162387 0.179522 0.000000
0.399359 0.160098 0.000000
0.737697 0.053223 0.000000
1.000000 0.164157 0.000000
1.000000 0.507271 0.148867
1.000000 0.802716 0.413352
1.000000 0.933623 0.744594
0.000000 0.405631 0.000000
0.000000 0.406592 0.000000
0.000000 0.406989 0.000000
0.363775 0.404654 0.000000
0.747906 0.394156 0.000000
1.000000 0.439597 0.000000
1.000000 0.616709 0.047150
1.000000 0.824994 0.404929
1.000000 0.936751 0.743206
0.000000 0.737301 0.000000
0.000000 0.737179 0.000000
0.000000 0.736736 0.000000
0.000000 0.733822 0.000000
0.685435 0.723888 0.000000
0.962737 0.728527 0.000000
1.000000 0.783230 0.000000
1.000000 0.870680 0.381735
1.000000 0.944991 0.739055
0.000000 0.935851 0.000000
0.000000 0.934981 0.000000
0.000000 0.933562 0.000000
0.000000 0.929244 0.000000
0.657664 0.918364 0.000000
0.910124 0.907881 0.000000
1.000000 0.909773 0.000000
1.000000 0.929992 0.413199
1.000000 0.962448 0.726696
0.528908 0.998093 0.185779
0.549538 0.997513 0.186587
0.579507 0.996612 0.187915
0.650492 0.994202 0.192004
0.771221 0.989212 0.204685
0.902113 0.982589 0.240940
0.992050 0.977981 0.334997
1.000000 0.978500 0.530220
1.000000 0.985534 0.759274
0.861357 1.000000 0.613794
0.863142 1.000000 0.613977
0.865980 1.000000 0.614252
0.874128 1.000000 0.615122
0.895018 1.000000 0.617762
0.935027 1.000000 0.625849
0.983246 1.000000 0.649363
1.000000 1.000000 0.713054
1.000000 1.000000 0.827390
0.959899 1.000000 0.864729
0.960113 1.000000 0.864759
0.960479 1.000000 0.864790
0.961563 1.000000 0.864897
0.964645 1.000000 0.865248
0.972412 1.000000 0.866285
0.987320 1.000000 0.869413
1.000000 1.000000 0.878157
1.000000 1.000000 0.901289
0.000000 0.000000 0.170459
0.000000 0.000000 0.170657
0.148852 0.000000 0.170382
0.392752 0.000000 0.167453
0.732982 0.000000 0.172320
1.000000 0.000000 0.197772
1.000000 0.414893 0.266987
1.000000 0.786816 0.464775
1.000000 0.931579 0.757076
0.000000 0.000000 0.166903
0.000000 0.000000 0.167239
0.172061 0.000000 0.166690
0.391348 0.000000 0.163958
0.735775 0.000000 0.168490
1.000000 0.000000 0.191485
1.000000 0.449577 0.261006
1.000000 0.792401 0.463218
1.000000 0.932265 0.756817
0.000000 0.155383 0.155962
0.000000 0.157305 0.155673
0.152102 0.152102 0.152102
0.385199 0.137316 0.154559
0.734142 0.000000 0.157946
1.000000 0.117021 0.178988
1.000000 0.498405 0.251011
1.000000 0.800977 0.460716
1.000000 0.933364 0.756390
0.000000 0.393973 0.081041
0.000000 0.395087 0.081987
0.000000 0.395621 0.083284
0.363699 0.392859 0.086046
0.741848 0.383154 0.090852
1.000000 0.428962 0.118578
1.000000 0.610712 0.218479
1.000000 0.823575 0.453437
1.000000 0.936507 0.755108
0.000000 0.734386 0.000000
0.000000 0.734264 0.000000
0.000000 0.733806 0.000000
0.000000 0.730861 0.000000
0.688304 0.720974 0.000000
0.962570 0.726177 0.000000
1.000000 0.781643 0.087541
1.000000 0.869856 0.433692
1.000000 0.944778 0.751263
0.000000 0.935363 0.000000
0.000000 0.934493 0.000000
0.000000 0.933074 0.000000
0.000000 0.928771 0.000000
0.661265 0.917952 0.000000
0.910735 0.907591 0.000000
1.000000 0.909575 0.000000
1.000000 0.929885 0.412894
1.000000 0.962295 0.739895
0.534096 0.997925 0.185504
0.554269 0.997345 0.186313
0.583612 0.996445 0.187640
0.653346 0.994064 0.191745
0.772549 0.989105 0.204456
0.902495 0.982528 0.240757
0.992142 0.977951 0.334966
1.000000 0.978485 0.530083
1.000000 0.985519 0.759213
0.861784 1.000000 0.613748
0.863569 1.000000 0.613931
0.866392 1.000000 0.614206
0.874510 1.000000 0.615076
0.895308 1.000000 0.617716
0.935180 1.000000 0.625803
0.983291 1.000000 0.649332
1.000000 1.000000 0.713054
1.000000 1.000000 0.827375
0.959945 1.000000 0.864729
0.960174 1.000000 0.864744
0.960540 1.000000 0.864790
0.961608 1.000000 0.864897
0.964691 1.000000 0.865232
0.972442 1.000000 0.866270
0.987335 1.000000 0.869398
1.000000 1.000000 0.878157
1.000000 1.000000 0.901289
0.000000 0.000000 0.378759
0.000000 0.000000 0.378897
0.000000 0.000000 0.378973
0.371298 0.000000 0.377600
0.755352 0.000000 0.380240
1.000000 0.000000 0.397986
1.000000 0.374365 0.449317
1.000000 0.780636 0.574838
1.000000 0.930755 0.786877
0.000000 0.000000 0.376776
0.000000 0.000000 0.376959
0.071595 0.000000 0.376883
0.385412 0.000000 0.375479
0.752956 0.000000 0.378027
1.000000 0.000000 0.395468
1.000000 0.414282 0.446128
1.000000 0.786511 0.573678
1.000000 0.931441 0.786664
0.000000 0.062654 0.373022
0.000000 0.067475 0.373175
0.099687 0.063233 0.373053
0.391180 0.000000 0.371923
0.745632 0.000000 0.374426
1.000000 0.000000 0.390723
1.000000 0.469078 0.440925
1.000000 0.795499 0.571801
1.000000 0.932555 0.786313
0.000000 0.353506 0.350942
0.000000 0.355047 0.351232
0.000000 0.356115 0.351843
0.353201 0.353201 0.353201
0.722072 0.344533 0.356435
1.000000 0.392233 0.371756
1.000000 0.591318 0.425376
1.000000 0.819135 0.566430
1.000000 0.935760 0.785275
0.000000 0.721553 0.273564
0.000000 0.721523 0.274174
0.000000 0.721187 0.275120
0.000000 0.718486 0.277806
0.683406 0.708721 0.285969
0.959564 0.715816 0.312032
1.000000 0.775143 0.385794
1.000000 0.867308 0.552239
1.000000 0.944152 0.782193
0.000000 0.934005 0.000000
0.000000 0.933135 0.000000
0.000000 0.931701 0.000000
0.000000 0.927398 0.000000
0.661112 0.916594 0.000000
0.909895 0.906279 0.154818
1.000000 0.908431 0.308812
1.000000 0.928969 0.517922
1.000000 0.961868 0.773266
0.549203 0.997375 0.184649
0.568093 0.996826 0.185473
0.595697 0.995956 0.186816
0.661784 0.993637 0.190967
0.776532 0.988815 0.203769
0.903639 0.982361 0.240223
0.992386 0.977829 0.334874
1.000000 0.978408 0.529671
1.000000 0.985489 0.758999
0.863111 1.000000 0.613611
0.864866 1.000000 0.613779
0.867659 1.000000 0.614069
0.875654 1.000000 0.614923
0.896193 1.000000 0.617578
0.935637 1.000000 0.625666
0.983429 1.000000 0.649210
1.000000 1.000000 0.713024
1.000000 1.000000 0.827298
0.960113 1.000000 0.864714
0.960342 1.000000 0.864729
0.960693 1.000000 0.864759
0.961776 1.000000 0.864881
0.964828 1.000000 0.865217
0.972564 1.000000 0.866255
0.987396 1.000000 0.869383
1.000000 1.000000 0.878141
1.000000 1.000000 0.901289
0.000000 0.000000 0.707012
0.000000 0.000000 0.707103
0.000000 0.000000 0.707256
0.232151 0.000000 0.706111
0.739910 0.000000 0.702098
1.000000 0.000000 0.706569
1.000000 0.166049 0.724193
1.000000 0.759319 0.761776
1.000000 0.928252 0.845930
0.000000 0.000000 0.706249
0.000000 0.000000 0.706340
0.000000 0.000000 0.706508
0.256474 0.000000 0.705150
0.746487 0.000000 0.701305
1.000000 0.000000 0.705760
1.000000 0.259052 0.722499
1.000000 0.766461 0.761013
1.000000 0.928985 0.845777
0.000000 0.000000 0.704997
0.000000 0.000000 0.705104
0.000000 0.000000 0.705272
0.288991 0.000000 0.703609
0.750500 0.000000 0.699931
1.000000 0.000000 0.704372
1.000000 0.351965 0.719753
1.000000 0.777142 0.759854
1.000000 0.930159 0.845548
0.000000 0.204517 0.697795
0.000000 0.206943 0.697826
0.000000 0.210056 0.697826
0.294224 0.202564 0.696620
0.749035 0.114778 0.694041
1.000000 0.206149 0.696910
1.000000 0.520241 0.711574
1.000000 0.804471 0.756588
1.000000 0.933532 0.844846
0.000000 0.675349 0.662623
0.000000 0.675700 0.662776
0.000000 0.675792 0.662959
0.000000 0.673976 0.663371
0.664485 0.664485 0.664485
0.949432 0.678569 0.669886
1.000000 0.752026 0.691051
1.000000 0.859113 0.748592
1.000000 0.942321 0.842817
0.000000 0.929442 0.612741
0.000000 0.928603 0.612940
0.000000 0.927184 0.613260
0.000000 0.922850 0.614221
0.627817 0.911635 0.617395
0.898741 0.900832 0.629068
1.000000 0.903822 0.661601
1.000000 0.925841 0.732082
1.000000 0.960662 0.837263
0.536889 0.996338 0.515816
0.556344 0.995773 0.516152
0.584710 0.994919 0.516716
0.652308 0.992599 0.518471
0.768902 0.987762 0.524025
0.897276 0.981292 0.541238
0.986450 0.976745 0.589731
1.000000 0.977462 0.693309
1.000000 0.984924 0.822553
0.867063 1.000000 0.613153
0.868742 1.000000 0.613336
0.871412 1.000000 0.613611
0.879088 1.000000 0.614481
0.898833 1.000000 0.617136
0.937026 1.000000 0.625238
0.983886 1.000000 0.648844
1.000000 1.000000 0.712947
1.000000 1.000000 0.827100
0.960632 1.000000 0.864652
0.960845 1.000000 0.864668
0.961196 1.000000 0.864714
0.962249 1.000000 0.864820
0.965270 1.000000 0.865156
0.972885 1.000000 0.866209
0.987564 1.000000 0.869337
1.000000 1.000000 0.878096
1.000000 1.000000 0.901289
0.000000 0.000000 0.934173
0.000000 0.000000 0.934188
0.000000 0.000000 0.934218
0.000000 0.000000 0.934279
0.611734 0.000000 0.927672
1.000000 0.000000 0.922057
1.000000 0.000000 0.923201
1.000000 0.660212 0.913146
1.000000 0.920272 0.919722
0.000000 0.000000 0.934081
0.000000 0.000000 0.934096
0.000000 0.000000 0.934112
0.000000 0.000000 0.934173
0.620890 0.000000 0.927443
1.000000 0.000000 0.921965
1.000000 0.000000 0.923095
1.000000 0.674159 0.912383
1.000000 0.921141 0.919631
0.000000 0.000000 0.933928
0.000000 0.000000 0.933944
0.000000 0.000000 0.933959
0.000000 0.000000 0.934005
0.635370 0.000000 0.927062
1.000000 0.000000 0.921782
1.000000 0.000000 0.922942
1.000000 0.694728 0.911208
1.000000 0.922530 0.919478
0.000000 0.000000 0.933440
0.000000 0.000000 0.933455
0.000000 0.000000 0.933471
0.000000 0.000000 0.933074
0.667094 0.000000 0.926085
1.000000 0.000000 0.921263
1.000000 0.000000 0.920516
1.000000 0.744350 0.908141
1.000000 0.926513 0.919036
0.000000 0.463600 0.918303
0.000000 0.464912 0.918257
0.000000 0.467033 0.918166
0.000000 0.470344 0.917449
0.641459 0.459144 0.913664
0.996155 0.478508 0.909026
1.000000 0.637018 0.904082
1.000000 0.828641 0.902083
1.000000 0.936782 0.917830
0.000000 0.913375 0.884901
0.000000 0.912840 0.884855
0.000000 0.911803 0.884779
0.000000 0.907713 0.884459
0.537331 0.895521 0.883589
0.883360 0.883360 0.883360
0.995544 0.889662 0.885557
1.000000 0.916823 0.893584
1.000000 0.957351 0.914946
0.381857 0.995544 0.865232
0.417441 0.994888 0.865217
0.465476 0.993866 0.865187
0.568704 0.991119 0.865141
0.724208 0.985473 0.865232
0.875517 0.978317 0.866407
0.973190 0.973709 0.871122
1.000000 0.975097 0.883375
1.000000 0.983566 0.909026
0.855390 1.000000 0.823133
0.857099 1.000000 0.823194
0.859846 1.000000 0.823285
0.867720 1.000000 0.823575
0.887938 1.000000 0.824460
0.927031 1.000000 0.827222
0.975097 1.000000 0.835447
1.000000 1.000000 0.856855
1.000000 1.000000 0.895415
0.962142 1.000000 0.864469
0.962341 1.000000 0.864500
0.962676 1.000000 0.864530
0.963684 1.000000 0.864637
0.966567 1.000000 0.864988
0.973877 1.000000 0.866026
0.988098 1.000000 0.869169
1.000000 1.000000 0.877958
1.000000 1.000000 0.901259
0.000000 0.000000 1.000000
0.000000 0.000000 1.000000
0.000000 0.000000 1.000000
0.000000 0.000000 1.000000
0.000000 0.000000 1.000000
0.978286 0.000000 1.000000
1.000000 0.000000 1.000000
1.000000 0.000000 1.000000
1.000000 0.885451 0.978897
0.000000 0.000000 1.000000
0.000000 0.000000 1.000000
0.000000 0.000000 1.000000
0.000000 0.000000 1.000000
0.000000 0.000000 1.000000
0.979950 0.000000 1.000000
1.000000 0.000000 1.000000
1.000000 0.000000 1.000000
1.000000 0.887053 0.978775
0.000000 0.000000 1.000000
0.000000 0.000000 1.000000
0.000000 0.000000 1.000000
0.000000 0.000000 1.000000
0.000000 0.000000 1.000000
0.982605 0.000000 1.000000
1.000000 0.000000 1.000000
1.000000 0.000000 1.000000
1.000000 0.889586 0.978592
0.000000 0.000000 1.000000
0.000000 0.000000 1.000000
0.000000 0.000000 1.000000
0.000000 0.000000 1.000000
0.000000 0.000000 1.000000
0.990372 0.000000 1.000000
1.000000 0.000000 1.000000
1.000000 0.000000 1.000000
1.000000 0.896727 0.978073
0.000000 0.000000 1.000000
0.000000 0.000000 1.000000
0.000000 0.000000 1.000000
0.000000 0.000000 1.000000
0.302571 0.000000 1.000000
1.000000 0.000000 1.000000
1.000000 0.000000 1.000000
1.000000 0.523903 0.993820
1.000000 0.914397 0.976745
0.000000 0.790799 0.987381
0.000000 0.791135 0.987366
0.000000 0.791699 0.987335
0.000000 0.793408 0.987213
0.000000 0.787228 0.985657
0.889067 0.773678 0.982040
1.000000 0.803296 0.979004
1.000000 0.876020 0.975219
1.000000 0.945724 0.974197
0.000000 0.997711 0.968734
0.000000 0.996872 0.968658
0.000000 0.995514 0.968536
0.000000 0.991547 0.968185
0.599527 0.982116 0.967376
0.848341 0.971740 0.966613
0.966506 0.966506 0.966506
1.000000 0.969360 0.967407
1.000000 0.980102 0.970764
0.819684 1.000000 0.959609
0.821973 1.000000 0.959609
0.825589 1.000000 0.959594
0.835920 1.000000 0.959579
0.861921 1.000000 0.959548
0.910170 1.000000 0.959564
0.965194 1.000000 0.960006
1.000000 1.000000 0.961898
1.000000 1.000000 0.966888
0.956939 1.000000 0.943343
0.957153 1.000000 0.943359
0.957488 1.000000 0.943359
0.958511 1.000000 0.943404
0.961456 1.000000 0.943496
0.968902 1.000000 0.943832
0.983398 1.000000 0.944854
0.999939 1.000000 0.947967
1.000000 1.000000 0.956130
0.000000 0.051408 1.000000
0.000000 0.051408 1.000000
0.000000 0.051408 1.000000
0.000000 0.051423 1.000000
0.000000 0.051484 1.000000
0.000000 0.051637 1.000000
1.000000 0.000000 1.000000
1.000000 0.000000 1.000000
1.000000 0.577951 1.000000
0.000000 0.051377 1.000000
0.000000 0.051377 1.000000
0.000000 0.051392 1.000000
0.000000 0.051408 1.000000
0.000000 0.051469 1.000000
0.000000 0.051621 1.000000
1.000000 0.000000 1.000000
1.000000 0.000000 1.000000
1.000000 0.577920 1.000000
0.000000 0.051331 1.000000
0.000000 0.051331 1.000000
0.000000 0.051347 1.000000
0.000000 0.051362 1.000000
0.000000 0.051408 1.000000
0.000000 0.051575 1.000000
1.000000 0.000000 1.000000
1.000000 0.000000 1.000000
1.000000 0.577874 1.000000
0.000000 0.051209 1.000000
0.000000 0.051194 1.000000
0.000000 0.051209 1.000000
0.000000 0.051225 1.000000
0.000000 0.051286 1.000000
0.000000 0.025559 1.000000
1.000000 0.000000 1.000000
1.000000 0.000000 1.000000
1.000000 0.577707 1.000000
0.000000 0.050782 1.000000
0.000000 0.050782 1.000000
0.000000 0.050797 1.000000
0.000000 0.050813 1.000000
0.000000 0.050858 1.000000
0.334081 0.000000 1.000000
1.000000 0.000000 1.000000
1.000000 0.000000 1.000000
1.000000 0.577203 1.000000
0.000000 0.049470 1.000000
0.000000 0.049470 1.000000
0.000000 0.049470 1.000000
0.000000 0.049485 1.000000
0.000000 0.049546 1.000000
0.761318 0.000000 1.000000
1.000000 0.000000 1.000000
1.000000 0.050355 1.000000
1.000000 0.833249 1.000000
0.000000 0.956939 1.000000
0.000000 0.956985 1.000000
0.000000 0.957046 1.000000
0.000000 0.957259 1.000000
0.000000 0.957885 1.000000
0.711360 0.932845 1.000000
0.969390 0.924376 1.000000
1.000000 0.936126 1.000000
1.000000 0.964050 1.000000
0.624063 1.000000 0.999863
0.634028 1.000000 0.999832
0.649027 1.000000 0.999786
0.688151 1.000000 0.999664
0.768093 1.000000 0.999374
0.870512 1.000000 0.998978
0.954482 1.000000 0.998627
0.998566 0.998566 0.998566
1.000000 0.999237 0.998840
0.943709 1.000000 0.995956
0.943999 1.000000 0.995956
0.944457 1.000000 0.995956
0.945830 1.000000 0.995956
0.949722 1.000000 0.995941
0.959380 1.000000 0.995926
0.977066 1.000000 0.995911
0.996078 1.000000 0.996048
1.000000 1.000000 0.996658
0.000000 0.254139 1.000000
0.000000 0.254139 1.000000
0.000000 0.254139 1.000000
0.000000 0.254154 1.000000
0.000000 0.254154 1.000000
0.000000 0.254200 1.000000
0.000000 0.254292 1.000000
1.000000 0.241749 1.000000
1.000000 0.631968 1.000000
0.000000 0.254139 1.000000
0.000000 0.254139 1.000000
0.000000 0.254139 1.000000
0.000000 0.254139 1.000000
0.000000 0.254154 1.000000
0.000000 0.254185 1.000000
0.000000 0.254292 1.000000
1.000000 0.241993 1.000000
1.000000 0.632029 1.000000
0.000000 0.254124 1.000000
0.000000 0.254124 1.000000
0.000000 0.254124 1.000000
0.000000 0.254139 1.000000
0.000000 0.254139 1.000000
0.000000 0.254185 1.000000
0.000000 0.254276 1.000000
1.000000 0.242374 1.000000
1.000000 0.632105 1.000000
0.000000 0.254108 1.000000
0.000000 0.254108 1.000000
0.000000 0.254108 1.000000
0.000000 0.254108 1.000000
0.000000 0.254124 1.000000
0.000000 0.254154 1.000000
0.000000 0.254246 1.000000
1.000000 0.243549 1.000000
1.000000 0.632380 1.000000
0.000000 0.254017 1.000000
0.000000 0.254017 1.000000
0.000000 0.254017 1.000000
0.000000 0.254017 1.000000
0.000000 0.254032 1.000000
0.000000 0.254063 1.000000
0.334478 0.235904 1.000000
1.000000 0.247135 1.000000
1.000000 0.633173 1.000000
0.000000 0.253758 1.000000
0.000000 0.253758 1.000000
0.000000 0.253758 1.000000
0.000000 0.253773 1.000000
0.000000 0.253773 1.000000
0.000000 0.253803 1.000000
0.790997 0.075425 1.000000
1.000000 0.257740 1.000000
1.000000 0.634363 1.000000
0.000000 0.252964 1.000000
0.000000 0.252964 1.000000
0.000000 0.252964 1.000000
0.000000 0.252979 1.000000
0.000000 0.252979 1.000000
0.000000 0.253010 1.000000
1.000000 0.000000 1.000000
1.000000 0.278370 1.000000
1.000000 0.636591 1.000000
0.000000 1.000000 1.000000
0.000000 1.000000 1.000000
0.000000 1.000000 1.000000
0.000000 1.000000 1.000000
0.000000 1.000000 1.000000
0.000000 1.000000 1.000000
0.904067 0.986511 1.000000
0.999954 0.982925 1.000000
1.000000 0.987366 1.000000
0.879377 1.000000 1.000000
0.880369 1.000000 1.000000
0.881956 1.000000 1.000000
0.886564 1.000000 1.000000
0.898817 1.000000 1.000000
0.925200 1.000000 1.000000
0.962875 1.000000 1.000000
0.992737 1.000000 1.000000
1.000000 1.000000 1.000000
