BBLuts/BB_106_0360_LUT.cube
TITLE "Generated by Resolve"
LUT_3D_SIZE 5
0 0 0
0.164584 0 0
0.736965 0.000381476 0.000991836
0.985534 0.476326 0.145678
0.978546 0.946166 0.830106
0 0.182834 0.000900282
0.140917 0.18529 0.000946059
0.743526 0.0653849 0.00131228
0.984817 0.545129 0.119829
0.978546 0.947387 0.829557
0 0.74786 0.00364691
0 0.74728 0.00364691
0.676722 0.734188 0.00450141
0.982269 0.796719 0.00521859
0.978454 0.955932 0.82533
0.568338 1 0.261112
0.606928 1 0.262867
0.769055 0.994171 0.27715
0.97554 0.983291 0.403571
0.978027 0.990097 0.845243
0.946502 1 0.941634
0.946899 1 0.941665
0.949859 1 0.942016
0.968078 1 0.945449
0.977584 1 0.974838
0 0 0.177249
0.143786 0 0.177371
0.736248 0.000183108 0.180713
0.985336 0.460822 0.295674
0.978515 0.94583 0.843961
0 0.153079 0.162768
0.146548 0.150042 0.158938
0.73727 0.000198367 0.165393
0.984558 0.533379 0.280324
0.978515 0.947066 0.843488
0 0.743816 0.00363165
0 0.743175 0.00363165
0.682811 0.730129 0.00448615
0.981964 0.794659 0.138674
0.978424 0.955657 0.839673
0.574563 1 0.260777
0.612039 1 0.262547
0.770886 0.994049 0.27686
0.975647 0.983246 0.403525
0.978027 0.990082 0.845167
0.946563 1 0.941619
0.94696 1 0.941665
0.949905 1 0.942
0.968109 1 0.945434
0.977584 1 0.974838
0 0 0.754421
0 0 0.754681
0.741695 0 0.750027
0.986267 0.271412 0.775937
0.978363 0.943343 0.916396
0 0 0.752407
0 0 0.752682
0.752026 0 0.747875
0.984817 0.401679 0.772045
0.978363 0.94464 0.916106
0 0.684337 0.710597
0 0.684733 0.710948
0.65774 0.673411 0.713359
0.980774 0.766796 0.744671
0.978256 0.953674 0.913924
0.580011 1 0.546181
0.615488 0.99884 0.547204
0.768292 0.992523 0.55555
0.96997 0.981949 0.6336
0.977905 0.989548 0.895552
0.947036 1 0.941573
0.947433 1 0.941604
0.950332 1 0.941955
0.968277 1 0.945388
0.977584 1 0.974838
0 0 1
0 0 1
0 0 1
0.988632 0 1
0.978424 0.910979 1
0 0 1
0 0 1
0 0 1
0.988632 0 1
0.978393 0.913664 1
0 0 1
0 0 1
0.19617 0 1
0.988632 0 1
0.97821 0.931075 1
0 1 1
0 0.999817 1
0.603693 0.98706 1
0.949371 0.972 1
0.9776 0.985214 1
0.944503 1 1
0.944869 1 1
0.947662 1 1
0.965072 1 1
0.977478 1 1
0 0.293004 1
0 0.293004 1
0 0.293019 1
0 0.293156 1
0.980819 0.693843 1
0 0.292988 1
0 0.292988 1
0 0.293004 1
0 0.293141 1
0.980819 0.693935 1
0 0.292882 1
0 0.292882 1
0 0.292897 1
0 0.293034 1
0.980819 0.694728 1
0 0.291814 1
0 0.291814 1
0 0.291829 1
0.988632 0 1
0.980774 0.697581 1
0.879026 1 1
0.880751 1 1
0.893004 1 1
0.946242 1 1
0.977371 1 1
