BBLuts/BB_103_0850_LUT.cube
TITLE "Generated by Resolve"
LUT_3D_SIZE 9
0.0399176 0.0326238 0.033875
0.0399176 0.0326238 0.033875
0.264942 0.0352789 0.0362097
0.523644 0.0394903 0.0399176
0.843748 0.0462501 0.0458076
1 0.0512703 0.0501869
1 0.0772717 0.0547646
1 0.525536 0.123049
1 0.770672 0.224125
0.0346227 0.101274 0.0291752
0.0340124 0.113939 0.0282444
0.272114 0.0898909 0.0320745
0.534173 0.0396887 0.0401007
0.846448 0.0463111 0.0458686
1 0.0512398 0.0501564
1 0.151705 0.040177
1 0.57554 0.0915541
1 0.788708 0.215747
0.0175326 0.296651 0.0137789
0.0171664 0.30074 0.0134432
0.212879 0.300023 0.0140536
0.521248 0.276722 0.0189822
0.839536 0.160815 0.0347601
1 0.168429 0.038056
1 0.421759 0.0128786
1 0.636362 0.0277104
1 0.81529 0.204303
0 0.581476 0
0 0.582605 0
0 0.58323 0
0.439109 0.5823 0
0.80296 0.573236 0
0.992508 0.598337 0
1 0.659449 0
1 0.757946 0
0.996246 0.879377 0.171969
0 0.900267 0
0 0.900191 0
0 0.899794 0
0 0.897063 0
0.709957 0.889769 0
0.919783 0.89041 0
0.989151 0.906874 0
0.989395 0.938384 0
0.984771 0.980987 0.0936446
0 1 0
0 1 0
0 1 0
0 1 0
0.659342 1 0
0.862654 1 0
0.944015 1 0
0.977752 1 0
0.97673 1 0.175891
0 1 0
0 1 0
0 1 0
0.301976 1 0
0.684169 1 0
0.845121 1 0
0.920272 1 0
0.966339 1 0.0145113
0.97232 1 0.275074
0.398962 1 0.0165866
0.443992 1 0.0170596
0.495781 1 0.0178225
0.597162 1 0.0201267
0.742153 1 0.0266575
0.848402 1 0.0376287
0.909255 1 0.159609
0.953994 1 0.264881
0.969299 1 0.389807
0.709392 1 0.388998
0.716258 1 0.389425
0.726711 1 0.390112
0.753933 1 0.392218
0.810941 1 0.398627
0.867979 1 0.410574
0.910567 1 0.427359
0.94638 1 0.455314
0.967132 1 0.502297
0.0401923 0.0329137 0.0954452
0.0401923 0.0329137 0.0957656
0.265339 0.0354772 0.0989242
0.524468 0.0396582 0.104021
0.843778 0.0463264 0.11368
1 0.0513619 0.138293
1 0.0733654 0.180301
1 0.516152 0.204822
1 0.767224 0.290654
0.0371405 0.0720989 0.0823682
0.086656 0.0870832 0.0799115
0.285206 0.0357366 0.0893111
0.529809 0.0397192 0.0903487
0.844892 0.0462806 0.0780041
1 0.0512551 0.0986496
1 0.092134 0.151705
1 0.568627 0.183688
1 0.785641 0.281559
0.0184939 0.286244 0.0146487
0.0181735 0.289738 0.0143587
0.234516 0.289631 0.0150912
0.520546 0.265599 0.0199893
0.840131 0.124086 0.0382696
1 0.118013 0.043183
1 0.410544 0.0235752
1 0.632136 0.145388
1 0.812741 0.266773
0 0.577142 0
0 0.57821 0
0 0.578653 0
0.450538 0.577401 0
0.802991 0.569055 0
0.992233 0.594873 0
1 0.656733 0
1 0.755642 0
0.996567 0.877928 0.220844
0 0.898894 0
0 0.898787 0
0 0.89839 0
0 0.895567 0
0.713069 0.888395 0
0.920439 0.889281 0
0.989227 0.906035 0
0.989456 0.937774 0
0.984817 0.980575 0.0935073
0 1 0
0 1 0
0 1 0
0 1 0
0.661738 1 0
0.86331 1 0
0.944274 1 0
0.977768 1 0
0.976745 1 0.175219
0 1 0
0 1 0
0 1 0
0.31371 1 0
0.685817 1 0
0.845609 1 0
0.920485 1 0
0.9664 1 0.0144198
0.97232 1 0.274815
0.406531 1 0.0165255
0.449714 1 0.0170138
0.499748 1 0.0177615
0.599481 1 0.0200656
0.743069 1 0.0266117
0.848737 1 0.0375982
0.909407 1 0.15938
0.95407 1 0.264836
0.969314 1 0.389761
0.71043 1 0.388922
0.717235 1 0.389349
0.727611 1 0.390051
0.754665 1 0.392157
0.811353 1 0.398566
0.868193 1 0.410513
0.910674 1 0.427298
0.946426 1 0.455268
0.967132 1 0.502281
0.0413062 0.0341344 0.254139
0.0413062 0.0341344 0.254368
0.241276 0.0361486 0.255802
0.536248 0.0406348 0.256077
0.844297 0.046952 0.267277
1 0.0519722 0.290776
1 0.0526589 0.319524
1 0.49546 0.321462
1 0.761166 0.37763
0.0412757 0.0340887 0.249729
0.0412757 0.0341039 0.250141
0.271565 0.0365148 0.251575
0.534874 0.040589 0.251728
0.846723 0.0469825 0.262592
1 0.0518959 0.283604
1 0.0879377 0.307774
1 0.553307 0.307851
1 0.780056 0.370764
0.0219883 0.256107 0.218875
0.0217441 0.258808 0.218296
0.225513 0.252262 0.215183
0.509514 0.233982 0.222507
0.845167 0.0483711 0.249378
1 0.0517281 0.268742
1 0.379416 0.262608
1 0.622095 0.287617
1 0.807874 0.359915
0 0.564218 0.0964675
0 0.565469 0.0975357
0 0.566079 0.0991226
0.451957 0.564309 0.103914
0.799191 0.556603 0.114076
0.992828 0.582712 0.132921
1 0.647761 0.167742
1 0.749538 0.229084
0.997375 0.874708 0.329488
0 0.89604 0
0 0.895933 0
0 0.895506 0
0 0.892653 0
0.715953 0.885573 0
0.921004 0.886778 0
0.989288 0.903944 0
0.98967 0.935653 0
0.985412 0.979736 0.254673
0 1 0
0 1 0
0 1 0
0 1 0
0.665629 1 0
0.864378 1 0
0.944656 1 0
0.977798 1 0
0.976761 1 0.176211
0 1 0
0 1 0
0 1 0
0.333013 1 0
0.688472 1 0
0.846403 1 0
0.920821 1 0
0.966522 1 0.0142977
0.972335 1 0.274357
0.418158 1 0.0164492
0.458701 1 0.0169375
0.50605 1 0.0176852
0.60322 1 0.0199893
0.744533 1 0.0265354
0.849287 1 0.0375219
0.909667 1 0.159014
0.954177 1 0.264775
0.969314 1 0.3897
0.712108 1 0.388815
0.718837 1 0.389242
0.729076 1 0.389929
0.75584 1 0.39205
0.812055 1 0.398474
0.868528 1 0.410407
0.910842 1 0.427222
0.946502 1 0.455192
0.967147 1 0.502251
0.0435645 0.0366064 0.493935
0.0435645 0.0366064 0.494072
0.045304 0.0366217 0.494148
0.514931 0.0421454 0.49723
0.865858 0.0489662 0.505013
1 0.0534066 0.518563
1 0.0538643 0.536599
1 0.413642 0.529091
1 0.740963 0.536324
0.043534 0.0365911 0.491905
0.0435492 0.0365911 0.492088
0.14023 0.037232 0.492592
0.530098 0.0423743 0.495262
0.863798 0.0489204 0.502754
1 0.0533608 0.516411
1 0.0541848 0.533852
1 0.495171 0.517876
1 0.761547 0.532006
0.0357366 0.126375 0.481147
0.0351263 0.133135 0.480766
0.169055 0.127855 0.481697
0.536187 0.0424811 0.491691
0.857374 0.0487526 0.499001
1 0.053254 0.51191
1 0.218402 0.512459
1 0.583078 0.503792
1 0.79173 0.525353
0 0.518563 0.423972
0 0.520424 0.424109
0 0.521721 0.424643
0.446433 0.519432 0.427726
0.787747 0.512154 0.435065
0.997513 0.538781 0.444327
1 0.617914 0.453529
1 0.729259 0.472847
0.999954 0.863828 0.507805
0 0.884367 0.303853
0 0.884352 0.30454
0 0.884062 0.305653
0 0.881483 0.308873
0.71371 0.874403 0.320287
0.920485 0.876661 0.34052
0.989746 0.895613 0.365927
0.991653 0.929686 0.408591
0.986831 0.975937 0.472663
0 1 0.101762
0 1 0.104265
0 1 0.108186
0 1 0.119341
0.662577 1 0.149172
0.863569 1 0.199496
0.94406 1 0.257694
0.978882 1 0.334691
0.97789 1 0.427863
0 1 0
0 1 0
0 1 0
0.360937 1 0
0.692546 1 0
0.847349 1 0
0.920928 1 0.0466621
0.966781 1 0.225452
0.972763 1 0.372213
0.449165 1 0.0162051
0.482078 1 0.0166781
0.524117 1 0.0174411
0.614176 1 0.0197604
0.748913 1 0.0262913
0.850935 1 0.0373083
0.910414 1 0.157916
0.954513 1 0.264591
0.969329 1 0.389471
0.717128 1 0.388479
0.723598 1 0.388907
0.733455 1 0.389609
0.759365 1 0.391714
0.81413 1 0.398169
0.869566 1 0.410132
0.911376 1 0.426963
0.946761 1 0.454978
0.967178 1 0.502174
0.0470741 0.0404974 0.777783
0.0470741 0.0404974 0.777859
0.0470741 0.0404974 0.777981
0.352956 0.0430457 0.779171
0.853773 0.0513313 0.781765
1 0.0560159 0.786801
1 0.0561532 0.791943
1 0.134737 0.793225
1 0.664942 0.752544
0.0470741 0.0404822 0.777127
0.0470741 0.0404822 0.777203
0.0470741 0.0404974 0.777356
0.383551 0.0434272 0.778653
0.859617 0.0514382 0.78117
1 0.0560006 0.786114
1 0.0561379 0.791211
1 0.176471 0.787884
1 0.692317 0.748455
0.0470588 0.0404669 0.776059
0.0470588 0.0404669 0.77615
0.0470588 0.0404822 0.776287
0.422782 0.0439307 0.777737
0.86334 0.0514992 0.780056
1 0.0560006 0.784985
1 0.0561227 0.789639
1 0.357412 0.767849
1 0.731502 0.742382
0.0195926 0.329702 0.745525
0.0192721 0.333074 0.745251
0.0188602 0.337331 0.744869
0.399619 0.327611 0.746517
0.844511 0.219226 0.759243
1 0.223392 0.762951
1 0.4551 0.743542
1 0.651377 0.731014
1 0.823133 0.727062
0 0.841901 0.66833
0 0.842268 0.668421
0 0.842374 0.668574
0 0.840665 0.669093
0.70338 0.833646 0.673106
0.911727 0.840635 0.676722
0.991165 0.863981 0.680278
0.99585 0.90605 0.686473
0.989761 0.961471 0.699825
0 1 0.617197
0 1 0.617411
0 1 0.617761
0 1 0.618891
0.635218 1 0.62356
0.855604 1 0.631281
0.938308 1 0.640497
0.979095 1 0.654154
0.979721 1 0.676066
0 1 0.583093
0 1 0.583368
0 1 0.58381
0.155535 1 0.584817
0.668711 1 0.590417
0.837308 1 0.598947
0.914397 1 0.610269
0.963287 1 0.628885
0.974395 1 0.656001
0.396674 1 0.532662
0.443 1 0.533135
0.495613 1 0.533822
0.596155 1 0.535851
0.739452 1 0.541421
0.844892 1 0.551186
0.905333 1 0.564691
0.949752 1 0.587701
0.97055 1 0.623987
0.725155 1 0.450599
0.731212 1 0.45098
0.740444 1 0.451591
0.765332 1 0.453437
0.817151 1 0.458946
0.87068 1 0.468681
0.911482 1 0.482811
0.946197 1 0.507744
0.967254 1 0.555978
0.0492256 0.0428626 0.936889
0.0492256 0.0428626 0.936904
0.0492256 0.0428626 0.936934
0.0492256 0.0428626 0.936858
0.783688 0.0517433 0.937957
1 0.0573434 0.938735
1 0.0576791 0.939269
1 0.0576944 0.941115
1 0.340139 0.913497
0.0492256 0.0428626 0.936751
0.0492256 0.0428626 0.936751
0.0492256 0.0428626 0.936782
0.0492103 0.0428626 0.936614
0.790997 0.0518654 0.937819
1 0.0573739 0.938598
1 0.0576791 0.939101
1 0.0576944 0.940932
1 0.37406 0.909178
0.0492103 0.0428626 0.936507
0.0492103 0.0428626 0.936522
0.0492103 0.0428626 0.936553
0.0492103 0.0428473 0.936187
0.802579 0.052079 0.93756
1 0.0574044 0.938338
1 0.0576638 0.938857
1 0.0576791 0.940414
1 0.519768 0.892927
0.0492103 0.0428473 0.935744
0.0492103 0.0428473 0.93576
0.0492103 0.0428473 0.93579
0.0670481 0.0428473 0.934981
0.820294 0.0523995 0.936767
1 0.057435 0.937545
1 0.0576486 0.937804
1 0.211612 0.921813
1 0.709926 0.868727
0 0.72961 0.856046
0 0.730571 0.85594
0 0.732097 0.855741
0 0.732723 0.855146
0.699321 0.725292 0.856382
0.953582 0.729793 0.856321
1 0.765362 0.852522
1 0.837903 0.844175
0.994965 0.923232 0.836103
0 1 0.80502
0 1 0.805051
0 1 0.805097
0 1 0.805249
0.586175 1 0.806821
0.847059 1 0.809308
0.929519 1 0.810575
0.977264 1 0.812146
0.981811 1 0.814817
0 1 0.785885
0 1 0.785946
0 1 0.786053
0 1 0.786221
0.62414 1 0.788281
0.822278 1 0.790997
0.906096 1 0.793667
0.956512 1 0.797421
0.975738 1 0.80267
0.130587 1 0.769329
0.153704 1 0.769421
0.332998 1 0.769818
0.527916 1 0.770764
0.709972 1 0.772641
0.829419 1 0.775189
0.894713 1 0.778225
0.941772 1 0.783093
0.969299 1 0.790692
0.691356 1 0.748989
0.698634 1 0.749065
0.709682 1 0.749218
0.738262 1 0.749691
0.797436 1 0.75111
0.856229 1 0.753628
0.899886 1 0.757137
0.936553 1 0.763088
0.963394 1 0.7729
0.0500649 0.0438087 0.99826
0.0500649 0.0438087 0.99826
0.0500649 0.0438087 0.998276
0.0500649 0.0438087 0.998291
0.657176 0.0502174 0.998978
1 0.0574807 0.998688
1 0.05832 0.998062
1 0.05832 0.998032
1 0.05832 0.998672
0.0500649 0.0438087 0.998215
0.0500649 0.0438087 0.998215
0.0500649 0.0438087 0.99823
0.0500649 0.0438087 0.99826
0.667918 0.0504005 0.998932
1 0.0575113 0.998642
1 0.05832 0.998016
1 0.05832 0.997986
1 0.05832 0.998627
0.0500649 0.0438087 0.998138
0.0500649 0.0438087 0.998138
0.0500649 0.0438087 0.998154
0.0500649 0.0438087 0.998184
0.684672 0.0506905 0.99884
1 0.0575723 0.998581
1 0.05832 0.997925
1 0.05832 0.997909
1 0.05832 0.99826
0.0500649 0.0437934 0.997909
0.0500649 0.0437934 0.997909
0.0500649 0.0437934 0.997925
0.0500649 0.0437934 0.997955
0.732204 0.0515297 0.998581
1 0.0577096 0.998337
1 0.0583047 0.997681
1 0.0583047 0.997665
1 0.27393 0.974655
0.0169985 0.381292 0.963867
0.0167849 0.383444 0.963623
0.016434 0.386923 0.963226
0.0155642 0.395514 0.96202
0.724407 0.371527 0.963928
1 0.368658 0.963272
1 0.458274 0.952316
1 0.628458 0.93193
1 0.820218 0.907195
0 0.990433 0.878996
0 0.990677 0.878965
0 0.990997 0.87892
0 0.989334 0.878782
0.516426 0.978469 0.879316
0.847608 0.970901 0.880796
0.948165 0.974685 0.880598
0.987793 0.990082 0.878981
0.98471 1 0.876005
0 1 0.857786
0 1 0.857801
0 1 0.857832
0 1 0.857923
0.556222 1 0.858946
0.809003 1 0.860761
0.902098 1 0.861814
0.952682 1 0.862593
0.976684 1 0.863447
0.043473 1 0.846265
0.0650034 1 0.846265
0.104738 1 0.846296
0.372915 1 0.846845
0.673899 1 0.848356
0.816068 1 0.849744
0.887938 1 0.850965
0.937865 1 0.852537
0.96788 1 0.854688
0.649073 1 0.838743
0.65861 1 0.838773
0.672892 1 0.838834
0.708888 1 0.839063
0.778943 1 0.839658
0.845335 1 0.84062
0.892546 1 0.841794
0.93135 1 0.843565
0.959503 1 0.846387
0.0504616 0.0442359 1
0.0504616 0.0442359 1
0.0504616 0.0442359 1
0.0504616 0.0442359 1
0.136278 0.0444953 1
0.984894 0.0566262 1
1 0.0587015 1
1 0.0587015 1
1 0.0586862 1
0.0504616 0.0442359 1
0.0504616 0.0442359 1
0.0504616 0.0442359 1
0.0504616 0.0442359 1
0.189364 0.044831 1
0.987961 0.0566873 1
1 0.0587015 1
1 0.0587015 1
1 0.0586862 1
0.0504616 0.0442359 1
0.0504616 0.0442359 1
0.0504616 0.0442359 1
0.0504616 0.0442359 1
0.241794 0.0452735 1
0.992844 0.0567788 1
1 0.0587015 1
1 0.0587015 1
1 0.0586862 1
0.0504616 0.0442359 1
0.0504616 0.0442359 1
0.0504616 0.0442359 1
0.0504616 0.0442359 1
0.341146 0.0462501 1
1 0.0570382 1
1 0.0587015 1
1 0.0586862 1
1 0.0586862 1
0.0504616 0.0442359 1
0.0504616 0.0442359 1
0.0504616 0.0442359 1
0.0504616 0.0442359 1
0.572671 0.0492409 1
1 0.0575113 1
1 0.0587015 1
1 0.0586862 1
1 0.233051 1
0 0.798886 0.945373
0 0.799603 0.945296
0 0.800793 0.945144
0 0.804364 0.944701
0.405921 0.801343 0.94435
0.885115 0.796735 0.945205
0.992599 0.816876 0.942107
1 0.862943 0.935225
0.994278 0.935164 0.92491
0 1 0.902083
0 1 0.902068
0 1 0.902052
0 1 0.902037
0.268482 1 0.901915
0.788113 1 0.904112
0.903059 1 0.904677
0.963714 1 0.904555
0.979217 1 0.903548
0 1 0.889357
0 1 0.889372
0 1 0.889403
0.0397803 1 0.889158
0.584634 1 0.89044
0.793912 1 0.891798
0.880415 1 0.892592
0.935302 1 0.893233
0.966598 1 0.893706
0.530907 1 0.883726
0.554314 1 0.883772
0.583459 1 0.883848
0.645594 1 0.884031
0.746212 1 0.88455
0.830518 1 0.885252
0.884672 1 0.885908
0.927153 1 0.886656
0.957 1 0.887617
0.0504616 0.0442359 1
0.0504616 0.0442359 1
0.0504616 0.0442359 1
0.0504616 0.0442359 1
0.0504616 0.0442359 1
0.733272 0.051957 1
1 0.0587472 1
1 0.0587472 1
1 0.0587472 1
0.0504616 0.0442359 1
0.0504616 0.0442359 1
0.0504616 0.0442359 1
0.0504616 0.0442359 1
0.0504616 0.0442359 1
0.741176 0.0520943 1
1 0.0587472 1
1 0.0587472 1
1 0.0587472 1
0.0504616 0.0442359 1
0.0504616 0.0442359 1
0.0504616 0.0442359 1
0.0504616 0.0442359 1
0.0504616 0.0442359 1
0.753628 0.0523232 1
1 0.0587472 1
1 0.0587472 1
1 0.0587472 1
0.0504616 0.0442359 1
0.0504616 0.0442359 1
0.0504616 0.0442359 1
0.0504616 0.0442359 1
0.0504616 0.0442359 1
0.788403 0.0529488 1
1 0.0587472 1
1 0.0587472 1
1 0.0587472 1
0.0504616 0.0442359 1
0.0504616 0.0442359 1
0.0504616 0.0442359 1
0.0504616 0.0442359 1
0.0504616 0.0442359 1
0.883528 0.0547189 1
1 0.0587472 1
1 0.0587472 1
1 0.0587472 1
0.0504616 0.0442359 1
0.0504616 0.0442359 1
0.0504616 0.0442359 1
0.0504616 0.0442359 1
0.0504616 0.0442359 1
0.953124 0.0560464 1
1 0.0587472 1
1 0.102983 1
1 0.33666 1
0 0.947692 0.941024
0 0.948074 0.940978
0 0.948699 0.940917
0 0.952193 0.94049
0 0.952331 0.940169
0.764355 0.938369 0.94284
0.935653 0.943038 0.943084
0.986465 0.963623 0.940871
0.987533 0.996185 0.936965
0 1 0.916304
0 1 0.916289
0 1 0.916289
0 1 0.916289
0.108217 1 0.91603
0.738735 1 0.918151
0.869352 1 0.91899
0.936324 1 0.919295
0.970871 1 0.919158
0.0997635 1 0.909056
0.187366 1 0.909041
0.236973 1 0.90901
0.387594 1 0.909102
0.654551 1 0.909819
0.799985 1 0.910735
0.872053 1 0.91133
0.922545 1 0.911803
0.955505 1 0.9122
