BBLuts/BB_103_0810_LUT.cube
TITLE "Generated by Resolve"
LUT_3D_SIZE 5
0 0 0
0.209659 0 0
0.772091 0.00634775 0.0104829
0.950393 0.521248 0.104417
0.898878 1 0.642771
0 0.232563 0
0.162844 0.234684 0
0.767391 0.110079 0
0.941588 0.600656 0.0558175
0.898695 1 0.641962
0 0.818051 0
0 0.817548 0
0.64065 0.803647 0
0.913344 0.861799 0
0.89749 1 0.636011
0.473335 1 0.125521
0.519463 1 0.128069
0.691096 1 0.147768
0.885863 1 0.285023
0.893324 1 0.65568
0.857542 1 0.741283
0.858045 1 0.741344
0.861662 1 0.741741
0.881315 1 0.745312
0.892454 1 0.771603
0.000457771 0 0.199817
0.187793 0 0.201953
0.772183 0.00657664 0.217868
0.952758 0.502983 0.272053
0.899016 1 0.659052
0 0.194537 0.168963
0.173632 0.190021 0.164736
0.773144 0.00653086 0.201465
0.943191 0.587777 0.246403
0.898817 1 0.65832
0 0.813886 0
0 0.813336 0
0.646525 0.799542 0
0.913085 0.859129 0.0342718
0.897612 1 0.652949
0.481102 1 0.125048
0.525429 1 0.127611
0.693004 1 0.147387
0.885985 1 0.284993
0.893324 1 0.655589
0.857618 1 0.741283
0.858122 1 0.741344
0.861723 1 0.741726
0.881346 1 0.745296
0.892454 1 0.771603
0.00868238 0 0.706538
0.00868238 0 0.706752
0.782605 0.0116884 0.71342
0.987381 0.226627 0.712947
0.899763 0.998871 0.732982
0.00865187 0 0.704845
0.00865187 0 0.705074
0.792035 0.0119326 0.711803
0.962417 0.43949 0.686397
0.899565 1 0.732494
0 0.758602 0.603418
0 0.759045 0.603662
0.63241 0.746426 0.605188
0.917632 0.832349 0.621378
0.898283 1 0.729061
0.484504 1 0.447272
0.52726 1 0.44828
0.690608 1 0.45597
0.881865 1 0.514275
0.89366 1 0.708156
0.858213 1 0.741222
0.858701 1 0.741283
0.862226 1 0.74168
0.881544 1 0.745251
0.892454 1 0.771603
0.0134737 0.00257877 0.951293
0.0134737 0.00257877 0.951293
0.0134737 0.00257877 0.951293
1 0.021622 0.965911
0.904952 0.959472 0.846784
0.0134737 0.00257877 0.951293
0.0134737 0.00257877 0.951293
0.0134737 0.00257877 0.951293
1 0.021622 0.965911
0.904509 0.963348 0.846128
0.0134737 0.00257877 0.951293
0.0134737 0.00257877 0.951293
0.374044 0.00579843 0.954025
1 0.021622 0.965911
0.901884 0.986587 0.842206
0 1 0.828992
0 1 0.829023
0.543725 1 0.826246
0.867308 1 0.828534
0.894896 1 0.8309
0.85539 1 0.805875
0.855863 1 0.80589
0.859297 1 0.806027
0.878309 1 0.807248
0.892729 1 0.816999
0 0.325658 0.922988
0 0.325658 0.922988
0 0.325673 0.922988
0 0.325841 0.922972
0.932174 0.720333 0.888945
0 0.325643 0.922988
0 0.325643 0.922988
0 0.325658 0.922988
0 0.325811 0.922972
0.932158 0.720455 0.88893
0 0.325505 0.923003
0 0.325505 0.923003
0 0.325536 0.923003
0.373892 0.303319 0.925216
0.932036 0.721477 0.888823
0 0.324269 0.92311
0 0.324269 0.92311
0 0.324285 0.92311
1 0.021622 0.965911
0.93167 0.724727 0.888487
0.787884 1 0.852216
0.790143 1 0.852216
0.804807 1 0.852308
0.860822 1 0.852644
0.892943 1 0.852857
