BBLuts/BB_101_0120_LUT.cube
TITLE "Generated by Resolve"
LUT_3D_SIZE 9
0.00553903 0 0
0.00972 0 0
0.183337 0 0.00157168
0.393988 0.000686656 0.00497444
0.712856 0.00701915 0.0105592
0.952926 0.0119326 0.0149081
0.894179 0.525689 0.0545815
0.857206 0.848127 0.287205
0.844694 0.967086 0.585809
0.00181582 0.0502937 0
0.00102235 0.0602274 0
0.184314 0.0431983 0
0.400854 0.000823987 0.00508125
0.715297 0.00708019 0.010605
0.952789 0.0119326 0.0149081
0.891279 0.550759 0.0383001
0.856931 0.850431 0.286061
0.844678 0.967269 0.585702
0 0.203265 0
0 0.206607 0
0.129854 0.206256 0
0.388266 0.190158 0
0.70753 0.11368 0.00030518
0.926131 0.236072 0
0.887556 0.583062 0.0055848
0.856489 0.854215 0.284291
0.844633 0.967575 0.585519
0 0.443503 0
0 0.444419 0
0 0.445411 0
0.305653 0.444251 0
0.675746 0.438224 0
0.895827 0.490791 0
0.877363 0.67248 0
0.854871 0.867765 0.281498
0.844465 0.968963 0.584649
0 0.769162 0
0 0.769146 0
0 0.768872 0
0 0.766583 0
0.572473 0.758343 0
0.82945 0.764797 0
0.860334 0.818036 0
0.850782 0.902571 0.285618
0.843839 0.97406 0.581277
0 0.956924 0
0 0.956924 0
0 0.956924 0
0 0.95256 0
0.513802 0.941299 0
0.761807 0.932418 0
0.846418 0.934768 0
0.844724 0.954833 0.316594
0.842237 0.987594 0.581918
0.424109 1 0.101656
0.424109 1 0.101656
0.424109 1 0.101656
0.424079 1 0.101656
0.597498 1 0.115328
0.743954 1 0.152682
0.829725 0.99881 0.240482
0.839826 1 0.415793
0.839963 1 0.607706
0.718318 1 0.488548
0.718318 1 0.488563
0.718318 1 0.488563
0.718318 1 0.488563
0.718303 1 0.488563
0.767941 1 0.495583
0.819806 1 0.516014
0.838193 1 0.568078
0.838712 1 0.662806
0.804364 1 0.694682
0.804364 1 0.694682
0.804364 1 0.694682
0.804364 1 0.694682
0.804364 1 0.694682
0.804349 1 0.694682
0.822828 1 0.697429
0.838956 1 0.704997
0.839063 1 0.723674
0.00578317 0 0.0530404
0.00578317 0 0.0534981
0.180774 0 0.0562753
0.393179 0.000686656 0.0605478
0.711925 0.00695811 0.0658885
0.952865 0.0118563 0.0730297
0.894484 0.523278 0.0795148
0.857221 0.848096 0.287221
0.844694 0.967071 0.585824
0.00402838 0.0220645 0.044831
0.0365148 0.0355688 0.0431983
0.192844 0 0.0496071
0.395392 0.000701915 0.0504463
0.71281 0.00695811 0.0315251
0.952712 0.011841 0.039292
0.891524 0.548775 0.0592508
0.856931 0.850401 0.286076
0.844678 0.967269 0.585702
0 0.193225 0
0 0.196216 0
0.14551 0.196445 0
0.386892 0.179995 0
0.706813 0.0848554 0.00300603
0.92752 0.223651 0
0.887739 0.581415 0.0246586
0.856489 0.854215 0.284291
0.844633 0.967559 0.585519
0 0.438788 0
0 0.439628 0
0 0.440513 0
0.315007 0.439109 0
0.675395 0.433921 0
0.89604 0.487602 0
0.87747 0.67155 0
0.854871 0.867765 0.281498
0.844465 0.968963 0.584649
0 0.767437 0
0 0.767422 0
0 0.767132 0
0 0.764797 0
0.575067 0.756954 0
0.829572 0.763867 0
0.86038 0.817716 0
0.850782 0.902571 0.285618
0.843839 0.97406 0.581277
0 0.956497 0
0 0.956588 0
0 0.956588 0
0 0.95227 0
0.515877 0.941054 0
0.762036 0.932265 0
0.846433 0.934691 0
0.844724 0.954833 0.316594
0.842237 0.987594 0.581918
0.427634 1 0.101488
0.427634 1 0.101488
0.427619 1 0.101488
0.427604 1 0.101488
0.598474 1 0.115129
0.744137 1 0.152529
0.829755 0.998795 0.240467
0.839826 1 0.415793
0.839963 1 0.607706
0.718547 1 0.488548
0.718547 1 0.488548
0.718547 1 0.488548
0.718547 1 0.488548
0.718532 1 0.488548
0.768032 1 0.495567
0.819837 1 0.515984
0.838193 1 0.568078
0.838712 1 0.662806
0.804364 1 0.694682
0.804364 1 0.694682
0.804364 1 0.694682
0.804364 1 0.694682
0.804364 1 0.694682
0.804364 1 0.694682
0.822828 1 0.697429
0.838956 1 0.704997
0.839063 1 0.723674
0.0069276 0 0.182376
0.0069276 0 0.182635
0.155108 0 0.18378
0.401694 0.00151064 0.184955
0.712154 0.00746166 0.193698
0.953323 0.0123598 0.215137
0.896086 0.512383 0.205219
0.857389 0.847471 0.312947
0.844694 0.967071 0.585824
0.00689708 0 0.180117
0.00689708 0 0.180484
0.174578 0 0.181521
0.400793 0.00146487 0.181994
0.71339 0.00746166 0.190188
0.953048 0.012314 0.208515
0.892989 0.538888 0.19678
0.857114 0.849805 0.311803
0.844678 0.967269 0.585702
0 0.165194 0.158755
0 0.167758 0.158541
0.133913 0.163684 0.15581
0.375891 0.150378 0.160708
0.710002 0.0252995 0.178836
0.933059 0.176074 0.179873
0.889036 0.572656 0.184756
0.856657 0.85362 0.309895
0.844633 0.967559 0.585519
0 0.424491 0.0722667
0 0.425742 0.0724804
0 0.426551 0.0735943
0.313817 0.425101 0.0757305
0.670634 0.420706 0.0808423
0.897078 0.475502 0.090074
0.87808 0.665766 0.14139
0.855009 0.867292 0.302678
0.844465 0.968963 0.584649
0 0.764141 0
0 0.764141 0
0 0.763851 0
0 0.761532 0
0.577539 0.753491 0
0.829679 0.761105 0
0.86038 0.8159 0
0.850797 0.902419 0.286793
0.843839 0.97406 0.581277
0 0.955993 0
0 0.955993 0
0 0.955993 0
0 0.95169 0
0.519478 0.940658 0
0.762585 0.931975 0
0.846464 0.934493 0
0.844724 0.954757 0.316442
0.842237 0.987594 0.581918
0.432349 1 0.101244
0.432349 1 0.101244
0.432349 1 0.101244
0.432349 1 0.101244
0.599786 1 0.11487
0.744533 1 0.152346
0.829801 0.998749 0.240299
0.839826 1 0.415732
0.839963 1 0.607706
0.718853 1 0.488502
0.718853 1 0.488502
0.718853 1 0.488502
0.718853 1 0.488502
0.718853 1 0.488502
0.768154 1 0.495521
0.819867 1 0.515969
0.838193 1 0.568063
0.838712 1 0.662806
0.804395 1 0.694682
0.804395 1 0.694682
0.804395 1 0.694682
0.804395 1 0.694682
0.804395 1 0.694682
0.804395 1 0.694682
0.822843 1 0.697414
0.838956 1 0.704997
0.839063 1 0.723674
0.0091249 0 0.387564
0.0091249 0 0.387655
0.0091249 0 0.387854
0.36817 0.00263981 0.39057
0.733623 0.00929274 0.397833
0.954452 0.0136568 0.414694
0.901625 0.472663 0.401465
0.858671 0.842542 0.451408
0.844785 0.966934 0.597452
0.00910964 0 0.386282
0.00910964 0 0.386389
0.0299077 0 0.386542
0.381079 0.00283818 0.389029
0.73196 0.00924697 0.39617
0.954284 0.0136416 0.41239
0.897978 0.503807 0.395789
0.858366 0.845029 0.450584
0.84477 0.967117 0.597345
0.00520333 0.0444038 0.380316
0.0049897 0.0467536 0.380255
0.0304417 0.0474098 0.380209
0.386923 0.00291447 0.386267
0.726223 0.0091249 0.392996
0.952575 0.0244297 0.407385
0.893446 0.54258 0.388159
0.857893 0.849058 0.449256
0.844724 0.967422 0.597192
0 0.377981 0.334844
0 0.37879 0.334844
0 0.380606 0.33521
0.300252 0.379187 0.336797
0.658869 0.374594 0.342855
0.902739 0.433219 0.350881
0.881239 0.646418 0.364996
0.856153 0.863523 0.444327
0.844556 0.968795 0.596429
0 0.750515 0.236454
0 0.750515 0.236454
0 0.750744 0.237064
0 0.748516 0.239796
0.571588 0.740719 0.247608
0.828183 0.750225 0.268681
0.86186 0.809674 0.315038
0.851713 0.900359 0.428885
0.843931 0.973922 0.593408
0 0.95436 0.00852979
0 0.95436 0.00852979
0 0.95436 0.00852979
0 0.95024 0.0103609
0.514717 0.938994 0.0135195
0.761273 0.930205 0.119127
0.846677 0.933349 0.235386
0.845151 0.954238 0.392447
0.842252 0.987549 0.584848
0.446555 1 0.0999619
0.446555 1 0.0999619
0.446555 1 0.0999619
0.446555 1 0.0999619
0.603784 1 0.114031
0.745586 1 0.151705
0.83003 0.998611 0.240024
0.839826 1 0.415351
0.839963 1 0.60763
0.719982 1 0.488396
0.719982 1 0.488396
0.719982 1 0.488396
0.719982 1 0.488396
0.719982 1 0.488396
0.768566 1 0.495399
0.820035 1 0.515862
0.838193 1 0.567941
0.838712 1 0.66276
0.804517 1 0.694667
0.804517 1 0.694667
0.804517 1 0.694667
0.804517 1 0.694667
0.804517 1 0.694667
0.804517 1 0.694667
0.822889 1 0.697398
0.838956 1 0.704997
0.839063 1 0.723674
0.0125887 0.00199893 0.671321
0.0125887 0.00199893 0.671321
0.0125887 0.00199893 0.671397
0.104128 0.00233463 0.671504
0.703639 0.0113222 0.674739
0.957351 0.016022 0.681132
0.92697 0.269047 0.666072
0.861784 0.82533 0.630594
0.845502 0.965057 0.675456
0.0125887 0.00199893 0.671229
0.0125887 0.00199893 0.671229
0.0125887 0.00199893 0.671305
0.110231 0.00238041 0.671122
0.707546 0.0113832 0.674372
0.957351 0.0160067 0.680766
0.918975 0.337697 0.658
0.861418 0.828443 0.629953
0.845487 0.96524 0.67538
0.0125734 0.00198367 0.670268
0.0125734 0.00198367 0.670268
0.0125734 0.00198367 0.670329
0.190448 0.00321965 0.670573
0.713375 0.0114748 0.673381
0.957351 0.0160067 0.679728
0.910384 0.411307 0.648875
0.860853 0.833173 0.628977
0.845441 0.965576 0.675273
0 0.178546 0.651637
0 0.178546 0.651637
0 0.182116 0.651331
0.177462 0.175235 0.651301
0.702953 0.102556 0.660456
0.93637 0.176379 0.657923
0.89192 0.568704 0.627268
0.858793 0.850401 0.625345
0.845273 0.967025 0.674784
0 0.70164 0.576974
0 0.70164 0.576974
0 0.701701 0.576989
0 0.701488 0.577386
0.55079 0.693919 0.579492
0.825986 0.710231 0.583398
0.866163 0.785962 0.5897
0.853666 0.893111 0.615213
0.844617 0.972442 0.672969
0 0.951461 0.515724
0 0.951461 0.515724
0 0.951553 0.515663
0 0.948348 0.516503
0.468238 0.935668 0.519722
0.751751 0.926177 0.530327
0.847623 0.929961 0.55285
0.84654 0.952071 0.596475
0.842878 0.986648 0.666972
0.426322 1 0.440436
0.426322 1 0.440436
0.426322 1 0.440436
0.426322 1 0.440436
0.588525 1 0.445579
0.738689 1 0.459495
0.824948 0.998474 0.493812
0.840665 1 0.561471
0.840269 1 0.651835
0.723537 1 0.487739
0.723537 1 0.487739
0.723537 1 0.487739
0.723537 1 0.487739
0.723537 1 0.487739
0.769909 1 0.494942
0.820447 1 0.51548
0.838193 1 0.567758
0.838712 1 0.662577
0.804944 1 0.694621
0.804944 1 0.694621
0.804944 1 0.694621
0.804944 1 0.694621
0.804944 1 0.694621
0.804929 1 0.694621
0.823041 1 0.697353
0.838956 1 0.704952
0.839063 1 0.723659
0.0148775 0.00459297 0.848463
0.0148775 0.00459297 0.848554
0.0148775 0.00459297 0.848554
0.0148775 0.00459297 0.848585
0.496117 0.00975052 0.848768
0.954208 0.0176394 0.849073
0.958831 0.017731 0.849714
0.87303 0.738247 0.766155
0.846738 0.95877 0.746517
0.0148775 0.00459297 0.848554
0.0148775 0.00459297 0.848554
0.0148775 0.00459297 0.848554
0.0148775 0.00459297 0.848585
0.495399 0.00973526 0.848768
0.954208 0.0176394 0.849073
0.958831 0.017731 0.849653
0.872206 0.745037 0.765118
0.846708 0.959014 0.746471
0.0148775 0.00459297 0.848508
0.0148775 0.00459297 0.848508
0.0148775 0.00459297 0.848508
0.0148775 0.00459297 0.848524
0.506264 0.0099031 0.848722
0.954589 0.0176394 0.848981
0.958831 0.017731 0.849531
0.87097 0.755428 0.763546
0.846662 0.959396 0.74638
0.0148775 0.00457771 0.848096
0.0148775 0.00457771 0.848096
0.0148775 0.00457771 0.848096
0.0148775 0.00457771 0.848112
0.565103 0.0108492 0.848356
0.955535 0.0176547 0.848554
0.958633 0.0192721 0.847944
0.866896 0.789563 0.758251
0.846448 0.96112 0.746029
0 0.427665 0.802319
0 0.427665 0.802319
0 0.427665 0.802319
0 0.431342 0.801877
0.506325 0.427115 0.800305
0.89572 0.44979 0.796887
0.883574 0.649073 0.772122
0.858305 0.861509 0.746578
0.845685 0.967483 0.744686
0 0.934798 0.72575
0 0.934798 0.72575
0 0.934798 0.72575
0 0.934798 0.72575
0.252094 0.920348 0.725124
0.737072 0.908263 0.728115
0.845914 0.915496 0.729397
0.848478 0.943236 0.731655
0.843732 0.983719 0.740948
0.259617 1 0.702007
0.259617 1 0.702007
0.260533 1 0.701976
0.260533 1 0.701976
0.505318 1 0.703182
0.717418 1 0.705852
0.814878 0.996704 0.710063
0.84184 0.998291 0.718334
0.840925 1 0.734051
0.711528 1 0.67538
0.711528 1 0.67538
0.711528 1 0.67538
0.711528 1 0.67538
0.711528 1 0.67538
0.758495 1 0.677363
0.81239 1 0.683055
0.83888 1 0.697093
0.839063 1 0.722026
0.806348 1 0.694484
0.806348 1 0.694484
0.806348 1 0.694484
0.806348 1 0.694484
0.806348 1 0.694484
0.806348 1 0.694484
0.82356 1 0.697185
0.838956 1 0.704814
0.839063 1 0.723613
0.0155184 0.00529488 0.896712
0.0155184 0.00529488 0.896712
0.0155184 0.00529488 0.896712
0.0155184 0.00529488 0.896712
0.0155184 0.00529488 0.896712
0.860731 0.016556 0.905669
0.959365 0.0183413 0.907073
0.959365 0.0183413 0.907073
0.850828 0.927611 0.798886
0.0155184 0.00529488 0.896712
0.0155184 0.00529488 0.896712
0.0155184 0.00529488 0.896712
0.0155184 0.00529488 0.896712
0.0155184 0.00529488 0.896712
0.860731 0.016556 0.905669
0.959365 0.0183413 0.907073
0.959365 0.0183413 0.907073
0.850752 0.928145 0.79881
0.0155184 0.00529488 0.896712
0.0155184 0.00529488 0.896712
0.0155184 0.00529488 0.896712
0.0155184 0.00529488 0.896712
0.0155184 0.00529488 0.896712
0.860731 0.016556 0.905669
0.959365 0.0183413 0.907073
0.959365 0.0183413 0.907073
0.850645 0.929076 0.798642
0.0155184 0.00529488 0.896712
0.0155184 0.00529488 0.896712
0.0155184 0.00529488 0.896712
0.0155184 0.00529488 0.896712
0.0155184 0.00529488 0.896712
0.866239 0.0166629 0.905745
0.959365 0.0183413 0.907073
0.959365 0.0183413 0.907073
0.850202 0.932692 0.798047
0.0155184 0.00529488 0.896712
0.0155184 0.00529488 0.896712
0.0155184 0.00529488 0.896712
0.0155184 0.00529488 0.896712
0.0155184 0.00529488 0.896712
0.90454 0.0173495 0.906294
0.959365 0.0183413 0.907073
0.915022 0.386694 0.8663
0.848722 0.945037 0.795972
0 0.737514 0.824582
0 0.737514 0.824582
0 0.737514 0.824582
0 0.737514 0.824582
0 0.741238 0.82414
0.742565 0.732341 0.82417
0.867414 0.788952 0.816602
0.854871 0.893675 0.801465
0.845518 0.97171 0.791409
0 1 0.781826
0 1 0.781826
0 1 0.781826
0 1 0.781826
0 1 0.781826
0.666758 0.995254 0.782849
0.808835 0.989364 0.784131
0.842985 0.992462 0.784558
0.841688 1 0.785504
0.67892 1 0.775036
0.67892 1 0.775036
0.67892 1 0.775036
0.67892 1 0.775036
0.67892 1 0.775036
0.731411 1 0.77525
0.803067 1 0.775906
0.838437 1 0.777371
0.839414 1 0.780697
0.801144 1 0.764981
0.801144 1 0.764981
0.801144 1 0.764981
0.801144 1 0.764981
0.801144 1 0.764981
0.801144 1 0.764981
0.818479 1 0.765728
0.837507 1 0.767956
0.839368 1 0.773205
0.00807202 0.0795605 0.890379
0.00807202 0.0795605 0.890379
0.00807202 0.0795605 0.890379
0.00807202 0.0795605 0.890379
0.00807202 0.0795605 0.890379
0.00805676 0.0796521 0.890379
0.959365 0.0183413 0.907073
0.956497 0.0408179 0.904677
0.887694 0.618952 0.846418
0.00807202 0.0795605 0.890379
0.00807202 0.0795605 0.890379
0.00807202 0.0795605 0.890379
0.00807202 0.0795605 0.890379
0.00807202 0.0795605 0.890379
0.00805676 0.0796521 0.890379
0.959365 0.0183413 0.907073
0.956497 0.0408179 0.904677
0.887694 0.618952 0.846418
0.00807202 0.0795605 0.890379
0.00807202 0.0795605 0.890379
0.00807202 0.0795605 0.890379
0.00807202 0.0795605 0.890379
0.00807202 0.0795605 0.890379
0.00805676 0.0796521 0.890379
0.959365 0.0183413 0.907073
0.956497 0.0408179 0.904677
0.887709 0.618921 0.846418
0.00807202 0.0795605 0.890379
0.00807202 0.0795605 0.890379
0.00807202 0.0795605 0.890379
0.00807202 0.0795605 0.890379
0.00807202 0.0795605 0.890379
0.00805676 0.0796521 0.890379
0.959365 0.0183413 0.907073
0.956497 0.0408179 0.904677
0.887724 0.618799 0.846433
0.00808728 0.0794537 0.890394
0.00808728 0.0794537 0.890394
0.00808728 0.0794537 0.890394
0.00808728 0.0794537 0.890394
0.00808728 0.0794537 0.890394
0.00807202 0.07953 0.890379
0.959365 0.0183413 0.907073
0.956283 0.0426184 0.904479
0.887755 0.618433 0.846464
0.00822461 0.0780041 0.890517
0.00822461 0.0780041 0.890517
0.00822461 0.0780041 0.890517
0.00822461 0.0780041 0.890517
0.00822461 0.0780041 0.890517
0.00822461 0.0780804 0.890501
0.959365 0.0183413 0.907073
0.952117 0.0763561 0.900984
0.867826 0.786267 0.829496
0 0.930709 0.813199
0 0.930709 0.813199
0 0.930709 0.813199
0 0.930709 0.813199
0 0.930709 0.813199
0 0.932906 0.812985
0.815045 0.906554 0.816953
0.848997 0.943801 0.813443
0.844175 0.983993 0.809339
0.35108 1 0.803006
0.35108 1 0.803006
0.35108 1 0.803006
0.35108 1 0.803006
0.35108 1 0.803006
0.35108 1 0.803006
0.783551 1 0.804288
0.836591 1 0.8047
0.839689 1 0.804807
0.789166 1 0.802777
0.789166 1 0.802777
0.789166 1 0.802777
0.789166 1 0.802777
0.789166 1 0.802777
0.789166 1 0.802777
0.808591 1 0.802869
0.834134 1 0.803082
0.839551 1 0.803449
0 0.284092 0.872953
0 0.284092 0.872953
0 0.284092 0.872953
0 0.284092 0.872953
0 0.284092 0.872953
0 0.284092 0.872953
0 0.284153 0.872938
0.9458 0.128847 0.895659
0.883116 0.657572 0.842527
0 0.284092 0.872953
0 0.284092 0.872953
0 0.284092 0.872953
0 0.284092 0.872953
0 0.284092 0.872953
0 0.284092 0.872953
0 0.284153 0.872938
0.9458 0.128847 0.895659
0.883116 0.657572 0.842527
0 0.284092 0.872953
0 0.284092 0.872953
0 0.284092 0.872953
0 0.284092 0.872953
0 0.284092 0.872953
0 0.284092 0.872953
0 0.284153 0.872938
0.9458 0.128847 0.895659
0.883116 0.657572 0.842527
0 0.284092 0.872953
0 0.284092 0.872953
0 0.284092 0.872953
0 0.284092 0.872953
0 0.284092 0.872953
0 0.284092 0.872953
0 0.284153 0.872938
0.9458 0.128847 0.895659
0.883116 0.657572 0.842527
0 0.284092 0.872953
0 0.284092 0.872953
0 0.284092 0.872953
0 0.284092 0.872953
0 0.284092 0.872953
0 0.284092 0.872953
0 0.284153 0.872938
0.9458 0.128847 0.895659
0.883116 0.657572 0.842527
0 0.284031 0.872953
0 0.284031 0.872953
0 0.284031 0.872953
0 0.284031 0.872953
0 0.284031 0.872953
0 0.284031 0.872953
0 0.284077 0.872953
0.945693 0.129671 0.895582
0.882933 0.659144 0.842374
0 0.283009 0.873045
0 0.283009 0.873045
0 0.283009 0.873045
0 0.283009 0.873045
0 0.283009 0.873045
0 0.283009 0.873045
0 0.283055 0.873045
0.932799 0.235264 0.884642
0.882597 0.661982 0.842084
0 1 0.8047
0 1 0.8047
0 1 0.8047
0 1 0.8047
0 1 0.8047
0 1 0.8047
0 1 0.804685
0.835737 1 0.807385
0.84123 1 0.806821
0.733013 1 0.804746
0.733013 1 0.804746
0.733013 1 0.804746
0.733013 1 0.804746
0.733013 1 0.804746
0.733013 1 0.804746
0.733013 1 0.804746
0.828473 1 0.805325
0.839567 1 0.805402
