BBLuts/BB_106_0370_LUT.cube
LUT_3D_SIZE 33
0.000000 0.000000 0.000000
0.000000 0.000000 0.000000
0.000000 0.000000 0.000000
0.000000 0.000000 0.000000
0.000000 0.000000 0.000000
0.043366 0.000000 0.000000
0.094087 0.000000 0.000000
0.130861 0.000000 0.000000
0.167712 0.000000 0.000000
0.211261 0.000000 0.000000
0.261906 0.000000 0.000000
0.317723 0.000000 0.000000
0.381628 0.000000 0.000000
0.456733 0.000000 0.000000
0.543282 0.000000 0.000000
0.636912 0.000000 0.000000
0.733272 0.000000 0.000000
0.830152 0.000000 0.000000
0.917983 0.000000 0.000000
0.987228 0.000000 0.000000
1.000000 0.000000 0.000000
1.000000 0.000000 0.000000
1.000000 0.150195 0.042496
1.000000 0.313695 0.079438
1.000000 0.432761 0.117800
1.000000 0.539574 0.162310
1.000000 0.639292 0.217685
1.000000 0.724559 0.295933
1.000000 0.789960 0.385290
1.000000 0.840406 0.476738
1.000000 0.878965 0.568475
1.000000 0.908431 0.658717
1.000000 0.932036 0.737560
0.000000 0.000000 0.000000
0.000000 0.000000 0.000000
0.000000 0.000000 0.000000
0.000000 0.000000 0.000000
0.000000 0.000000 0.000000
0.053574 0.000000 0.000000
0.097627 0.000000 0.000000
0.133761 0.000000 0.000000
0.172259 0.000000 0.000000
0.216571 0.000000 0.000000
0.267262 0.000000 0.000000
0.322393 0.000000 0.000000
0.384527 0.000000 0.000000
0.458732 0.000000 0.000000
0.545006 0.000000 0.000000
0.638132 0.000000 0.000000
0.734020 0.000000 0.000000
0.830503 0.000000 0.000000
0.917876 0.000000 0.000000
0.986770 0.000000 0.000000
1.000000 0.000000 0.000000
1.000000 0.000000 0.000000
1.000000 0.181170 0.027878
1.000000 0.326955 0.074266
1.000000 0.441230 0.115068
1.000000 0.545434 0.160800
1.000000 0.643366 0.216022
1.000000 0.727016 0.295033
1.000000 0.791348 0.384787
1.000000 0.841230 0.476432
1.000000 0.879423 0.568292
1.000000 0.908721 0.658595
1.000000 0.932204 0.737484
0.000000 0.000000 0.000000
0.000000 0.000000 0.000000
0.000000 0.000000 0.000000
0.000000 0.000000 0.000000
0.000000 0.000000 0.000000
0.059648 0.000000 0.000000
0.098848 0.000000 0.000000
0.136522 0.000000 0.000000
0.177005 0.000000 0.000000
0.221500 0.000000 0.000000
0.271336 0.000000 0.000000
0.324895 0.000000 0.000000
0.386938 0.000000 0.000000
0.460868 0.000000 0.000000
0.546761 0.000000 0.000000
0.639322 0.000000 0.000000
0.734768 0.000000 0.000000
0.830838 0.000000 0.000000
0.917739 0.000000 0.000000
0.986297 0.000000 0.000000
1.000000 0.000000 0.000000
1.000000 0.000000 0.000000
1.000000 0.206577 0.000000
1.000000 0.339513 0.068528
1.000000 0.449454 0.112245
1.000000 0.551171 0.159274
1.000000 0.647364 0.214420
1.000000 0.729412 0.294118
1.000000 0.792721 0.384298
1.000000 0.842054 0.476127
1.000000 0.879881 0.568093
1.000000 0.908995 0.658473
1.000000 0.932372 0.737407
0.000000 0.000000 0.000000
0.000000 0.000000 0.000000
0.000000 0.000000 0.000000
0.000000 0.005188 0.000000
0.020401 0.009857 0.000000
0.064302 0.000000 0.000000
0.099413 0.000000 0.000000
0.136767 0.000000 0.000000
0.177813 0.000000 0.000000
0.223499 0.000000 0.000000
0.273976 0.000000 0.000000
0.327169 0.000000 0.000000
0.389273 0.000000 0.000000
0.463035 0.000000 0.000000
0.548531 0.000000 0.000000
0.640558 0.000000 0.000000
0.735500 0.000000 0.000000
0.831144 0.000000 0.000000
0.917571 0.000000 0.000000
0.985779 0.000000 0.000000
1.000000 0.000000 0.000000
1.000000 0.000000 0.000000
1.000000 0.228626 0.000000
1.000000 0.351461 0.062028
1.000000 0.457450 0.109346
1.000000 0.556802 0.157748
1.000000 0.651255 0.213672
1.000000 0.731777 0.293217
1.000000 0.794079 0.383795
1.000000 0.842863 0.475822
1.000000 0.880339 0.567910
1.000000 0.909285 0.658350
1.000000 0.932540 0.737346
0.000000 0.047852 0.000000
0.000000 0.050538 0.000000
0.000000 0.053132 0.000000
0.000000 0.055634 0.000000
0.000000 0.056611 0.000000
0.057115 0.056062 0.000000
0.095354 0.054047 0.000000
0.134325 0.049241 0.000000
0.176989 0.038178 0.000000
0.224384 0.000000 0.000000
0.275502 0.000000 0.000000
0.329229 0.000000 0.000000
0.391531 0.000000 0.000000
0.465232 0.000000 0.000000
0.550347 0.000000 0.000000
0.641794 0.000000 0.000000
0.736233 0.000000 0.000000
0.831418 0.000000 0.000000
0.917388 0.000000 0.000000
0.985260 0.000000 0.000000
1.000000 0.000000 0.000000
1.000000 0.047578 0.000000
1.000000 0.248280 0.000000
1.000000 0.362860 0.054414
1.000000 0.465217 0.106340
1.000000 0.562325 0.156207
1.000000 0.655070 0.212924
1.000000 0.734112 0.292332
1.000000 0.795407 0.383291
1.000000 0.843671 0.475517
1.000000 0.880781 0.567712
1.000000 0.909560 0.658228
1.000000 0.932708 0.737270
0.000000 0.077455 0.000000
0.000000 0.079591 0.000000
0.000000 0.081697 0.000000
0.000000 0.083360 0.000000
0.000000 0.084154 0.000000
0.040070 0.084184 0.000000
0.088808 0.083482 0.000000
0.130556 0.081529 0.000000
0.175036 0.077363 0.000000
0.224231 0.069184 0.000000
0.276249 0.053025 0.000000
0.331060 0.000000 0.000000
0.393820 0.000000 0.000000
0.467567 0.000000 0.000000
0.552285 0.000000 0.000000
0.643122 0.000000 0.000000
0.736980 0.000000 0.000000
0.831708 0.000000 0.000000
0.917189 0.000000 0.000000
0.984680 0.000000 0.000000
1.000000 0.000000 0.000000
1.000000 0.123095 0.000000
1.000000 0.266789 0.000000
1.000000 0.374243 0.044434
1.000000 0.473121 0.103090
1.000000 0.567987 0.154574
1.000000 0.658961 0.212161
1.000000 0.736492 0.291386
1.000000 0.796796 0.382773
1.000000 0.844495 0.475212
1.000000 0.881254 0.567514
1.000000 0.909850 0.658091
1.000000 0.932891 0.737194
0.000000 0.108629 0.000000
0.000000 0.110414 0.000000
0.000000 0.112184 0.000000
0.000000 0.113176 0.000000
0.000000 0.113817 0.000000
0.000000 0.114046 0.000000
0.074922 0.113863 0.000000
0.123507 0.112963 0.000000
0.171054 0.110796 0.000000
0.222568 0.106523 0.000000
0.275990 0.098512 0.000000
0.332753 0.085466 0.000000
0.396536 0.060243 0.000000
0.470558 0.000000 0.000000
0.554803 0.000000 0.000000
0.644831 0.000000 0.000000
0.737972 0.000000 0.000000
0.832074 0.000000 0.000000
0.916899 0.000000 0.000000
0.983902 0.000000 0.000000
1.000000 0.000000 0.000000
1.000000 0.170626 0.000000
1.000000 0.288380 0.000000
1.000000 0.388220 0.022492
1.000000 0.482979 0.098726
1.000000 0.575113 0.152483
1.000000 0.663874 0.211200
1.000000 0.739513 0.290196
1.000000 0.798550 0.382116
1.000000 0.845548 0.474800
1.000000 0.881849 0.567269
1.000000 0.910231 0.657923
1.000000 0.933104 0.737087
0.000000 0.143954 0.000000
0.000000 0.145510 0.000000
0.000000 0.146670 0.000000
0.000000 0.147433 0.000000
0.000000 0.147982 0.000000
0.000000 0.148287 0.000000
0.028290 0.148348 0.000000
0.109194 0.147997 0.000000
0.163119 0.146883 0.000000
0.217533 0.144015 0.000000
0.273533 0.138628 0.000000
0.333425 0.130846 0.000000
0.399359 0.119127 0.000000
0.474281 0.099016 0.000000
0.558083 0.055589 0.000000
0.647135 0.000000 0.000000
0.739315 0.000000 0.000000
0.832563 0.000000 0.000000
0.916487 0.000000 0.000000
0.982818 0.000000 0.000000
1.000000 0.085634 0.000000
1.000000 0.215137 0.000000
1.000000 0.313970 0.000000
1.000000 0.405661 0.000000
1.000000 0.495537 0.092546
1.000000 0.584298 0.149676
1.000000 0.670176 0.209964
1.000000 0.743389 0.288624
1.000000 0.800824 0.381247
1.000000 0.846937 0.474266
1.000000 0.882643 0.566934
1.000000 0.910719 0.657710
1.000000 0.933410 0.736965
0.000000 0.185138 0.000000
0.000000 0.186313 0.000000
0.000000 0.186969 0.000000
0.000000 0.187640 0.000000
0.000000 0.188098 0.000000
0.000000 0.188418 0.000000
0.000000 0.188617 0.000000
0.074327 0.188510 0.000000
0.146639 0.187167 0.000000
0.206882 0.184833 0.000000
0.267338 0.181216 0.000000
0.331350 0.175891 0.000000
0.401144 0.168139 0.000000
0.478355 0.156573 0.000000
0.562219 0.140475 0.000000
0.650202 0.117296 0.000000
0.741146 0.080598 0.000000
0.833204 0.000000 0.000000
0.915862 0.000000 0.000000
0.981262 0.091569 0.000000
1.000000 0.177981 0.000000
1.000000 0.260853 0.000000
1.000000 0.344015 0.000000
1.000000 0.427161 0.000000
1.000000 0.511360 0.083482
1.000000 0.596002 0.145907
1.000000 0.678187 0.208377
1.000000 0.748348 0.286564
1.000000 0.803784 0.380087
1.000000 0.848722 0.473564
1.000000 0.883665 0.566491
1.000000 0.911360 0.657404
1.000000 0.933791 0.736782
0.000000 0.231479 0.000000
0.000000 0.231846 0.000000
0.000000 0.232197 0.000000
0.000000 0.232486 0.000000
0.000000 0.232670 0.000000
0.000000 0.232715 0.000000
0.000000 0.232624 0.000000
0.000000 0.232303 0.000000
0.112856 0.231540 0.000000
0.188449 0.230106 0.000000
0.255726 0.227695 0.000000
0.324987 0.223926 0.000000
0.399832 0.218250 0.000000
0.481407 0.210025 0.000000
0.566827 0.200519 0.000000
0.654047 0.189151 0.000000
0.743557 0.176471 0.000000
0.833997 0.165179 0.000000
0.914900 0.167803 0.000000
0.979034 0.196017 0.000000
1.000000 0.245563 0.000000
1.000000 0.308873 0.000000
1.000000 0.378912 0.000000
1.000000 0.453300 0.000000
1.000000 0.531060 0.069123
1.000000 0.610803 0.140841
1.000000 0.688258 0.206394
1.000000 0.754604 0.283879
1.000000 0.807553 0.378576
1.000000 0.851026 0.472648
1.000000 0.885008 0.565896
1.000000 0.912200 0.657023
1.000000 0.934295 0.736553
0.000000 0.281224 0.000000
0.000000 0.281575 0.000000
0.000000 0.281941 0.000000
0.000000 0.282200 0.000000
0.000000 0.282399 0.000000
0.000000 0.282521 0.000000
0.000000 0.282567 0.000000
0.000000 0.282475 0.000000
0.000000 0.282094 0.000000
0.154421 0.281254 0.000000
0.235584 0.279759 0.000000
0.312245 0.277195 0.000000
0.393362 0.273060 0.000000
0.481270 0.267277 0.000000
0.570199 0.260777 0.000000
0.658076 0.254139 0.000000
0.746380 0.248203 0.000000
0.834821 0.244785 0.000000
0.913375 0.250767 0.000000
0.975784 0.272694 0.000000
1.000000 0.310384 0.000000
1.000000 0.360082 0.000000
1.000000 0.418997 0.000000
1.000000 0.484550 0.000000
1.000000 0.555215 0.039582
1.000000 0.629267 0.133944
1.000000 0.700710 0.203937
1.000000 0.762402 0.280369
1.000000 0.812360 0.376608
1.000000 0.853971 0.471443
1.000000 0.886732 0.565133
1.000000 0.913283 0.656519
1.000000 0.934951 0.736263
0.000000 0.339864 0.000000
0.000000 0.340215 0.000000
0.000000 0.340536 0.000000
0.000000 0.340795 0.000000
0.000000 0.340993 0.000000
0.000000 0.341146 0.000000
0.000000 0.341268 0.000000
0.000000 0.341314 0.000000
0.000000 0.341192 0.000000
0.045426 0.340795 0.000000
0.198367 0.339956 0.000000
0.289387 0.338369 0.000000
0.379324 0.335836 0.000000
0.474556 0.332067 0.000000
0.568750 0.327474 0.000000
0.660136 0.323125 0.000000
0.748760 0.320333 0.000000
0.835187 0.320623 0.000000
0.910857 0.328222 0.000000
0.971191 0.346349 0.000000
1.000000 0.375418 0.000000
1.000000 0.415229 0.000000
1.000000 0.464469 0.000000
1.000000 0.521309 0.000000
1.000000 0.584390 0.000000
1.000000 0.651621 0.124697
1.000000 0.715816 0.201007
1.000000 0.771878 0.279805
1.000000 0.818402 0.374029
1.000000 0.857694 0.469856
1.000000 0.888945 0.564111
1.000000 0.914702 0.655848
1.000000 0.935805 0.735866
0.000000 0.409537 0.000000
0.000000 0.409857 0.000000
0.000000 0.410147 0.000000
0.000000 0.410376 0.000000
0.000000 0.410559 0.000000
0.000000 0.410727 0.000000
0.000000 0.410880 0.000000
0.000000 0.411002 0.000000
0.000000 0.411124 0.000000
0.000000 0.411200 0.000000
0.102693 0.411078 0.000000
0.247990 0.410513 0.000000
0.353948 0.409140 0.000000
0.458167 0.406561 0.000000
0.559152 0.403235 0.000000
0.656199 0.399939 0.000000
0.748470 0.397864 0.000000
0.834318 0.398672 0.000000
0.907225 0.405219 0.000000
0.965225 0.419669 0.000000
1.000000 0.442603 0.000000
1.000000 0.474632 0.000000
1.000000 0.515343 0.000000
1.000000 0.563745 0.000000
1.000000 0.618936 0.000000
1.000000 0.677668 0.112474
1.000000 0.733669 0.197696
1.000000 0.783200 0.279454
1.000000 0.825849 0.370672
1.000000 0.862348 0.467796
1.000000 0.891783 0.562783
1.000000 0.916503 0.654963
1.000000 0.936904 0.735332
0.000000 0.488853 0.000000
0.000000 0.489113 0.000000
0.000000 0.489342 0.000000
0.000000 0.489525 0.000000
0.000000 0.489693 0.000000
0.000000 0.489845 0.000000
0.000000 0.489998 0.000000
0.000000 0.490150 0.000000
0.000000 0.490257 0.000000
0.000000 0.490288 0.000000
0.000000 0.490150 0.000000
0.163180 0.489662 0.000000
0.312657 0.488518 0.000000
0.431205 0.486488 0.000000
0.540475 0.483726 0.000000
0.644526 0.480644 0.000000
0.742657 0.478218 0.000000
0.830808 0.478157 0.000000
0.901991 0.483146 0.000000
0.957610 0.494530 0.000000
1.000000 0.512612 0.000000
1.000000 0.538186 0.000000
1.000000 0.571359 0.000000
1.000000 0.611765 0.000000
1.000000 0.658473 0.000000
1.000000 0.707042 0.096315
1.000000 0.754101 0.194293
1.000000 0.796551 0.279408
1.000000 0.834867 0.366903
1.000000 0.868025 0.465126
1.000000 0.895338 0.561044
1.000000 0.918791 0.653803
1.000000 0.938323 0.734646
0.000000 0.571817 0.000000
0.000000 0.571969 0.000000
0.000000 0.572107 0.000000
0.000000 0.572213 0.000000
0.000000 0.572305 0.000000
0.000000 0.572381 0.000000
0.000000 0.572457 0.000000
0.000000 0.572519 0.000000
0.000000 0.572534 0.000000
0.000000 0.572473 0.000000
0.000000 0.572259 0.000000
0.000000 0.571725 0.000000
0.245441 0.570642 0.000000
0.392599 0.568856 0.000000
0.512917 0.566476 0.000000
0.624445 0.563622 0.000000
0.729351 0.560861 0.000000
0.821561 0.559808 0.000000
0.893629 0.562860 0.000000
0.947890 0.571298 0.000000
0.991424 0.585245 0.000000
1.000000 0.605371 0.000000
1.000000 0.631907 0.000000
1.000000 0.664286 0.000000
1.000000 0.700587 0.000000
1.000000 0.738857 0.074784
1.000000 0.776577 0.191409
1.000000 0.812085 0.279896
1.000000 0.845457 0.368292
1.000000 0.874830 0.461677
1.000000 0.899763 0.558755
1.000000 0.921675 0.652277
1.000000 0.940108 0.733730
0.000000 0.656077 0.000000
0.000000 0.656153 0.000000
0.000000 0.656199 0.000000
0.000000 0.656245 0.000000
0.000000 0.656260 0.000000
0.000000 0.656275 0.000000
0.000000 0.656291 0.000000
0.000000 0.656260 0.000000
0.000000 0.656199 0.000000
0.000000 0.656031 0.000000
0.000000 0.655695 0.000000
0.000000 0.655070 0.000000
0.078462 0.653941 0.000000
0.338109 0.652277 0.000000
0.476753 0.650095 0.000000
0.596796 0.647425 0.000000
0.708248 0.644556 0.000000
0.804990 0.642756 0.000000
0.879637 0.644053 0.000000
0.934905 0.649622 0.000000
0.977707 0.659754 0.000000
1.000000 0.674540 0.000000
1.000000 0.693660 0.000000
1.000000 0.716777 0.000000
1.000000 0.743221 0.000000
1.000000 0.771603 0.044923
1.000000 0.800427 0.190036
1.000000 0.829572 0.281422
1.000000 0.857588 0.370504
1.000000 0.882734 0.458244
1.000000 0.905165 0.555795
1.000000 0.925231 0.650263
1.000000 0.942336 0.732540
0.000000 0.738705 0.000000
0.000000 0.738689 0.000000
0.000000 0.738674 0.000000
0.000000 0.738643 0.000000
0.000000 0.738613 0.000000
0.000000 0.738567 0.000000
0.000000 0.738491 0.000000
0.000000 0.738384 0.000000
0.000000 0.738186 0.000000
0.000000 0.737896 0.000000
0.000000 0.737392 0.000000
0.000000 0.736584 0.000000
0.000000 0.735332 0.000000
0.261036 0.733577 0.000000
0.433097 0.731304 0.000000
0.564675 0.728511 0.000000
0.682155 0.725322 0.000000
0.782483 0.722683 0.000000
0.860258 0.721996 0.000000
0.918364 0.724163 0.000000
0.962600 0.729534 0.000000
0.994934 0.738521 0.000000
1.000000 0.750759 0.000000
1.000000 0.765988 0.000000
1.000000 0.783780 0.000000
1.000000 0.803677 0.000000
1.000000 0.825589 0.191150
1.000000 0.848478 0.284703
1.000000 0.870939 0.373983
1.000000 0.891829 0.461372
1.000000 0.911589 0.551919
1.000000 0.929534 0.647639
1.000000 0.945113 0.730968
0.000000 0.808881 0.000000
0.000000 0.808804 0.000000
0.000000 0.808713 0.000000
0.000000 0.808621 0.000000
0.000000 0.808515 0.000000
0.000000 0.808408 0.000000
0.000000 0.808255 0.000000
0.000000 0.808042 0.000000
0.000000 0.807721 0.000000
0.000000 0.807263 0.000000
0.000000 0.806561 0.000000
0.000000 0.805524 0.000000
0.000000 0.804074 0.000000
0.170718 0.802152 0.000000
0.395666 0.799649 0.000000
0.538094 0.796551 0.000000
0.659846 0.792950 0.000000
0.761013 0.789624 0.000000
0.840131 0.787503 0.000000
0.900999 0.787121 0.000000
0.947417 0.788891 0.000000
0.981186 0.793210 0.000000
1.000000 0.799985 0.000000
1.000000 0.809308 0.000000
1.000000 0.821103 0.000000
1.000000 0.835126 0.015381
1.000000 0.850996 0.196597
1.000000 0.867964 0.290730
1.000000 0.885023 0.379309
1.000000 0.902174 0.465766
1.000000 0.919020 0.551873
1.000000 0.934630 0.644221
1.000000 0.948501 0.728908
0.000000 0.862821 0.000000
0.000000 0.862684 0.000000
0.000000 0.862547 0.000000
0.000000 0.862409 0.000000
0.000000 0.862257 0.000000
0.000000 0.862089 0.000000
0.000000 0.861875 0.000000
0.000000 0.861570 0.000000
0.000000 0.861158 0.000000
0.000000 0.860563 0.000000
0.000000 0.859709 0.000000
0.000000 0.858564 0.000000
0.000000 0.857008 0.000000
0.119997 0.854978 0.000000
0.380697 0.852384 0.000000
0.526131 0.849149 0.000000
0.647227 0.845411 0.000000
0.746014 0.841825 0.000000
0.823499 0.839078 0.000000
0.885176 0.837415 0.000000
0.933074 0.837201 0.000000
0.968475 0.838834 0.000000
0.996063 0.842344 0.000000
1.000000 0.847883 0.000000
1.000000 0.855329 0.000000
1.000000 0.864500 0.073167
1.000000 0.875181 0.208453
1.000000 0.886946 0.300664
1.000000 0.899840 0.387106
1.000000 0.913527 0.471931
1.000000 0.927337 0.556710
1.000000 0.940459 0.641215
1.000000 0.952544 0.726192
0.000000 0.904997 0.000000
0.000000 0.904814 0.000000
0.000000 0.904646 0.000000
0.000000 0.904448 0.000000
0.000000 0.904265 0.000000
0.000000 0.904067 0.000000
0.000000 0.903792 0.000000
0.000000 0.903426 0.000000
0.000000 0.902922 0.000000
0.000000 0.902251 0.000000
0.000000 0.901366 0.000000
0.000000 0.900175 0.000000
0.000000 0.898604 0.000000
0.182147 0.896559 0.000000
0.393896 0.893980 0.000000
0.531304 0.890776 0.000000
0.645151 0.887129 0.000000
0.738064 0.883589 0.000000
0.811780 0.880629 0.000000
0.872007 0.878355 0.000000
0.919860 0.877043 0.000000
0.956527 0.876951 0.000000
0.985519 0.878096 0.000000
1.000000 0.880720 0.000000
1.000000 0.884794 0.000000
1.000000 0.890257 0.120470
1.000000 0.897200 0.228214
1.000000 0.905531 0.315312
1.000000 0.915084 0.398138
1.000000 0.925505 0.480476
1.000000 0.936324 0.563317
1.000000 0.946929 0.646220
1.000000 0.957244 0.722621
0.000000 0.936141 0.000000
0.000000 0.935927 0.000000
0.000000 0.935714 0.000000
0.000000 0.935500 0.000000
0.000000 0.935286 0.000000
0.000000 0.935058 0.000000
0.000000 0.934768 0.000000
0.000000 0.934371 0.000000
0.000000 0.933867 0.000000
0.000000 0.933181 0.000000
0.000000 0.932280 0.000000
0.000000 0.931090 0.000000
0.000000 0.929549 0.000000
0.287953 0.927565 0.000000
0.437095 0.925048 0.000000
0.555627 0.921981 0.000000
0.655421 0.918608 0.000000
0.738827 0.915282 0.000000
0.806714 0.912352 0.000000
0.863813 0.909865 0.000000
0.909728 0.908049 0.000000
0.946456 0.907042 0.000000
0.976287 0.906889 0.000000
0.999100 0.907805 0.000000
1.000000 0.909895 0.000000
1.000000 0.913207 0.168154
1.000000 0.917739 0.255955
1.000000 0.923384 0.335561
1.000000 0.930068 0.413397
1.000000 0.937591 0.492180
1.000000 0.945647 0.572290
1.000000 0.954040 0.652842
1.000000 0.962478 0.725978
0.000000 0.959762 0.000000
0.000000 0.959548 0.000000
0.000000 0.959335 0.000000
0.000000 0.959121 0.000000
0.000000 0.958892 0.000000
0.000000 0.958679 0.000000
0.000000 0.958389 0.000000
0.000000 0.957992 0.000000
0.000000 0.957488 0.000000
0.000000 0.956832 0.000000
0.000000 0.955962 0.000000
0.000000 0.954833 0.000000
0.267735 0.953368 0.000000
0.394858 0.951492 0.000000
0.500069 0.949142 0.000000
0.593179 0.946395 0.000000
0.675608 0.943435 0.000000
0.746685 0.940520 0.000000
0.807401 0.937804 0.000000
0.859861 0.935348 0.000000
0.902693 0.933425 0.000000
0.938201 0.932036 0.000000
0.967864 0.931197 0.000000
0.991196 0.931121 0.000000
1.000000 0.931853 0.124681
1.000000 0.933532 0.217609
1.000000 0.936172 0.291585
1.000000 0.939712 0.362234
1.000000 0.944076 0.433845
1.000000 0.949279 0.507912
1.000000 0.955184 0.584268
1.000000 0.961547 0.661570
1.000000 0.968154 0.731487
0.000000 0.977340 0.000000
0.000000 0.977142 0.000000
0.000000 0.976928 0.000000
0.000000 0.976730 0.000000
0.000000 0.976516 0.000000
0.000000 0.976303 0.000000
0.000000 0.976028 0.000000
0.000000 0.975677 0.000000
0.000000 0.975189 0.000000
0.180941 0.974578 0.000000
0.274617 0.973770 0.000000
0.352514 0.972717 0.000000
0.426581 0.971359 0.000000
0.499657 0.969650 0.000000
0.570779 0.967636 0.000000
0.639277 0.965332 0.000000
0.703365 0.962860 0.000000
0.761044 0.960388 0.000000
0.813748 0.957931 0.000000
0.860258 0.955657 0.000000
0.899123 0.953750 0.000000
0.932662 0.952178 0.000000
0.961120 0.950988 0.000000
0.984237 0.950317 0.112642
1.000000 0.950195 0.200549
1.000000 0.950744 0.269230
1.000000 0.952056 0.332906
1.000000 0.954131 0.395422
1.000000 0.956939 0.460166
1.000000 0.960464 0.528450
1.000000 0.964584 0.600046
1.000000 0.969162 0.672877
1.000000 0.974044 0.738659
0.294591 0.989715 0.000000
0.309483 0.989532 0.000000
0.323384 0.989349 0.000000
0.336431 0.989151 0.000000
0.348760 0.988968 0.000000
0.360952 0.988785 0.000000
0.375799 0.988525 0.000000
0.394141 0.988205 0.000000
0.416526 0.987778 0.000000
0.443259 0.987213 0.000000
0.474479 0.986511 0.000000
0.510246 0.985611 0.000000
0.550378 0.984497 0.000000
0.594278 0.983139 0.000000
0.640925 0.981537 0.000000
0.688685 0.979721 0.000000
0.735500 0.977783 0.000000
0.781353 0.975708 0.000000
0.825086 0.973617 0.000000
0.864622 0.971618 0.000000
0.898970 0.969848 0.071427
0.929824 0.968276 0.122210
0.956451 0.966979 0.162936
0.978561 0.966049 0.213687
0.996948 0.965484 0.267903
1.000000 0.965393 0.322545
1.000000 0.965850 0.377813
1.000000 0.966888 0.434165
1.000000 0.968536 0.492561
1.000000 0.970748 0.554513
1.000000 0.973434 0.620432
1.000000 0.976501 0.687282
1.000000 0.979904 0.747829
0.525689 0.998215 0.185962
0.531106 0.998062 0.186160
0.536385 0.997910 0.186358
0.541558 0.997772 0.186557
0.546609 0.997620 0.186755
0.551751 0.997467 0.186969
0.558221 0.997284 0.187243
0.566476 0.997040 0.187610
0.576944 0.996719 0.188083
0.590036 0.996307 0.188724
0.606180 0.995773 0.189563
0.625681 0.995117 0.190677
0.648722 0.994293 0.192172
0.675196 0.993301 0.194141
0.704555 0.992126 0.196765
0.736324 0.990799 0.200244
0.770397 0.989273 0.204822
0.805539 0.987610 0.210788
0.840040 0.985885 0.218524
0.872053 0.984222 0.228458
0.901884 0.982620 0.241047
0.929412 0.981125 0.256779
0.953643 0.979843 0.276020
0.974411 0.978790 0.299199
0.992004 0.978012 0.335012
1.000000 0.977539 0.378470
1.000000 0.977432 0.426108
1.000000 0.977752 0.476951
1.000000 0.978515 0.530297
1.000000 0.979751 0.586313
1.000000 0.981338 0.645930
1.000000 0.983261 0.705104
1.000000 0.985550 0.759319
0.659922 1.000000 0.315511
0.662577 1.000000 0.315618
0.665187 1.000000 0.315740
0.667750 1.000000 0.315846
0.670283 1.000000 0.315969
0.672892 1.000000 0.316075
0.676173 1.000000 0.316243
0.680415 1.000000 0.316442
0.685863 1.000000 0.316716
0.692760 1.000000 0.317082
0.701411 1.000000 0.317556
0.712184 1.000000 0.318196
0.725460 1.000000 0.319036
0.741497 1.000000 0.320165
0.760388 0.999771 0.321645
0.782055 0.998779 0.323629
0.806012 0.997620 0.326238
0.831449 0.996353 0.329702
0.857130 0.995026 0.334264
0.882506 0.993668 0.340246
0.907622 0.992279 0.347997
0.931395 0.990936 0.357977
0.952789 0.989715 0.370718
0.971817 0.988663 0.386755
0.988342 0.987793 0.406683
1.000000 0.987137 0.438575
1.000000 0.986740 0.478553
1.000000 0.986618 0.523400
1.000000 0.986831 0.571908
1.000000 0.987396 0.623163
1.000000 0.988251 0.675578
1.000000 0.989395 0.726299
1.000000 0.990814 0.773205
0.749340 1.000000 0.421363
0.750774 1.000000 0.421439
0.752193 1.000000 0.421530
0.753597 1.000000 0.421607
0.755001 1.000000 0.421683
0.756435 1.000000 0.421775
0.758267 1.000000 0.421881
0.760662 1.000000 0.422019
0.763775 1.000000 0.422202
0.767773 1.000000 0.422461
0.772900 1.000000 0.422797
0.779385 1.000000 0.423224
0.787472 1.000000 0.423819
0.797421 1.000000 0.424598
0.809384 1.000000 0.425620
0.823392 1.000000 0.426978
0.839246 1.000000 0.428794
0.856519 1.000000 0.431189
0.875303 1.000000 0.434348
0.895247 1.000000 0.438514
0.915557 0.999512 0.443977
0.935302 0.998367 0.451087
0.953658 0.997284 0.460273
0.970626 0.996277 0.472053
0.985657 0.995407 0.486992
0.998291 0.994705 0.505684
1.000000 0.994171 0.535851
1.000000 0.993805 0.573938
1.000000 0.993683 0.616938
1.000000 0.993805 0.662791
