BBLuts/BB_103_0290_LUT.cube
TITLE "Generated by Resolve"
LUT_3D_SIZE 9
0 0 0
0.0283513 0 0
0.185016 0 0
0.417914 0 0
0.687236 0 0
0.812634 0 0
0.782727 0.499779 0.0801099
0.759152 0.755215 0.3243
0.749355 0.83212 0.588281
0 0.0509041 0
0.0137026 0.0543984 0
0.185809 0.0323644 0
0.425925 0 0
0.68835 0 0
0.807843 0.00955215 0
0.780133 0.528969 0.0708476
0.758923 0.758343 0.322499
0.74934 0.832502 0.588098
0 0.201297 0
0 0.20267 0
0.136599 0.197879 0
0.419089 0.173526 0
0.678889 0.102846 0
0.798291 0.25272 0
0.77557 0.575143 0.0495155
0.758495 0.764126 0.31902
0.749279 0.833249 0.587747
0 0.46244 0
0 0.463279 0
0 0.463767 0
0.348363 0.463615 0
0.65774 0.460655 0
0.777584 0.524346 0
0.766186 0.658503 0.000762951
0.757504 0.778485 0.309285
0.749142 0.83534 0.586709
0 0.734478 0
0 0.734295 0
0 0.73373 0
0.0553292 0.730343 0
0.599832 0.721279 0
0.741405 0.728618 0
0.757778 0.758373 0
0.755581 0.805158 0.308186
0.748791 0.840589 0.583658
0 0.855589 0.00289921
0 0.855024 0.00283818
0 0.853895 0.00271611
0.168109 0.848219 0
0.58471 0.830671 0
0.710353 0.82533 0
0.754726 0.828153 0.0340124
0.752758 0.837552 0.34876
0.748058 0.850965 0.581048
0.493553 0.879728 0.152468
0.507225 0.878935 0.152285
0.527901 0.877562 0.152209
0.572793 0.874693 0.153552
0.640299 0.870695 0.162966
0.705211 0.86717 0.195224
0.747753 0.864317 0.282582
0.749325 0.862303 0.45478
0.746838 0.863798 0.602136
0.675166 0.872297 0.512856
0.676066 0.872297 0.512947
0.677791 0.872297 0.513176
0.682597 0.872312 0.513802
0.694163 0.872374 0.51574
0.714916 0.872465 0.521477
0.738842 0.872435 0.537194
0.746334 0.871916 0.576745
0.745708 0.871412 0.641443
0.723918 0.871183 0.661463
0.724041 0.871199 0.661479
0.724254 0.871199 0.661494
0.724926 0.871199 0.66157
0.726757 0.871214 0.661799
0.731121 0.87126 0.66247
0.739071 0.871321 0.664347
0.745541 0.871305 0.669322
0.745464 0.871275 0.682109
0 0 0.0281987
0.0172427 0 0.0273899
0.187198 0 0.0270848
0.419028 0 0.0240177
0.688731 0 0.0247196
0.81474 0 0.0539406
0.784115 0.494697 0.13904
0.758907 0.754253 0.353414
0.74931 0.831983 0.59292
0 0.0340887 0.0224613
0.0290227 0.0358892 0.0199435
0.189258 0.0120699 0.0201572
0.422614 0 0.0169223
0.688685 0 0.0103304
0.811124 0 0.0388647
0.781521 0.525139 0.130892
0.758663 0.757397 0.351766
0.749279 0.832364 0.592752
0 0.193286 0
0 0.19472 0
0.148928 0.189654 0
0.41677 0.164935 0
0.677821 0.0855421 0
0.799634 0.240543 0.00297551
0.77705 0.572961 0.113497
0.758221 0.763226 0.348608
0.749233 0.833112 0.592416
0 0.458412 0
0 0.459205 0
0 0.459525 0
0.357275 0.459174 0
0.657832 0.456901 0
0.777829 0.521431 0
0.767346 0.658167 0.0345159
0.757198 0.777691 0.339773
0.749096 0.835203 0.591409
0 0.733623 0
0 0.73344 0
0 0.73286 0
0.0652934 0.729534 0
0.601495 0.720531 0
0.741512 0.728099 0
0.757763 0.758038 0
0.755489 0.804898 0.317296
0.748745 0.840467 0.588525
0 0.855406 0.00288396
0 0.854841 0.00280766
0 0.853712 0.00268559
0.174456 0.847959 0
0.585779 0.830518 0
0.710536 0.825238 0
0.754726 0.828092 0.0339055
0.752758 0.837522 0.348592
0.748043 0.850935 0.582055
0.495689 0.879606 0.152209
0.509071 0.878813 0.152041
0.529274 0.877455 0.151995
0.573709 0.874632 0.153384
0.640681 0.870665 0.162844
0.705318 0.867155 0.195132
0.747768 0.864317 0.282567
0.749325 0.862287 0.454719
0.746838 0.863798 0.602106
0.675288 0.872297 0.512825
0.676188 0.872297 0.512932
0.677928 0.872312 0.513146
0.682704 0.872328 0.513787
0.694255 0.872374 0.515724
0.714961 0.872465 0.521462
0.738857 0.872435 0.537179
0.746334 0.871916 0.576745
0.745708 0.871412 0.641443
0.723934 0.871199 0.661463
0.724041 0.871183 0.661479
0.724285 0.871199 0.661494
0.724941 0.871199 0.66157
0.726757 0.871214 0.661799
0.731121 0.87126 0.66247
0.739071 0.871321 0.664347
0.745541 0.871305 0.669322
0.745464 0.871275 0.682109
0 0 0.132815
0 0 0.13286
0.169162 0 0.129564
0.4327 0 0.123003
0.690425 0 0.125856
0.815961 0 0.156069
0.785824 0.481682 0.230655
0.758465 0.752361 0.403708
0.749233 0.831708 0.601282
0 0 0.13022
0 0 0.129961
0.187076 0 0.126925
0.430274 0 0.120333
0.691035 0 0.122637
0.81593 0 0.150958
0.783139 0.51458 0.225086
0.758206 0.755566 0.402335
0.749203 0.83209 0.601129
0 0.169421 0.116274
0 0.170993 0.116167
0.144549 0.163699 0.111009
0.406806 0.141054 0.107805
0.680964 0.0501717 0.109499
0.804746 0.200992 0.147173
0.778576 0.565393 0.21355
0.757748 0.761486 0.399695
0.749157 0.832853 0.600824
0 0.447379 0.0445716
0 0.448325 0.0450446
0 0.448814 0.0458381
0.359533 0.448539 0.0485542
0.658167 0.447089 0.0570535
0.781842 0.514488 0.0953841
0.769329 0.655879 0.179019
0.756664 0.776196 0.392248
0.749004 0.834958 0.599924
0 0.731365 0
0 0.731182 0
0 0.730587 0
0.0723125 0.727306 0
0.602808 0.718471 0
0.741497 0.726467 0
0.759808 0.759228 0.0856184
0.754864 0.803754 0.372732
0.748653 0.840238 0.597314
0 0.855055 0.00283818
0 0.854475 0.00277714
0 0.853346 0.00265507
0.186343 0.84744 0
0.587869 0.830243 0
0.710887 0.825071 0
0.754726 0.82797 0.0337072
0.752773 0.837461 0.348562
0.747967 0.850767 0.589868
0.499809 0.879347 0.15169
0.512535 0.878584 0.151568
0.532021 0.877256 0.151568
0.575479 0.87451 0.153063
0.641443 0.870604 0.162631
0.705531 0.867124 0.194965
0.747814 0.864286 0.282521
0.749325 0.862287 0.454597
0.746838 0.863783 0.60206
0.675563 0.872297 0.512795
0.676448 0.872297 0.512901
0.678187 0.872312 0.513115
0.682933 0.872328 0.513756
0.694423 0.872374 0.515679
0.715038 0.872465 0.521416
0.738888 0.872435 0.537148
0.746334 0.871916 0.576745
0.745708 0.871412 0.641428
0.723964 0.871183 0.661448
0.724086 0.871199 0.661463
0.7243 0.871199 0.661494
0.724971 0.871199 0.66157
0.726787 0.871214 0.661799
0.731151 0.87126 0.662455
0.739086 0.871321 0.664347
0.745541 0.871305 0.669322
0.745464 0.871275 0.682109
0 0 0.347646
0 0 0.347829
0.041825 0 0.345922
0.414206 0 0.339498
0.703273 0 0.340642
0.816175 0 0.364492
0.789548 0.434913 0.41825
0.757519 0.746868 0.501183
0.749081 0.830991 0.62089
0 0 0.345937
0 0 0.34612
0.0886397 0 0.343557
0.425361 0 0.337438
0.702373 0 0.33875
0.816175 0 0.362249
0.786358 0.474311 0.41503
0.757214 0.750256 0.500389
0.74905 0.831373 0.620768
0 0.0670634 0.338903
0 0.0700542 0.33904
0.0882124 0.0635996 0.335698
0.425437 0 0.330327
0.697887 0 0.334524
0.810437 0.0358892 0.355138
0.781064 0.536431 0.408515
0.756695 0.756497 0.498833
0.749004 0.832151 0.620523
0 0.4047 0.308843
0 0.406073 0.309148
0 0.40705 0.309743
0.351492 0.406683 0.311879
0.653162 0.405264 0.319493
0.786191 0.477714 0.345418
0.770092 0.641596 0.388266
0.755459 0.771939 0.494499
0.748852 0.834302 0.619837
0 0.727794 0.24416
0 0.727672 0.244694
0 0.727184 0.245701
0.0508736 0.723888 0.24773
0.602594 0.71429 0.250095
0.742245 0.722728 0.28072
0.758953 0.754437 0.347845
0.753399 0.800641 0.483131
0.74847 0.839643 0.617853
0 0.856504 0.09514
0 0.855955 0.0954757
0 0.854841 0.0961471
0.185153 0.848798 0.0944839
0.588388 0.831479 0.0853437
0.711894 0.826368 0.150561
0.75436 0.827115 0.281437
0.751308 0.835401 0.456046
0.747738 0.850278 0.612329
0.511147 0.878614 0.15024
0.521645 0.877897 0.150195
0.539834 0.876677 0.150347
0.58056 0.874144 0.152117
0.643626 0.87042 0.161944
0.706157 0.867033 0.19443
0.747936 0.864225 0.282383
0.74934 0.862242 0.454231
0.746838 0.863752 0.602914
0.676356 0.872312 0.512688
0.677241 0.872312 0.512795
0.67892 0.872312 0.513008
0.683604 0.872328 0.513649
0.694926 0.872374 0.515572
0.715297 0.872465 0.521324
0.738964 0.872435 0.537057
0.746334 0.871916 0.576715
0.745708 0.871412 0.641382
0.724071 0.871183 0.661448
0.724193 0.871183 0.661448
0.724407 0.871199 0.661479
0.725063 0.871199 0.661555
0.726879 0.871214 0.661784
0.731212 0.87126 0.66244
0.739116 0.871336 0.664332
0.745541 0.871305 0.669306
0.745464 0.871275 0.682109
0 0 0.601755
0 0 0.601801
0 0 0.601907
0.262135 0 0.595956
0.693385 0 0.590356
0.815839 0 0.598871
0.806867 0.170428 0.61207
0.757626 0.731304 0.616907
0.748928 0.82916 0.656092
0 0 0.601358
0 0 0.601419
0 0 0.601511
0.287846 0 0.595056
0.6963 0 0.590036
0.815839 0 0.598459
0.80264 0.266682 0.613458
0.757183 0.735546 0.616342
0.748898 0.829587 0.656016
0 0 0.60058
0 0 0.600626
0 0 0.600687
0.323476 0 0.593469
0.698894 0 0.589258
0.815839 0 0.597482
0.79205 0.406058 0.610162
0.75642 0.74316 0.615305
0.748837 0.830396 0.655863
0 0.221866 0.590234
0 0.224643 0.590204
0 0.228336 0.590112
0.305547 0.205859 0.586419
0.684565 0.151049 0.586633
0.80235 0.269749 0.598764
0.775296 0.586282 0.599619
0.754726 0.761318 0.612741
0.748684 0.83267 0.655406
0 0.696223 0.567971
0 0.696361 0.568048
0 0.696239 0.568139
0 0.693843 0.567834
0.588861 0.684092 0.562387
0.736629 0.697032 0.568368
0.757259 0.738094 0.578943
0.75201 0.794156 0.607492
0.748272 0.838285 0.654154
0 0.853162 0.552834
0 0.852628 0.552895
0 0.851545 0.553002
0.0386664 0.846281 0.55082
0.564691 0.825376 0.536629
0.701122 0.818692 0.542107
0.750134 0.820569 0.5608
0.749294 0.831479 0.597955
0.747494 0.849317 0.650919
0.490913 0.875608 0.475257
0.504128 0.874815 0.47483
0.524666 0.873457 0.474205
0.568002 0.870527 0.473579
0.634073 0.866346 0.476127
0.698222 0.862745 0.488701
0.741436 0.860182 0.518715
0.747463 0.859739 0.576257
0.746517 0.863142 0.642756
0.67863 0.872328 0.512367
0.679469 0.872328 0.512474
0.681086 0.872328 0.512688
0.685542 0.872343 0.513329
0.696376 0.872389 0.515267
0.71606 0.87248 0.521019
0.739223 0.87245 0.536797
0.746334 0.871916 0.576654
0.745708 0.871412 0.64126
0.724376 0.871199 0.661402
0.724483 0.871199 0.661418
0.724712 0.871199 0.661448
0.725353 0.871199 0.661524
0.727138 0.871229 0.661753
0.731411 0.87126 0.662409
0.739223 0.871336 0.664302
0.745541 0.871305 0.669276
0.745464 0.871275 0.682094
0 0 0.72015
0 0 0.720165
0 0 0.72018
0 0 0.720119
0.617945 0 0.706966
0.816648 0 0.712047
0.816648 0 0.712581
0.766217 0.659571 0.700938
0.749065 0.823865 0.696223
0 0 0.720104
0 0 0.720119
0 0 0.720119
0 0 0.720058
0.623194 0 0.706889
0.816648 0 0.712001
0.816648 0 0.71252
0.764935 0.669169 0.699825
0.749035 0.824384 0.696162
0 0 0.720012
0 0 0.720027
0 0 0.720027
0 0 0.719875
0.633188 0 0.706767
0.816648 0 0.711894
0.816648 0 0.712322
0.762737 0.686015 0.697871
0.748959 0.82536 0.696056
0 0 0.719738
0 0 0.719738
0 0 0.719753
0.0220798 0 0.717372
0.65243 0 0.706523
0.816648 0 0.711589
0.809506 0.105913 0.711864
0.758267 0.72253 0.693751
0.74876 0.828092 0.695766
0 0.521019 0.702846
0 0.522225 0.7028
0 0.52459 0.702739
0 0.526894 0.70222
0.593042 0.516152 0.699245
0.773175 0.553643 0.704555
0.765072 0.668101 0.694682
0.752926 0.776181 0.688258
0.748272 0.83473 0.694972
0 0.843671 0.700313
0 0.843305 0.700267
0 0.842451 0.70013
0 0.839353 0.699657
0.513741 0.816876 0.681682
0.692622 0.807706 0.677882
0.746929 0.811658 0.679194
0.749004 0.825895 0.683009
0.747372 0.847181 0.693248
0.351797 0.878401 0.679088
0.384543 0.876921 0.677775
0.433646 0.874525 0.675746
0.51664 0.869413 0.671992
0.60827 0.863142 0.668727
0.685389 0.858976 0.668727
0.733364 0.856947 0.671321
0.7467 0.85774 0.677424
0.746288 0.862181 0.689967
0.669505 0.870802 0.646708
0.67039 0.870802 0.646738
0.672084 0.870802 0.646784
0.676783 0.870832 0.646952
0.688167 0.870909 0.64744
0.708736 0.871092 0.648966
0.732982 0.871305 0.653239
0.745571 0.871321 0.663737
0.745464 0.871275 0.682628
0.725246 0.871199 0.661311
0.725353 0.871199 0.661311
0.725567 0.871214 0.661341
0.726177 0.871214 0.661418
0.727871 0.871229 0.661646
0.73196 0.871275 0.662303
0.739513 0.871336 0.66421
0.745541 0.871305 0.6692
0.745464 0.871275 0.682078
0 0 0.752544
0 0 0.752544
0 0 0.752544
0 0 0.752544
0.0849165 0 0.749462
0.805463 0 0.751171
0.816983 0 0.751797
0.814374 0.00300603 0.750561
0.750637 0.800778 0.727977
0 0 0.752544
0 0 0.752544
0 0 0.752544
0 0 0.752544
0.0927749 0 0.749371
0.806104 0 0.751202
0.816983 0 0.751797
0.814374 0.00299077 0.750561
0.750561 0.801801 0.727886
0 0 0.752544
0 0 0.752544
0 0 0.752544
0 0 0.752544
0.106828 0 0.749218
0.807385 0 0.751278
0.816983 0 0.751797
0.813993 0.00701915 0.750439
0.750408 0.803754 0.727733
0 0 0.752544
0 0 0.752544
0 0 0.752544
0 0 0.752544
0.140764 0 0.748882
0.810941 0 0.751492
0.816983 0 0.751797
0.812131 0.036408 0.750057
0.750011 0.808972 0.727306
0 0 0.752544
0 0 0.752544
0 0 0.752544
0 0 0.752544
0.380407 0 0.745586
0.815381 0 0.751766
0.816983 0 0.751797
0.781018 0.54522 0.748714
0.749111 0.820905 0.726314
0 0.760235 0.746014
0 0.760464 0.746029
0 0.760937 0.746059
0 0.762203 0.746105
0.146639 0.75491 0.741939
0.702785 0.740551 0.73019
0.75404 0.761471 0.728527
0.75053 0.802335 0.725643
0.747692 0.840269 0.724651
0 0.890639 0.745571
0 0.88986 0.745052
0.00918593 0.888411 0.744198
0.117983 0.883635 0.740932
0.538842 0.86302 0.723735
0.671992 0.854994 0.720394
0.729931 0.85272 0.720516
0.746685 0.854337 0.720974
0.746258 0.860075 0.722622
0.649683 0.870527 0.716411
0.650904 0.870527 0.716396
0.653223 0.870527 0.716381
0.659556 0.870527 0.716335
0.674449 0.870588 0.716289
0.699962 0.870787 0.716365
0.727749 0.871077 0.716747
0.745068 0.871244 0.7178
0.745266 0.871183 0.720256
0.721767 0.871046 0.708324
0.721874 0.871046 0.708324
0.722087 0.871046 0.708339
0.722728 0.871046 0.708354
0.724483 0.871061 0.708415
0.728725 0.871107 0.708614
0.736522 0.871183 0.709194
0.744945 0.871275 0.710811
0.745296 0.871199 0.714794
0 0.0405127 0.749172
0 0.0405127 0.749172
0 0.0405127 0.749172
0 0.040528 0.749172
0 0.040589 0.749172
0.202426 0.0205539 0.745007
0.816983 0 0.751797
0.812406 0.0307622 0.750423
0.773098 0.61088 0.749493
0 0.0404669 0.749172
0 0.0404822 0.749172
0 0.0404822 0.749172
0 0.0405127 0.749172
0 0.0405737 0.749172
0.204273 0.0204929 0.744991
0.816983 0 0.751797
0.81239 0.030869 0.750423
0.773114 0.610849 0.749493
0 0.0404212 0.749172
0 0.0404212 0.749172
0 0.0404364 0.749172
0 0.0404517 0.749172
0 0.0405127 0.749172
0.207843 0.0204013 0.744945
0.816983 0 0.751797
0.81239 0.0310826 0.750423
0.773114 0.610819 0.749508
0 0.0402686 0.749172
0 0.0402838 0.749172
0 0.0402838 0.749172
0 0.0402991 0.749172
0 0.0403601 0.749172
0.220966 0 0.746014
0.816983 0 0.751797
0.81236 0.0316777 0.750439
0.773129 0.610681 0.749508
0 0.0398108 0.749187
0 0.0398108 0.749187
0 0.039826 0.749187
0 0.0398413 0.749187
0 0.0399023 0.749187
0.496681 0 0.743786
0.816983 0 0.751797
0.812268 0.0332647 0.750469
0.77319 0.610269 0.749538
0 0.038407 0.749233
0 0.038407 0.749233
0 0.038407 0.749233
0 0.0384375 0.749218
0 0.0384833 0.749218
0.694987 0 0.745357
0.816983 0 0.751797
0.810498 0.0848859 0.752239
0.753246 0.769146 0.739437
0 0.867079 0.762295
0 0.867109 0.762295
0 0.86717 0.762295
0 0.867323 0.76231
0 0.86743 0.76231
0.605097 0.832151 0.739116
0.733608 0.828382 0.738537
0.747921 0.835477 0.73846
0.746822 0.850782 0.738354
0.502327 0.874464 0.742092
0.508247 0.874205 0.741802
0.534173 0.873045 0.74052
0.570611 0.871702 0.738964
0.624247 0.870588 0.737469
0.680232 0.870558 0.73695
0.722545 0.870832 0.737179
0.744442 0.870283 0.73727
0.745403 0.870588 0.737346
0.714519 0.870878 0.735622
0.714672 0.870878 0.735622
0.714961 0.870878 0.735622
0.715831 0.870893 0.735622
0.718166 0.870924 0.735637
0.723659 0.870985 0.735653
0.733166 0.871077 0.735698
0.743069 0.871183 0.735821
0.74519 0.871138 0.736065
0 0.250126 0.747585
0 0.250126 0.747585
0 0.250126 0.747585
0 0.250126 0.747585
0 0.250141 0.747585
0 0.250172 0.747585
0.191897 0.187518 0.7458
0.803845 0.276326 0.75874
0.768093 0.646571 0.746654
0 0.250126 0.747585
0 0.250126 0.747585
0 0.250126 0.747585
0 0.250126 0.747585
0 0.250141 0.747585
0 0.250172 0.747585
0.191897 0.187518 0.7458
0.80383 0.276585 0.75874
0.768093 0.646601 0.746654
0 0.250095 0.747585
0 0.250095 0.747585
0 0.250111 0.747585
0 0.250111 0.747585
0 0.250126 0.747585
0 0.250156 0.747585
0.191897 0.187488 0.7458
0.8038 0.277089 0.75874
0.768078 0.646677 0.746654
0 0.25008 0.747585
0 0.25008 0.747585
0 0.25008 0.747585
0 0.25008 0.747585
0 0.250095 0.747585
0 0.250126 0.747585
0.191913 0.187457 0.7458
0.803708 0.278584 0.758755
0.768048 0.646891 0.746639
0 0.249973 0.747585
0 0.249973 0.747585
0 0.249958 0.747585
0 0.249973 0.747585
0 0.249973 0.747585
0 0.250019 0.747585
0.504784 0.165255 0.744411
0.803433 0.283009 0.75877
0.767971 0.647501 0.746578
0 0.249638 0.747585
0 0.249638 0.747585
0 0.249638 0.747585
0 0.249653 0.747585
0 0.249668 0.747585
0 0.249699 0.747585
0.734508 0.0178073 0.745449
0.802625 0.295598 0.758785
0.767865 0.648264 0.746517
0 0.248692 0.7476
0 0.248692 0.7476
0 0.248707 0.7476
0 0.248707 0.7476
0 0.248722 0.7476
0 0.248753 0.7476
0.816983 0 0.751797
0.801114 0.31725 0.758694
0.767636 0.649851 0.746395
0 0.892851 0.763302
0 0.892851 0.763302
0 0.892851 0.763302
0 0.892851 0.763302
0 0.892851 0.763302
0 0.89218 0.762509
0.700038 0.86334 0.73814
0.745495 0.862013 0.738338
0.745846 0.864271 0.738262
0.680537 0.870527 0.737789
0.681056 0.870542 0.737789
0.682063 0.870542 0.737804
0.684901 0.870558 0.737804
0.692073 0.870634 0.737819
0.706554 0.870771 0.737881
0.726101 0.870985 0.737987
0.741344 0.871138 0.738064
0.745388 0.871397 0.738293
