BBLuts/BB_101_0050_LUT.cube
TITLE "Generated by Resolve"
LUT_3D_SIZE 9
0.0249332 0.024979 0.0260166
0.0249332 0.024979 0.0260166
0.247395 0.0240024 0.0251926
0.547616 0.0118563 0.0128023
0.832502 0 0
1 0 0
1 0.613977 0.209339
1 0.895171 0.591684
1 0.986557 0.889387
0.0247959 0.08748 0.0261234
0.0247807 0.0990005 0.0261692
0.26038 0.0738994 0.025391
0.558679 0.0110628 0.0119936
0.834653 0 0
1 0 0
1 0.641199 0.193423
1 0.89897 0.589349
1 0.986999 0.889174
0.021973 0.270268 0.0239414
0.0217899 0.274311 0.0237583
0.217823 0.274708 0.025742
0.572686 0.240375 0.0180819
0.841901 0.102968 0
1 0.264942 0.0297856
1 0.679728 0.160967
1 0.904814 0.585611
1 0.987716 0.888808
0.00273136 0.573831 0.00515755
0.00270085 0.574914 0.00512703
0.00267033 0.575509 0.00509651
0.517693 0.582528 0.0220493
0.859785 0.573953 0.0264439
1 0.620813 0.0453193
1 0.76733 0.0424506
1 0.920058 0.574365
1 0.989792 0.887709
0.0135805 0.849073 0.0175479
0.0135653 0.848997 0.0175326
0.0135042 0.848646 0.0174563
0.0130617 0.846311 0.0169985
0.811124 0.845014 0.0303197
1 0.852384 0.0392615
1 0.892287 0.0406806
1 0.950439 0.578485
1 0.995239 0.884398
0.0523232 1 0.0584268
0.0521706 1 0.0582742
0.0519112 1 0.0579995
0.051133 0.998932 0.0571908
0.797375 0.986007 0.0459907
0.977218 0.977325 0.0425879
1 0.978668 0.0429084
1 0.989151 0.618204
1 1 0.880613
0.69485 1 0.315297
0.711772 1 0.314946
0.736171 1 0.314733
0.792981 1 0.316167
0.882673 1 0.330159
0.97145 1 0.383795
1 1 0.528481
1 1 0.718837
1 1 0.905821
0.938857 1 0.789899
0.940047 1 0.790051
0.941939 1 0.79028
0.947372 1 0.790997
0.961242 1 0.79321
0.987625 1 0.799985
1 1 0.81944
1 1 0.870405
1 1 0.954849
1 1 0.981003
1 1 0.981018
1 1 0.981048
1 1 0.981125
1 1 0.981369
1 1 0.982101
1 1 0.984268
1 1 0.99025
1 1 1
0.0242924 0.0243687 0.0889754
0.0242924 0.0243534 0.0892958
0.247654 0.0239719 0.0900587
0.548226 0.0117952 0.0791638
0.832471 0 0.0611582
1 0 0.106722
1 0.609522 0.295735
1 0.893965 0.621927
1 0.986404 0.895262
0.0247349 0.0601968 0.0785534
0.0737774 0.0738994 0.0769818
0.268772 0.0236362 0.0792554
0.553933 0.0114137 0.0641184
0.833402 0 0.0227207
1 0 0.0727855
1 0.637507 0.281025
1 0.897795 0.620371
1 0.986847 0.895064
0.0224002 0.260014 0.0243229
0.0222629 0.263416 0.0242008
0.239811 0.264118 0.0259709
0.570535 0.22887 0.0177157
0.837842 0.063859 0
1 0.243046 0.0270237
1 0.676982 0.253712
1 0.90367 0.617899
1 0.987564 0.894713
0.00289921 0.569665 0.00531014
0.00285344 0.570703 0.00526436
0.00283818 0.571115 0.0052491
0.530404 0.578515 0.0220493
0.859388 0.569909 0.0264591
1 0.61828 0.0452735
1 0.765957 0.107469
1 0.919036 0.611215
1 0.989639 0.893675
0.0133669 0.847929 0.017319
0.0133516 0.847822 0.0172885
0.0132753 0.847456 0.0172274
0.0128328 0.84509 0.0167544
0.813626 0.843915 0.0302434
1 0.851637 0.0392615
1 0.891905 0.0406806
1 0.950164 0.587594
1 0.995102 0.890547
0.0522621 1 0.058381
0.0521096 1 0.0582132
0.0518654 1 0.0579538
0.0510872 0.998703 0.0571298
0.7991 0.985794 0.0458839
0.977478 0.977203 0.0425879
1 0.978592 0.0429084
1 0.989105 0.618036
1 1 0.881163
0.697459 1 0.314809
0.714122 1 0.314488
0.738216 1 0.314321
0.794354 1 0.315816
0.883253 1 0.329931
0.971603 1 0.383627
1 1 0.52845
1 1 0.718761
1 1 0.905791
0.93904 1 0.789868
0.94023 1 0.790021
0.942107 1 0.790249
0.947524 1 0.790967
0.961349 1 0.793179
0.987686 1 0.799954
1 1 0.819425
1 1 0.87039
1 1 0.954849
1 1 0.981003
1 1 0.981018
1 1 0.981048
1 1 0.981125
1 1 0.981369
1 1 0.982101
1 1 0.984268
1 1 0.99025
1 1 1
0.0239414 0.0240787 0.261036
0.0239414 0.0240787 0.261326
0.221057 0.0238804 0.260884
0.559655 0.0106813 0.243229
0.83238 0 0.229648
1 0 0.273274
1 0.59997 0.431662
1 0.892073 0.662135
1 0.986145 0.904067
0.0239719 0.0241093 0.255909
0.0239719 0.0241093 0.256397
0.252888 0.0235142 0.255177
0.558145 0.0108034 0.2383
0.83444 0 0.224002
1 0 0.263874
1 0.629191 0.422721
1 0.895964 0.660746
1 0.986603 0.903883
0.02327 0.229984 0.240253
0.023209 0.232593 0.239796
0.226322 0.226703 0.236179
0.554864 0.198123 0.231342
0.833249 0 0.208682
1 0.172671 0.269139
1 0.670161 0.407019
1 0.901915 0.658549
1 0.98732 0.903563
0.00512703 0.558007 0.117876
0.00509651 0.559258 0.119142
0.00509651 0.559869 0.120912
0.531929 0.567269 0.141451
0.85594 0.558892 0.152361
1 0.610773 0.210391
1 0.762234 0.353017
1 0.917464 0.652216
1 0.98941 0.902617
0.0129244 0.845548 0.016846
0.0128939 0.845441 0.0168154
0.0128328 0.845075 0.0167544
0.0123903 0.842664 0.0162814
0.815778 0.841657 0.0300755
1 0.849882 0.0392462
1 0.89102 0.160464
1 0.948913 0.635355
1 0.994888 0.899748
0.0521859 1 0.0582895
0.0520333 1 0.0581216
0.0517739 1 0.0578622
0.0509957 0.998337 0.0570382
0.801877 0.985428 0.045716
0.97789 0.97702 0.0425879
1 0.978454 0.0429084
1 0.989044 0.617792
1 1 0.891218
0.701656 1 0.314031
0.717952 1 0.313756
0.741497 1 0.313634
0.796551 1 0.315282
0.884184 1 0.329564
0.971862 1 0.383352
1 1 0.528405
1 1 0.718639
1 1 0.905745
0.939315 1 0.789837
0.940505 1 0.78999
0.942397 1 0.790204
0.947784 1 0.790936
0.961547 1 0.793133
0.987793 1 0.799924
1 1 0.819394
1 1 0.87039
1 1 0.954833
1 1 0.981003
1 1 0.981018
1 1 0.981048
1 1 0.981125
1 1 0.981353
1 1 0.982086
1 1 0.984268
1 1 0.99025
1 1 1
0.0196384 0.0198978 0.57084
0.0196384 0.0198978 0.571008
0.0196384 0.0198978 0.571099
0.531945 0.00825513 0.561135
0.847074 0 0.548913
1 0 0.576761
1 0.56289 0.655222
1 0.886473 0.75729
1 0.985458 0.925994
0.0196994 0.0199588 0.568429
0.0196841 0.0199588 0.568658
0.113558 0.0200504 0.568719
0.548516 0.00724804 0.557656
0.845365 0 0.545998
1 0 0.573724
1 0.59942 0.652567
1 0.890562 0.756237
1 0.985916 0.925841
0.0200046 0.102373 0.564279
0.0200046 0.108721 0.564492
0.151034 0.103288 0.564538
0.555062 0.00691234 0.552773
0.840085 0 0.541207
1 0 0.56791
1 0.645457 0.648188
1 0.896788 0.754543
1 0.986664 0.925597
0.00910964 0.510307 0.527581
0.00901808 0.512306 0.527916
0.00895705 0.51371 0.52874
0.520775 0.521645 0.543435
0.842222 0.512581 0.550454
1 0.581613 0.583825
1 0.746044 0.632425
1 0.913008 0.749798
1 0.988785 0.924849
0.0162966 0.837613 0.41355
0.0162966 0.837598 0.414496
0.0162509 0.837324 0.415946
0.0158999 0.835111 0.419806
0.812863 0.833463 0.444511
1 0.842374 0.49398
1 0.88481 0.592371
1 0.945617 0.737545
1 0.994339 0.922621
0.0519417 1 0.0580301
0.0517891 1 0.0578622
0.0515297 1 0.0576028
0.0507362 0.997314 0.0567636
0.801724 0.984497 0.0456397
0.977157 0.976059 0.25594
1 0.976287 0.489021
1 0.986984 0.708095
1 1 0.916121
0.713863 1 0.311681
0.729076 1 0.311543
0.751141 1 0.311604
0.803021 1 0.31368
0.886992 1 0.328466
0.97261 1 0.382544
1 1 0.528283
1 1 0.718288
1 1 0.905577
0.940215 1 0.789715
0.941375 1 0.789853
0.943236 1 0.790097
0.948547 1 0.790799
0.962127 1 0.793027
0.988098 1 0.799802
1 1 0.819287
1 1 0.870375
1 1 0.954772
1 1 0.980987
1 1 0.981003
1 1 0.981018
1 1 0.981109
1 1 0.981338
1 1 0.982071
1 1 0.984253
1 1 0.990234
1 1 1
0.0113375 0.0117189 0.854887
0.0113375 0.0117189 0.854948
0.0113375 0.0117189 0.85507
0.325322 0.00923171 0.853132
0.833204 0 0.836622
1 0 0.845258
1 0.25214 0.879973
1 0.870222 0.908568
1 0.983658 0.967987
0.0113527 0.0117342 0.854292
0.0113527 0.0117342 0.854353
0.0113527 0.0117342 0.85449
0.36083 0.00813306 0.85182
0.838041 0 0.836011
1 0 0.844617
1 0.399359 0.885817
1 0.875212 0.907851
1 0.984146 0.96788
0.0113832 0.0117494 0.8533
0.011368 0.0117494 0.853391
0.011368 0.0117494 0.853529
0.40856 0.00634775 0.849699
0.840986 0 0.834943
1 0 0.843519
1 0.536904 0.885756
1 0.882612 0.906783
1 0.984924 0.967727
0.0126192 0.289158 0.849271
0.0125887 0.292653 0.849287
0.0125429 0.297154 0.849287
0.428733 0.29247 0.851926
0.849744 0.153933 0.841154
1 0.315679 0.862318
1 0.687724 0.878447
1 0.901381 0.903975
1 0.987152 0.967239
0.0111696 0.799603 0.821973
0.0112001 0.799893 0.822126
0.0112154 0.799969 0.822278
0.0110475 0.798459 0.822522
0.795865 0.797192 0.830518
0.999832 0.811627 0.838666
1 0.865415 0.854337
1 0.938201 0.897658
1 0.992966 0.96585
0.0498817 0.998093 0.800916
0.0497597 0.997467 0.801022
0.0495613 0.996429 0.801175
0.0489509 0.993255 0.801663
0.770611 0.977401 0.796139
0.96408 0.96698 0.802747
1 0.968536 0.82974
1 0.982498 0.885206
1 1 0.96199
0.699962 1 0.713283
0.715648 1 0.712825
0.738369 1 0.712276
0.791653 1 0.711559
0.87744 1 0.714031
0.964233 1 0.728328
1 1 0.769879
1 1 0.855207
1 1 0.951659
0.942855 1 0.789334
0.943969 1 0.789487
0.945739 1 0.7897
0.950835 1 0.790433
0.963882 1 0.79266
0.989029 1 0.799451
1 1 0.818998
1 1 0.870314
1 1 0.954635
1 1 0.980941
1 1 0.980957
1 1 0.980987
1 1 0.981064
1 1 0.981308
1 1 0.98204
1 1 0.984222
1 1 0.990204
1 1 1
0.0099794 0.0104067 1
0.00996414 0.0104067 1
0.00996414 0.0104067 1
0.0099794 0.0104067 1
0.734615 0 1
1 0 1
1 0 1
1 0.798856 1
1 0.978317 1
0.00996414 0.0104067 1
0.00996414 0.0104067 1
0.00996414 0.0104067 1
0.0099794 0.0104067 1
0.741939 0 1
1 0 1
1 0 1
1 0.809201 1
1 0.978897 1
0.00996414 0.0104067 1
0.00996414 0.0104067 1
0.0099794 0.0104067 1
0.00996414 0.0104067 1
0.75346 0 1
1 0 1
1 0 1
1 0.824277 1
1 0.979812 1
0.0099794 0.0104219 1
0.00996414 0.0104067 1
0.00996414 0.0104067 1
0.0099794 0.0104219 1
0.778363 0 0.999481
1 0 1
1 0 1
1 0.859724 1
1 0.982452 1
0.0116732 0.623865 1
0.0116732 0.624964 1
0.0116732 0.626764 1
0.0116579 0.629541 1
0.780179 0.628946 1
1 0.654887 1
1 0.781079 1
1 0.917494 1
1 0.989227 1
0.0482948 0.986633 1
0.0482338 0.986252 1
0.0480964 0.985489 1
0.0475471 0.982513 1
0.696757 0.968246 1
0.952453 0.954025 0.993896
1 0.958206 0.995483
1 0.976059 1
1 1 1
0.571908 1 0.994553
0.60087 1 0.993179
0.639445 1 0.991363
0.722713 1 0.987305
0.842573 1 0.982773
0.947173 1 0.982361
1 1 0.985687
1 1 0.994064
1 1 1
0.933486 1 0.951812
0.93463 1 0.951858
0.936461 1 0.951919
0.941726 1 0.952117
0.955154 1 0.952728
0.981018 1 0.954726
1 1 0.960586
1 1 0.975494
1 1 1
1 1 0.980819
1 1 0.98085
1 1 0.980865
1 1 0.980941
1 1 0.981186
1 1 0.981918
1 1 0.9841
1 1 0.990112
1 1 1
0.00981155 0.0102693 1
0.00981155 0.0102693 1
0.00981155 0.0102693 1
0.00981155 0.0102693 1
0.00981155 0.0102693 1
1 0 1
1 0 1
1 0 1
1 0.955276 1
0.00981155 0.0102693 1
0.00981155 0.0102693 1
0.00981155 0.0102693 1
0.00981155 0.0102693 1
0.00981155 0.0102693 1
1 0 1
1 0 1
1 0 1
1 0.956329 1
0.00981155 0.0102693 1
0.00981155 0.0102693 1
0.00981155 0.0102693 1
0.00981155 0.0102693 1
0.00981155 0.0102693 1
1 0 1
1 0 1
1 0 1
1 0.958007 1
0.00981155 0.0102693 1
0.00981155 0.0102693 1
0.00981155 0.0102693 1
0.00981155 0.0102693 1
0.00981155 0.0102693 1
1 0 1
1 0 1
1 0 1
1 0.962737 1
0.00981155 0.0102693 1
0.00981155 0.0102693 1
0.00981155 0.0102693 1
0.00981155 0.0102693 1
0.427893 0.00477607 1
1 0 1
1 0 1
1 0.692882 1
1 0.974411 1
0.0317693 0.895476 1
0.0318303 0.895735 1
0.0319066 0.896178 1
0.032166 0.897505 1
0.0312047 0.892683 1
0.957015 0.879774 1
1 0.900404 1
1 0.949035 1
1 0.995117 1
0.0568704 1 1
0.0568246 1 1
0.0567483 1 1
0.0565347 1 1
0.747204 1 1
0.928954 1 1
1 1 1
1 1 1
1 1 1
0.909239 1 1
0.910796 1 1
0.913252 1 1
0.920241 1 1
0.937697 1 1
0.969741 1 1
1 1 1
1 1 1
1 1 1
1 1 1
1 1 1
1 1 1
1 1 1
1 1 1
1 1 1
1 1 1
1 1 1
1 1 1
0.0103609 0.0781262 1
0.0103609 0.0781262 1
0.0103609 0.0781262 1
0.0103609 0.0781415 1
0.0103609 0.078233 1
0.0103609 0.0784314 1
1 0 1
1 0 1
1 0.735973 1
0.0103609 0.0780804 1
0.0103609 0.0780804 1
0.0103609 0.0781109 1
0.0103609 0.0781262 1
0.0103609 0.0782177 1
0.0103609 0.0784161 1
1 0 1
1 0 1
1 0.735943 1
0.0103609 0.0780346 1
0.0103609 0.0780346 1
0.0103609 0.0780499 1
0.0103609 0.0780652 1
0.0103609 0.0781262 1
0.0103609 0.0783551 1
1 0 1
1 0 1
1 0.735912 1
0.0103609 0.0778668 1
0.0103609 0.0778515 1
0.0103609 0.0778668 1
0.0103609 0.0778821 1
0.0103609 0.0779583 1
0.0101472 0.0438697 1
1 0 1
1 0 1
1 0.73579 1
0.0103456 0.0773022 1
0.0103456 0.0773022 1
0.0103456 0.0773175 1
0.0103456 0.0773327 1
0.0103456 0.0773938 1
0.475807 0.00282292 1
1 0 1
1 0 1
1 0.735393 1
0.0103304 0.0755474 1
0.0103304 0.0755474 1
0.0103304 0.0755474 1
0.0103304 0.0755779 1
0.0103304 0.0756542 1
0.850004 0 1
1 0 1
1 0.0749523 1
1 0.920531 1
0.0541543 1 1
0.0541695 1 1
0.0541695 1 1
0.0541848 1 1
0.0542458 1 1
0.833082 0.988159 1
1 0.981064 1
1 0.988708 1
1 1 1
0.76614 1 1
0.773907 1 1
0.785779 1 1
0.815473 1 1
0.873518 1 1
0.943389 1 1
0.999039 1 1
1 1 1
1 1 1
0.991897 1 1
0.992096 1 1
0.992401 1 1
0.993301 1 1
0.99588 1 1
1 1 1
1 1 1
1 1 1
1 1 1
0.0149081 0.365103 1
0.0149081 0.365103 1
0.0149081 0.365103 1
0.0149081 0.365133 1
0.0149081 0.365133 1
0.0149081 0.365194 1
0.0149081 0.365332 1
1 0.378225 1
1 0.777691 1
0.0149081 0.365103 1
0.0149081 0.365103 1
0.0149081 0.365103 1
0.0149081 0.365103 1
0.0149081 0.365133 1
0.0149081 0.365179 1
0.0149081 0.365332 1
1 0.378622 1
1 0.777737 1
0.0148928 0.365087 1
0.0148928 0.365087 1
0.0148928 0.365087 1
0.0149081 0.365103 1
0.0149081 0.365103 1
0.0149081 0.365179 1
0.0149081 0.365316 1
1 0.379217 1
1 0.777798 1
0.0148928 0.365057 1
0.0148928 0.365057 1
0.0148928 0.365057 1
0.0148928 0.365057 1
0.0148928 0.365087 1
0.0149081 0.365133 1
0.0148928 0.36527 1
1 0.381079 1
1 0.778012 1
0.0148928 0.36492 1
0.0148928 0.36492 1
0.0148928 0.36492 1
0.0148928 0.36492 1
0.0149081 0.36495 1
0.0149081 0.364996 1
0.497139 0.348623 1
1 0.386633 1
1 0.778607 1
0.0149081 0.364523 1
0.0149081 0.364523 1
0.0149081 0.364523 1
0.0149081 0.364553 1
0.0149081 0.364553 1
0.0148928 0.364599 1
0.878874 0.100298 1
1 0.403082 1
1 0.779507 1
0.0149081 0.363317 1
0.0149081 0.363317 1
0.0149081 0.363317 1
0.0149081 0.363348 1
0.0149081 0.363348 1
0.0149081 0.363394 1
1 0 1
1 0.435355 1
1 0.781201 1
0.0565957 1 1
0.0565957 1 1
0.0565957 1 1
0.0565957 1 1
0.0565957 1 1
0.0565957 1 1
0.965927 1 1
1 1 1
1 1 1
0.949264 1 1
0.94992 1 1
0.950988 1 1
0.95404 1 1
0.962173 1 1
0.979629 1 1
1 1 1
1 1 1
1 1 1
