BBLuts/BB_104_0250_LUT.cube
TITLE "Generated by Resolve"
LUT_3D_SIZE 5
0 0 0
0.147372 0 0
0.648859 0.224384 0.27071
0.796765 0.538674 0.538888
0.793393 0.750103 0.621759
0 0.145129 0
0.101686 0.148363 0
0.653147 0.259953 0.278004
0.796689 0.559426 0.536385
0.793332 0.751034 0.620539
0 0.641642 0
0 0.641352 0
0.608667 0.633722 0
0.795743 0.671244 0.462287
0.792859 0.757061 0.611093
0 0.786358 0
0 0.785534 0
0.505241 0.78027 0
0.786191 0.774716 0
0.790936 0.779004 0.614664
0.766506 0.787488 0.69485
0.766873 0.787488 0.694911
0.769512 0.787518 0.695384
0.783703 0.787701 0.699168
0.792203 0.788327 0.721096
0 0 0.141619
0.147265 0 0.143954
0.648722 0.230121 0.308873
0.796765 0.535454 0.542733
0.793545 0.750042 0.636118
0 0.126955 0.118181
0.130282 0.125231 0.117128
0.649363 0.23093 0.306706
0.796719 0.555657 0.540368
0.793469 0.750973 0.635126
0 0.639231 0
0 0.638895 0
0.613275 0.631357 0
0.795758 0.670176 0.468528
0.792996 0.757031 0.627604
0 0.786191 0
0 0.785382 0
0.524788 0.780148 0
0.786282 0.77467 0
0.790951 0.778988 0.614572
0.766552 0.787488 0.69485
0.766934 0.787488 0.694926
0.769558 0.787518 0.695369
0.783719 0.787701 0.699168
0.792203 0.788327 0.721096
0.471214 0.42182 0.622629
0.471458 0.422065 0.622766
0.657053 0.438117 0.621592
0.797314 0.548104 0.645502
0.794644 0.749599 0.694377
0.469169 0.41976 0.621515
0.469444 0.42005 0.621668
0.66244 0.438331 0.620584
0.797269 0.554314 0.643427
0.794568 0.750576 0.69395
0 0.61059 0.593606
0 0.610834 0.593759
0.610101 0.604837 0.595361
0.796353 0.658061 0.624613
0.794064 0.756863 0.690867
0 0.785367 0
0 0.784588 0
0.515145 0.779477 0
0.783017 0.77409 0
0.791623 0.779156 0.669367
0.766979 0.787488 0.69482
0.767346 0.787488 0.694881
0.769924 0.787518 0.695338
0.783856 0.787701 0.699123
0.792203 0.788327 0.721096
0.669322 0.642176 0.785412
0.669322 0.642176 0.785412
0.669322 0.642176 0.785412
0.803326 0.650614 0.786572
0.799878 0.73547 0.773129
0.669322 0.642176 0.785412
0.669322 0.642176 0.785412
0.669322 0.642176 0.785412
0.803326 0.650614 0.786572
0.799771 0.73727 0.772869
0.669322 0.642176 0.785412
0.669322 0.642176 0.785412
0.670146 0.642191 0.785428
0.803326 0.650614 0.786572
0.799054 0.748425 0.771298
0 0.789639 0.763165
0 0.788495 0.76318
0.507362 0.78024 0.761959
0.778012 0.772763 0.763195
0.796094 0.780041 0.765499
0.768215 0.789044 0.74699
0.768551 0.789044 0.747005
0.770932 0.789059 0.747158
0.783978 0.789227 0.748333
0.794171 0.78967 0.755535
0.669245 0.642893 0.785412
0.669245 0.642893 0.785412
0.669245 0.642893 0.785412
0.669245 0.642893 0.785412
0.803113 0.66685 0.786419
0.669245 0.642893 0.785412
0.669245 0.642893 0.785412
0.669245 0.642893 0.785412
0.669245 0.642893 0.785412
0.803113 0.66688 0.786419
0.669245 0.642893 0.785412
0.669245 0.642893 0.785412
0.669245 0.642893 0.785412
0.670359 0.642817 0.785412
0.803098 0.667018 0.786404
0.669245 0.642893 0.785412
0.669245 0.642893 0.785412
0.669245 0.642893 0.785412
0.803326 0.650614 0.786572
0.803098 0.667491 0.786404
0.729641 0.790845 0.780972
0.731075 0.790845 0.780987
0.740444 0.790875 0.781048
0.775998 0.791104 0.78143
0.796582 0.791333 0.781781
