BBLuts/BB_102_0190_LUT.cube
TITLE "Generated by Resolve"
LUT_3D_SIZE 5
0 0 0
0.172229 0 0
0.709804 0 0
0.901381 0.551232 0.0436103
0.875837 0.97145 0.644297
0 0.197925 0
0.118425 0.201434 0
0.711574 0.0803998 0
0.89633 0.607767 0.0104982
0.875807 0.971923 0.644038
0 0.769268 0
0 0.769024 0
0.607431 0.766705 0
0.87924 0.821378 0
0.875364 0.978195 0.640314
0.48426 1 0.131914
0.48426 1 0.131914
0.643519 1 0.146731
0.86389 1 0.283665
0.872847 1 0.670893
0.838331 1 0.764004
0.838331 1 0.764004
0.838331 1 0.764004
0.856031 1 0.766903
0.87129 1 0.795529
0 0 0.139452
0.142763 0 0.135729
0.712428 0 0.121614
0.904692 0.540261 0.190372
0.875837 0.971435 0.644312
0 0.160098 0.125505
0.125383 0.158251 0.121172
0.711879 0 0.109926
0.900526 0.601755 0.175082
0.875807 0.971908 0.644038
0 0.764752 0
0 0.764477 0
0.611917 0.762234 0
0.881132 0.821591 0.00924697
0.875364 0.978195 0.640314
0.49247 1 0.131533
0.49247 1 0.131533
0.645624 1 0.146242
0.863966 1 0.283436
0.872847 1 0.670893
0.838376 1 0.764004
0.838376 1 0.764004
0.838376 1 0.764004
0.856062 1 0.766888
0.87129 1 0.795529
0 0 0.650935
0 0 0.651026
0.699657 0 0.634928
0.920943 0.254429 0.652949
0.875624 0.968811 0.737758
0 0 0.649882
0 0 0.649943
0.7084 0 0.633234
0.911742 0.423728 0.651743
0.875578 0.969314 0.737621
0 0.713909 0.608942
0 0.71397 0.608957
0.589563 0.714 0.613748
0.888212 0.798856 0.630686
0.875105 0.975967 0.735866
0.487587 1 0.504677
0.487587 1 0.504677
0.635996 1 0.50959
0.858946 1 0.55491
0.872694 1 0.717037
0.838911 1 0.763928
0.838911 1 0.763928
0.838911 1 0.763928
0.856245 1 0.766827
0.87129 1 0.795499
0 0 0.88687
0 0 0.88687
0 0 0.88687
0.927932 0 0.870726
0.877424 0.93138 0.867887
0 0 0.88687
0 0 0.88687
0 0 0.88687
0.927932 0 0.870726
0.877317 0.932799 0.867781
0 0 0.88687
0 0 0.88687
0 0 0.88687
0.927932 0 0.870726
0.876234 0.948211 0.866529
0 1 0.850156
0 1 0.850156
0 1 0.850156
0.840131 0.991104 0.85832
0.87219 1 0.861189
0.834363 1 0.840696
0.834363 1 0.840696
0.834363 1 0.840696
0.850996 1 0.841474
0.870939 1 0.849638
0 0.277974 0.887709
0 0.277974 0.887709
0 0.277974 0.887709
0 0.278035 0.887709
0.894453 0.675975 0.886198
0 0.277974 0.887709
0 0.277974 0.887709
0 0.277974 0.887709
0 0.278035 0.887709
0.894453 0.675975 0.886198
0 0.277974 0.887709
0 0.277974 0.887709
0 0.277974 0.887709
0 0.278035 0.887709
0.894453 0.675975 0.886198
0 0.276738 0.887724
0 0.276738 0.887724
0 0.276738 0.887724
0 0.276631 0.887739
0.894194 0.680095 0.886213
0.768505 1 0.884611
0.768505 1 0.884611
0.768505 1 0.884611
0.768658 1 0.884611
0.87068 1 0.885191
