BBLuts/BB_101_0220_LUT.cube
TITLE "Generated by Resolve"
LUT_3D_SIZE 33
0.0195621 0.0195621 0.0195621
0.0195621 0.0195621 0.0195621
0.0195621 0.0195621 0.0195621
0.0195621 0.0195621 0.0195621
0.0233005 0.0190585 0.0190433
0.0808576 0.0191196 0.0191653
0.143465 0.0191348 0.0192721
0.190539 0.018967 0.0191348
0.239384 0.0184634 0.018677
0.297993 0.0172732 0.0175174
0.368002 0.0149996 0.0152743
0.445945 0.0114595 0.0117342
0.529595 0.00672923 0.00697337
0.597314 0.00131228 0.00154116
0.661265 0 0
0.730053 0 0
0.797803 0 0
0.861585 0 0
0.917067 0 0
0.961212 0 0
0.972259 0 0
0.973129 0 0
0.994034 0.318013 0.0296635
0.999329 0.529244 0.0885634
1 0.634272 0.153536
1 0.714855 0.222568
1 0.783886 0.301946
1 0.834653 0.406241
1 0.8701 0.533074
1 0.896284 0.618143
0.999329 0.915282 0.691096
0.99855 0.930129 0.760937
0.998123 0.941894 0.819608
0.0195621 0.0195621 0.0195621
0.0195621 0.0195621 0.0195621
0.0195621 0.0195621 0.0195621
0.0195621 0.0195621 0.0195621
0.0238956 0.0190585 0.0190585
0.0925765 0.0191348 0.0191958
0.147433 0.0191348 0.0192569
0.193881 0.0189364 0.0191196
0.244862 0.0183871 0.0186007
0.30457 0.0170901 0.0173495
0.375051 0.014725 0.0149996
0.451698 0.0111849 0.0114443
0.531075 0.00662242 0.00686656
0.598444 0.0011902 0.00143435
0.662348 0 0
0.730694 0 0
0.798321 0 0
0.861585 0 0
0.917021 0 0
0.960922 0 0
0.972229 0 0
0.974472 0.0128481 0
0.995529 0.352361 0.0323339
0.999252 0.542916 0.0662852
1 0.63946 0.148531
1 0.718181 0.220066
1 0.785595 0.301122
1 0.835462 0.406104
1 0.870512 0.532769
1 0.896498 0.618036
0.999329 0.915373 0.691035
0.99855 0.93019 0.760906
0.998123 0.941909 0.819593
0.0195621 0.0195621 0.0195621
0.0195621 0.0195621 0.0195621
0.0195621 0.0195621 0.0195621
0.0195621 0.0195621 0.0195621
0.0240787 0.0192569 0.0192569
0.0987259 0.0191348 0.0192111
0.147951 0.0191348 0.0192569
0.196506 0.0189212 0.0191043
0.250034 0.0182956 0.0185245
0.309163 0.016968 0.0172274
0.378058 0.0146029 0.0148775
0.45304 0.0111086 0.0113832
0.533043 0.00648508 0.00674449
0.599863 0.00105287 0.00129702
0.663447 0 0
0.731624 0 0
0.798611 0 0
0.861814 0 0
0.916945 0 0
0.960601 0 0
0.972198 0 0
0.979217 0.09131 0.00143435
0.996704 0.386221 0.0343175
0.999222 0.554971 0.0488594
1 0.64445 0.143954
1 0.721141 0.217838
1 0.787152 0.300374
1 0.83621 0.405982
1 0.870878 0.532464
1 0.896681 0.617914
0.999329 0.915496 0.690959
0.998566 0.930251 0.760861
0.998123 0.941939 0.819577
0.019379 0.0202029 0.019379
0.0193942 0.0202945 0.019379
0.0193942 0.0207065 0.019379
0.0199283 0.0275578 0.0195315
0.0451972 0.0331579 0.0195468
0.100694 0.0215 0.0196689
0.145846 0.0214084 0.0197147
0.194217 0.0212558 0.0195621
0.248676 0.0202792 0.0189822
0.310445 0.0170443 0.0173037
0.380896 0.0144961 0.0147555
0.455497 0.0109865 0.0112459
0.535439 0.00633249 0.00657664
0.601297 0.000915541 0.00114443
0.664561 0 0
0.732296 0 0
0.799146 0 0
0.862013 0 0
0.916838 0 0
0.960281 0 0
0.972183 0 0
0.985428 0.178393 0.0133669
0.997391 0.41236 0.0353857
0.999207 0.56466 0.0365911
1 0.648753 0.140002
1 0.723796 0.215824
1 0.788617 0.299672
1 0.836942 0.405829
1 0.87126 0.532174
1 0.89688 0.617792
0.999329 0.915587 0.690898
0.998566 0.930297 0.76083
0.998123 0.941985 0.819562
0.0204471 0.0813611 0.0195773
0.0205081 0.0847181 0.0195926
0.0205692 0.0879835 0.0196078
0.0206149 0.0911879 0.0196078
0.0206455 0.0925154 0.0196231
0.0892348 0.0919051 0.0196841
0.13994 0.0896162 0.0196689
0.190509 0.0838636 0.0194858
0.246967 0.0705425 0.0188602
0.311055 0.0257115 0.0175631
0.382849 0.0193942 0.0151217
0.458473 0.0111849 0.0114443
0.537713 0.00616464 0.00642405
0.602762 0.000762951 0.000991836
0.66598 0 0
0.733242 0 0
0.79968 0 0
0.862226 0 0
0.916732 0 0
0.959915 0 0
0.972152 0 0
0.988937 0.229435 0.0201114
0.997833 0.435187 0.0359808
0.999329 0.574334 0.0366522
1 0.6533 0.134829
1 0.726528 0.21355
1 0.790005 0.299016
1 0.837644 0.405707
1 0.871641 0.531884
1 0.897078 0.617685
0.999329 0.915694 0.690837
0.998566 0.930358 0.760784
0.998123 0.942016 0.819532
0.0210422 0.119142 0.0196536
0.0210727 0.121843 0.0196384
0.0211185 0.124636 0.0196536
0.021149 0.126802 0.0196384
0.0211643 0.127916 0.0196384
0.0663462 0.128038 0.0197147
0.12932 0.127352 0.0197299
0.184787 0.125048 0.0196231
0.244358 0.119875 0.0191043
0.311238 0.109148 0.017731
0.3841 0.0882734 0.015198
0.460624 0.0263828 0.0113832
0.540413 0.0154879 0.00666819
0.604593 0.00137331 0.00129702
0.667308 0 0
0.734066 0 0
0.800275 0 0
0.862455 0 0
0.916609 0 0
0.959533 0 0
0.973892 0.0212406 0
0.991577 0.271733 0.0251011
0.998108 0.455497 0.0362402
0.999451 0.581704 0.0367132
1 0.657557 0.129854
1 0.729335 0.211032
1 0.791562 0.298268
1 0.838315 0.405585
1 0.872007 0.531609
1 0.897276 0.617578
0.999329 0.915801 0.690761
0.998566 0.930419 0.760754
0.998123 0.942031 0.819516
0.0214542 0.158831 0.019501
0.0214694 0.16112 0.0194705
0.0214847 0.163348 0.0194553
0.0214847 0.164706 0.01944
0.0214847 0.165682 0.01944
0.0214847 0.166003 0.01944
0.105867 0.166094 0.0196231
0.17406 0.165225 0.0196994
0.238193 0.162463 0.019379
0.308629 0.156283 0.0182498
0.384207 0.144671 0.0159762
0.464698 0.125994 0.0123903
0.54435 0.0927901 0.00740063
0.606729 0.0210422 0.00115969
0.669551 0.00573739 0
0.735576 0 0
0.800732 0 0
0.86247 0 0
0.916259 0 0
0.95906 0 0
0.978531 0.0967117 0.0021973
0.993851 0.314229 0.0293278
0.998337 0.477913 0.0363928
0.999603 0.588693 0.03682
1 0.662211 0.124346
1 0.732509 0.208194
1 0.793408 0.297368
1 0.839277 0.405478
1 0.872435 0.531289
1 0.89749 0.617441
0.999344 0.915923 0.690684
0.998566 0.93048 0.760708
0.998123 0.942077 0.819501
0.0214694 0.204364 0.0188602
0.0214542 0.206378 0.0188144
0.0214389 0.207858 0.0187839
0.0214389 0.209018 0.0187686
0.0214237 0.20972 0.0187533
0.0214237 0.21033 0.0187381
0.0519265 0.210605 0.0189212
0.148379 0.210742 0.0193637
0.225757 0.209369 0.0194553
0.30103 0.205463 0.0187533
0.380957 0.19707 0.016907
0.466392 0.184527 0.0137789
0.548775 0.166476 0.00955215
0.611643 0.13846 0.00448615
0.673426 0.0836347 0
0.73753 0.0167086 0
0.802426 0.00679026 0
0.863096 0 0
0.91603 0 0
0.961456 0.048188 0
0.985672 0.197879 0.0160525
0.995972 0.364126 0.0330968
0.998596 0.50428 0.0364843
0.999847 0.598337 0.0370336
1 0.668894 0.113146
1 0.73669 0.204395
1 0.79588 0.296178
1 0.840574 0.40531
1 0.873152 0.53077
1 0.897826 0.617258
0.999344 0.916091 0.690578
0.998566 0.930571 0.760632
0.998123 0.942123 0.819455
0.0205997 0.258122 0.0172274
0.0205539 0.259648 0.0171511
0.0205234 0.260685 0.0171054
0.0205081 0.261509 0.0170748
0.0204776 0.262119 0.0170443
0.0204623 0.26276 0.0170291
0.0204623 0.263035 0.0170138
0.100008 0.263615 0.017792
0.198001 0.263081 0.0187533
0.284321 0.260304 0.0188449
0.371374 0.254673 0.017731
0.463828 0.245548 0.0153201
0.551781 0.232883 0.0119478
0.616571 0.214969 0.00819409
0.680095 0.191226 0.00373846
0.745159 0.16025 0
0.808057 0.117601 0
0.86537 0.0358892 0
0.918685 0.0482185 0
0.968475 0.167254 0.0105592
0.991592 0.294636 0.027512
0.997528 0.418311 0.0355688
0.998871 0.5337 0.0365301
1 0.611322 0.0372015
1 0.677775 0.0954604
1 0.742657 0.198657
1 0.79913 0.294621
1 0.842329 0.405097
1 0.874144 0.530068
1 0.89836 0.616953
0.999344 0.916335 0.69041
0.998566 0.930709 0.760555
0.998123 0.942199 0.819409
0.0182956 0.319524 0.0140078
0.018265 0.320241 0.013962
0.0182498 0.320699 0.0139467
0.0182193 0.321065 0.0139162
0.018204 0.321599 0.0138705
0.018204 0.321691 0.0138705
0.018204 0.321614 0.0138705
0.0182193 0.321248 0.013901
0.138582 0.322454 0.0160678
0.253132 0.322072 0.0177768
0.352361 0.319036 0.0178225
0.45359 0.312734 0.0163577
0.550866 0.303212 0.0139162
0.62002 0.290257 0.0114443
0.685908 0.275715 0.00888075
0.751904 0.260105 0.00709544
0.816251 0.246342 0.00741588
0.87715 0.238544 0.010544
0.930755 0.252644 0.0169833
0.975647 0.304006 0.0266728
0.99527 0.384482 0.0342412
0.998367 0.479896 0.036408
0.999222 0.56669 0.0365911
1 0.627771 0.0372473
1 0.689479 0.0706188
1 0.750546 0.190784
1 0.803708 0.292439
1 0.844678 0.404822
1 0.875486 0.529107
1 0.899092 0.616556
0.999359 0.916762 0.690105
0.998581 0.930907 0.760403
0.998123 0.942306 0.819333
0.0147402 0.387488 0.00941482
0.0147097 0.38819 0.00936904
0.0146792 0.388632 0.00932326
0.0146639 0.388998 0.009308
0.0146487 0.389258 0.00927749
0.0146334 0.389441 0.00927749
0.0146334 0.389548 0.00926223
0.0146181 0.389776 0.00924697
0.0146334 0.389349 0.00927749
0.18233 0.392309 0.0139925
0.317189 0.39266 0.0164187
0.432013 0.389395 0.0163729
0.542977 0.382925 0.0150912
0.620142 0.373907 0.013901
0.689982 0.364584 0.0128481
0.757809 0.356054 0.0128634
0.822293 0.351247 0.0151369
0.882795 0.35346 0.0201114
0.935317 0.371252 0.0267491
0.977432 0.41117 0.0332952
0.996735 0.471946 0.0363622
0.998917 0.539086 0.0365301
0.999802 0.59646 0.0369879
1 0.648753 0.0370489
1 0.704128 0.037583
1 0.760739 0.18146
1 0.809705 0.289601
1 0.847913 0.404547
1 0.877272 0.52781
1 0.900099 0.616007
0.999374 0.917342 0.689723
0.998581 0.931243 0.760159
0.998138 0.942458 0.819242
0.0102235 0.46865 0.00361639
0.0102083 0.468986 0.00358587
0.010193 0.469444 0.00355535
0.0101472 0.470207 0.00350958
0.0101472 0.470512 0.00349432
0.0101167 0.470741 0.00347906
0.0101167 0.470954 0.0034638
0.0101167 0.471061 0.00344854
0.0101167 0.470954 0.0034638
0.0568399 0.472465 0.00529488
0.24007 0.477394 0.0122988
0.392538 0.477958 0.0150912
0.523873 0.474723 0.0150759
0.614237 0.469444 0.0148623
0.689204 0.462867 0.0147402
0.760342 0.457816 0.01561
0.825925 0.457847 0.0186618
0.88539 0.464363 0.0238041
0.935775 0.482063 0.0294499
0.97583 0.511589 0.0340429
0.997177 0.549767 0.0364996
0.999619 0.589303 0.0368353
1 0.628611 0.0372473
1 0.674083 0.0364843
1 0.723232 0.0347753
1 0.773236 0.170901
1 0.817365 0.286046
1 0.852216 0.404318
1 0.879774 0.527428
1 0.901427 0.615274
0.999405 0.918135 0.689189
0.998596 0.931716 0.759808
0.998138 0.942718 0.819059
0.00723278 0.553765 0
0.00723278 0.553918 0
0.00723278 0.554223 0
0.00721752 0.554482 0
0.00721752 0.554696 0
0.00721752 0.555215 0
0.00721752 0.555413 0
0.00721752 0.555581 0
0.00721752 0.555718 0
0.00720226 0.55581 0
0.114534 0.559213 0.00450141
0.312322 0.56408 0.0127108
0.48571 0.563973 0.0148318
0.600031 0.561761 0.0150301
0.68098 0.558572 0.0151064
0.757107 0.556008 0.0158083
0.825589 0.555947 0.018555
0.885237 0.56054 0.0235142
0.934096 0.571633 0.0290227
0.972839 0.58706 0.0338445
0.997848 0.606561 0.0370794
1 0.632563 0.037232
1 0.665354 0.0367132
1 0.703609 0.035523
1 0.745937 0.0338903
1 0.788846 0.155322
1 0.826688 0.281865
1 0.85771 0.404257
1 0.883055 0.528222
1 0.903288 0.614359
0.99942 0.919173 0.688487
0.998611 0.932326 0.75935
0.998154 0.943099 0.818799
0.00822461 0.620066 0
0.00822461 0.620111 0
0.00822461 0.620279 0
0.00823987 0.620447 0
0.00823987 0.620584 0
0.00823987 0.620706 0
0.00823987 0.620844 0
0.00823987 0.620996 0
0.00825513 0.621347 0
0.00825513 0.621408 0
0.00825513 0.621332 0
0.179797 0.625422 0.00793469
0.408911 0.628061 0.0150912
0.576715 0.626566 0.0153048
0.664942 0.624582 0.015198
0.74757 0.622629 0.0157626
0.821408 0.622461 0.0187381
0.883314 0.62501 0.0239261
0.931716 0.631617 0.0293431
0.968887 0.642985 0.0337072
0.997391 0.658991 0.0366827
1 0.679606 0.0364538
1 0.705776 0.0354467
1 0.737041 0.0342412
1 0.77142 0.0330358
1 0.806348 0.135775
1 0.837858 0.276707
1 0.864469 0.404501
1 0.887236 0.529442
1 0.90573 0.61323
0.999466 0.920653 0.68751
0.998627 0.933165 0.75874
0.998154 0.943587 0.818463
0.0105592 0.684276 0
0.0105592 0.684276 0
0.0105592 0.684352 0
0.0105745 0.684474 0
0.0105745 0.68455 0
0.0105745 0.684611 0
0.0105898 0.684688 0
0.0105898 0.684764 0
0.0105898 0.684825 0
0.0105898 0.684794 0
0.0105898 0.684916 0
0.0105745 0.68455 0
0.271763 0.689769 0.0118563
0.524468 0.690196 0.0153506
0.641184 0.688396 0.0155642
0.731182 0.686534 0.0158999
0.811414 0.685695 0.0183566
0.876814 0.687327 0.0231174
0.926329 0.692042 0.0281376
0.962692 0.70042 0.0319219
0.991516 0.712795 0.0345006
0.999725 0.728618 0.0346685
1 0.748684 0.0337987
1 0.772534 0.0330053
1 0.798779 0.032517
1 0.825345 0.10959
1 0.850446 0.272312
1 0.87274 0.405341
1 0.892348 0.531182
1 0.908827 0.61323
0.999527 0.922606 0.686259
0.998657 0.93434 0.75787
0.998169 0.944228 0.81799
0.0153658 0.748577 0.0016022
0.0153658 0.748577 0.0016022
0.0153658 0.748577 0.0016022
0.0153658 0.748623 0.0016022
0.0153811 0.748653 0.00161746
0.0153811 0.748684 0.00161746
0.0153811 0.748699 0.00161746
0.0153811 0.748714 0.00161746
0.0153811 0.748699 0.00161746
0.0153658 0.748608 0.0016022
0.0153353 0.748379 0.00158694
0.0153201 0.748196 0.00155642
0.0911421 0.749401 0.00588998
0.407889 0.753765 0.018204
0.609751 0.752483 0.018616
0.708721 0.75021 0.0180972
0.79588 0.748653 0.0190433
0.865614 0.748959 0.0225223
0.917067 0.751919 0.0266728
0.954376 0.757443 0.0299077
0.982589 0.765881 0.0320745
0.998581 0.777249 0.032929
1 0.791241 0.0327611
1 0.807523 0.0324407
1 0.825772 0.0324102
1 0.845029 0.0723888
1 0.864179 0.268666
1 0.882246 0.408194
1 0.898528 0.533806
1 0.912612 0.614878
0.999573 0.925109 0.685557
0.998703 0.935897 0.756725
0.998184 0.945159 0.817319
0.0268864 0.810864 0.0113832
0.0268864 0.810864 0.0113832
0.0268864 0.810864 0.0113832
0.0268864 0.810864 0.0113832
0.0268864 0.810849 0.0113832
0.0268864 0.810849 0.0113832
0.0268864 0.810803 0.011368
0.0268711 0.810758 0.011368
0.0268406 0.810651 0.0113375
0.0267796 0.810437 0.0112917
0.0267185 0.810117 0.0112306
0.0265812 0.809552 0.0111086
0.0264134 0.808865 0.010956
0.284993 0.813642 0.0240787
0.568597 0.81297 0.0262913
0.683314 0.810254 0.0243534
0.776959 0.807309 0.0229038
0.851148 0.806088 0.024155
0.905165 0.80676 0.0268711
0.944183 0.8094 0.0293584
0.973449 0.813855 0.0311589
0.994781 0.820462 0.0322881
1 0.829023 0.0325628
1 0.839261 0.0325475
1 0.851225 0.0327459
1 0.864454 0.0360266
1 0.878828 0.268879
1 0.892653 0.413642
1 0.905516 0.538262
1 0.917296 0.617151
0.999619 0.928176 0.685695
0.998749 0.937881 0.75552
0.998215 0.94638 0.816403
0.0412757 0.862272 0.0243687
0.0412757 0.862272 0.0243687
0.0412757 0.862272 0.0243687
0.0412757 0.862272 0.0243687
0.0412757 0.862272 0.0243687
0.0412604 0.862242 0.0243687
0.0412451 0.862165 0.0243381
0.0411994 0.862028 0.0242924
0.0411383 0.86183 0.0242466
0.0410315 0.861509 0.024155
0.0408942 0.861036 0.0240177
0.0406653 0.860304 0.0238041
0.0403449 0.859251 0.0235142
0.188983 0.861448 0.0310521
0.505501 0.862409 0.0365911
0.661738 0.858335 0.0323949
0.760998 0.854154 0.0285496
0.837751 0.85153 0.0275883
0.893263 0.850629 0.028748
0.934081 0.851026 0.0303807
0.964584 0.852796 0.031693
0.986877 0.85594 0.0325933
1 0.860517 0.0330663
1 0.866712 0.0332494
1 0.874327 0.0333257
1 0.883452 0.0614328
1 0.893523 0.278553
1 0.903578 0.423117
1 0.913176 0.544717
1 0.922744 0.620691
0.999649 0.931914 0.688121
0.99881 0.940307 0.75433
0.998245 0.947967 0.815274
0.053727 0.900832 0.0357824
0.053727 0.900832 0.0357824
0.053727 0.900832 0.0357824
0.053727 0.900832 0.0357824
0.053727 0.900832 0.0357824
0.053727 0.900832 0.0357824
0.053727 0.900832 0.0357824
0.0536812 0.900694 0.0357519
0.0535897 0.900435 0.0356603
0.0534524 0.899992 0.0355383
0.053254 0.899382 0.0353552
0.0529793 0.898543 0.0350958
0.0525978 0.897414 0.0347601
0.139223 0.897887 0.0386511
0.451575 0.899321 0.0455787
0.649729 0.894392 0.0393835
0.751202 0.889387 0.0338293
0.828244 0.885786 0.0312352
0.883604 0.88394 0.0311437
0.924971 0.883207 0.0319677
0.95639 0.883375 0.0327764
0.979568 0.884657 0.0333867
0.997467 0.886976 0.0337682
1 0.890501 0.0339361
1 0.895155 0.0339361
1 0.901106 0.127047
1 0.907698 0.300801
1 0.914351 0.437659
1 0.921447 0.553796
1 0.928847 0.625605
0.999649 0.936233 0.691936
0.998825 0.943221 0.756634
0.998291 0.94992 0.813916
0.0632486 0.930327 0.0445258
0.0632486 0.930327 0.0445258
0.0632486 0.930327 0.0445258
0.0632486 0.930327 0.0445258
0.0632486 0.930327 0.0445258
0.0632486 0.930327 0.0445258
0.0632486 0.930327 0.0445258
0.0632486 0.930327 0.0445258
0.0632181 0.930205 0.0444953
0.0630655 0.929732 0.044358
0.0628214 0.928954 0.0441291
0.0625162 0.928023 0.0438544
0.0621653 0.926879 0.043534
0.149752 0.927123 0.0469978
0.46804 0.927565 0.0517891
0.65008 0.921889 0.0441596
0.748577 0.916564 0.0376593
0.822843 0.912566 0.0340887
0.8766 0.910124 0.0331273
0.917342 0.908751 0.033341
0.94876 0.908095 0.0337987
0.972671 0.908125 0.034165
0.991409 0.908949 0.0344091
1 0.910582 0.0345312
1 0.913069 0.0344701
1 0.916533 0.182025
1 0.920607 0.331518
1 0.925048 0.460487
1 0.929946 0.565637
1 0.935424 0.632425
0.999649 0.941009 0.697124
0.998825 0.946609 0.760357
0.998322 0.952285 0.81532
0.0697185 0.951736 0.0504158
0.0697185 0.951736 0.0504158
0.0697185 0.951736 0.0504158
0.0697185 0.951736 0.0504158
0.0697185 0.951736 0.0504158
0.0697185 0.951736 0.0504158
0.0697185 0.951736 0.0504158
0.0697185 0.951736 0.0504158
0.0697185 0.951736 0.0504158
0.0697185 0.951705 0.0504005
0.0694743 0.950896 0.0501869
0.0691691 0.949828 0.0499123
0.0688029 0.948592 0.0495918
0.100557 0.947738 0.0505531
0.531838 0.94757 0.0542458
0.664744 0.941787 0.0462501
0.754772 0.936416 0.0395361
0.822919 0.932494 0.0357824
0.873304 0.9299 0.0344549
0.912398 0.928176 0.0343175
0.942855 0.927108 0.0345312
0.966751 0.926528 0.0347601
0.985977 0.926452 0.0349126
1 0.927047 0.0349737
1 0.928328 0.041886
1 0.930251 0.239002
1 0.932555 0.373236
1 0.935256 0.49044
1 0.93843 0.581064
1 0.942092 0.641474
0.999619 0.94612 0.704173
0.99881 0.950408 0.76527
0.998337 0.955032 0.818112
0.0741436 0.967742 0.0543984
0.0741436 0.967742 0.0543984
0.0741436 0.967742 0.0543984
0.0741436 0.967742 0.0543984
0.0741436 0.967742 0.0543984
0.0741436 0.967742 0.0543984
0.0741436 0.967742 0.0543984
0.0741436 0.967742 0.0543984
0.0741436 0.967742 0.0543984
0.0741436 0.967742 0.0543984
0.0741436 0.967742 0.0543984
0.0738689 0.966705 0.0541543
0.0795605 0.965499 0.0541695
0.29163 0.966766 0.0600595
0.59324 0.96199 0.0535897
0.691112 0.956512 0.0460517
0.767834 0.951629 0.0400092
0.827451 0.948028 0.0366369
0.873167 0.945556 0.0352636
0.909773 0.943816 0.0349584
0.938628 0.942535 0.0350195
0.961837 0.941695 0.0351568
0.980957 0.941192 0.0352483
0.996124 0.941131 0.0392462
1 0.941543 0.183856
1 0.942184 0.315496
1 0.943191 0.424994
1 0.944533 0.525216
1 0.946365 0.596262
1 0.948669 0.654002
0.999557 0.95137 0.713283
0.998795 0.954513 0.771756
0.998337 0.958068 0.821973
0.0843977 0.979721 0.0574044
0.0843977 0.979721 0.0574044
0.0843977 0.979721 0.0574044
0.0843977 0.979721 0.0574044
0.0843977 0.979721 0.0574044
0.0843977 0.979721 0.0574044
0.0843977 0.979721 0.0574044
0.0843977 0.979721 0.0574044
0.0843977 0.979721 0.0574044
0.0843977 0.979721 0.0574044
0.0843977 0.979721 0.0574044
0.0843977 0.979721 0.0574044
0.0869306 0.978515 0.0572366
0.526604 0.97763 0.0590524
0.645518 0.972198 0.0510414
0.724071 0.967269 0.0443122
0.786816 0.963165 0.0395056
0.8365 0.960128 0.0368353
0.87657 0.957885 0.0356451
0.90956 0.956176 0.0352941
0.936233 0.954925 0.0363775
0.958419 0.953902 0.0382544
0.976898 0.953155 0.0404669
0.991897 0.952697 0.16585
1 0.952346 0.28983
1 0.952178 0.391913
1 0.952209 0.486275
1 0.952682 0.563073
1 0.953597 0.616693
1 0.95494 0.670085
0.999451 0.956634 0.725612
0.998749 0.958724 0.779873
0.998352 0.961303 0.827008
0.488289 0.989029 0.0659953
0.488289 0.989029 0.0659953
0.488289 0.989029 0.0659953
0.488289 0.989029 0.0659953
0.488273 0.989029 0.0659953
0.488273 0.989029 0.0659953
0.488273 0.989029 0.0659953
0.488273 0.989029 0.0659953
0.488258 0.989029 0.0660105
0.488228 0.989029 0.0660105
0.488228 0.989029 0.0660105
0.488182 0.989029 0.0660105
0.488151 0.989029 0.0660105
0.614969 0.984176 0.0585946
0.697826 0.979126 0.0515297
0.759014 0.975036 0.0463722
0.808621 0.971832 0.0431067
0.848768 0.969375 0.0413672
0.882994 0.967453 0.0406653
0.91191 0.965911 0.0406348
0.935882 0.96466 0.10634
0.95639 0.963607 0.18381
0.973892 0.962676 0.243198
0.988144 0.961852 0.312169
0.999664 0.961059 0.390005
1 0.960388 0.470771
1 0.959899 0.543099
1 0.959808 0.596185
1 0.960098 0.641871
1 0.960662 0.69041
0.999283 0.961578 0.741131
0.998688 0.96286 0.790753
0.998352 0.964584 0.833219
0.68986 0.98764 0.297688
0.68986 0.98764 0.297688
0.68986 0.98764 0.297688
0.68986 0.98764 0.297688
0.68986 0.98764 0.297688
0.68986 0.98764 0.297688
0.68986 0.98764 0.297688
0.68986 0.98764 0.297688
0.68986 0.98764 0.297688
0.689845 0.98764 0.297704
0.689845 0.98764 0.297704
0.689845 0.98764 0.297704
0.689845 0.98764 0.297704
0.68983 0.98764 0.297704
0.7411 0.984131 0.297276
0.792096 0.980682 0.29955
0.830427 0.97821 0.304662
0.862791 0.976226 0.312215
0.89131 0.974533 0.323201
0.915648 0.973129 0.337407
0.936736 0.971893 0.355596
0.955261 0.970748 0.378363
0.971237 0.969726 0.40621
0.98471 0.968765 0.43949
0.995834 0.967849 0.490211
1 0.96698 0.543893
1 0.966232 0.589914
1 0.965789 0.629343
1 0.965576 0.671183
0.99971 0.965637 0.7149
0.999084 0.965972 0.760189
0.998611 0.96669 0.803525
0.998337 0.967819 0.841199
0.786633 0.983764 0.47454
0.786633 0.983764 0.47454
0.786633 0.983764 0.47454
0.786633 0.983764 0.47454
0.786633 0.983764 0.47454
0.786633 0.983764 0.47454
0.786633 0.983764 0.47454
0.786633 0.983764 0.47454
0.786633 0.983764 0.47454
0.786633 0.983764 0.47454
0.786633 0.983764 0.47454
0.786633 0.983764 0.47454
0.786618 0.983764 0.47454
0.786618 0.983764 0.47454
0.786618 0.983764 0.47454
0.817563 0.982773 0.476036
0.850538 0.981765 0.479942
0.877134 0.980255 0.484825
0.900145 0.978912 0.491081
0.920378 0.977722 0.499428
0.93846 0.976608 0.509697
0.954971 0.975555 0.522362
0.96939 0.974563 0.537591
0.981872 0.973663 0.555932
0.992523 0.972824 0.576516
1 0.971984 0.600015
1 0.971191 0.630533
1 0.970535 0.665537
0.999939 0.970062 0.703471
0.999359 0.969802 0.742824
0.998871 0.969833 0.781903
0.99852 0.970184 0.818463
0.998322 0.970855 0.850599
0.846113 0.980758 0.591257
0.846113 0.980758 0.591257
0.846113 0.980758 0.591257
0.846113 0.980758 0.591257
0.846113 0.980758 0.591257
0.846113 0.980758 0.591257
0.846113 0.980758 0.591257
0.846113 0.980758 0.591257
0.846098 0.980758 0.591257
0.846098 0.980758 0.591257
0.846098 0.980758 0.591257
0.846098 0.980758 0.591257
0.846098 0.980758 0.591257
0.846098 0.980758 0.591257
0.846098 0.980758 0.591257
0.846098 0.980758 0.591257
0.86714 0.980377 0.592432
0.890303 0.980072 0.594537
0.90898 0.979904 0.597223
0.925582 0.979797 0.600565
0.941405 0.979507 0.605203
0.955703 0.978851 0.610834
0.96849 0.977996 0.618006
0.979873 0.977172 0.627146
0.989746 0.97641 0.638941
0.99794 0.975708 0.653346
1 0.97499 0.675914
0.999954 0.974243 0.704997
0.999466 0.973648 0.737881
0.999023 0.973281 0.772274
0.998672 0.973129 0.805158
0.998444 0.97322 0.834958
0.998306 0.973556 0.861418
0.886748 0.978927 0.666972
0.886748 0.978927 0.666972
0.886748 0.978927 0.666972
0.886748 0.978927 0.666972
0.886748 0.978927 0.666972
0.886748 0.978927 0.666972
0.886748 0.978927 0.666972
0.886748 0.978927 0.666972
0.886748 0.978927 0.666972
