BBLuts/BB_102_0490_LUT.cube
TITLE "Generated by Resolve"
LUT_3D_SIZE 9
0.00822461 0.00933852 0.00393683
0.00822461 0.00933852 0.00393683
0.189548 0.00769055 0.00161746
0.41033 0.0074464 0.000671397
0.70518 0.00808728 0.000564584
0.906691 0.00891127 0.000991836
0.874174 0.493034 0.0912642
0.852537 0.808637 0.339376
0.843153 0.926726 0.635111
0.00344854 0.0625467 0.00360113
0.00254826 0.0723278 0.00354009
0.196139 0.0502174 0.00129702
0.420111 0.00746166 0.000656138
0.707424 0.00808728 0.000564584
0.906691 0.00891127 0.000991836
0.871595 0.526421 0.0811627
0.852201 0.813153 0.337453
0.843122 0.927275 0.634882
0 0.2168 0.00289921
0 0.220142 0.00288396
0.150469 0.217609 0.000549325
0.415564 0.196353 0
0.704677 0.0987106 0.000320439
0.892515 0.209827 0.00047303
0.868025 0.570886 0.0615549
0.851682 0.820081 0.334356
0.843061 0.928191 0.634485
0 0.463401 0.00180056
0 0.4645 0.00180056
0 0.46511 0.00180056
0.348409 0.461769 0
0.684215 0.451499 0
0.871305 0.500938 0
0.859449 0.662287 0
0.85034 0.838361 0.325277
0.842863 0.93077 0.633326
0 0.758923 0.000747692
0 0.758846 0.000747692
0 0.758495 0.000762951
0 0.75613 0.000762951
0.611658 0.748287 0
0.824414 0.753582 0
0.849378 0.798795 0
0.847593 0.875792 0.328145
0.842359 0.937987 0.629831
0 0.922499 0.000183108
0 0.921782 0.000183108
0 0.920607 0.000198367
0 0.917021 0.000198367
0.579232 0.908324 0
0.773022 0.901228 0
0.841627 0.90341 0
0.843992 0.925032 0.365499
0.841321 0.952438 0.625772
0.475517 0.977493 0.148196
0.493416 0.977127 0.148974
0.517647 0.976577 0.150256
0.57229 0.975036 0.154208
0.665248 0.971771 0.166262
0.765667 0.967468 0.200549
0.834913 0.964904 0.290517
0.840879 0.965866 0.471626
0.83978 0.971557 0.651987
0.73373 0.982712 0.537408
0.735088 0.982712 0.53756
0.73724 0.982742 0.537774
0.74345 0.982803 0.538476
0.759319 0.98294 0.540581
0.7897 0.98323 0.54699
0.826566 0.983581 0.565438
0.839078 0.983642 0.615366
0.838605 0.983429 0.706127
0.808042 0.983032 0.735927
0.808194 0.983032 0.735958
0.808484 0.983032 0.735988
0.809293 0.983047 0.73608
0.811627 0.983063 0.73637
0.817517 0.983124 0.737224
0.828794 0.98323 0.739788
0.838376 0.983307 0.746883
0.838254 0.98323 0.765545
0.00917067 0.0104067 0.0378576
0.00917067 0.0104067 0.0380407
0.190784 0.00881971 0.0362249
0.411948 0.00863661 0.0360266
0.706203 0.0093843 0.0380713
0.908278 0.0107881 0.0622263
0.875181 0.487358 0.144961
0.852598 0.807752 0.370855
0.843137 0.926574 0.64126
0.00636301 0.0404364 0.031342
0.0470283 0.0512551 0.0294041
0.206912 0.00862135 0.0301213
0.416754 0.00842298 0.0276646
0.706676 0.00877394 0.0167086
0.907927 0.0103456 0.0421302
0.872572 0.522057 0.135348
0.852277 0.812299 0.369085
0.843091 0.927123 0.641032
0 0.208286 0.00294499
0 0.211109 0.00292973
0.168017 0.208942 0.000488289
0.414481 0.187274 0
0.704295 0.0678874 0.000411994
0.893645 0.194141 0.000534066
0.869047 0.567971 0.118318
0.851759 0.819303 0.366232
0.84303 0.928038 0.640665
0 0.45919 0.00181582
0 0.460227 0.00181582
0 0.460655 0.00181582
0.358541 0.456977 0
0.684077 0.447547 0
0.871534 0.49778 0
0.860746 0.661738 0.0317388
0.850401 0.837766 0.357946
0.842847 0.930632 0.639551
0 0.757763 0.000762951
0 0.757656 0.000762951
0 0.75729 0.000762951
0 0.754879 0.000762951
0.614237 0.747127 0
0.824567 0.752743 0
0.849409 0.798337 0
0.847608 0.875608 0.335515
0.842329 0.937881 0.63621
0 0.922255 0.000183108
0 0.921538 0.000183108
0 0.920363 0.000198367
0 0.916777 0.000213626
0.580957 0.908125 0
0.773327 0.901091 0
0.841642 0.903304 0
0.843992 0.924971 0.365316
0.841321 0.952407 0.626352
0.478294 0.977401 0.148043
0.495903 0.977066 0.148821
0.519554 0.976501 0.150103
0.573632 0.97496 0.154055
0.665873 0.971725 0.16614
0.76585 0.967437 0.200458
0.834943 0.964889 0.290501
0.840879 0.96585 0.471565
0.83978 0.971542 0.651957
0.733928 0.982712 0.537392
0.735286 0.982727 0.53753
0.737438 0.982742 0.537758
0.743618 0.982803 0.538445
0.759457 0.982956 0.540566
0.789776 0.98323 0.54696
0.826596 0.983581 0.565408
0.839078 0.983642 0.615351
0.838605 0.983429 0.706111
0.808057 0.983032 0.735927
0.808225 0.983032 0.735958
0.808499 0.983032 0.735988
0.809323 0.983047 0.73608
0.811658 0.983063 0.73637
0.817533 0.983124 0.737224
0.828809 0.98323 0.739788
0.838376 0.983307 0.746883
0.838254 0.98323 0.765545
0.0103609 0.0119478 0.144228
0.0103609 0.0119478 0.144411
0.171695 0.0104982 0.141939
0.423636 0.0102693 0.137896
0.707393 0.0110628 0.141848
0.909346 0.0122072 0.165423
0.8766 0.475273 0.228656
0.852689 0.80621 0.415122
0.843107 0.926314 0.650568
0.0103304 0.0119173 0.140978
0.0103304 0.0119326 0.141283
0.196399 0.0103761 0.138354
0.422232 0.0102388 0.134707
0.709468 0.0110323 0.138338
0.9093 0.0121462 0.159579
0.873884 0.512169 0.222751
0.852354 0.810849 0.413672
0.843061 0.926879 0.650355
0 0.185962 0.129854
0 0.188128 0.129564
0.161746 0.180774 0.124071
0.404715 0.16434 0.125399
0.708156 0.0109102 0.128771
0.900023 0.143999 0.147845
0.870329 0.560494 0.213001
0.851835 0.81796 0.411337
0.843 0.927794 0.650004
0 0.448615 0.0626841
0 0.449805 0.0634623
0 0.450401 0.0645457
0.361151 0.446342 0.0636301
0.682124 0.437827 0.0679332
0.874479 0.488975 0.0919661
0.862943 0.659144 0.181796
0.850462 0.836698 0.404486
0.842817 0.930404 0.648966
0 0.755352 0.000762951
0 0.755245 0.000762951
0 0.754864 0.000762951
0 0.752422 0.00077821
0.616602 0.744732 0
0.824598 0.750805 0
0.851331 0.79913 0.0636301
0.847669 0.875074 0.385565
0.842298 0.937682 0.645869
0 0.921843 0.000183108
0 0.921126 0.000198367
0 0.919951 0.000198367
0 0.916381 0.000213626
0.583719 0.907805 0
0.773816 0.900847 0
0.841657 0.903151 0
0.844007 0.92488 0.365011
0.841276 0.952255 0.636774
0.48275 0.977295 0.147799
0.499901 0.976944 0.148577
0.522591 0.976379 0.149859
0.575814 0.974868 0.153811
0.666896 0.971633 0.165927
0.76614 0.967391 0.20029
0.835019 0.964858 0.290471
0.840879 0.96585 0.471443
0.83978 0.971542 0.651911
0.734264 0.982712 0.537346
0.735607 0.982727 0.537499
0.737758 0.982742 0.537728
0.743908 0.982803 0.538415
0.759686 0.982956 0.540536
0.789883 0.983246 0.546929
0.826627 0.983581 0.565393
0.839078 0.983642 0.615351
0.838605 0.983429 0.706111
0.808103 0.983032 0.735927
0.80827 0.983032 0.735943
0.808545 0.983032 0.735988
0.809354 0.983047 0.73608
0.811688 0.983063 0.736355
0.817563 0.983124 0.737209
0.828824 0.98323 0.739788
0.838376 0.983307 0.746883
0.838254 0.98323 0.765545
0.0106508 0.0128328 0.341222
0.0106508 0.0128328 0.341344
0.0106508 0.0128328 0.341421
0.40296 0.0113375 0.336675
0.72488 0.0122835 0.338628
0.909804 0.0132143 0.355612
0.879942 0.432471 0.403357
0.852857 0.80116 0.509438
0.84303 0.925566 0.674235
0.0106508 0.0128328 0.33933
0.0106508 0.0128328 0.339498
0.0892348 0.011902 0.338109
0.416907 0.0113527 0.33463
0.723079 0.0122683 0.336522
0.909804 0.0132143 0.353201
0.876829 0.475319 0.400107
0.852506 0.806027 0.508522
0.843 0.926146 0.674052
0.00459297 0.0828565 0.335317
0.00411994 0.0882582 0.335424
0.114015 0.0823835 0.333639
0.422614 0.0113527 0.331228
0.71754 0.0122377 0.333104
0.909804 0.0132143 0.348669
0.872663 0.532662 0.394827
0.851972 0.813489 0.507057
0.842924 0.927062 0.673777
0 0.407767 0.312108
0 0.409415 0.312352
0 0.410559 0.312917
0.355489 0.406287 0.311025
0.671687 0.398764 0.314199
0.878584 0.451423 0.328862
0.864561 0.644144 0.379141
0.850538 0.833112 0.502831
0.842741 0.929732 0.672923
0 0.748791 0.235218
0 0.748775 0.235798
0 0.748501 0.236698
0 0.746288 0.239277
0.616922 0.73872 0.244297
0.826352 0.746548 0.269871
0.853437 0.796338 0.339956
0.847639 0.873091 0.49099
0.842206 0.937102 0.67042
0 0.920729 0.000198367
0 0.919997 0.000198367
0 0.918807 0.000198367
0 0.915251 0.000213626
0.583688 0.906691 0
0.775876 0.902861 0.121263
0.845197 0.90663 0.265766
0.843961 0.9243 0.461311
0.841169 0.951843 0.663218
0.495613 0.976928 0.147036
0.511009 0.976593 0.147829
0.531731 0.976043 0.149126
0.582269 0.974548 0.153124
0.669932 0.97142 0.165301
0.76701 0.967254 0.199786
0.835218 0.964752 0.290379
0.840879 0.965774 0.471092
0.839796 0.971511 0.651743
0.735271 0.982727 0.537255
0.736599 0.982727 0.537377
0.73872 0.982757 0.537621
0.744778 0.982803 0.538308
0.760357 0.982956 0.540429
0.790234 0.983246 0.546822
0.826734 0.983597 0.565286
0.839078 0.983642 0.615335
0.838605 0.983429 0.70605
0.808225 0.983032 0.735927
0.808392 0.983032 0.735927
0.808667 0.983047 0.735958
0.809491 0.983047 0.736065
0.811795 0.983063 0.736339
0.817655 0.983124 0.737209
0.82887 0.98323 0.739773
0.838376 0.983307 0.746868
0.838254 0.98323 0.765545
0.00927749 0.0122377 0.619989
0.00927749 0.0122377 0.62005
0.00927749 0.0122377 0.620172
0.259251 0.0108339 0.616602
0.712337 0.0120089 0.612604
0.908949 0.0130159 0.616342
0.895827 0.20061 0.629511
0.853544 0.783276 0.65536
0.842924 0.923354 0.721431
0.00927749 0.0122377 0.619379
0.00927749 0.0122377 0.619455
0.00927749 0.0122377 0.619593
0.284672 0.0108339 0.615717
0.717311 0.0120394 0.611978
0.908949 0.0130159 0.615702
0.888334 0.305547 0.627573
0.853117 0.789197 0.654719
0.842878 0.923964 0.721309
0.00929274 0.012253 0.618402
0.00929274 0.012253 0.618479
0.00927749 0.012253 0.618616
0.318425 0.0108492 0.614359
0.720348 0.0120546 0.610895
0.908965 0.0130312 0.614618
0.880934 0.408362 0.62475
0.852476 0.798062 0.653727
0.842802 0.924941 0.721111
0 0.242496 0.611307
0 0.245228 0.611307
0 0.248722 0.611276
0.307027 0.239017 0.607309
0.710155 0.141436 0.605737
0.892683 0.246174 0.607782
0.868406 0.581949 0.617136
0.850828 0.820752 0.650965
0.842603 0.927749 0.720531
0 0.711192 0.580133
0 0.711482 0.580255
0 0.711559 0.580392
0 0.710063 0.580728
0.604913 0.702602 0.578531
0.820523 0.716106 0.583337
0.854261 0.77734 0.599619
0.847547 0.866133 0.644297
0.842084 0.935058 0.718853
0 0.921889 0.53962
0 0.921202 0.539773
0 0.920027 0.540047
0 0.916426 0.54081
0.561868 0.907362 0.5402
0.768353 0.900175 0.549981
0.845136 0.90338 0.575631
0.843549 0.921584 0.630838
0.84097 0.950698 0.714275
0.485863 0.977569 0.457877
0.502373 0.977218 0.458213
0.524086 0.976669 0.458747
0.575692 0.975143 0.46041
0.664683 0.971893 0.465492
0.762493 0.967422 0.480598
0.830594 0.964309 0.519341
0.840513 0.964935 0.599985
0.839551 0.970916 0.702342
0.738262 0.982742 0.536904
0.739544 0.982757 0.537057
0.741573 0.982773 0.53727
0.747387 0.982834 0.537972
0.762356 0.982971 0.540093
0.791287 0.983246 0.546502
0.827085 0.983597 0.565011
0.839078 0.983642 0.615274
0.838621 0.983429 0.705882
0.808621 0.983032 0.735866
0.808774 0.983047 0.735882
0.809049 0.983047 0.735927
0.809842 0.983047 0.736019
0.812131 0.983078 0.736294
0.817899 0.983124 0.737163
0.828992 0.98323 0.739727
0.838376 0.983307 0.746822
0.838254 0.98323 0.765545
0.00773632 0.0111849 0.801419
0.00773632 0.0111849 0.801434
0.00773632 0.0111849 0.801465
0.00773632 0.0111849 0.801511
0.614145 0.0107576 0.792721
0.907835 0.0122683 0.788403
0.90782 0.0122683 0.789334
0.858808 0.70071 0.777249
0.84303 0.916503 0.780972
0.00773632 0.0111849 0.801343
0.00773632 0.0111849 0.801358
0.00773632 0.0111849 0.801373
0.00773632 0.0111849 0.801419
0.621073 0.0107881 0.792523
0.907835 0.0122683 0.788327
0.90782 0.0122683 0.789242
0.857969 0.712261 0.776547
0.842985 0.917235 0.78088
0.00773632 0.0111849 0.801221
0.00773632 0.0111849 0.801236
0.00773632 0.0111849 0.801251
0.00773632 0.0111849 0.801282
0.632044 0.0108492 0.792218
0.907835 0.0122683 0.788174
0.90782 0.0122683 0.78912
0.856733 0.72932 0.775479
0.842893 0.918379 0.780758
0.00773632 0.0111849 0.800824
0.00773632 0.0111849 0.800839
0.00773632 0.0111849 0.800855
0.00775158 0.0111849 0.800534
0.656062 0.0109407 0.791424
0.907835 0.0122835 0.787762
0.907835 0.0122835 0.787152
0.853758 0.770474 0.772702
0.842664 0.921691 0.780377
0 0.52401 0.785107
0 0.525322 0.785061
0 0.527443 0.78497
0 0.530755 0.78436
0.599771 0.519905 0.778195
0.86746 0.541405 0.775021
0.860258 0.681514 0.770062
0.848692 0.840452 0.767269
0.842039 0.930236 0.779324
0 0.908049 0.754986
0 0.907591 0.754955
0 0.906737 0.754894
0 0.903334 0.754665
0.49131 0.892958 0.75079
0.756756 0.885084 0.751446
0.841703 0.891142 0.753536
0.843381 0.913725 0.759854
0.840772 0.947738 0.776867
0.339132 0.975586 0.735225
0.374777 0.975235 0.73521
0.421561 0.97467 0.73521
0.511269 0.973007 0.735332
0.629679 0.969284 0.735759
0.745052 0.96437 0.737163
0.819699 0.961257 0.741299
0.839857 0.962585 0.751247
0.839216 0.969543 0.771893
0.728649 0.982376 0.702251
0.729946 0.982376 0.702296
0.732036 0.982406 0.702388
0.738003 0.982452 0.702632
0.753338 0.982605 0.70341
0.782971 0.982879 0.70573
0.819715 0.98323 0.712489
0.838468 0.983352 0.729747
0.838285 0.983246 0.7608
0.809766 0.983047 0.735729
0.809918 0.983047 0.735759
0.810162 0.983063 0.735775
0.810925 0.983063 0.735866
0.813107 0.983078 0.736156
0.818647 0.983139 0.737026
0.829404 0.98323 0.739605
0.838376 0.983307 0.746715
0.838254 0.98323 0.765515
0.00721752 0.0108034 0.855375
0.00721752 0.0108034 0.855375
0.00721752 0.0108034 0.855375
0.00721752 0.0108034 0.855375
0.00721752 0.0108034 0.855375
0.890959 0.0118105 0.852171
0.907332 0.011902 0.852201
0.907332 0.011902 0.852201
0.844816 0.887373 0.829664
0.00721752 0.0108034 0.855375
0.00721752 0.0108034 0.855375
0.00721752 0.0108034 0.855375
0.00721752 0.0108034 0.855375
0.00721752 0.0108034 0.855375
0.892226 0.0118105 0.852171
0.907332 0.011902 0.852201
0.907332 0.011902 0.852201
0.844724 0.888701 0.829557
0.00721752 0.0108034 0.855375
0.00721752 0.0108034 0.855375
0.00721752 0.0108034 0.855375
0.00721752 0.0108034 0.855375
0.00721752 0.0108034 0.855375
0.894224 0.0118257 0.852186
0.907332 0.011902 0.852201
0.907332 0.011902 0.852201
0.844572 0.890806 0.829389
0.00721752 0.0108034 0.855375
0.00721752 0.0108034 0.855375
0.00721752 0.0108034 0.855375
0.00721752 0.0108034 0.855375
0.00721752 0.0108034 0.855375
0.900084 0.0118715 0.852186
0.907332 0.011902 0.852201
0.907332 0.011902 0.852201
0.844144 0.896742 0.828916
0.00721752 0.0108034 0.855375
0.00721752 0.0108034 0.855375
0.00721752 0.0108034 0.855375
0.00721752 0.0108034 0.855375
0.330556 0.00955215 0.852445
0.907332 0.011902 0.852201
0.907332 0.011902 0.852201
0.866728 0.584543 0.844053
0.843076 0.911437 0.827726
0 0.805966 0.839353
0 0.806241 0.839338
0 0.806714 0.839307
0 0.808133 0.8392
0 0.803006 0.837964
0.767208 0.793744 0.832593
0.84979 0.81915 0.830274
0.845411 0.879545 0.826734
0.841154 0.937865 0.825452
0 0.97821 0.822705
0 0.977508 0.82266
0 0.976379 0.822568
0 0.973083 0.822309
0.534386 0.965377 0.818586
0.7243 0.958404 0.818616
0.814572 0.95491 0.818936
0.839765 0.957534 0.81976
0.839078 0.966461 0.822431
0.700847 0.98172 0.81265
0.702586 0.981735 0.81265
0.705333 0.98175 0.81265
0.713176 0.981826 0.812665
0.732906 0.98201 0.812711
0.769512 0.982361 0.812879
0.811566 0.982773 0.813413
0.837919 0.983032 0.815076
0.837903 0.983017 0.819135
0.805417 0.982773 0.799466
0.80557 0.982773 0.799466
0.805829 0.982773 0.799466
0.806607 0.982788 0.799893
0.808835 0.982803 0.799985
0.814466 0.982864 0.800275
0.825452 0.982971 0.80116
0.837949 0.983093 0.803738
0.837964 0.983063 0.810376
0.0024567 0.068452 0.8551
0.0024567 0.068452 0.8551
0.0024567 0.068452 0.8551
0.0024567 0.0684672 0.8551
0.00244144 0.0685283 0.8551
0.00242618 0.0687114 0.8551
0.907332 0.011902 0.852201
0.907332 0.011902 0.852201
0.863218 0.632502 0.848768
0.0024567 0.0684215 0.8551
0.0024567 0.0684215 0.8551
0.0024567 0.0684367 0.8551
0.0024567 0.068452 0.8551
0.00244144 0.068513 0.8551
0.00244144 0.0686961 0.8551
0.907332 0.011902 0.852201
0.907332 0.011902 0.852201
0.863233 0.632486 0.848768
0.0024567 0.0683604 0.8551
0.0024567 0.0683604 0.8551
0.0024567 0.0683757 0.8551
0.0024567 0.0683909 0.8551
0.0024567 0.068452 0.8551
0.00244144 0.0686351 0.8551
0.907332 0.011902 0.852201
0.907332 0.011902 0.852201
0.863233 0.632441 0.848768
0.00247196 0.0682231 0.8551
0.00247196 0.0682078 0.8551
0.00247196 0.0682231 0.8551
0.00247196 0.0682383 0.8551
0.00247196 0.0683146 0.8551
0.00488289 0.0394293 0.855238
0.907332 0.011902 0.852201
0.907332 0.011902 0.852201
0.863233 0.632303 0.848768
0.00251774 0.0677501 0.8551
0.00251774 0.0677501 0.8551
0.00251774 0.0677653 0.8551
0.00251774 0.0677806 0.8551
0.00250248 0.0678264 0.8551
0.362875 0.00959792 0.852338
0.907332 0.011902 0.852201
0.907332 0.011902 0.852201
0.863264 0.631907 0.848783
0.00263981 0.0662699 0.855116
0.00263981 0.0662699 0.855116
0.00263981 0.0662699 0.855116
0.00263981 0.0662852 0.855116
0.00263981 0.0663615 0.855116
0.726848 0.0109102 0.851972
0.907332 0.011902 0.852201
0.903487 0.0686961 0.85211
0.847852 0.843931 0.847227
0 0.944213 0.848508
0 0.944244 0.848508
0 0.944305 0.848508
0 0.944472 0.848508
0 0.944991 0.848493
0.622446 0.92462 0.845762
0.81915 0.919402 0.846555
0.841611 0.929397 0.846571
0.839887 0.953002 0.846387
0.551797 0.98027 0.845014
0.559396 0.980331 0.845014
0.570825 0.980438 0.844999
0.60061 0.980682 0.844984
0.661433 0.981216 0.844938
0.739208 0.981933 0.844907
0.803235 0.982559 0.844877
0.836713 0.981704 0.844999
0.837766 0.982269 0.845212
0.795087 0.982483 0.842664
0.7953 0.982498 0.842664
0.795651 0.982498 0.842664
0.796689 0.982498 0.84268
0.799649 0.982528 0.84268
0.806958 0.982605 0.842695
0.820356 0.982742 0.842741
0.83476 0.982879 0.842924
0.83772 0.98291 0.843427
0 0.296941 0.853666
0 0.296941 0.853666
0 0.296941 0.853666
0 0.296956 0.853666
0 0.296956 0.853666
0 0.297017 0.853666
0 0.297124 0.853666
0.888243 0.285222 0.851072
0.859998 0.676982 0.848463
0 0.296941 0.853666
0 0.296941 0.853666
0 0.296941 0.853666
0 0.296941 0.853666
0 0.296956 0.853666
0 0.297002 0.853666
0 0.297124 0.853666
0.888228 0.285496 0.851072
0.859998 0.677043 0.848463
0 0.296925 0.853666
0 0.296925 0.853666
0 0.296925 0.853666
0 0.296941 0.853666
0 0.296941 0.853666
0 0.297002 0.853666
0 0.297108 0.853666
0.888197 0.285924 0.851072
0.859998 0.677104 0.848463
0 0.29691 0.853666
0 0.29691 0.853666
0 0.29691 0.853666
0 0.29691 0.853666
0 0.296925 0.853666
0 0.296956 0.853666
0 0.297063 0.853666
0.888106 0.287236 0.851057
0.859983 0.677333 0.848463
0 0.296818 0.853666
0 0.296818 0.853666
0 0.296818 0.853666
0 0.296818 0.853666
0 0.296834 0.853666
0 0.296864 0.853666
0.343923 0.275441 0.850645
0.887816 0.291264 0.851041
0.859937 0.677989 0.848447
0 0.296529 0.853666
0 0.296529 0.853666
0 0.296529 0.853666
0 0.296544 0.853666
0 0.296544 0.853666
0 0.296574 0.853666
0.743389 0.0960403 0.851743
0.886961 0.303136 0.850965
0.859861 0.678965 0.848447
0 0.295644 0.853666
0 0.295644 0.853666
0 0.295644 0.853666
0 0.295659 0.853666
0 0.295659 0.853666
0 0.295689 0.853666
0.907332 0.011902 0.852201
0.885313 0.326192 0.850828
0.859724 0.680812 0.848432
0 0.979995 0.848203
0 0.979995 0.848203
0 0.979995 0.848203
0 0.979995 0.848203
0 0.979995 0.848203
0 0.979995 0.848203
0.765469 0.970962 0.84593
0.838712 0.968704 0.846265
0.838468 0.972396 0.84625
0.745922 0.981994 0.845762
0.746685 0.98201 0.845762
0.747875 0.98201 0.845777
0.751385 0.982055 0.845792
0.760678 0.982132 0.845823
0.780682 0.98233 0.845914
0.809583 0.98262 0.846036
0.832212 0.982849 0.846143
0.837705 0.982895 0.846159
