BBLuts/BB_102_0360_LUT.cube
TITLE "Generated by Resolve"
LUT_3D_SIZE 9
0 0 0
0 0 0
0.111299 0 0
0.358648 0 0
0.679347 0 0
0.881163 0 0
0.692042 0.609003 0
0.70576 0.876204 0.275395
0.822766 0.916732 0.719905
0 0 0
0 0 0
0.095964 0 0
0.366735 0 0
0.681514 0 0
0.881041 0 0
0.672709 0.639628 0
0.704372 0.878447 0.274525
0.82266 0.916899 0.719844
0 0.155703 0
0 0.159579 0
0 0.16968 0
0.288579 0.162249 0
0.639475 0.0774395 0
0.790875 0.2542 0
0.641993 0.680217 0
0.702144 0.882078 0.273243
0.822492 0.917189 0.719738
0 0.450172 0.0539712
0 0.451225 0.0542458
0 0.452369 0.0545357
0.0872511 0.484413 0
0.485451 0.500694 0
0.660563 0.582208 0
0.577859 0.780453 0
0.696361 0.89427 0.274281
0.821668 0.918486 0.719203
0 0.806455 0.159243
0 0.806455 0.159243
0 0.80618 0.159152
0 0.803861 0.158282
0.281666 0.846052 0
0.506966 0.868223 0
0.518883 0.919738 0
0.688533 0.922683 0.294621
0.818555 0.923339 0.717052
0 0.989517 0.233295
0 0.989517 0.233295
0 0.989517 0.233295
0 0.985412 0.231662
0.188205 1 0
0.407858 1 0
0.480232 1 0
0.690425 0.959625 0.360037
0.814664 0.934569 0.722606
0.182956 1 0.233997
0.182956 1 0.233997
0.182956 1 0.233997
0.182925 1 0.234012
0.35433 1 0.16585
0.50106 1 0.161486
0.624659 1 0.265812
0.730526 0.976425 0.517128
0.819883 0.947387 0.75964
0.662242 0.972808 0.66508
0.662242 0.972808 0.665095
0.662242 0.972808 0.665095
0.662242 0.972808 0.665095
0.662242 0.972808 0.665095
0.706111 0.974166 0.655497
0.758114 0.973251 0.661799
0.797528 0.965103 0.717922
0.839109 0.950164 0.825574
0.82388 0.943664 0.873243
0.82388 0.943664 0.873243
0.82388 0.943664 0.873243
0.82388 0.943664 0.873243
0.82388 0.943664 0.873243
0.823865 0.943664 0.873243
0.840131 0.944289 0.869337
0.856825 0.94403 0.871199
0.864591 0.94136 0.891173
0 0 0
0 0 0
0.134966 0 0
0.384482 0 0
0.705547 0 0
0.909819 0 0
0.706355 0.602106 0
0.705776 0.876173 0.27541
0.822782 0.916701 0.719921
0 0 0
0 0 0
0.145159 0 0
0.382071 0 0
0.689082 0 0
0.892592 0 0
0.684581 0.633982 0
0.704387 0.878416 0.27454
0.82266 0.916899 0.719844
0 0.143267 0
0 0.146715 0
9.15541e-05 0.15819 0
0.292851 0.149233 0
0.647913 0.0425879 0
0.796399 0.237446 0
0.652506 0.675349 0
0.702144 0.882078 0.273243
0.822492 0.917174 0.719738
0 0.44477 0.0525826
0 0.445731 0.0528267
0 0.446738 0.0530861
0.100755 0.479011 0
0.486809 0.495583 0
0.661967 0.578408 0
0.578271 0.779507 0
0.696361 0.89427 0.274281
0.821668 0.918486 0.719203
0 0.804715 0.158602
0 0.8047 0.158587
0 0.80441 0.15848
0 0.802045 0.157595
0.284474 0.844816 0
0.507332 0.867353 0
0.519005 0.919448 0
0.688533 0.922683 0.294621
0.818555 0.923339 0.717052
0 0.98912 0.233127
0 0.989197 0.233173
0 0.989197 0.233173
0 0.985138 0.231556
0.190234 1 0
0.408087 1 0
0.480262 1 0
0.690425 0.959625 0.360037
0.814664 0.934569 0.722606
0.186435 1 0.2318
0.186435 1 0.2318
0.186419 1 0.231815
0.186404 1 0.231815
0.355093 1 0.165118
0.501122 1 0.161166
0.624674 1 0.265782
0.730526 0.976425 0.517128
0.819883 0.947387 0.75964
0.662425 0.972824 0.664973
0.662425 0.972824 0.664973
0.662425 0.972824 0.664973
0.662425 0.972824 0.664973
0.662409 0.972824 0.664973
0.706188 0.974166 0.655451
0.758114 0.973266 0.661753
0.797528 0.965103 0.717922
0.839109 0.950164 0.825574
0.82388 0.943679 0.873243
0.82388 0.943679 0.873243
0.82388 0.943679 0.873243
0.82388 0.943679 0.873243
0.82388 0.943679 0.873243
0.82388 0.943679 0.873243
0.840146 0.944289 0.869322
0.856825 0.94403 0.871199
0.864591 0.94136 0.891173
0.0215457 0 0.163073
0.0216831 0 0.163439
0.173556 0 0.095613
0.459281 0 0
0.773205 0 0
0.986572 0 0
0.783261 0.566094 0.00787366
0.72079 0.869963 0.313695
0.822782 0.916701 0.719921
0.020264 0 0.159792
0.0204776 0 0.160342
0.193194 0 0.0823987
0.456596 0 0
0.77232 0 0
0.982528 0 0
0.766842 0.597498 0.00680552
0.719432 0.872206 0.312978
0.82266 0.916899 0.719844
0 0.0814527 0.196689
0 0.0843671 0.197452
0.0830549 0.0902876 0.127352
0.374334 0.0848707 0
0.758206 0 0
0.911559 0.144854 0
0.745235 0.636881 0.00291447
0.717189 0.875883 0.311711
0.822492 0.917174 0.719738
0 0.411765 0.184192
0 0.413245 0.185016
0 0.413977 0.186877
0.160113 0.445411 0.024567
0.543542 0.462608 0
0.729839 0.545068 0
0.681453 0.740795 0
0.709026 0.889082 0.306661
0.821668 0.918486 0.719203
0 0.801389 0.157351
0 0.801389 0.157351
0 0.801083 0.157244
0 0.798749 0.156359
0.287694 0.841535 0
0.508232 0.864713 0
0.542016 0.910399 0
0.689296 0.922271 0.296407
0.818555 0.923339 0.717052
0 0.988647 0.232944
0 0.988647 0.232944
0 0.988647 0.232944
0 0.984741 0.231327
0.193729 1 0
0.408621 1 0
0.480339 1 0
0.690364 0.959609 0.359792
0.814664 0.934569 0.722606
0.191073 1 0.228824
0.191073 1 0.228824
0.191073 1 0.228824
0.191058 1 0.22884
0.356115 1 0.164111
0.501366 1 0.160708
0.624613 1 0.265461
0.730495 0.976425 0.517037
0.819883 0.947387 0.75964
0.662669 0.972854 0.664805
0.662669 0.972854 0.664805
0.662669 0.972854 0.664805
0.662669 0.972854 0.664805
0.662669 0.972854 0.664805
0.706249 0.974182 0.655344
0.758144 0.973266 0.661707
0.797528 0.965103 0.717906
0.839109 0.950164 0.825574
0.823911 0.943679 0.873228
0.823911 0.943679 0.873228
0.823911 0.943679 0.873228
0.823911 0.943679 0.873228
0.823911 0.943679 0.873228
0.823911 0.943679 0.873228
0.840146 0.944305 0.869307
0.856825 0.94403 0.871199
0.864591 0.94136 0.891173
0.143664 0 0.48072
0.143709 0 0.480842
0.143816 0 0.481132
0.541161 0 0.294881
0.916152 0 0.112627
1 0 0.0567483
0.91754 0.479103 0.290089
0.797284 0.836835 0.506783
0.828061 0.914611 0.73341
0.142947 0 0.478874
0.143008 0 0.479026
0.163455 0 0.470237
0.555688 0 0.28481
0.913695 0 0.110689
1 0 0.0534981
0.900847 0.516243 0.296361
0.796048 0.839139 0.5066
0.827955 0.914794 0.733349
0.120653 0 0.488533
0.119646 0 0.489372
0.144579 0 0.478538
0.561273 0 0.277226
0.906737 0 0.108034
1 0 0.052369
0.879774 0.561166 0.302571
0.794064 0.842863 0.506279
0.827802 0.915068 0.733272
0 0.299138 0.564111
0 0.300145 0.564477
0 0.302358 0.565927
0.31458 0.333303 0.412711
0.706127 0.349157 0.24506
0.90309 0.443183 0.199786
0.82295 0.673869 0.311498
0.786923 0.856199 0.504997
0.827024 0.91635 0.73286
0 0.732967 0.579171
0 0.732967 0.579171
0 0.733043 0.58027
0 0.73022 0.583566
0.456672 0.770886 0.282032
0.692271 0.79115 0.222217
0.734096 0.836698 0.30222
0.767483 0.890486 0.497749
0.824094 0.921141 0.731167
0 0.972824 0.346609
0 0.972824 0.346609
0 0.972824 0.346609
0 0.968841 0.347036
0.235935 0.996002 0.0386053
0.509636 0.979019 0.0784161
0.648692 0.960037 0.228092
0.731975 0.943069 0.467658
0.816007 0.934035 0.726024
0.204654 1 0.219135
0.204654 1 0.219135
0.204654 1 0.219135
0.204654 1 0.219135
0.359197 1 0.160983
0.501869 1 0.159258
0.624659 1 0.264912
0.730312 0.97644 0.516472
0.819852 0.947387 0.759548
0.663523 0.97293 0.664256
0.663523 0.97293 0.664256
0.663523 0.97293 0.664256
0.663523 0.97293 0.664256
0.663523 0.97293 0.664256
0.706538 0.974227 0.655024
0.758221 0.973297 0.661524
0.797482 0.965118 0.717769
0.839094 0.950179 0.825528
0.824002 0.943679 0.873182
0.824002 0.943679 0.873182
0.824002 0.943679 0.873182
0.824002 0.943679 0.873182
0.824002 0.943679 0.873182
0.824002 0.943679 0.873182
0.840177 0.944305 0.869276
0.856825 0.94403 0.871183
0.864591 0.94136 0.891173
0.28748 0 0.856641
0.28748 0 0.856641
0.28751 0 0.856748
0.379721 0 0.815641
1 0 0.500221
1 0 0.415366
1 0.173556 0.535958
0.888014 0.789334 0.721935
0.862577 0.900557 0.819974
0.287434 0 0.856565
0.287434 0 0.856565
0.287465 0 0.856626
0.38587 0 0.812329
1 0 0.498146
1 0 0.414939
1 0.266117 0.561212
0.886671 0.792126 0.722286
0.862486 0.900725 0.819974
0.286992 0 0.855421
0.286992 0 0.855421
0.287022 0 0.855497
0.471015 0 0.772519
1 0 0.494514
1 0 0.413703
1 0.36318 0.585794
0.884611 0.796384 0.722805
0.862333 0.901015 0.819959
0.203632 0 0.904158
0.203632 0 0.904158
0.201907 0 0.905303
0.397375 7.62951e-05 0.819059
1 0 0.5243
1 0.0505531 0.476631
0.990967 0.545708 0.627115
0.877226 0.81178 0.72462
0.861677 0.902312 0.819944
0 0.616602 1
0 0.616602 1
0 0.616663 1
0 0.616373 1
0.626886 0.658015 0.740658
0.868101 0.690501 0.644373
0.883787 0.761669 0.660471
0.85893 0.849714 0.727916
0.859236 0.907134 0.819837
0 0.868879 1
0 0.868879 1
0 0.868986 1
0 0.865919 1
0.470619 0.88751 0.787778
0.72958 0.88777 0.675425
0.817685 0.891432 0.668208
0.832212 0.902327 0.727016
0.852262 0.919997 0.818219
0.375998 0.968612 0.733211
0.375998 0.968612 0.733211
0.375998 0.968612 0.733211
0.375998 0.968612 0.733211
0.533303 0.966918 0.659632
0.669154 0.964706 0.615473
0.756878 0.958999 0.625238
0.801541 0.948318 0.702739
0.839185 0.940108 0.808957
0.666117 0.973236 0.662074
0.666117 0.973236 0.662074
0.666117 0.973236 0.662074
0.666117 0.973236 0.662074
0.666117 0.973236 0.662074
0.707408 0.974395 0.653941
0.758373 0.973388 0.660883
0.797391 0.965148 0.717556
0.839017 0.95021 0.82533
0.824338 0.943709 0.872969
0.824338 0.943709 0.872969
0.824338 0.943709 0.872969
0.824338 0.943709 0.872969
0.824338 0.943709 0.872969
0.824323 0.943709 0.872969
0.840299 0.94432 0.869169
0.856809 0.94403 0.871153
0.864576 0.94136 0.891142
0.362829 0 1
0.362875 0 1
0.362875 0 1
0.362875 0 1
0.899031 0 0.795468
1 0 0.604471
1 0 0.603372
0.978927 0.691279 0.840497
0.89427 0.884596 0.893889
0.362875 0 1
0.362875 0 1
0.362875 0 1
0.362875 0 1
0.898238 0 0.795865
1 0 0.604471
1 0 0.603281
0.975769 0.697643 0.841627
0.894179 0.88481 0.893919
0.362844 0 1
0.362844 0 1
0.362844 0 1
0.36286 0 1
0.910094 0 0.789868
1 0 0.604257
1 0 0.603159
0.971008 0.707301 0.843366
0.894026 0.885145 0.89395
0.362676 0 1
0.362676 0 1
0.362676 0 1
0.362692 0 1
0.972213 0 0.758312
1 0 0.603464
1 0 0.602411
0.955734 0.738582 0.848981
0.893339 0.886641 0.894163
0.145968 0.280491 1
0.145968 0.280491 1
0.145968 0.280491 1
0.144167 0.284733 1
0.760754 0.327886 0.914641
1 0.386358 0.771252
1 0.606012 0.817182
0.925261 0.802609 0.860792
0.890806 0.892195 0.894942
0 0.8206 1
0 0.8206 1
0 0.8206 1
0 0.8206 1
0.329595 0.83331 1
0.807599 0.839506 0.900511
0.895582 0.850584 0.863325
0.892927 0.873777 0.872755
0.884184 0.906416 0.896544
0.314916 0.919142 1
0.314916 0.919142 1
0.315984 0.919188 1
0.315984 0.919188 1
0.572503 0.920607 1
0.762341 0.920317 0.911742
0.844678 0.920745 0.878599
0.870207 0.922057 0.877516
0.874083 0.926925 0.897169
0.740063 0.941466 0.886809
0.740063 0.941466 0.886809
0.740063 0.941466 0.886809
0.740063 0.941466 0.886809
0.740063 0.941466 0.886809
0.779309 0.943679 0.871458
0.825635 0.945815 0.85771
0.853223 0.94522 0.862959
0.863905 0.941588 0.889418
0.825422 0.943816 0.872297
0.825422 0.943816 0.872297
0.825422 0.943816 0.872297
0.825422 0.943816 0.872297
0.825422 0.943816 0.872297
0.825422 0.943816 0.872297
0.84065 0.944366 0.868803
0.856748 0.94406 0.871
0.864561 0.941375 0.891096
0.38291 0 1
0.38291 0 1
0.38291 0 1
0.38291 0 1
0.38291 0 1
1 0 0.6972
1 0 0.665644
1 0 0.665644
0.925856 0.850614 0.938994
0.38291 0 1
0.38291 0 1
0.38291 0 1
0.38291 0 1
0.38291 0 1
1 0 0.6972
1 0 0.665644
1 0 0.665644
0.925643 0.851072 0.939101
0.38291 0 1
0.38291 0 1
0.38291 0 1
0.38291 0 1
0.38291 0 1
1 0 0.6972
1 0 0.665644
1 0 0.665644
0.925292 0.851896 0.939254
0.38291 0 1
0.38291 0 1
0.38291 0 1
0.38291 0 1
0.38291 0 1
1 0 0.69543
1 0 0.665644
1 0 0.665644
0.923903 0.855024 0.939849
0.38291 0 1
0.38291 0 1
0.38291 0 1
0.38291 0 1
0.38291 0 1
1 0 0.683223
1 0 0.665644
1 0.301732 0.815259
0.919188 0.86569 0.941863
0.0335546 0.617609 1
0.0335546 0.617609 1
0.0335546 0.617609 1
0.0335546 0.617609 1
0.0323491 0.621439 1
0.895613 0.669596 0.948592
0.980468 0.729427 0.911116
0.937682 0.821683 0.930175
0.90898 0.888792 0.946181
0 0.887846 1
0 0.887846 1
0 0.887846 1
0 0.887846 1
0 0.887846 1
0.753002 0.901808 1
0.871778 0.903181 0.957732
0.899657 0.907301 0.946014
0.89662 0.916442 0.950835
0.753933 0.92546 1
0.753933 0.92546 1
0.753933 0.92546 1
0.753933 0.92546 1
0.753933 0.92546 1
0.797406 0.92813 0.986435
0.856153 0.931975 0.960662
0.885817 0.93373 0.949065
0.888273 0.933242 0.952041
0.850095 0.93344 0.949676
0.850095 0.93344 0.949676
0.850095 0.93344 0.949676
0.850095 0.93344 0.949676
0.850095 0.93344 0.949676
0.850095 0.93344 0.949676
0.864591 0.934295 0.944045
0.881178 0.935012 0.93933
0.885145 0.93431 0.944015
0.34963 0 1
0.34963 0 1
0.34963 0 1
0.34963 0 1
0.34963 0 1
0.349599 0 1
1 0 0.665644
1 0 0.674937
1 0.566461 0.888014
0.34963 0 1
0.34963 0 1
0.34963 0 1
0.34963 0 1
0.34963 0 1
0.349599 0 1
1 0 0.665644
1 0 0.674937
1 0.566461 0.888014
0.34963 0 1
0.34963 0 1
0.34963 0 1
0.34963 0 1
0.34963 0 1
0.349599 0 1
1 0 0.665644
1 0 0.674937
1 0.566415 0.888014
0.34963 0 1
0.34963 0 1
0.34963 0 1
0.34963 0 1
0.34963 0 1
0.349599 0 1
1 0 0.665644
1 0 0.674937
1 0.566293 0.887984
0.349691 0 1
0.349691 0 1
0.349691 0 1
0.349691 0 1
0.349691 0 1
0.34966 0 1
1 0 0.665644
1 0 0.6757
1 0.565927 0.887892
0.350332 0 1
0.350332 0 1
0.350332 0 1
0.350332 0 1
0.350332 0 1
0.350301 0 1
1 0 0.665644
1 0 0.690257
0.987274 0.724971 0.925032
0 0.804349 1
0 0.804349 1
0 0.804349 1
0 0.804349 1
0 0.804349 1
0 0.806363 1
0.908431 0.828382 0.966369
0.927062 0.861921 0.960647
0.912856 0.896345 0.970123
0.455024 0.911299 1
0.455024 0.911299 1
0.455024 0.911299 1
0.455024 0.911299 1
0.455024 0.911299 1
0.455024 0.911299 1
0.852384 0.926619 0.998611
0.896376 0.9281 0.978912
0.899107 0.92874 0.977829
0.855894 0.927321 0.994766
0.855894 0.927321 0.994766
0.855894 0.927321 0.994766
0.855894 0.927321 0.994766
0.855894 0.927321 0.994766
0.855894 0.927321 0.994766
0.871824 0.928389 0.987701
0.892882 0.929778 0.978424
0.897795 0.929961 0.976547
0.25069 0.0855879 1
0.25069 0.0855879 1
0.25069 0.0855879 1
0.25069 0.0855879 1
0.25069 0.0855879 1
0.25069 0.0855879 1
0.25066 0.0856641 1
1 0 0.713405
1 0.604105 0.896696
0.25069 0.0855879 1
0.25069 0.0855879 1
0.25069 0.0855879 1
0.25069 0.0855879 1
0.25069 0.0855879 1
0.25069 0.0855879 1
0.25066 0.0856641 1
1 0 0.713405
1 0.604105 0.896696
0.25069 0.0855879 1
0.25069 0.0855879 1
0.25069 0.0855879 1
0.25069 0.0855879 1
0.25069 0.0855879 1
0.25069 0.0855879 1
0.25066 0.0856641 1
1 0 0.713405
1 0.604105 0.896696
0.25069 0.0855879 1
0.25069 0.0855879 1
0.25069 0.0855879 1
0.25069 0.0855879 1
0.25069 0.0855879 1
0.25069 0.0855879 1
0.25066 0.0856641 1
1 0 0.713405
1 0.604105 0.896696
0.25069 0.0855879 1
0.25069 0.0855879 1
0.25069 0.0855879 1
0.25069 0.0855879 1
0.25069 0.0855879 1
0.25069 0.0855879 1
0.25066 0.0856641 1
1 0 0.713405
1 0.604105 0.896696
0.250736 0.0854963 1
0.250736 0.0854963 1
0.250736 0.0854963 1
0.250736 0.0854963 1
0.250736 0.0854963 1
0.250736 0.0854963 1
0.250706 0.0855573 1
1 0 0.713771
1 0.605661 0.897047
0.251286 0.0841688 1
0.251286 0.0841688 1
0.251286 0.0841688 1
0.251286 0.0841688 1
0.251286 0.0841688 1
0.251286 0.0841688 1
0.251255 0.0842451 1
1 0.0978714 0.760296
1 0.608454 0.897688
0 0.883741 1
0 0.883741 1
0 0.883741 1
0 0.883741 1
0 0.883741 1
0 0.883741 1
0 0.88394 1
0.900847 0.912032 0.97705
0.904112 0.91751 0.975952
0.811048 0.923858 1
0.811048 0.923858 1
0.811048 0.923858 1
0.811048 0.923858 1
0.811048 0.923858 1
0.811048 0.923858 1
0.811048 0.923858 1
0.889296 0.929046 0.983383
0.899107 0.929961 0.979446
