BBLuts/BB_103_0928_LUT.cube
TITLE "Generated by Resolve"
LUT_3D_SIZE 5
0 0 0
0.17377 0 0
0.760052 0 0
0.953597 0.560082 0.200061
0.938735 0.878996 0.882521
0 0.188205 0
0.150973 0.192767 0
0.769924 0.0188602 0
0.953643 0.628107 0.154711
0.938766 0.879835 0.881987
0 0.774441 0
0 0.774044 0
0.767483 0.774136 0.011017
0.950698 0.816999 0.0371099
0.938964 0.885313 0.877943
0.669993 0.937057 0.313191
0.7093 0.932784 0.307958
0.837339 0.920516 0.312139
0.945876 0.911192 0.502525
0.938964 0.904433 0.897826
0.918151 0.911086 0.962524
0.918425 0.911086 0.962554
0.920485 0.911086 0.962844
0.931716 0.911086 0.965286
0.938201 0.910979 0.983322
0 0 0.206409
0.149859 0 0.206668
0.759747 0 0.140856
0.955108 0.54313 0.413291
0.938491 0.878569 0.895979
0 0.15317 0.186679
0.157626 0.15079 0.183932
0.760678 0 0.120668
0.955901 0.619791 0.390875
0.938521 0.879423 0.895537
0 0.77113 0
0 0.770687 0
0.77145 0.771176 0.0103914
0.950774 0.815961 0.149157
0.938704 0.884916 0.892119
0.676509 0.936324 0.311208
0.714336 0.932219 0.30634
0.838544 0.920394 0.311528
0.945953 0.911162 0.502464
0.938964 0.904418 0.897749
0.918181 0.911086 0.962524
0.918471 0.911086 0.962554
0.920516 0.911086 0.962829
0.931731 0.911086 0.965286
0.938201 0.910979 0.983322
0 0 0.837079
0 0 0.837263
0.756024 0 0.806363
0.935897 0.181918 0.874495
0.937819 0.876417 0.951446
0 0 0.835569
0 0 0.835767
0.762615 0 0.804822
0.953887 0.463813 0.890944
0.937835 0.877333 0.951232
0 0.728832 0.808515
0 0.729183 0.808865
0.749233 0.729595 0.82295
0.939773 0.789303 0.84976
0.937987 0.883146 0.949722
0.670054 0.927565 0.707973
0.706447 0.923476 0.704952
0.827558 0.911574 0.702571
0.935271 0.903304 0.762997
0.938491 0.903716 0.937942
0.918517 0.911086 0.962478
0.918807 0.911086 0.962524
0.920806 0.911086 0.962783
0.931838 0.911086 0.96524
0.938201 0.910979 0.983322
0 0 1
0 0 1
0 0 1
0.904845 0 1
0.937057 0.855665 1
0 0 1
0 0 1
0 0 1
0.904845 0 1
0.937087 0.857649 1
0 0 1
0 0 1
0.328496 0 1
0.904845 0 1
0.937301 0.86952 1
0.0878614 0.944457 1
0.0883345 0.943282 1
0.710872 0.910613 1
0.921126 0.894636 1
0.938079 0.901106 1
0.916548 0.910979 1
0.916823 0.910979 1
0.918776 0.910994 1
0.929641 0.911009 1
0.93814 0.910948 1
0 0.267338 1
0 0.267338 1
0 0.267369 1
0 0.266529 1
0.947051 0.717479 1
0 0.267323 1
0 0.267323 1
0 0.267338 1
0 0.266499 1
0.947036 0.717571 1
0 0.267155 1
0 0.267155 1
0 0.267185 1
0.418708 0.259052 1
0.946944 0.718273 1
0 0.265644 1
0 0.265644 1
0 0.26566 1
0.904845 0 1
0.946639 0.720485 1
0.878401 0.910796 1
0.879683 0.91078 1
0.887984 0.910796 1
0.919356 0.910903 1
0.938277 0.911116 1
