BBLuts/BB_104_0220_LUT.cube
TITLE "Generated by Resolve"
LUT_3D_SIZE 5
0 0 0
0.292073 0 0
0.949645 0 0
1 0.634379 0.012314
1 0.951003 0.773159
0 0.312337 0
0.174533 0.317006 0
0.918379 0.124132 0
1 0.674754 0
1 0.9514 0.772854
0 0.859449 0
0 0.859236 0
0.75697 0.825513 0
1 0.852201 0
1 0.956298 0.768688
0.614557 1 0.181384
0.614557 1 0.181384
0.77818 1 0.198352
1 0.982345 0.420233
1 0.981567 0.79556
0.963165 0.992309 0.885817
0.963165 0.992309 0.885817
0.963165 0.992309 0.885817
0.98146 0.991104 0.887449
0.997208 0.989609 0.913008
0 0 0.339925
0.233249 0 0.341207
0.944305 0 0.318822
0.921553 0.673411 0.187594
1 0.950988 0.773175
0 0.248234 0.265034
0.178256 0.245853 0.261311
0.939193 0 0.287755
0.964782 0.698039 0.200702
1 0.951385 0.772854
0 0.855665 0
0 0.855436 0
0.7617 0.821546 0
1 0.849638 0
1 0.956298 0.768688
0.62208 1 0.180117
0.62208 1 0.180117
0.780468 1 0.197284
1 0.9823 0.419898
1 0.981567 0.79556
0.963211 0.992309 0.885817
0.963211 0.992309 0.885817
0.963211 0.992309 0.885817
0.981491 0.991104 0.887434
0.997208 0.989609 0.913008
0 0 0.970336
0 0 0.970428
0.916487 0 0.941924
1 0.334676 0.867308
1 0.94757 0.863554
0 0 0.969238
0 0 0.969299
0.92607 0 0.940169
1 0.534127 0.835737
1 0.947951 0.863462
0 0.794308 0.801083
0 0.794354 0.801099
0.714122 0.764675 0.78436
1 0.813886 0.775311
1 0.95317 0.861006
0.605402 1 0.651606
0.605402 1 0.651606
0.758465 1 0.648646
0.989303 0.977661 0.682185
1 0.980346 0.840101
0.963745 0.992279 0.885725
0.963745 0.992279 0.885725
0.963745 0.992279 0.885725
0.981704 0.991104 0.887358
0.997208 0.989609 0.912993
0 0 1
0 0 1
0 0 1
1 0 1
1 0.916442 0.989319
0 0 1
0 0 1
0 0 1
1 0 1
1 0.917556 0.989181
0 0 1
0 0 1
0 0 1
1 0 1
1 0.929793 0.986603
0 1 1
0 1 1
0 1 1
0.964538 0.966003 0.976959
0.994842 0.975418 0.972992
0.957839 0.991272 0.957748
0.957839 0.991272 0.957748
0.957839 0.991272 0.957748
0.97496 0.990204 0.957305
0.996124 0.988891 0.963592
0 0.40763 1
0 0.40763 1
0 0.40763 1
0 0.407736 1
1 0.711101 1
0 0.40763 1
0 0.40763 1
0 0.40763 1
0 0.407736 1
1 0.711101 1
0 0.40763 1
0 0.40763 1
0 0.40763 1
0 0.407736 1
1 0.711101 1
0 0.405951 1
0 0.405951 1
0 0.405951 1
0 0.406043 1
1 0.714519 1
0.889006 0.994461 1
0.889006 0.994461 1
0.889006 0.994461 1
0.889006 0.994461 1
0.995483 0.988571 0.997223
