BBLuts/BB_104_0180_LUT.cube
TITLE "Generated by Resolve"
LUT_3D_SIZE 33
0.0100099 0.0194705 0.0323644
0.0100099 0.0194705 0.0323644
0.0100099 0.0194705 0.0323644
0.0100099 0.0194705 0.0323644
0.0100099 0.0194705 0.0323644
0.0502174 0.0200809 0.0331121
0.0971695 0.0208133 0.0339818
0.131594 0.0211948 0.0344854
0.167712 0.0213779 0.0347906
0.214191 0.0213626 0.0349584
0.271351 0.0210727 0.0350652
0.337667 0.020798 0.0355535
0.415702 0.0217899 0.0382086
0.505333 0.0280919 0.0485542
0.582498 0.0501411 0.0809339
0.639506 0.117144 0.174792
0.698634 0.260639 0.319005
0.751125 0.4065 0.465202
0.794583 0.527871 0.570199
0.828107 0.591592 0.621195
0.83415 0.600473 0.630182
0.83415 0.600473 0.630182
0.833951 0.603159 0.630533
0.833432 0.609506 0.630488
0.832227 0.623621 0.629587
0.829801 0.649958 0.626627
0.825986 0.688334 0.61941
0.822171 0.728801 0.606119
0.819364 0.762158 0.587549
0.817334 0.788586 0.569924
0.815274 0.808286 0.590173
0.812818 0.822705 0.651591
0.810788 0.834363 0.711147
0.0100099 0.0194705 0.0323644
0.0100099 0.0194705 0.0323644
0.0100099 0.0194705 0.0323644
0.0100099 0.0194705 0.0323644
0.0100099 0.0194705 0.0323644
0.0596628 0.0202335 0.0332952
0.100465 0.0208438 0.0340276
0.13434 0.02121 0.0345006
0.172442 0.0213931 0.0348211
0.22005 0.0213474 0.0349737
0.277562 0.0210422 0.0350805
0.343343 0.020798 0.0356451
0.419257 0.0218814 0.0384375
0.507424 0.028397 0.0489815
0.583505 0.0508583 0.0819409
0.640269 0.118547 0.176501
0.699077 0.261799 0.32015
0.751293 0.407019 0.465721
0.794537 0.527749 0.570108
0.827878 0.591272 0.620874
0.83415 0.600473 0.630182
0.83415 0.600473 0.630182
0.833906 0.603738 0.630289
0.833356 0.610513 0.63032
0.832105 0.625162 0.629374
0.829618 0.65185 0.626291
0.825818 0.690135 0.618845
0.822065 0.730037 0.605325
0.819318 0.76289 0.586618
0.817334 0.789044 0.568215
0.815259 0.808515 0.589364
0.812818 0.822843 0.651225
0.810788 0.83444 0.711025
0.0100099 0.0194705 0.0323644
0.0100099 0.0194705 0.0323644
0.0100099 0.0194705 0.0323644
0.0100099 0.0194705 0.0323644
0.0100099 0.0194705 0.0323644
0.0652781 0.020325 0.0334173
0.10161 0.0208591 0.0340429
0.13695 0.0212406 0.0345464
0.177401 0.0214084 0.0348363
0.225498 0.0213321 0.0349737
0.282322 0.0210269 0.035111
0.346395 0.020798 0.0357061
0.422217 0.0219883 0.0386358
0.509651 0.0287022 0.0494698
0.584497 0.0515755 0.0829938
0.641016 0.119936 0.17818
0.699504 0.262928 0.321294
0.751461 0.407507 0.466224
0.794476 0.527596 0.56997
0.827665 0.590967 0.620523
0.83415 0.600473 0.630182
0.83415 0.600473 0.630182
0.83386 0.604349 0.629862
0.833265 0.611551 0.630152
0.831952 0.626734 0.62916
0.829435 0.653742 0.625956
0.825635 0.691936 0.61825
0.821958 0.731228 0.604501
0.819272 0.763607 0.585672
0.817304 0.789471 0.566445
0.815259 0.808774 0.588556
0.812802 0.822995 0.650889
0.810773 0.834531 0.710887
0.0100099 0.0194705 0.0323644
0.0100099 0.0194705 0.0323644
0.0100099 0.0194705 0.0323644
0.00920119 0.023682 0.0320439
0.027451 0.0277562 0.032105
0.0695811 0.0203861 0.0334936
0.102129 0.0208591 0.0340581
0.137179 0.0212406 0.0345464
0.178256 0.0214237 0.0348363
0.227726 0.0213321 0.0349889
0.285405 0.0209964 0.035111
0.349142 0.0208133 0.0357671
0.425071 0.0220951 0.038819
0.511879 0.0290227 0.0499886
0.585489 0.0523384 0.0840772
0.641779 0.121386 0.179919
0.699931 0.264057 0.322423
0.751614 0.40795 0.466667
0.794385 0.527398 0.569802
0.827405 0.590616 0.620157
0.83415 0.600473 0.630182
0.83415 0.600473 0.630182
0.833799 0.605051 0.629816
0.833173 0.612665 0.629969
0.831815 0.628336 0.628931
0.829236 0.655665 0.625589
0.825467 0.693675 0.6177
0.821851 0.732433 0.603693
0.819226 0.764309 0.584695
0.817288 0.789914 0.56463
0.815244 0.809018 0.587762
0.812787 0.823148 0.650523
0.810773 0.834623 0.710765
0.00256352 0.0582437 0.0294347
0.00213626 0.0604257 0.0292668
0.00173953 0.062501 0.0291142
0.00135805 0.0645304 0.0289616
0.0011902 0.0653086 0.0289006
0.0542153 0.0655985 0.0298314
0.0898756 0.0644846 0.0305943
0.127062 0.0610361 0.0314336
0.171847 0.0523232 0.0324712
0.228717 0.0213169 0.0350042
0.28719 0.0209812 0.0351263
0.351675 0.0208133 0.0358129
0.427832 0.0222019 0.0390173
0.514138 0.0293736 0.0505074
0.586496 0.0531167 0.0852064
0.642542 0.122866 0.181674
0.700359 0.265171 0.323522
0.751751 0.408362 0.467079
0.794293 0.527199 0.569635
0.827161 0.59028 0.619791
0.83415 0.600473 0.630182
0.834089 0.601312 0.630121
0.833738 0.605783 0.629755
0.833066 0.613809 0.629755
0.831662 0.629984 0.628687
0.829053 0.657588 0.625223
0.825299 0.695415 0.617121
0.821759 0.733608 0.602869
0.819181 0.765011 0.583719
0.817273 0.790341 0.562783
0.815229 0.809262 0.586969
0.812787 0.823301 0.650172
0.810758 0.834699 0.710628
0 0.0821546 0.0276188
0 0.0838788 0.0274815
0 0.0855879 0.0273442
0 0.0869154 0.0272374
0 0.0875715 0.0271916
0.0340887 0.0880903 0.0277867
0.0792401 0.0881971 0.0286564
0.118456 0.0871138 0.0294194
0.164019 0.084062 0.0301366
0.220813 0.0774548 0.0309148
0.283482 0.0640726 0.0320439
0.353887 0.0208286 0.0358587
0.43064 0.0223087 0.0392157
0.516503 0.0297551 0.0510872
0.587564 0.0539712 0.0864576
0.643381 0.124498 0.183566
0.700801 0.266331 0.324681
0.751904 0.408789 0.467521
0.794202 0.52697 0.569436
0.826886 0.589899 0.619379
0.83415 0.600473 0.630182
0.833997 0.602625 0.630014
0.833677 0.606622 0.629679
0.832975 0.615061 0.629496
0.83151 0.631739 0.628428
0.828855 0.659586 0.624826
0.825116 0.697185 0.616526
0.821653 0.734798 0.601999
0.819135 0.765728 0.58262
0.817258 0.790784 0.560815
0.815229 0.809522 0.586114
0.812772 0.823453 0.649775
0.810742 0.834806 0.710491
0 0.107256 0.0254826
0 0.108705 0.0253605
0 0.11014 0.0252232
0 0.110948 0.0251469
0 0.111467 0.0251164
0 0.11165 0.0251011
0.0616312 0.112627 0.0264744
0.106905 0.112581 0.0273747
0.154467 0.111299 0.0281376
0.21474 0.108019 0.0288548
0.279484 0.101381 0.0297246
0.350515 0.0908064 0.0314946
0.431098 0.0719615 0.0365911
0.519524 0.0302739 0.0518502
0.588952 0.0551308 0.0880903
0.64445 0.126604 0.186007
0.701381 0.267872 0.326223
0.752087 0.409323 0.468055
0.794064 0.526619 0.569162
0.82652 0.589395 0.61883
0.83415 0.600473 0.630182
0.833921 0.603479 0.629953
0.83357 0.607767 0.629587
0.832822 0.616754 0.629038
0.831296 0.634043 0.628077
0.828611 0.662181 0.624292
0.824903 0.699458 0.615732
0.82153 0.736324 0.600839
0.819074 0.766644 0.58114
0.817243 0.791348 0.558206
0.815213 0.809842 0.585016
0.812757 0.823651 0.649287
0.810742 0.834913 0.710307
0 0.135988 0.0230106
0 0.137255 0.0228885
0 0.138201 0.022797
0 0.138842 0.0227512
0 0.139269 0.0227054
0 0.139528 0.0226749
0.0128634 0.140063 0.0232395
0.0879377 0.14107 0.0248112
0.139788 0.140932 0.0258183
0.204425 0.13904 0.0267185
0.273182 0.134768 0.0276951
0.34876 0.128756 0.0295415
0.432364 0.121614 0.0347601
0.521202 0.114275 0.0497902
0.590692 0.104601 0.089662
0.645884 0.129503 0.189303
0.702159 0.269917 0.328267
0.752316 0.410025 0.468803
0.793851 0.526162 0.568765
0.826001 0.588708 0.618067
0.834043 0.601984 0.63006
0.833829 0.604608 0.629847
0.833448 0.60943 0.629435
0.832624 0.61912 0.628489
0.831006 0.637171 0.627573
0.82826 0.665614 0.623575
0.824628 0.702388 0.614649
0.821363 0.738293 0.599298
0.818998 0.767834 0.579019
0.817227 0.792096 0.554604
0.815213 0.810269 0.583474
0.812741 0.823911 0.648661
0.810727 0.835065 0.710079
0 0.174929 0.0192569
0 0.176181 0.0191196
0 0.176883 0.019028
0 0.177584 0.0189517
0 0.178088 0.0188907
0 0.178439 0.0188754
0 0.178637 0.0188449
0.0474403 0.179828 0.0204471
0.115373 0.179736 0.0222171
0.185458 0.17818 0.0236973
0.261311 0.174884 0.0251164
0.343313 0.170123 0.0274052
0.432898 0.165576 0.0334325
0.524636 0.165743 0.0500496
0.593332 0.180728 0.0924239
0.648676 0.224079 0.195453
0.703151 0.304692 0.33109
0.752636 0.410956 0.469734
0.793545 0.525429 0.568139
0.825132 0.589456 0.616831
0.833906 0.603632 0.629938
0.833692 0.606332 0.629709
0.833234 0.611872 0.629206
0.832334 0.622522 0.628122
0.83061 0.641413 0.626856
0.827817 0.670146 0.622553
0.824262 0.706172 0.613184
0.821164 0.74081 0.597208
0.818906 0.76939 0.575769
0.817197 0.793057 0.549584
0.815198 0.810819 0.581308
0.812711 0.824247 0.647776
0.810697 0.835264 0.709773
0 0.225742 0.0122072
0 0.226154 0.0121462
0 0.226535 0.0120699
0 0.226886 0.0120241
0 0.22707 0.0119783
0 0.227131 0.0119783
0 0.227024 0.0119936
0 0.226673 0.0120546
0.0709392 0.227939 0.0151369
0.150973 0.228031 0.0176547
0.239475 0.226337 0.0200351
0.330602 0.222736 0.0231174
0.428641 0.218616 0.0301518
0.526757 0.218219 0.0487984
0.596109 0.230732 0.0941482
0.651087 0.267872 0.199603
0.704173 0.339101 0.333745
0.752255 0.438727 0.469261
0.792737 0.534691 0.566735
0.82388 0.59028 0.615061
0.833738 0.605676 0.62977
0.833478 0.609064 0.629465
0.832929 0.615564 0.628855
0.831907 0.627375 0.627573
0.830076 0.647211 0.625788
0.827222 0.676112 0.621103
0.823819 0.710964 0.61117
0.820905 0.743999 0.594339
0.818799 0.771359 0.570718
0.817166 0.794308 0.542458
0.815183 0.811551 0.578042
0.812696 0.824689 0.646632
0.810681 0.835523 0.709361
0 0.283055 0.000228885
0 0.283452 0.000122072
0 0.283894 3.0518e-05
0 0.284184 0
0 0.284428 0
0 0.284581 0
0 0.284642 0
0 0.28452 0
0 0.284077 0
0.0896925 0.286595 0.00529488
0.198703 0.287419 0.00953689
0.30544 0.285496 0.0137789
0.415473 0.282048 0.0217746
0.524544 0.281376 0.0424659
0.59765 0.290227 0.091249
0.653147 0.318425 0.201144
0.705165 0.374685 0.335805
0.752102 0.458747 0.469108
0.791714 0.541329 0.564813
0.82208 0.591623 0.612482
0.833463 0.609155 0.629465
0.833112 0.613443 0.629053
0.832441 0.621164 0.628275
0.831281 0.634333 0.626703
0.829313 0.655039 0.624048
0.826444 0.683925 0.619013
0.82327 0.717006 0.608347
0.8206 0.747997 0.590463
0.818662 0.774151 0.563394
0.817136 0.795911 0.53196
0.815167 0.812497 0.572778
0.81265 0.825269 0.64509
0.810636 0.835859 0.708827
0 0.35433 0
0 0.354772 0
0 0.355169 0
0 0.355489 0
0 0.355734 0
0 0.355932 0
0 0.356085 0
0 0.356146 0
0 0.355993 0
0 0.355627 0
0.106645 0.360037 0
0.255711 0.361898 0
0.387243 0.360342 0.00263981
0.51284 0.359716 0.0243076
0.594949 0.364843 0.0751202
0.653086 0.384039 0.191714
0.705226 0.42417 0.333852
0.751385 0.489479 0.466972
0.789944 0.553292 0.56141
0.819394 0.595331 0.608652
0.832975 0.615137 0.628901
0.832502 0.620569 0.628336
0.831693 0.629725 0.627298
0.83035 0.644221 0.625299
0.82829 0.665568 0.621454
0.825467 0.693812 0.615946
0.822599 0.724437 0.604364
0.820233 0.75288 0.585733
0.818509 0.77734 0.552422
0.817121 0.797971 0.515709
0.815152 0.813718 0.564813
0.812604 0.826017 0.643015
0.81059 0.836286 0.708125
0 0.442847 0
0 0.443275 0
0 0.443656 0
0 0.443961 0
0 0.444205 0
0 0.444434 0
0 0.444633 0
0 0.4448 0
0 0.444953 0
0 0.44506 0
0 0.44506 0
0.127779 0.452964 0
0.328847 0.456275 0
0.483864 0.455222 0
0.585641 0.456962 0.0309606
0.647807 0.467689 0.148165
0.7028 0.492195 0.319387
0.749554 0.530694 0.459876
0.787182 0.573709 0.555596
0.815625 0.603891 0.603204
0.83209 0.625284 0.627817
0.831495 0.631983 0.626993
0.830533 0.642481 0.625559
0.829038 0.657984 0.622965
0.826902 0.679454 0.618204
0.824308 0.705898 0.611444
0.821836 0.733379 0.598642
0.819821 0.758755 0.578531
0.818357 0.781323 0.535088
0.817166 0.800595 0.488518
0.815152 0.815305 0.552819
0.812543 0.826978 0.640223
0.810529 0.836866 0.707149
0 0.538018 0
0 0.538277 0
0 0.538521 0
0 0.538705 0
0 0.538872 0
0 0.539025 0
0 0.539193 0
0 0.539345 0
0 0.539452 0
0 0.539483 0
0 0.539345 0
0 0.538933 0
0.175021 0.546929 0
0.423194 0.547845 0
0.564416 0.546944 0
0.636164 0.549035 0.046952
0.696818 0.560021 0.272877
0.745769 0.578607 0.440604
0.782818 0.598093 0.544762
0.81033 0.620508 0.595117
0.830594 0.641703 0.625666
0.829862 0.649393 0.62446
0.828763 0.660716 0.622431
0.827207 0.676463 0.618967
0.825177 0.69691 0.61297
0.823011 0.720104 0.604654
0.820996 0.743755 0.590295
0.819364 0.765728 0.564279
0.818235 0.786221 0.504875
0.817334 0.803906 0.435523
0.815167 0.817304 0.533761
0.812482 0.828199 0.636423
0.810452 0.837583 0.705913
0 0.604639 0
0 0.604746 0
0 0.604837 0
0 0.604913 0
0 0.604974 0
0 0.60502 0
0 0.605081 0
0 0.605112 0
0 0.605127 0
0 0.605081 0
0 0.604944 0
0 0.604578 0
0 0.603906 0
0.265843 0.609857 0
0.517693 0.609201 0
0.617395 0.608774 0
0.68452 0.611795 0.0852979
0.737835 0.620432 0.384894
0.77583 0.632502 0.520363
0.802991 0.64741 0.582742
0.824033 0.663676 0.614832
0.827466 0.673838 0.619593
0.826352 0.685008 0.616693
0.824918 0.699596 0.612024
0.823316 0.71693 0.604608
0.821653 0.736004 0.594079
0.820127 0.755352 0.578073
0.818921 0.774166 0.538979
0.818235 0.792111 0.44651
0.817853 0.808133 0.319722
0.81529 0.819898 0.499229
0.812406 0.829755 0.631189
0.810361 0.838514 0.704219
0 0.661051 0
0 0.661097 0
0 0.661128 0
0 0.661158 0
0 0.661173 0
0 0.661173 0
0 0.661189 0
0 0.661173 0
0 0.661128 0
0 0.661021 0
0 0.660792 0
0 0.66038 0
0 0.659632 0
0 0.658579 0
0.375158 0.664759 0
0.587945 0.663767 0
0.666026 0.663767 0.00125124
0.7243 0.667659 0.104799
0.764874 0.674876 0.442725
0.793057 0.683558 0.549233
0.814038 0.694179 0.593591
0.824475 0.704402 0.610208
0.823621 0.713558 0.606256
0.822614 0.72491 0.600198
0.821485 0.738216 0.590799
0.820356 0.752789 0.577371
0.819318 0.767819 0.549798
0.818631 0.783597 0.485084
0.818738 0.799252 0.297627
0.818235 0.812512 0.0153964
0.815686 0.82327 0.420325
0.812314 0.831678 0.623865
0.810239 0.839658 0.702022
0 0.715679 0
0 0.715663 0
0 0.715648 0
0 0.715618 0
0 0.715618 0
0 0.715587 0
0 0.715541 0
0 0.715465 0
0 0.715328 0
0 0.715145 0
0 0.714809 0
0 0.714275 0
0 0.713466 0
0 0.712322 0
0 0.710872 0
0.500893 0.716625 0.00433356
0.640391 0.714855 0.0034638
0.706508 0.715175 0.0053254
0.750591 0.7178 0.00820935
0.781582 0.723049 0.420844
0.803433 0.728481 0.544564
0.819165 0.735439 0.587503
0.82118 0.742061 0.587701
0.820584 0.749889 0.580041
0.819944 0.759136 0.563851
0.819333 0.769604 0.533104
0.81883 0.781567 0.48098
0.819043 0.794446 0.31075
0.818708 0.806287 0.0151827
0.817838 0.817243 0.0155642
0.816846 0.82771 0.116915
0.812238 0.834028 0.613382
0.810086 0.841093 0.699046
0 0.761257 0.000198367
0 0.761212 0.000183108
0 0.761151 0.000167849
0 0.76109 0.00015259
0 0.761013 0.000137331
0 0.760952 0.000122072
0 0.760845 0.000106813
0 0.760708 6.10361e-05
0 0.76051 1.5259e-05
0 0.76022 0
0 0.759762 0
0 0.759091 0
0 0.75816 0
0 0.756939 0
0 0.755337 0
0 0.753414 0
0.604288 0.756802 0.00830091
0.68751 0.755108 0.00761425
0.736156 0.755444 0.00921645
0.76968 0.757183 0.0110628
0.794553 0.760678 0.212589
0.810483 0.763546 0.489616
0.81944 0.767651 0.540322
0.819211 0.77261 0.519982
0.819043 0.779232 0.479301
0.81915 0.787106 0.382788
0.819486 0.795956 0.092546
0.81883 0.8047 0.0151369
0.818112 0.813657 0.0154421
0.817349 0.822644 0.0157473
0.816556 0.831479 0.0160372
0.812177 0.836881 0.597711
0.809903 0.842878 0.695048
0 0.795758 0.0096437
0 0.795682 0.00961318
0 0.79559 0.00958267
0 0.795499 0.00956741
0 0.795407 0.00953689
0 0.7953 0.00950637
0 0.795163 0.00946059
0 0.79498 0.00941482
0 0.79472 0.00933852
0 0.794339 0.00923171
0 0.793805 0.00906386
0 0.793088 0.00886549
0 0.792096 0.00857557
0 0.790829 0.00820935
0 0.789197 0.00773632
0 0.787198 0.00717174
0.521508 0.789609 0.0154879
0.667964 0.78584 0.0108034
0.722499 0.784909 0.0110475
0.758572 0.785153 0.0122072
0.784848 0.786282 0.0133059
0.803464 0.788266 0.0140688
0.817777 0.791318 0.121157
0.819623 0.794263 0.0559548
0.819333 0.798062 0.0149081
0.818967 0.802869 0.0150607
0.818524 0.808469 0.015259
0.818021 0.814633 0.0154726
0.817441 0.821378 0.0157015
0.8168 0.82855 0.0159457
0.816114 0.835813 0.0161746
0.812192 0.840208 0.57641
0.809705 0.844984 0.689632
0 0.822034 0.0174105
0 0.821912 0.01738
0 0.821805 0.0173495
0 0.821683 0.0173037
0 0.821576 0.0172732
0 0.821454 0.0172427
0 0.821286 0.0171817
0 0.821057 0.0171206
0 0.820752 0.0170291
0 0.820325 0.016907
0 0.819791 0.0167391
0 0.819043 0.0165255
0 0.818082 0.0162356
0 0.816815 0.0158541
0 0.815229 0.0153811
0 0.81326 0.0148013
0 0.811048 0.0141451
0.646052 0.809949 0.0142519
0.70959 0.808087 0.0130007
0.748119 0.807492 0.013489
0.775601 0.807584 0.0141756
0.795438 0.808286 0.0147402
0.810758 0.809598 0.0151522
0.81828 0.811353 0.0153658
0.818112 0.813474 0.0154269
0.817868 0.816342 0.0155337
0.817548 0.819959 0.0156558
0.817151 0.824323 0.0158083
0.816693 0.829313 0.0159762
0.816159 0.834775 0.016144
0.815595 0.840482 0.0162966
0.811933 0.843671 0.564935
0.809476 0.847471 0.682139
0 0.841108 0.0229801
0 0.84097 0.0229343
0 0.840848 0.0229038
0 0.840711 0.022858
0 0.840589 0.0228275
0 0.840452 0.0227817
0 0.840269 0.0227359
0 0.840024 0.0226749
0 0.839719 0.0225681
0 0.839307 0.0224613
0 0.838758 0.0223087
0 0.838026 0.0220951
0 0.837095 0.0218204
0 0.835874 0.0214694
0 0.834348 0.0210269
0 0.832486 0.0204929
0 0.830472 0.0198978
0.625025 0.828229 0.0174411
0.699138 0.82562 0.0146181
0.739727 0.824521 0.0145266
0.767422 0.824079 0.0149233
0.788266 0.824094 0.0153201
0.804425 0.824537 0.0156405
0.816556 0.825467 0.0158389
0.816922 0.826566 0.0158846
0.81677 0.828305 0.0159304
0.816526 0.830671 0.0160067
0.816236 0.833616 0.0161135
0.815885 0.83711 0.0162203
0.815457 0.841062 0.0163272
0.81503 0.845335 0.016434
0.811597 0.847471 0.553765
0.80911 0.850156 0.681804
0 0.85539 0.0269169
0 0.855253 0.0268864
0 0.855131 0.0268559
0 0.854994 0.0268101
0 0.854856 0.0267796
0 0.854734 0.0267491
0 0.854566 0.0267033
0 0.854307 0.0266423
0 0.854017 0.0265507
0 0.85362 0.0264591
0 0.853086 0.0263066
0 0.852415 0.0261234
0 0.851545 0.0258793
0 0.850401 0.0255741
0 0.848997 0.0251926
0 0.847349 0.0247349
0 0.845609 0.0242466
0.608423 0.842741 0.0200961
0.691646 0.839567 0.0158846
0.733211 0.838239 0.0153506
0.760784 0.837537 0.0155337
0.781826 0.837217 0.0157931
0.798367 0.837171 0.0160372
0.811048 0.837476 0.0161746
0.815747 0.83801 0.0162356
0.815656 0.83888 0.0162661
0.815503 0.840253 0.0162966
0.815305 0.842115 0.0163577
0.815045 0.844404 0.0164034
0.81474 0.84715 0.0164797
0.81442 0.850294 0.016556
0.811124 0.851408 0.549096
0.808682 0.853071 0.68365
0 0.865888 0.029633
0 0.865782 0.0296178
0 0.865644 0.0295872
0 0.865538 0.0295567
0 0.8654 0.0295262
0 0.865278 0.0294957
0 0.86511 0.0294499
0 0.864912 0.0293889
0 0.864607 0.0293278
0 0.864256 0.029221
0 0.863783 0.029099
0 0.863142 0.0289464
0 0.862333 0.0287327
0 0.861326 0.0284733
0 0.860121 0.0281682
0 0.858763 0.0278172
0 0.857313 0.0274357
0.607462 0.853742 0.0213169
0.689189 0.850492 0.0167086
0.729335 0.849119 0.0159457
0.755947 0.84831 0.0159762
0.77673 0.847776 0.016144
0.793118 0.847471 0.0163119
0.805997 0.84741 0.016434
0.814633 0.847547 0.016495
0.814588 0.847837 0.016495
0.814511 0.848524 0.0165103
0.814374 0.849622 0.0165408
0.814206 0.851102 0.0165713
0.814008 0.852964 0.0166018
0.813779 0.855192 0.0166476
0.810468 0.855253 0.559197
0.808194 0.856077 0.687434
0 0.873243 0.0314336
0 0.873152 0.0314031
0 0.873045 0.0313725
0 0.872923 0.0313573
0 0.872816 0.0313268
0 0.872709 0.0312963
0 0.872557 0.0312657
0 0.872358 0.03122
0 0.872114 0.0311589
0 0.871778 0.0310826
0 0.871366 0.0309758
0 0.870832 0.0308537
0 0.870176 0.0306859
0 0.869368 0.0305028
0 0.868437 0.0302739
0 0.867384 0.0300145
0 0.866255 0.0297246
0.628168 0.861448 0.0205234
0.693065 0.8589 0.0170596
0.728618 0.857649 0.0163424
0.753277 0.85684 0.0162661
0.772931 0.856245 0.0163882
0.788998 0.855817 0.0165103
0.801633 0.855543 0.0166018
0.811887 0.855467 0.0166476
0.813581 0.855467 0.0166629
0.81355 0.855695 0.0166629
0.813489 0.85626 0.0166781
0.813397 0.857145 0.0166934
0.813275 0.858335 0.0167086
0.813153 0.859815 0.0167391
0.809567 0.858732 0.584665
0.807675 0.859037 0.693812
0 0.878294 0.0325933
0 0.878202 0.032578
0 0.878111 0.0325475
0 0.878035 0.0325322
0 0.877943 0.032517
0 0.877852 0.0325017
0 0.877745 0.0324712
0 0.877607 0.0324407
0 0.877424 0.0323949
0 0.87718 0.0323491
0 0.87686 0.0322728
0 0.876478 0.0321813
0 0.876005 0.0320745
0 0.875425 0.0319371
0 0.874754 0.0317845
0 0.873976 0.0316014
0.536538 0.871748 0.0275273
0.657954 0.867063 0.0189975
0.702251 0.865385 0.0170748
0.730907 0.864378 0.016556
0.75288 0.863615 0.0164645
0.770947 0.863005 0.0165408
0.785992 0.862531 0.0166323
0.798138 0.862165 0.0167086
0.808148 0.861936 0.0167544
0.81265 0.861769 0.0167544
0.812665 0.861738 0.0167544
0.812665 0.861921 0.0167697
0.812634 0.862348 0.0167697
0.812589 0.86305 0.0167849
0.812573 0.863966 0.0167849
0.808499 0.861769 0.615045
0.807126 0.861891 0.703166
0 0.879377 0.0328374
0 0.879377 0.0328374
0 0.879377 0.0328374
0 0.879377 0.0328374
0 0.879377 0.0328374
0 0.879377 0.0328374
0 0.879377 0.0328374
0 0.879393 0.0328374
0 0.879393 0.0328374
0 0.879393 0.0328374
0 0.879408 0.0328374
0 0.879408 0.0328374
0 0.879408 0.0328527
0 0.879423 0.0328527
0 0.879301 0.0328222
0.565499 0.876188 0.0262608
0.646693 0.872755 0.0199283
0.686809 0.871168 0.017792
0.71458 0.870161 0.0169375
0.736355 0.869413 0.0166323
0.754879 0.868757 0.0165866
0.770718 0.868193 0.0166323
0.784298 0.867704 0.0166934
0.795636 0.867323 0.0167544
0.805203 0.867002 0.0168002
0.811856 0.866789 0.0168154
0.811902 0.86659 0.0168154
0.811948 0.866545 0.0168154
0.811978 0.866712 0.0168154
0.811994 0.867063 0.0168154
0.812055 0.867613 0.0168307
0.807446 0.864469 0.649454
0.806577 0.86453 0.715312
0 0.879454 0.0328527
0 0.879454 0.0328527
0 0.879454 0.0328527
0 0.879454 0.0328527
0 0.879454 0.0328527
0 0.879454 0.0328527
0 0.879454 0.0328527
0 0.879454 0.0328527
0 0.879454 0.0328527
0 0.879469 0.0328527
0.356161 0.880919 0.0352636
0.531228 0.877775 0.0283055
0.590234 0.876005 0.0243839
0.623362 0.874784 0.0216678
0.650355 0.873945 0.0197604
0.673472 0.873381 0.0184482
0.693828 0.87303 0.0175784
0.711971 0.872847 0.0170596
0.72871 0.872786 0.0167697
0.74435 0.872801 0.0166629
0.758877 0.872633 0.0166476
0.772045 0.872145 0.0166934
0.783856 0.871702 0.0167391
0.794125 0.871305 0.0167849
0.802945 0.870985 0.0168307
0.810239 0.870726 0.016846
0.811276 0.870481 0.016846
0.811353 0.870329 0.016846
0.811429 0.870314 0.016846
0.811521 0.870451 0.016846
0.808072 0.867872 0.585992
0.806546 0.866819 0.682689
0.806104 0.86688 0.72961
0.660639 0.873716 0.0191348
0.661952 0.873686 0.0190585
0.663249 0.873655 0.0189822
0.6645 0.87361 0.0189212
0.665736 0.873594 0.0188449
0.666987 0.873564 0.0187839
0.668574 0.873533 0.0186923
0.670588 0.873487 0.0185855
0.673152 0.873426 0.0184634
