BBLuts/BB_102_0480_LUT.cube
TITLE "Generated by Resolve"
LUT_3D_SIZE 5
0.000350958 0.00135805 0.000198367
0.158526 0 0
0.698482 0 0
0.93373 0.505974 0.046128
0.902571 0.99379 0.6336
0 0.181704 0
0.112703 0.184497 0
0.703197 0.0849165 0
0.928466 0.566857 0.0169223
0.902525 0.994339 0.63331
0 0.7617 0
0 0.761395 0
0.589303 0.756252 0
0.908461 0.820996 0
0.902007 1 0.628946
0.442359 1 0.119661
0.442359 1 0.119661
0.631022 1 0.131624
0.888808 1 0.249363
0.899031 1 0.66479
0.858808 1 0.773983
0.858808 1 0.773983
0.858808 1 0.773983
0.879393 1 0.777386
0.897169 1 0.810483
0.00134279 0.00291447 0.126009
0.133318 0.000274662 0.122957
0.700496 0 0.114
0.936858 0.493919 0.170489
0.902571 0.993774 0.633616
0 0.149355 0.114595
0.118502 0.147662 0.110826
0.70045 0.00631724 0.104112
0.932326 0.559213 0.157153
0.902525 0.994324 0.63331
0 0.756313 0
0 0.756008 0
0.594614 0.750973 0
0.910231 0.820706 0.0152743
0.902007 1 0.628946
0.451301 1 0.119326
0.451301 1 0.119326
0.633509 1 0.131212
0.888884 1 0.249165
0.899031 1 0.66479
0.858854 1 0.773983
0.858854 1 0.773983
0.858854 1 0.773983
0.879423 1 0.777371
0.897169 1 0.810483
0 0 0.639292
0 0 0.639399
0.686046 0 0.62385
0.95201 0.234257 0.645594
0.902251 0.990662 0.743145
0 0 0.638041
0 0 0.638117
0.696406 0 0.621912
0.943832 0.383215 0.643473
0.90222 0.991257 0.742992
0 0.69398 0.592966
0 0.694041 0.592996
0.566506 0.691814 0.597345
0.917144 0.792004 0.617472
0.901671 0.998993 0.740932
0.445548 1 0.468666
0.445548 1 0.468666
0.621775 1 0.474342
0.882887 1 0.528328
0.898833 1 0.718868
0.85948 1 0.773907
0.85948 1 0.773907
0.85948 1 0.773907
0.879637 1 0.777295
0.897169 1 0.810452
0 0 0.916915
0 0 0.916915
0 0 0.916915
0.955505 0 0.903197
0.904326 0.947051 0.895598
0 0 0.916915
0 0 0.916915
0 0 0.916915
0.955505 0 0.903197
0.904204 0.948714 0.895476
0 0 0.916915
0 0 0.916915
0 0 0.916915
0.955505 0 0.903197
0.902937 0.966644 0.893996
0 1 0.878065
0 1 0.878065
0 1 0.878065
0.860822 1 0.884367
0.898177 1 0.887739
0.854154 1 0.863264
0.854154 1 0.863264
0.854154 1 0.863264
0.873503 1 0.864179
0.896727 1 0.874205
0 0.252155 0.918868
0 0.252155 0.918868
0 0.252155 0.918868
0 0.252232 0.918868
0.924834 0.647837 0.917678
0 0.252155 0.918868
0 0.252155 0.918868
0 0.252155 0.918868
0 0.252232 0.918868
0.924834 0.647837 0.917678
0 0.252155 0.918868
0 0.252155 0.918868
0 0.252155 0.918868
0 0.252232 0.918868
0.924834 0.647837 0.917678
0 0.251087 0.918868
0 0.251087 0.918868
0 0.251087 0.918868
0 0.251133 0.918868
0.924514 0.652644 0.917678
0.777264 1 0.91519
0.777264 1 0.91519
0.777264 1 0.91519
0.777264 1 0.91519
0.896422 1 0.915831
