BBLuts/BB_103_0350_LUT.cube
TITLE "Generated by Resolve"
LUT_3D_SIZE 9
0 0 0
0 0 0
0.117525 0 0
0.342016 0 0
0.651667 0 0
0.82504 0 0
0.81529 0.44033 0.0471962
0.788739 0.762768 0.285374
0.777401 0.85803 0.592798
0 0 0
0 0.00805676 0
0.124102 0 0
0.352483 0 0
0.653712 0 0
0.82504 0 0
0.812421 0.476417 0.0388342
0.788434 0.76669 0.283253
0.777371 0.858488 0.592584
0 0.134325 0
0 0.137346 0
0.0816815 0.135897 0
0.354253 0.109728 0
0.655207 0.00848402 0
0.827131 0.130205 0
0.807843 0.525963 0.0225223
0.787976 0.772717 0.279881
0.77731 0.859236 0.592218
0 0.382239 0
0 0.383429 0
0 0.38407 0
0.281834 0.391363 0
0.645121 0.382635 0
0.810758 0.446418 0
0.796002 0.625238 0
0.786847 0.788434 0.270054
0.777173 0.861372 0.591165
0 0.707088 0
0 0.707012 0
0 0.706645 0
0 0.704234 0
0.575204 0.702953 0
0.76408 0.71223 0
0.785489 0.753735 0
0.784512 0.819913 0.273243
0.776791 0.867018 0.587991
0 0.867781 0
0 0.867109 0
0 0.866011 0
0 0.862638 0
0.551461 0.848905 0
0.72282 0.84126 0
0.779782 0.843168 0
0.781216 0.860243 0.312642
0.775952 0.87895 0.584298
0.446067 0.912352 0.100526
0.464912 0.911284 0.100359
0.491341 0.909728 0.100282
0.546975 0.906081 0.101228
0.632807 0.900923 0.109529
0.717784 0.896666 0.141543
0.774166 0.893767 0.233188
0.777356 0.892119 0.426398
0.774502 0.894606 0.607935
0.687373 0.905272 0.499687
0.688487 0.905287 0.499825
0.690288 0.905287 0.500053
0.695445 0.905318 0.50074
0.708598 0.905379 0.502831
0.733608 0.905516 0.509071
0.763622 0.905547 0.52694
0.773861 0.904982 0.574411
0.773129 0.904418 0.654444
0.747433 0.904143 0.679393
0.74757 0.904143 0.679408
0.747799 0.904158 0.679438
0.74847 0.904158 0.679515
0.750408 0.904189 0.679744
0.755291 0.904234 0.680461
0.764675 0.904311 0.682582
0.772931 0.904311 0.68835
0.772854 0.904265 0.70367
0 0 0.000442512
0 0 0.000549325
0.11873 0 0
0.343557 0 0
0.652537 0 0
0.827131 0 0.00148013
0.817014 0.435416 0.0939803
0.78854 0.7617 0.317968
0.77734 0.857862 0.598337
0 0 0
0 0 0
0.133593 0 0
0.348669 0 0
0.652903 0 0
0.826322 0 0
0.814206 0.472511 0.0854658
0.78822 0.765652 0.316152
0.77731 0.85832 0.598138
0 0.126665 0
0 0.129198 0
0.098085 0.127855 0
0.352743 0.101137 0
0.653422 0 0
0.827054 0.113695 0
0.809781 0.523766 0.0700694
0.787762 0.77171 0.313252
0.777264 0.859068 0.597803
0 0.377752 0
0 0.378866 0
0 0.379309 0
0.293294 0.386114 0
0.645075 0.378241 0
0.810987 0.443046 0
0.797681 0.625132 0
0.786603 0.787564 0.304906
0.777111 0.861219 0.596811
0 0.705898 0
0 0.705791 0
0 0.705425 0
0 0.702968 0
0.577676 0.701823 0
0.764218 0.711467 0
0.785519 0.753338 0
0.784451 0.819669 0.281178
0.77673 0.86688 0.59379
0 0.867552 0
0 0.86688 0
0 0.865766 0
0 0.862394 0
0.553124 0.848692 0
0.723064 0.841138 0
0.779782 0.843091 0
0.781231 0.860182 0.312444
0.775952 0.878935 0.584817
0.448997 0.912169 0.100252
0.467506 0.911116 0.100099
0.493523 0.90956 0.100038
0.548287 0.905974 0.10103
0.633356 0.900877 0.109407
0.717922 0.896651 0.141451
0.774182 0.893736 0.233173
0.777356 0.892103 0.426322
0.774502 0.894591 0.607904
0.687541 0.905287 0.499657
0.68867 0.905287 0.499809
0.690455 0.905287 0.500023
0.695598 0.905318 0.500725
0.708705 0.905379 0.502815
0.733669 0.905516 0.509041
0.763638 0.905547 0.526925
0.773861 0.904982 0.574395
0.773129 0.904418 0.654444
0.747448 0.904158 0.679393
0.747585 0.904143 0.679408
0.747814 0.904158 0.679438
0.748501 0.904158 0.6795
0.750423 0.904189 0.679744
0.755306 0.904234 0.680461
0.764691 0.904311 0.682582
0.772931 0.904311 0.68835
0.772854 0.904265 0.70367
0 0 0.0835584
0 0 0.083711
0.101839 0 0.0804608
0.35671 0 0.0686351
0.654948 0 0.0604715
0.829435 0 0.0840162
0.819165 0.42388 0.175219
0.788235 0.759915 0.363867
0.777279 0.857588 0.606668
0 0 0.0807355
0 0 0.0810101
0.124498 0 0.0770428
0.3552 0 0.0659953
0.65684 0 0.057496
0.829358 0 0.0788281
0.816388 0.462608 0.16936
0.787915 0.763928 0.362234
0.777249 0.858061 0.606485
0 0.107698 0.0704814
0 0.109621 0.0702068
0.0936751 0.10338 0.0655833
0.342306 0.0818494 0.0615396
0.655573 0 0.0495155
0.831266 0.0651408 0.0816815
0.8121 0.516594 0.159167
0.787427 0.770077 0.359609
0.777188 0.858808 0.60618
0 0.36762 0.00776684
0 0.368948 0.00828565
0 0.369619 0.00903334
0.297688 0.376028 0.014023
0.644831 0.369055 0.0190433
0.815595 0.436103 0.0477607
0.801755 0.624552 0.125658
0.786221 0.78616 0.352163
0.777035 0.860975 0.605249
0 0.703441 0
0 0.703334 0
0 0.702953 0
0 0.700465 0
0.579889 0.699504 0
0.764248 0.709651 0
0.787884 0.754742 0.0207523
0.783993 0.818647 0.33257
0.776654 0.866651 0.602487
0 0.86717 0
0 0.866499 0
0 0.865385 0
0 0.862028 0
0.555779 0.848341 0
0.723461 0.84094 0
0.779797 0.842954 0
0.781231 0.860121 0.312139
0.775845 0.878737 0.594293
0.453696 0.911879 0.0998093
0.471672 0.910842 0.0996872
0.497017 0.909316 0.0996567
0.550393 0.905821 0.100725
0.634241 0.900786 0.109194
0.718166 0.896605 0.141283
0.774243 0.893721 0.233143
0.777356 0.892103 0.4262
0.774502 0.894591 0.607858
0.687816 0.905287 0.499626
0.688945 0.905287 0.499763
0.690715 0.905287 0.499992
0.695842 0.905318 0.500679
0.708888 0.905394 0.50277
0.733761 0.905531 0.50901
0.763668 0.905547 0.526894
0.773861 0.904982 0.574395
0.773129 0.904418 0.654429
0.747478 0.904143 0.679393
0.747616 0.904158 0.679408
0.747845 0.904158 0.679438
0.748516 0.904158 0.679515
0.750454 0.904189 0.679744
0.755322 0.904234 0.680461
0.764706 0.904311 0.682567
0.772931 0.904311 0.68835
0.772854 0.904265 0.70367
0 0 0.28011
0 0 0.280247
0 0 0.280324
0.332708 0 0.266896
0.67071 0 0.25594
0.830045 0 0.278599
0.823133 0.3785 0.359686
0.787427 0.75436 0.468437
0.777111 0.85687 0.627466
0 0 0.27808
0 0 0.278264
0.0259098 0 0.2766
0.347799 0 0.263981
0.669093 0 0.253666
0.830045 0 0.276005
0.819791 0.424414 0.356207
0.78706 0.758587 0.467292
0.777081 0.857328 0.627314
0 0.0156863 0.273991
0 0.0203555 0.274098
0.0484932 0.0148318 0.272084
0.353964 0 0.260044
0.664073 0 0.249989
0.83006 0 0.271092
0.815305 0.485756 0.350637
0.786511 0.765026 0.465476
0.777035 0.858106 0.62707
0 0.325872 0.241764
0 0.327672 0.241993
0 0.328908 0.242573
0.29424 0.334462 0.249393
0.637888 0.32784 0.25449
0.821515 0.39939 0.281697
0.803952 0.608606 0.331472
0.785168 0.781811 0.460365
0.776883 0.860304 0.626337
0 0.700542 0.165057
0 0.700526 0.165652
0 0.700252 0.166552
0 0.698009 0.168978
0.582361 0.696376 0.180545
0.767712 0.707378 0.211414
0.789624 0.752056 0.286091
0.782727 0.815549 0.447181
0.776471 0.866056 0.62417
0 0.866117 0
0 0.865431 0
0 0.864317 0
0 0.86096 0
0.555703 0.847379 0
0.72604 0.843519 0.0686351
0.783154 0.846174 0.207172
0.780072 0.858335 0.415091
0.775631 0.878248 0.617868
0.467201 0.911009 0.098497
0.483711 0.910048 0.0984512
0.507195 0.908614 0.0985275
0.556573 0.905318 0.0998398
0.636912 0.900572 0.108568
0.718898 0.896498 0.140795
0.774411 0.893645 0.233051
0.777371 0.892058 0.425818
0.774502 0.89456 0.607706
0.688655 0.905287 0.499519
0.689769 0.905287 0.499641
0.691524 0.905303 0.499886
0.696559 0.905318 0.500557
0.709438 0.905394 0.502663
0.734051 0.905531 0.508904
0.76376 0.905547 0.526802
0.773861 0.904982 0.57438
0.773129 0.904418 0.654368
0.747585 0.904143 0.679377
0.747723 0.904158 0.679393
0.747951 0.904158 0.679408
0.748623 0.904158 0.6795
0.750546 0.904173 0.679728
0.755398 0.904234 0.680446
0.764736 0.904311 0.682567
0.772931 0.904311 0.688334
0.772854 0.904265 0.70367
0 0 0.574548
0 0 0.574609
0 0 0.574716
0.177401 0 0.5691
0.657633 0 0.551827
0.828641 0 0.559823
0.833646 0.126802 0.591241
0.787289 0.737545 0.612192
0.776944 0.854932 0.667536
0 0 0.573983
0 0 0.57406
0 0 0.574182
0.203143 0 0.567666
0.662196 0 0.551247
0.828641 0 0.559228
0.831556 0.23975 0.595621
0.78677 0.742702 0.611444
0.776898 0.855436 0.66743
0 0 0.573068
0 0 0.573144
0 0 0.573266
0.238254 0 0.565408
0.664973 0 0.550256
0.828641 0 0.558206
0.824872 0.352468 0.5944
0.786007 0.750378 0.610361
0.776837 0.856245 0.667262
0 0.154253 0.566888
0 0.156893 0.566873
0 0.160281 0.566827
0.237827 0.154788 0.565316
0.664866 0.0527352 0.555413
0.833478 0.174975 0.574151
0.809934 0.540246 0.585733
0.784222 0.769787 0.607507
0.776684 0.858549 0.666773
0 0.662882 0.535576
0 0.663172 0.535698
0 0.663249 0.535851
0 0.661707 0.536095
0.569482 0.660227 0.539147
0.761761 0.676707 0.546944
0.788296 0.732601 0.561135
0.781079 0.807919 0.601129
0.776242 0.864576 0.665385
0 0.868177 0.514107
0 0.867536 0.514214
0 0.866468 0.514366
0 0.863172 0.514839
0.532097 0.846448 0.505791
0.716258 0.837156 0.5122
0.779538 0.839368 0.537011
0.777752 0.853834 0.588891
0.775357 0.877165 0.661555
0.453864 0.909194 0.419562
0.471199 0.908156 0.419104
0.495705 0.906661 0.418524
0.547646 0.903151 0.417868
0.629648 0.897993 0.420737
0.712383 0.893416 0.436377
0.767865 0.890166 0.479912
0.775464 0.889509 0.560311
0.774182 0.893904 0.651514
0.691157 0.905303 0.499153
0.692226 0.905318 0.49929
0.693904 0.905318 0.499519
0.698726 0.905348 0.500221
0.711101 0.905409 0.502342
0.73492 0.905547 0.508598
0.76405 0.905562 0.526528
0.773861 0.904982 0.574319
0.773129 0.904418 0.654246
0.747906 0.904158 0.679347
0.748043 0.904158 0.679347
0.748257 0.904158 0.679377
0.748928 0.904158 0.679454
0.75082 0.904189 0.679698
0.755611 0.904234 0.680415
0.764843 0.904326 0.682536
0.772946 0.904311 0.688304
0.772854 0.904265 0.70367
0 0 0.729503
0 0 0.729519
0 0 0.729534
0 0 0.72958
0.561852 0 0.708324
0.82916 0 0.709148
0.82916 0 0.709926
0.795651 0.663554 0.718883
0.777035 0.849302 0.716503
0 0 0.729442
0 0 0.729458
0 0 0.729473
0 0 0.729503
0.569604 0 0.707988
0.82916 0 0.709102
0.82916 0 0.70985
0.794293 0.674266 0.717662
0.776989 0.849897 0.716442
0 0 0.729351
0 0 0.729351
0 0 0.729366
0 0 0.729397
0.581689 0 0.707485
0.82916 0 0.70898
0.82916 0 0.709743
0.79234 0.689845 0.715908
0.776928 0.850843 0.71632
0 0 0.72903
0 0 0.72903
0 0 0.729046
0 0 0.728786
0.605219 0 0.706416
0.82916 0 0.708629
0.829145 0 0.708125
0.788006 0.726513 0.711818
0.77673 0.853574 0.716014
0 0.455283 0.716152
0 0.456748 0.716106
0 0.459129 0.71603
0 0.462837 0.715511
0.568704 0.46186 0.717937
0.811948 0.498375 0.724788
0.798001 0.645472 0.714061
0.782086 0.786313 0.705699
0.776226 0.860609 0.71516
0 0.856107 0.709148
0 0.855711 0.709087
0 0.854932 0.70898
0 0.85185 0.708522
0.455055 0.836271 0.6981
0.705638 0.823514 0.692515
0.775662 0.828473 0.694163
0.77731 0.846998 0.699245
0.775204 0.874723 0.713161
0.297765 0.910979 0.69189
0.333989 0.909316 0.690532
0.382055 0.907042 0.688762
0.478706 0.901656 0.684916
0.596139 0.89398 0.680812
0.695918 0.888609 0.68072
0.757382 0.885985 0.684108
0.774426 0.886992 0.692195
0.773907 0.892775 0.709117
0.681956 0.903655 0.651286
0.68304 0.903655 0.651331
0.684779 0.90367 0.651392
0.689769 0.9037 0.651591
0.70251 0.903792 0.652216
0.727016 0.904021 0.654185
0.757122 0.904311 0.659876
0.773007 0.904341 0.674189
0.772885 0.90428 0.699779
0.748852 0.904158 0.679225
0.748989 0.904173 0.67924
0.749187 0.904173 0.679271
0.749828 0.904173 0.679347
0.751629 0.904189 0.679591
0.756222 0.904234 0.680293
0.765179 0.904326 0.682429
0.772931 0.904295 0.688212
0.772854 0.904265 0.703639
0 0 0.773663
0 0 0.773663
0 0 0.773663
0 0 0.773663
0 0 0.773663
0.815 0 0.761532
0.829465 0 0.762127
0.829465 0 0.762127
0.778576 0.825315 0.756024
0 0 0.773663
0 0 0.773663
0 0 0.773663
0 0 0.773663
0 0 0.773663
0.816083 0 0.761578
0.829465 0 0.762127
0.829465 0 0.762127
0.778485 0.826413 0.755932
0 0 0.773663
0 0 0.773663
0 0 0.773663
0 0 0.773663
0 0 0.773663
0.817823 0 0.761654
0.829465 0 0.762127
0.829465 0 0.762127
0.778363 0.828153 0.755795
0 0 0.773663
0 0 0.773663
0 0 0.773663
0 0 0.773663
0 0 0.773663
0.822904 0 0.761898
0.829465 0 0.762127
0.829465 0 0.762127
0.777996 0.833051 0.755398
0 0 0.773663
0 0 0.773663
0 0 0.773663
0 0 0.773663
0.251087 0 0.766873
0.829465 0 0.762127
0.829465 0 0.762127
0.810437 0.546151 0.780575
0.777096 0.845151 0.754391
0 0.761578 0.769757
0 0.761852 0.769787
0 0.76231 0.769802
0 0.763668 0.769833
0 0.758694 0.768338
0.715236 0.746487 0.759396
0.783413 0.768475 0.757244
0.779095 0.81886 0.753643
0.775555 0.866606 0.752544
0 0.918349 0.768643
0 0.917754 0.768566
0 0.916762 0.76846
0 0.913909 0.768139
0.505013 0.89427 0.751736
0.67866 0.883772 0.747143
0.753185 0.880796 0.747311
0.774411 0.882872 0.747906
0.773861 0.890272 0.750088
0.658534 0.903258 0.742016
0.660014 0.903258 0.742
0.662348 0.903258 0.741985
0.668986 0.903273 0.741955
0.685557 0.903365 0.741924
0.715938 0.903639 0.742046
0.750439 0.904021 0.742535
0.772656 0.904173 0.743832
0.772625 0.904173 0.747158
0.745312 0.90399 0.731441
0.745449 0.90399 0.731441
0.745663 0.90399 0.731441
0.746303 0.904005 0.731487
0.74815 0.904021 0.731548
0.752834 0.904082 0.731807
0.761959 0.904173 0.732525
0.772412 0.904265 0.73463
0.772671 0.904189 0.739986
0 0 0.773922
0 0 0.773922
0 0 0.773922
0 0 0.773922
0 0 0.773907
0 0 0.773922
0.829465 0 0.762127
0.829465 0 0.762127
0.80444 0.59707 0.782284
0 0 0.773907
0 0 0.773907
0 0 0.773922
0 0 0.773922
0 0 0.773907
0 0 0.773922
0.829465 0 0.762127
0.829465 0 0.762127
0.80444 0.59704 0.782284
0 0 0.773922
0 0 0.773922
0 0 0.773922
0 0 0.773922
0 0 0.773922
0 0 0.773922
0.829465 0 0.762127
0.829465 0 0.762127
0.80444 0.596994 0.782284
0 0 0.773922
0 0 0.773922
0 0 0.773922
0 0 0.773922
0 0 0.773907
0 0 0.773938
0.829465 0 0.762127
0.829465 0 0.762127
0.804471 0.596857 0.7823
0 0 0.773907
0 0 0.773907
0 0 0.773922
0 0 0.773922
0 0 0.773907
0.285389 0 0.765698
0.829465 0 0.762127
0.829465 0 0.762127
0.804517 0.596399 0.78233
0 0 0.773907
0 0 0.773907
0 0 0.773907
0 0 0.773922
0 0 0.773907
0.672358 0 0.756298
0.829465 0 0.762127
0.831617 0 0.768536
0.781399 0.789273 0.77113
0 0.888747 0.788922
0 0.888777 0.788922
0 0.888823 0.788922
0 0.888975 0.788922
0 0.889433 0.788952
0.589334 0.85771 0.771267
0.756924 0.851804 0.770321
0.775876 0.859922 0.77023
0.774502 0.879103 0.770123
0.522515 0.905837 0.77232
0.529732 0.905547 0.771984
0.540795 0.905165 0.771527
0.569146 0.904311 0.770459
0.624445 0.903288 0.768978
0.690822 0.903304 0.768368
0.743542 0.903853 0.768399
0.771649 0.903059 0.76875
0.772763 0.903471 0.768872
0.736797 0.903792 0.766552
0.73698 0.903792 0.766552
0.73727 0.903792 0.766552
0.73814 0.903807 0.766567
0.740566 0.903822 0.766567
0.746639 0.903899 0.766598
0.757763 0.904021 0.766644
0.769772 0.904158 0.766796
0.772519 0.904112 0.767147
0 0.211398 0.774487
0 0.211398 0.774487
0 0.211398 0.774487
0 0.211429 0.774487
0 0.211429 0.774487
0 0.211475 0.774487
0 0.211582 0.774487
0.833829 0.222522 0.787274
0.79855 0.64181 0.77911
0 0.211398 0.774487
0 0.211398 0.774487
0 0.211398 0.774487
0 0.211398 0.774487
0 0.211429 0.774487
0 0.21146 0.774487
0 0.211582 0.774487
0.833829 0.222827 0.787289
0.798535 0.641855 0.77911
0 0.211383 0.774487
0 0.211383 0.774487
0 0.211383 0.774487
0 0.211398 0.774487
0 0.211398 0.774487
0 0.21146 0.774487
0 0.211566 0.774487
0.833814 0.223285 0.787305
0.798535 0.641901 0.77911
0 0.211368 0.774487
0 0.211368 0.774487
0 0.211368 0.774487
0 0.211368 0.774487
0 0.211383 0.774487
0 0.211429 0.774487
0 0.211521 0.774487
0.833753 0.224735 0.78735
0.798505 0.642115 0.779095
0 0.211261 0.774487
0 0.211261 0.774487
0 0.211261 0.774487
0 0.211261 0.774487
0 0.211276 0.774487
0 0.211307 0.774487
0.283589 0.196902 0.776425
0.8336 0.229129 0.787503
0.798413 0.642741 0.779049
0 0.210956 0.774487
0 0.210956 0.774487
0 0.210956 0.774487
0 0.210971 0.774487
0 0.210971 0.774487
0 0.211017 0.774487
0.694209 0.0123751 0.764401
0.833112 0.242115 0.7879
0.798291 0.643671 0.778973
0 0.210025 0.774502
0 0.210025 0.774502
0 0.210025 0.774502
0 0.210056 0.774502
0 0.210056 0.774502
0 0.210086 0.774502
0.829465 0 0.762127
0.831968 0.267277 0.788464
0.798062 0.645411 0.778851
0 0.920073 0.789899
0 0.920073 0.789899
0 0.920073 0.789899
0 0.920073 0.789899
0 0.920073 0.789899
0 0.920073 0.789899
0.712871 0.894057 0.769802
0.773281 0.892195 0.770108
0.773342 0.895201 0.770016
0.696391 0.903319 0.76939
0.697017 0.903319 0.76939
0.698009 0.903334 0.76939
0.700908 0.903349 0.769406
0.708614 0.903426 0.769436
0.72517 0.903609 0.769528
0.748791 0.903883 0.769665
0.76762 0.904097 0.769772
0.772763 0.904418 0.770047
