BBLuts/BB_106_0030_LUT.cube
TITLE "Generated by Resolve"
LUT_3D_SIZE 9
0 0 0
0 0 0
0.245182 0 0
0.512154 0 0
0.782238 0.00929274 0.0121004
0.954696 0.0223087 0.0260929
0.918883 0.6056 0.263355
0.902861 0.841901 0.635615
0.896056 0.926116 0.915679
0 0.0648966 0
0 0.0805524 0
0.253056 0.0545357 0
0.522545 0 0
0.784222 0.00944533 0.0122683
0.954696 0.0223087 0.0260929
0.917815 0.626413 0.247715
0.902724 0.845151 0.634363
0.89604 0.926452 0.915526
0 0.283833 0
0 0.288594 0
0.196796 0.283803 0
0.515572 0.258442 0
0.779492 0.114778 0.00366217
0.935576 0.316182 0.00727855
0.916472 0.65449 0.220752
0.902541 0.849378 0.632471
0.896025 0.92694 0.915297
0 0.556466 0.00263981
0 0.557473 0.00271611
0 0.557961 0.00276188
0.452827 0.549294 0
0.765377 0.54136 0
0.922484 0.589319 0.00582895
0.915068 0.724758 0.00961318
0.902037 0.861036 0.626719
0.895949 0.92842 0.914565
0 0.808225 0.0289921
0 0.808118 0.0289769
0 0.807813 0.0289464
0 0.805722 0.0287327
0.709392 0.786709 0.00875868
0.892424 0.79115 0.0118715
0.909926 0.83035 0.0140688
0.900832 0.886122 0.626337
0.895766 0.932647 0.91223
0 0.945495 0.0434424
0 0.944869 0.0433814
0 0.943908 0.0432746
0 0.940948 0.0429541
0.689158 0.918654 0.016907
0.852934 0.911437 0.0174105
0.903731 0.91107 0.234287
0.898756 0.921965 0.658335
0.895338 0.942184 0.906706
0.626795 0.9664 0.436332
0.637812 0.966293 0.437079
0.652979 0.96582 0.438224
0.691051 0.964111 0.4421
0.761425 0.960601 0.455528
0.841123 0.955978 0.495995
0.895827 0.952346 0.590646
0.89633 0.951598 0.752575
0.89453 0.955383 0.927214
0.818418 0.963012 0.822354
0.819318 0.962997 0.822477
0.820691 0.962997 0.822644
0.82475 0.962997 0.823194
0.835752 0.962966 0.824948
0.858381 0.962936 0.830503
0.886458 0.96286 0.847364
0.894469 0.962692 0.892592
0.893828 0.962432 0.972641
0.873472 0.962371 0.998016
0.873564 0.962371 0.998032
0.873716 0.962371 0.998047
0.874205 0.962371 0.998108
0.875639 0.962371 0.998291
0.879545 0.962371 0.998901
0.887419 0.962371 1
0.893568 0.962356 1
0.893446 0.962325 1
0 0 0.0762036
0 0 0.0766918
0.244038 0 0.0834974
0.5122 0 0.0966506
0.781338 0.00801099 0.123079
0.953429 0.0202945 0.200565
0.918364 0.601312 0.359152
0.902632 0.841108 0.659449
0.896025 0.926024 0.919905
0 0.0277562 0.0605936
0.0384375 0.0455024 0.0580453
0.268208 0 0.0686198
0.51751 0 0.075349
0.782544 0.00860609 0.0681163
0.953689 0.020676 0.154971
0.91722 0.622477 0.344793
0.902495 0.844068 0.658305
0.89601 0.926345 0.919753
0 0.271931 0
0 0.276051 0
0.221698 0.271702 0
0.514183 0.245899 0
0.784939 0.00949111 0.0123293
0.936446 0.298436 0.00773632
0.915785 0.651118 0.320867
0.902312 0.848646 0.656596
0.895994 0.926848 0.919524
0 0.552666 0.00233463
0 0.553597 0.00241093
0 0.553979 0.00244144
0.464393 0.544961 0
0.764965 0.537804 0
0.922621 0.587015 0.00579843
0.912978 0.721462 0.212772
0.901793 0.860395 0.651377
0.895918 0.928344 0.918822
0 0.807218 0.0288853
0 0.807111 0.0288701
0 0.80679 0.0288396
0 0.804654 0.0286107
0.711589 0.785733 0.0087129
0.892515 0.790478 0.011841
0.909941 0.829999 0.0140536
0.900725 0.885878 0.636164
0.895735 0.93257 0.916609
0 0.945281 0.0434119
0 0.944671 0.0433509
0 0.943709 0.0432593
0 0.940749 0.0429389
0.690578 0.918486 0.0168917
0.853162 0.91133 0.0174105
0.903746 0.910994 0.23328
0.898756 0.921935 0.658198
0.895323 0.942138 0.909636
0.628489 0.966384 0.436149
0.639368 0.966293 0.436896
0.654368 0.965743 0.438041
0.692042 0.96405 0.441917
0.761913 0.960571 0.455375
0.84126 0.955947 0.495888
0.895857 0.952331 0.590631
0.89633 0.951598 0.752514
0.89453 0.955383 0.927184
0.818555 0.963012 0.822339
0.819455 0.962997 0.822446
0.820813 0.962997 0.822629
0.824872 0.962997 0.823178
0.835843 0.962966 0.824933
0.858427 0.962936 0.830472
0.886473 0.96286 0.847349
0.894469 0.962692 0.892592
0.893828 0.962432 0.972641
0.873487 0.962371 0.998016
0.873579 0.962371 0.998032
0.873732 0.962371 0.998047
0.874205 0.962371 0.998108
0.875654 0.962371 0.998291
0.879545 0.962371 0.998901
0.887419 0.962371 1
0.893568 0.962356 1
0.893446 0.962325 1
0 0 0.300145
0 0 0.300481
0.215549 0 0.303166
0.521569 0 0.308537
0.780362 0.0069276 0.333104
0.95259 0.0192264 0.387961
0.917922 0.594125 0.474266
0.902358 0.839933 0.691691
0.895979 0.925872 0.925933
0 0 0.293858
0 0 0.294438
0.251652 0 0.297566
0.520256 0 0.302403
0.782269 0.00708019 0.326589
0.952621 0.0192721 0.378241
0.91664 0.615564 0.46659
0.90222 0.842924 0.690684
0.895964 0.926207 0.925795
0 0.237476 0.280324
0 0.240604 0.279896
0.205203 0.229343 0.270878
0.499672 0.209232 0.278874
0.781109 0.00704967 0.309331
0.936706 0.240986 0.342519
0.915007 0.644984 0.454612
0.902022 0.847562 0.689174
0.895949 0.926696 0.925582
0 0.540597 0.154635
0 0.541695 0.156634
0 0.542184 0.159182
0.462425 0.532525 0.15523
0.759777 0.525826 0.169986
0.920821 0.576501 0.235096
0.911406 0.716472 0.415534
0.901473 0.859464 0.684581
0.895872 0.928206 0.92491
0 0.805356 0.028687
0 0.805234 0.0286717
0 0.804898 0.0286412
0 0.802747 0.0284123
0.713573 0.783902 0.00863661
0.89247 0.789044 0.0117647
0.907378 0.826917 0.255116
0.900359 0.885206 0.671351
0.895689 0.932448 0.92282
0 0.944976 0.0433814
0 0.944366 0.0433204
0 0.943404 0.0432136
0.107118 0.933227 0.0293736
0.692714 0.918242 0.0168765
0.853513 0.911162 0.0173953
0.903777 0.910903 0.231693
0.898772 0.921874 0.657984
0.895277 0.942046 0.916365
0.631037 0.966369 0.435859
0.641718 0.966262 0.436606
0.656458 0.965637 0.437766
0.693538 0.963973 0.441672
0.762646 0.960525 0.455146
0.841459 0.955932 0.49572
0.895903 0.952316 0.590616
0.89633 0.951583 0.752422
0.89453 0.955383 0.927153
0.818753 0.963012 0.822309
0.819669 0.962997 0.822416
0.821027 0.962997 0.822599
0.825055 0.962997 0.823148
0.835996 0.962966 0.824903
0.858503 0.962936 0.830457
0.886488 0.96286 0.847318
0.894469 0.962692 0.892576
0.893828 0.962432 0.972625
0.873503 0.962371 0.998016
0.87361 0.962371 0.998016
0.873762 0.962371 0.998047
0.874235 0.962371 0.998093
0.875669 0.962371 0.998291
0.879561 0.962371 0.998901
0.887434 0.962371 1
0.893568 0.962356 1
0.893446 0.962325 1
0 0 0.579995
0 0 0.580133
0 0 0.580224
0.500328 0 0.584772
0.794186 0.00817884 0.596445
0.951965 0.0190585 0.618402
0.91809 0.565896 0.651667
0.901762 0.836332 0.77142
0.895872 0.925444 0.942596
0 0 0.57789
0 0 0.578088
0.0905318 0 0.577935
0.514961 0 0.582986
0.792477 0.00805676 0.594522
0.951965 0.0190585 0.616144
0.916503 0.59382 0.648966
0.90161 0.83946 0.770672
0.895857 0.925765 0.942473
0 0.0838026 0.573251
0 0.0927443 0.573449
0.129015 0.0831922 0.572366
0.520516 0 0.579675
0.787762 0.00772107 0.591485
0.951965 0.0190433 0.612161
0.914519 0.625757 0.644999
0.901396 0.843961 0.769543
0.895842 0.926268 0.94229
0 0.498207 0.557794
0 0.499916 0.558175
0 0.501015 0.558816
0.448951 0.490394 0.554238
0.74609 0.483787 0.560922
0.919905 0.542748 0.58175
0.910155 0.702876 0.633112
0.900801 0.856672 0.76614
0.895766 0.927794 0.941726
0 0.793927 0.480522
0 0.793881 0.481361
0 0.793622 0.482567
0 0.791623 0.485985
0.706203 0.772396 0.480842
0.886061 0.778576 0.517891
0.90428 0.820676 0.602914
0.899565 0.883345 0.756542
0.895567 0.932082 0.939956
0 0.944121 0.0432898
0 0.943496 0.0432288
0 0.942535 0.0431373
0.145785 0.931533 0.0277867
0.69337 0.917418 0.0168307
0.850278 0.908064 0.278035
0.900908 0.908141 0.528801
0.898009 0.920913 0.730846
0.89514 0.941772 0.934554
0.638773 0.966308 0.434943
0.648859 0.965911 0.435706
0.662821 0.965301 0.436896
0.6981 0.963699 0.440848
0.764904 0.960342 0.454414
0.842115 0.95584 0.495171
0.89604 0.952255 0.590539
0.89633 0.951553 0.752102
0.89453 0.955352 0.927047
0.819409 0.962997 0.822217
0.82031 0.962997 0.822324
0.821653 0.962997 0.822507
0.825635 0.962997 0.823056
0.836439 0.962966 0.824811
0.858747 0.962936 0.830365
0.886564 0.96286 0.847242
0.894469 0.962692 0.892561
0.893828 0.962448 0.972595
0.873579 0.962371 0.998001
0.873686 0.962371 0.998016
0.873838 0.962371 0.998032
0.874311 0.962371 0.998093
0.875731 0.962371 0.998276
0.879622 0.962371 0.998886
0.887465 0.962371 1
0.893568 0.962356 1
0.893446 0.962325 1
0 0 0.861479
0 0 0.861555
0 0 0.861677
0.328649 0 0.861433
0.785092 0.0103761 0.86807
0.952071 0.0209506 0.877409
0.925353 0.407218 0.877134
0.901259 0.82472 0.909117
0.895659 0.924132 0.979156
0 0 0.860883
0 0 0.86096
0 0 0.861067
0.363546 0 0.861036
0.789563 0.0106355 0.867582
0.952071 0.0209506 0.876768
0.921767 0.474723 0.874861
0.901076 0.828336 0.908675
0.895644 0.924468 0.97908
0 0 0.859937
0 0 0.860029
0 0 0.860151
0.404532 0 0.86038
0.792142 0.0107729 0.866651
0.952071 0.0209354 0.875731
0.918029 0.543847 0.87216
0.900801 0.833539 0.908034
0.895628 0.925002 0.978958
0 0.303838 0.852796
0 0.307546 0.852857
0 0.312169 0.852903
0.389273 0.294575 0.848692
0.781353 0.131853 0.855406
0.929503 0.331838 0.856565
0.911177 0.654963 0.865599
0.900084 0.848066 0.906157
0.895552 0.926574 0.978576
0 0.760357 0.835889
0 0.760601 0.836027
0 0.760647 0.836164
0 0.759335 0.836423
0.691722 0.740337 0.825895
0.878431 0.751827 0.831632
0.902739 0.80499 0.851041
0.898573 0.878202 0.901213
0.895338 0.931029 0.977417
0 0.936828 0.802396
0 0.936217 0.802518
0 0.935271 0.802716
0 0.93228 0.803342
0.663493 0.908949 0.791043
0.837446 0.901244 0.800778
0.897902 0.903441 0.829145
0.896651 0.918349 0.889845
0.894865 0.941024 0.974014
0.632349 0.963943 0.702525
0.642451 0.9635 0.702739
0.656413 0.962905 0.703105
0.691676 0.961303 0.704356
0.758633 0.957992 0.708919
0.836118 0.953628 0.724224
0.890623 0.950454 0.768444
0.895338 0.950515 0.860197
0.894255 0.954955 0.964218
0.821469 0.962997 0.821912
0.822324 0.962997 0.822034
0.823606 0.962997 0.822202
0.827451 0.962997 0.822766
0.837858 0.962966 0.824521
0.85951 0.962936 0.830091
0.886809 0.96286 0.847013
0.894469 0.962692 0.892515
0.893828 0.962448 0.972457
0.873808 0.962371 0.997971
0.873915 0.962371 0.997986
0.874067 0.962371 0.998001
0.874525 0.962371 0.998062
0.875944 0.962371 0.998245
0.879774 0.962371 0.998856
0.887541 0.962371 1
0.893568 0.962356 1
0.893446 0.962325 1
0 0 1
0 0 1
0 0 1
0 0 1
0.693248 0.00807202 1
0.95259 0.0230564 1
0.95259 0.0230716 1
0.903365 0.77351 1
0.895521 0.920073 1
0 0 1
0 0 1
0 0 1
0 0 1
0.699748 0.00840772 1
0.95259 0.0230564 1
0.95259 0.0230716 1
0.902983 0.780316 1
0.895491 0.92047 1
0 0 1
0 0 1
0 0 1
0 0 1
0.709316 0.00891127 1
0.95259 0.0230564 1
0.95259 0.0230716 1
0.902449 0.789776 1
0.89546 0.92108 1
0 0 1
0 0 1
0 0 1
0 0 1
0.732708 0.0101778 1
0.952575 0.0230564 1
0.952575 0.0230411 1
0.901137 0.813779 1
0.895369 0.922881 1
0 0.594858 1
0 0.59585 1
0 0.59733 1
0 0.600076 1
0.684474 0.583108 1
0.913848 0.603128 1
0.906035 0.727459 1
0.898695 0.860197 1
0.895125 0.927932 1
0 0.926574 1
0 0.926177 1
0 0.92546 1
0 0.922591 1
0.600656 0.898695 1
0.826596 0.889342 0.999146
0.896895 0.893812 1
0.89604 0.912566 1
0.894575 0.939071 1
0.53933 0.9635 0.988464
0.560327 0.962844 0.98822
0.586801 0.961959 0.98793
0.639261 0.959762 0.987366
0.727825 0.955657 0.986862
0.81976 0.950774 0.987488
0.880186 0.947738 0.991135
0.894286 0.948653 1
0.893858 0.95404 1
0.815091 0.962554 0.952285
0.815961 0.962554 0.952316
0.817243 0.962554 0.952392
0.821103 0.962554 0.952605
0.831586 0.962524 0.953292
0.853468 0.962493 0.95552
0.881285 0.962463 0.962371
0.893767 0.962417 0.980285
0.893523 0.962341 1
0.87454 0.962371 0.997864
0.874632 0.962371 0.997879
0.874784 0.962371 0.997894
0.875227 0.962371 0.997955
0.876585 0.962371 0.998154
0.880293 0.962371 0.998764
0.887816 0.962371 1
0.893568 0.962356 1
0.893446 0.962325 1
0 0 1
0 0 1
0 0 1
0 0 1
0 0 1
0.945052 0.0233768 1
0.952804 0.0238651 1
0.952804 0.0238651 1
0.896147 0.902403 1
0 0 1
0 0 1
0 0 1
0 0 1
0 0 1
0.94609 0.0234379 1
0.952804 0.0238651 1
0.952804 0.0238651 1
0.896117 0.903136 1
0 0 1
0 0 1
0 0 1
0 0 1
0 0 1
0.947646 0.0235447 1
0.952804 0.0238651 1
0.952804 0.0238651 1
0.896056 0.904219 1
0 0 1
0 0 1
0 0 1
0 0 1
0 0 1
0.952346 0.0238346 1
0.952804 0.0238651 1
0.952804 0.0238651 1
0.895888 0.907408 1
0 0 1
0 0 1
0 0 1
0 0 1
0.304097 0 1
0.952804 0.0238651 1
0.952804 0.0238651 1
0.909621 0.66421 1
0.89546 0.915862 1
0 0.836408 1
0 0.836652 1
0 0.837034 1
0 0.838224 1
0 0.834684 1
0.83566 0.81059 1
0.899748 0.833829 1
0.897002 0.886229 1
0.894636 0.932326 1
0 0.980194 1
0 0.980194 1
0 0.97995 1
0 0.977325 1
0.646448 0.954314 1
0.801862 0.94667 1
0.875746 0.94316 1
0.894026 0.945068 1
0.89366 0.951949 1
0.793835 0.962386 1
0.79498 0.962386 1
0.796689 0.962386 1
0.801785 0.962371 1
0.815366 0.962325 1
0.841993 0.96228 1
0.874418 0.962249 1
0.893187 0.962249 1
0.893172 0.962234 1
0.871931 0.96228 1
0.872038 0.96228 1
0.872175 0.96228 1
0.872618 0.96228 1
0.873991 0.96228 1
0.877684 0.96228 1
0.885252 0.962264 1
0.893263 0.962264 1
0.893217 0.962249 1
0 0.14403 1
0 0.144045 1
0 0.144045 1
0 0.14406 1
0 0.144121 1
0 0.144259 1
0.952804 0.0238651 1
0.928618 0.345449 1
0.906142 0.720348 1
0 0.144015 1
0 0.144015 1
0 0.144015 1
0 0.14403 1
0 0.144091 1
0 0.144244 1
0.952804 0.0238651 1
0.928603 0.345815 1
0.906142 0.720333 1
0 0.143969 1
0 0.143984 1
0 0.143984 1
0 0.144015 1
0 0.144045 1
0 0.144198 1
0.952804 0.0238651 1
0.928573 0.346395 1
0.906142 0.720302 1
0 0.143862 1
0 0.143862 1
0 0.143862 1
0 0.143893 1
0 0.143938 1
0 0.144091 1
0.952804 0.0238651 1
0.928466 0.348211 1
0.906142 0.720226 1
0 0.143496 1
0 0.143496 1
0 0.143496 1
0 0.143511 1
0 0.143557 1
0 0.143709 1
0.952804 0.0238651 1
0.928283 0.351492 1
0.906172 0.719936 1
0 0.14229 1
0 0.142306 1
0 0.14229 1
0 0.142321 1
0 0.142351 1
0.752285 0.012192 1
0.952804 0.0238651 1
0.927977 0.356802 1
0.898024 0.864958 1
0 0.953338 1
0 0.953368 1
0 0.953414 1
0 0.953536 1
0 0.953948 1
0.700175 0.920699 1
0.87953 0.914275 1
0.895003 0.922957 1
0.894026 0.942199 1
0.684794 0.962951 1
0.689662 0.962921 1
0.696681 0.96286 1
0.715999 0.962737 1
0.758267 0.962493 1
0.817243 0.962295 1
0.867826 0.962203 1
0.893019 0.962203 1
0.893019 0.962203 1
0.864576 0.962219 1
0.864698 0.962219 1
0.864897 0.962219 1
0.865492 0.962219 1
0.867262 0.962219 1
0.871977 0.962203 1
0.881315 0.962203 1
0.891951 0.962203 1
0.893034 0.962203 1
0 0.434897 1
0 0.434897 1
0 0.434897 1
0 0.434913 1
0 0.434913 1
0 0.434958 1
0 0.43508 1
0.921447 0.472496 1
0.904097 0.755154 1
0 0.434897 1
0 0.434897 1
0 0.434897 1
0 0.434897 1
0 0.434913 1
0 0.434958 1
0 0.435065 1
0.921431 0.472679 1
0.904082 0.755184 1
0 0.434882 1
0 0.434882 1
0 0.434882 1
0 0.434897 1
0 0.434897 1
0 0.434943 1
0 0.435065 1
0.921416 0.472953 1
0.904082 0.755215 1
0 0.434852 1
0 0.434867 1
0 0.434867 1
0 0.434867 1
0 0.434882 1
0 0.434913 1
0 0.435035 1
0.92137 0.473823 1
0.904082 0.755352 1
0 0.434775 1
0 0.43476 1
0 0.434775 1
0 0.434775 1
0 0.434791 1
0 0.434821 1
0 0.434943 1
0.921218 0.47657 1
0.904051 0.755749 1
0 0.43447 1
0 0.43447 1
0 0.43447 1
0 0.434485 1
0 0.434485 1
0 0.434531 1
0 0.432212 1
0.92076 0.485039 1
0.904005 0.756481 1
0 0.433524 1
0 0.433524 1
0 0.433524 1
0 0.433524 1
0 0.433539 1
0 0.433585 1
0.952804 0.0238651 1
0.919707 0.503838 1
0.903944 0.757702 1
0 0.980224 1
0 0.980224 1
0 0.980224 1
0 0.980224 1
0 0.980224 1
0 0.980224 1
0.831754 0.955123 1
0.893507 0.952636 1
0.893355 0.955673 1
0.82884 0.962264 1
0.829297 0.962264 1
0.829969 0.962264 1
0.832044 0.962249 1
0.837964 0.962249 1
0.852125 0.962219 1
0.872877 0.962203 1
0.889738 0.962203 1
0.893019 0.962203 1
