BBLuts/BB_104_0210_LUT.cube
TITLE "Generated by Resolve"
LUT_3D_SIZE 5
0.00137331 0 0.00244144
0.311772 0 0.00263981
0.955398 0 0
0.991897 0.626337 0.0513619
0.991867 0.933303 0.782864
0 0.331823 0
0.2121 0.332341 0
0.928283 0.118212 0
1 0.657847 0.025452
0.991684 0.934295 0.782193
0 0.860075 0
0 0.859709 0
0.7738 0.82153 0
1 0.847166 0
0.990799 0.942077 0.776577
0.617868 1 0.20267
0.6589 1 0.20444
0.814298 0.991577 0.227756
0.989303 0.970275 0.443259
0.986862 0.969039 0.795789
0.950591 0.979477 0.879118
0.950988 0.979477 0.879164
0.954406 0.979217 0.879286
0.972656 0.978119 0.881453
0.982651 0.976928 0.905898
0 0 0.341772
0.270268 0 0.343496
0.950683 0 0.333822
0.987991 0.6121 0.308034
0.991409 0.932601 0.79823
0 0.275456 0.259434
0.22562 0.266911 0.252399
0.952361 0 0.30602
0.914015 0.69369 0.23769
0.991394 0.933776 0.797635
0 0.857084 0
0 0.856687 0
0.779416 0.818357 0
1 0.843381 0.0112306
0.990417 0.941558 0.79266
0.624598 1 0.201648
0.664286 1 0.203418
0.816037 0.991394 0.227024
0.989395 0.97023 0.443214
0.986862 0.969024 0.795697
0.950652 0.979477 0.879118
0.951064 0.979477 0.879164
0.954467 0.979217 0.879271
0.972686 0.978119 0.881437
0.982651 0.976928 0.905898
0 0 0.952804
0 0 0.953017
0.941863 0 0.92607
1 0.246479 0.872099
0.985199 0.931121 0.864469
0 0 0.951156
0 0 0.951385
0.950744 0 0.923949
1 0.528405 0.824796
0.986923 0.931746 0.865522
0 0.803052 0.783902
0 0.803311 0.784054
0.745113 0.767147 0.762432
1 0.812253 0.759686
0.989075 0.938796 0.865064
0.617319 1 0.621729
0.655634 0.99733 0.620752
0.804181 0.984329 0.619562
0.979416 0.965972 0.662959
0.985641 0.967727 0.845441
0.951156 0.979477 0.879057
0.951614 0.979446 0.879072
0.954925 0.979171 0.879164
0.972869 0.978103 0.881376
0.982651 0.976928 0.905898
0 0 1
0 0 1
0 0 1
1 0 1
0.991516 0.898665 0.976913
0 0 1
0 0 1
0 0 1
1 0 1
0.990967 0.901396 0.97612
0 0 1
0 0 1
0.542184 0 1
1 0 1
0.988876 0.918212 0.972519
0 1 0.997711
0 1 0.997726
0.659876 0.982361 0.976287
0.957168 0.955016 0.961639
0.979034 0.964202 0.95819
0.946731 0.978546 0.94078
0.947173 0.978515 0.940764
0.950317 0.978378 0.940734
0.968093 0.977234 0.940764
0.98172 0.976303 0.948928
0 0.431907 1
0 0.431907 1
0 0.431922 1
0 0.432151 1
1 0.72546 1
0 0.431876 1
0 0.431876 1
0 0.431907 1
0 0.432135 1
1 0.725551 1
0 0.431693 1
0 0.431693 1
0 0.431724 1
0.509163 0.386282 1
1 0.726314 1
0 0.429953 1
0 0.429953 1
0 0.429984 1
1 0 1
1 0.728725 1
0.882673 0.981369 0.988846
0.88481 0.981231 0.988708
0.898528 0.980514 0.988067
0.950286 0.977478 0.98526
0.981048 0.975952 0.98381
