BBLuts/BB_103_0860_LUT.cube
TITLE "Generated by Resolve"
LUT_3D_SIZE 9
0 0 0
0 0 0
0.19028 0 0
0.440574 0 0
0.773236 0 0
1 0.00758373 0.00901808
0.925063 0.532006 0.199237
0.886015 0.861433 0.570459
0.868971 0.985275 0.969253
0 0.0319677 0
0 0.048249 0
0.189548 0.0207523 0
0.45037 0 0
0.775937 0 0
1 0.00758373 0.00901808
0.922026 0.563684 0.179553
0.885618 0.866346 0.568276
0.868925 0.98587 0.968963
0 0.255177 0
0 0.259403 0
0.124575 0.250874 0
0.424643 0.229099 0
0.754009 0.11696 0
0.962936 0.261769 0
0.918181 0.608499 0.139742
0.884993 0.873915 0.564752
0.868849 0.986816 0.968475
0 0.521172 0
0 0.52224 0
0 0.522835 0
0.352255 0.506981 0
0.716548 0.498161 0
0.928939 0.545464 0
0.912154 0.7131 0
0.883391 0.893812 0.55433
0.86862 0.989563 0.96701
0 0.848951 0.00831617
0 0.848859 0.00830091
0 0.848463 0.00825513
0 0.845747 0.00794995
0.630228 0.811231 0
0.87129 0.815 0
0.898436 0.864393 0
0.879759 0.934005 0.559731
0.868025 0.99678 0.962554
0 1 0.0299229
0 1 0.0298314
0 1 0.0296788
0 1 0.0292058
0.592767 0.987137 0
0.812924 0.975906 0
0.888808 0.977295 0
0.874403 0.985916 0.607935
0.866743 1 0.957732
0.464073 1 0.332998
0.482979 1 0.33373
0.510246 1 0.335073
0.574029 1 0.339803
0.680095 1 0.35639
0.791897 1 0.403418
0.865766 1 0.517388
0.868544 1 0.743191
0.864485 1 0.994263
0.74844 1 0.837705
0.74995 1 0.837888
0.752377 1 0.838178
0.759319 1 0.839063
0.77702 1 0.841825
0.810758 1 0.850462
0.850935 1 0.875944
0.864027 1 0.945022
0.86247 1 1
0.828397 1 1
0.82858 1 1
0.828885 1 1
0.829801 1 1
0.83238 1 1
0.838895 1 1
0.851331 1 1
0.861845 1 1
0.861555 1 1
0 0 0.0413367
0 0 0.0418402
0.189563 0 0.0563973
0.439796 0 0.0747387
0.771252 0 0.104204
1 0.00474556 0.176455
0.924117 0.525093 0.296422
0.885496 0.860044 0.608728
0.868879 0.985092 0.9776
0 0 0.0238499
0 0.011841 0.0215915
0.210452 0 0.0419928
0.444968 0 0.0534829
0.773251 0 0.047303
1 0.00529488 0.129915
0.920836 0.557534 0.280827
0.885084 0.865003 0.606806
0.868833 0.985687 0.977325
0 0.244312 0
0 0.247929 0
0.146639 0.240253 0
0.423957 0.217899 0
0.757565 0.076173 0
0.965301 0.243992 0
0.916548 0.603128 0.252171
0.884443 0.872618 0.603708
0.868757 0.986633 0.976867
0 0.517067 0
0 0.518074 0
0 0.518486 0
0.363241 0.502388 0
0.716426 0.494453 0
0.929259 0.54255 0
0.909865 0.708949 0.075761
0.882795 0.892683 0.594553
0.868528 0.98938 0.975464
0 0.847608 0.00816358
0 0.847501 0.00814832
0 0.847074 0.00810254
0 0.844297 0.0077821
0.633234 0.809888 0
0.871489 0.814084 0
0.898482 0.86389 0
0.879622 0.933684 0.568856
0.867933 0.996628 0.971252
0 1 0.0298924
0 1 0.0298009
0 1 0.029633
0 1 0.02916
0.594751 0.986893 0
0.813275 0.975753 0
0.888808 0.977188 0
0.874403 0.98584 0.607706
0.866728 1 0.958495
0.467002 1 0.332662
0.485634 1 0.33341
0.512551 1 0.334783
0.575601 1 0.339529
0.680812 1 0.356176
0.792096 1 0.403281
0.865812 1 0.517372
0.868544 1 0.743099
0.864485 1 0.994202
0.748669 1 0.837674
0.750195 1 0.837858
0.752605 1 0.838132
0.759503 1 0.839033
0.777173 1 0.841794
0.810834 1 0.850416
0.850965 1 0.875914
0.864027 1 0.945006
0.86247 1 1
0.828428 1 1
0.828611 1 1
0.828916 1 1
0.829816 1 1
0.832395 1 1
0.838895 1 1
0.851347 1 1
0.861845 1 1
0.861555 1 1
0 0 0.271092
0 0 0.271412
0.164019 0 0.27744
0.449516 0 0.287495
0.769497 0 0.314687
1 0.0034638 0.367163
0.923537 0.512367 0.420706
0.88484 0.857862 0.662699
0.868757 0.984787 0.990188
0 0 0.265202
0 0 0.265751
0.195895 0 0.272831
0.448127 0 0.281819
0.772061 0 0.308888
1 0.00350958 0.3579
0.91986 0.54609 0.413367
0.884398 0.862898 0.661067
0.868696 0.985397 0.989929
0 0.209293 0.250553
0 0.212177 0.250217
0.131685 0.197894 0.237903
0.409293 0.181338 0.247211
0.770657 0 0.292165
0.968933 0.175433 0.310079
0.914992 0.593088 0.401297
0.883741 0.870619 0.658442
0.86862 0.986358 0.989502
0 0.502174 0.138582
0 0.503334 0.140429
0 0.503868 0.14287
0.360189 0.487556 0.133303
0.708309 0.480293 0.146014
0.925444 0.528283 0.200549
0.904997 0.699443 0.359976
0.882017 0.890944 0.650736
0.868391 0.98912 0.98822
0 0.844831 0.00784314
0 0.844724 0.00782788
0 0.844282 0.0077821
0 0.841474 0.0074464
0.635966 0.807187 0
0.871534 0.811933 0
0.894469 0.859083 0.157275
0.878676 0.932403 0.629419
0.867781 0.996399 0.98436
0 1 0.0298314
0 1 0.0297398
0 1 0.0295872
0 1 0.0291142
0.597955 0.986481 0
0.813825 0.975494 0
0.888823 0.977005 0
0.874418 0.985748 0.60734
0.86656 1 0.972702
0.471717 1 0.332143
0.489906 1 0.332921
0.516243 1 0.334295
0.578134 1 0.339101
0.681971 1 0.35584
0.792432 1 0.403052
0.865888 1 0.517327
0.868559 1 0.742947
0.864485 1 0.994141
0.749035 1 0.837613
0.750561 1 0.837797
0.752956 1 0.838087
0.759838 1 0.838987
0.777432 1 0.841733
0.810971 1 0.85037
0.850996 1 0.875883
0.864027 1 0.945006
0.86247 1 1
0.828458 1 1
0.828656 1 1
0.828962 1 1
0.829862 1 1
0.832441 1 1
0.838926 1 1
0.851362 1 1
0.861845 1 1
0.861555 1 1
0 0 0.55729
0 0 0.557458
0 0 0.557565
0.42974 0 0.5664
0.789471 0 0.58645
1 0.00361639 0.618402
0.925551 0.471504 0.639643
0.883619 0.85153 0.786954
0.868437 0.983948 1
0 0 0.554818
0 0 0.555047
0.0588388 0 0.554314
0.443549 0 0.564431
0.787305 0 0.583673
1 0.00361639 0.615381
0.920882 0.510521 0.635645
0.883146 0.856809 0.785809
0.868376 0.984543 1
0 0.0654459 0.544167
0 0.0735027 0.544335
0.0755932 0.0630045 0.540734
0.449149 0 0.560342
0.780682 0 0.578988
1 0.00358587 0.609705
0.91487 0.563439 0.629587
0.882414 0.864897 0.783963
0.868299 0.985534 1
0 0.457862 0.52903
0 0.45951 0.529473
0 0.460639 0.530266
0.347387 0.444587 0.519097
0.68983 0.438376 0.525948
0.924407 0.489387 0.548272
0.902785 0.679103 0.612726
0.880522 0.886122 0.778607
0.868055 0.988342 1
0 0.826551 0.457527
0 0.82652 0.458274
0 0.8262 0.459434
0 0.82359 0.462577
0.623117 0.789044 0.448631
0.859617 0.794965 0.480766
0.887221 0.848066 0.570626
0.876829 0.929152 0.764141
0.86743 0.995712 1
0 1 0.0296941
0 1 0.0295872
0 1 0.0294347
0 1 0.0289616
0.59791 0.985275 0
0.806714 0.969238 0.276402
0.878279 0.968093 0.483253
0.872557 0.983948 0.72755
0.866148 1 1
0.485405 1 0.330556
0.502388 1 0.331395
0.527077 1 0.33286
0.585611 1 0.337835
0.685435 1 0.354788
0.793423 1 0.402365
0.866102 1 0.51722
0.868559 1 0.742473
0.8645 1 0.993912
0.750179 1 0.837461
0.751659 1 0.837629
0.754025 1 0.837919
0.7608 1 0.838804
0.77818 1 0.841581
0.811353 1 0.850217
0.851118 1 0.875746
0.864027 1 0.944976
0.86247 1 1
0.828611 1 1
0.828794 1 1
0.829084 1 1
0.829999 1 1
0.832547 1 1
0.839033 1 1
0.851408 1 1
0.861845 1 1
0.861555 1 1
0 0 0.945739
0 0 0.94583
0 0 0.946014
0.282734 0 0.94342
0.777554 0 0.956771
1 0.00633249 0.971939
0.955245 0.241291 0.957336
0.88304 0.831556 0.990753
0.867903 0.981552 1
0 0 0.944869
0 0 0.944976
0 0 0.945159
0.311727 0 0.943008
0.783459 0 0.956146
1 0.00631724 0.971038
0.939178 0.353582 0.949538
0.882429 0.837995 0.990097
0.867842 0.982193 1
0 0 0.94345
0 0 0.943572
0 0 0.943755
0.349203 0 0.942245
0.78706 0 0.954787
1 0.00630198 0.969512
0.92604 0.449332 0.943511
0.881514 0.847608 0.98909
0.86775 0.983215 1
0 0.286198 0.923232
0 0.289433 0.923323
0 0.293553 0.9234
0.299718 0.273014 0.912169
0.747021 0.16437 0.922469
0.947921 0.291096 0.924422
0.906447 0.611383 0.933318
0.87921 0.872129 0.986221
0.867491 0.986191 1
0 0.781323 0.906279
0 0.781659 0.906462
0 0.78175 0.906676
0 0.780011 0.907027
0.604242 0.745846 0.883284
0.848722 0.758419 0.889479
0.88452 0.825193 0.914199
0.874723 0.920851 0.979019
0.866819 0.993896 1
0 1 0.866331
0 1 0.866499
0 1 0.866758
0 1 0.867567
0.552682 0.971069 0.840497
0.787732 0.958831 0.850721
0.872267 0.9608 0.886107
0.869535 0.979843 0.963165
0.865431 1 1
0.466865 1 0.732326
0.484428 1 0.732326
0.509911 1 0.732448
0.570001 1 0.733303
0.67187 1 0.738018
0.78175 1 0.756085
0.856352 1 0.809491
0.866041 1 0.922911
0.863706 1 1
0.753536 1 0.836912
0.754955 1 0.83711
0.757229 1 0.837385
0.763729 1 0.838285
0.780423 1 0.841077
0.812528 1 0.849744
0.851499 1 0.875349
0.864027 1 0.944884
0.86247 1 1
0.829038 1 1
0.829221 1 1
0.829511 1 1
0.830396 1 1
0.832929 1 1
0.839292 1 1
0.851545 1 1
0.861845 1 1
0.861555 1 1
0 0 1
0 0 1
0 0 1
0 0 1
0.663691 0 1
1 0.00910964 1
1 0.0091249 1
0.890639 0.74139 1
0.867704 0.97435 1
0 0 1
0 0 1
0 0 1
0 0 1
0.672068 0 1
1 0.00910964 1
1 0.0091249 1
0.889326 0.754131 1
0.867628 0.975113 1
0 0 1
0 0 1
0 0 1
0 0 1
0.685298 0 1
1 0.00910964 1
1 0.0091249 1
0.887388 0.772885 1
0.867521 0.976333 1
0 0 1
0 0 1
0 0 1
0 0 1
0.714168 0 1
1 0.00909438 1
1 0.00909438 1
0.882872 0.817838 1
0.867201 0.979828 1
0 0.57528 1
0 0.576593 1
0 0.578729 1
0 0.58204 1
0.601511 0.551675 1
0.90631 0.57203 1
0.892958 0.720104 1
0.875532 0.89337 1
0.866392 0.988846 1
0 1 1
0 1 1
0 1 1
0 0.998322 1
0.469551 0.957427 1
0.772839 0.942535 1
0.866865 0.947494 1
0.868269 0.971374 1
0.864759 1 1
0.310155 1 1
0.348562 1 1
0.396735 1 1
0.490745 1 1
0.628382 1 1
0.758846 1 1
0.84155 1 1
0.863722 1 1
0.86276 1 1
0.740612 1 1
0.742077 1 1
0.744411 1 1
0.751095 1 1
0.768246 1 1
0.801251 1 1
0.841535 1 1
0.862104 1 1
0.861631 1 1
0.83032 1 1
0.830472 1 1
0.830762 1 1
0.831601 1 1
0.834012 1 1
0.840131 1 1
0.852003 1 1
0.861845 1 1
0.861555 1 1
0 0 1
0 0 1
0 0 1
0 0 1
0 0 1
0.990738 0.00932326 1
1 0.0102388 1
1 0.0102388 1
0.869947 0.943603 1
0 0 1
0 0 1
0 0 1
0 0 1
0 0 1
0.992187 0.00939956 1
1 0.0102388 1
1 0.0102388 1
0.869825 0.945022 1
0 0 1
0 0 1
0 0 1
0 0 1
0 0 1
0.994492 0.00950637 1
1 0.0102388 1
1 0.0102388 1
0.869612 0.94725 1
0 0 1
0 0 1
0 0 1
0 0 1
0 0 1
1 0.00984207 1
1 0.0102388 1
1 0.0102388 1
0.869017 0.953552 1
0 0 1
0 0 1
0 0 1
0 0 1
0.370062 0 1
1 0.0102388 1
1 0.0102388 1
0.904005 0.615167 1
0.867582 0.9691 1
0 0.891066 1
0 0.891371 1
0 0.89189 1
0 0.893492 1
0 0.887739 1
0.785946 0.84448 1
0.876966 0.870695 1
0.870771 0.935286 1
0.865049 0.996567 1
0 1 1
0 1 1
0 1 1
0 1 1
0.517784 1 1
0.735088 1 1
0.835416 1 1
0.863218 1 1
0.862333 1 1
0.708507 1 1
0.71046 1 1
0.713558 1 1
0.722393 1 1
0.744533 1 1
0.785428 1 1
0.831739 1 1
0.860853 1 1
0.860792 1 1
0.82501 1 1
0.825177 1 1
0.825467 1 1
0.826322 1 1
0.828794 1 1
0.835035 1 1
0.847166 1 1
0.86096 1 1
0.860914 1 1
0 0.0675517 1
0 0.0675517 1
0 0.0675517 1
0 0.0675669 1
0 0.0676738 1
0 0.0679179 1
1 0.0102388 1
1 0.0102388 1
0.898207 0.66566 1
0 0.0675059 1
0 0.0675059 1
0 0.0675212 1
0 0.0675517 1
0 0.0676432 1
0 0.0679026 1
1 0.0102388 1
1 0.0102388 1
0.898222 0.665629 1
0 0.0674296 1
0 0.0674296 1
0 0.0674601 1
0 0.0674754 1
0 0.0675517 1
0 0.0678264 1
1 0.0102388 1
1 0.0102388 1
0.898222 0.665583 1
0 0.0672313 1
0 0.0672007 1
0 0.0672313 1
0 0.0672465 1
0 0.0673533 1
0 0.0246433 1
1 0.0102388 1
1 0.0102388 1
0.898238 0.665431 1
0 0.0665446 1
0 0.0665446 1
0 0.0665599 1
0 0.0665904 1
0 0.0666667 1
0.402289 0 1
1 0.0102388 1
1 0.0102388 1
0.898283 0.664958 1
0 0.0644083 1
0 0.0644083 1
0 0.0644083 1
0 0.0644388 1
0 0.0645304 1
0.799878 0.000183108 1
1 0.0102388 1
0.98526 0.0863966 1
0.874174 0.897368 1
0 1 1
0 1 1
0 1 1
0 1 1
0 1 1
0.61976 0.987823 1
0.840879 0.977996 1
0.865553 0.988128 1
0.863294 1 1
0.537881 1 1
0.5467 1 1
0.559945 1 1
0.594293 1 1
0.663737 1 1
0.7514 1 1
0.822324 1 1
0.859358 1 1
0.860502 1 1
0.813306 1 1
0.81355 1 1
0.813931 1 1
0.815091 1 1
0.818357 1 1
0.826474 1 1
0.841291 1 1
0.857206 1 1
0.860471 1 1
0 0.355016 1
0 0.355016 1
0 0.355016 1
0 0.355032 1
0 0.355032 1
0 0.355077 1
0 0.3552 1
0.94136 0.335393 1
0.892729 0.715557 1
0 0.355016 1
0 0.355016 1
0 0.355016 1
0 0.355016 1
0 0.355032 1
0 0.355062 1
0 0.3552 1
0.941314 0.335683 1
0.892714 0.715618 1
0 0.354986 1
0 0.354986 1
0 0.354986 1
0 0.355016 1
0 0.355016 1
0 0.355062 1
0 0.355184 1
0.941253 0.336126 1
0.892714 0.715694 1
0 0.354971 1
0 0.354971 1
0 0.354971 1
0 0.354971 1
0 0.354986 1
0 0.355032 1
0 0.355138 1
0.941054 0.337484 1
0.892683 0.715938 1
0 0.354864 1
0 0.354864 1
0 0.354864 1
0 0.354864 1
0 0.354879 1
0 0.35491 1
0.3402 0.319249 1
0.940459 0.341619 1
0.892607 0.71667 1
0 0.354543 1
0 0.354543 1
0 0.354543 1
0 0.354559 1
0 0.354559 1
0 0.354604 1
0.795117 0.114733 1
0.938735 0.35375 1
0.892485 0.717754 1
0 0.353567 1
0 0.353567 1
0 0.353567 1
0 0.353582 1
0 0.353582 1
0 0.353628 1
1 0.0102388 1
0.935485 0.376928 1
0.892271 0.719814 1
0 1 1
0 1 1
0 1 1
0 1 1
0 1 1
0 1 1
0.78088 1 1
0.861753 1 1
0.861433 1 1
0.758923 1 1
0.759762 1 1
0.761105 1 1
0.765011 1 1
0.775387 1 1
0.797681 1 1
0.829358 1 1
0.854368 1 1
0.860426 1 1
