BBLuts/BB_103_0800_LUT.cube
TITLE "Generated by Resolve"
LUT_3D_SIZE 5
0.037583 0.0376135 0.0376745
0.220203 0.0378729 0.0378119
0.805341 0.0407721 0.0383001
0.997559 0.604013 0.195285
0.956634 1 0.876951
0.0196231 0.257282 0.0375067
0.178286 0.260929 0.0375982
0.806653 0.119112 0.0382391
0.991989 0.67071 0.166125
0.956527 1 0.876463
0 0.864836 0.0375067
0 0.864271 0.0375067
0.697734 0.853941 0.0375219
0.971695 0.916503 0.0377203
0.95584 1 0.872587
0.578897 1 0.320546
0.614893 1 0.322469
0.762753 1 0.338323
0.95169 1 0.479423
0.952956 1 0.890364
0.9234 1 0.977539
0.923751 1 0.977584
0.926452 1 0.97789
0.943023 1 0.980972
0.951644 1 1
0.0374151 0.0375067 0.234028
0.198245 0.0379339 0.234058
0.804517 0.04094 0.237415
0.998322 0.588785 0.362249
0.956603 1 0.889448
0.021973 0.221775 0.216968
0.188052 0.218784 0.212634
0.805463 0.0409247 0.220386
0.992416 0.659525 0.344656
0.956512 1 0.888991
0 0.860899 0.0375067
0 0.860258 0.0375067
0.703578 0.850004 0.0375372
0.97142 0.914717 0.185458
0.95581 1 0.885512
0.585077 1 0.32018
0.619516 1 0.322103
0.764416 1 0.338003
0.951797 1 0.479377
0.952956 1 0.890303
0.923445 1 0.977539
0.923812 1 0.977569
0.926497 1 0.977874
0.943053 1 0.980957
0.951644 1 1
0.0349737 0.037705 0.814221
0.0349737 0.037705 0.814466
0.808865 0.0414588 0.809888
1 0.37026 0.831678
0.956573 1 0.955093
0.0349737 0.037705 0.812421
0.0349737 0.037705 0.81265
0.81828 0.0415198 0.807935
1 0.525628 0.827482
0.956466 1 0.954818
0 0.804059 0.771176
0 0.804456 0.771496
0.684047 0.795819 0.773373
0.971664 0.888197 0.800931
0.955734 1 0.952819
0.590204 1 0.621241
0.622446 1 0.622141
0.761852 1 0.629602
0.946456 1 0.699763
0.952834 1 0.93608
0.923888 1 0.977478
0.924239 1 0.977523
0.926879 1 0.977829
0.943206 1 0.980911
0.951644 1 1
0.0336919 0.0379644 1
0.0336919 0.0379644 1
0.0336919 0.0379644 1
1 0.0429847 1
0.958816 1 1
0.0336919 0.0379644 1
0.0336919 0.0379644 1
0.0336919 0.0379644 1
1 0.0429847 1
0.958587 1 1
0.0336919 0.0379644 1
0.0336919 0.0379644 1
0.255924 0.0389715 1
1 0.0429847 1
0.957153 1 1
0 1 1
0 1 1
0.612146 1 1
0.927977 1 1
0.952712 1 1
0.921508 1 1
0.921859 1 1
0.924392 1 1
0.940215 1 1
0.951492 1 1
0.00404364 0.392554 1
0.00404364 0.392554 1
0.00404364 0.392569 1
0.00402838 0.392737 1
0.976593 0.817533 1
0.00404364 0.392523 1
0.00404364 0.392523 1
0.00404364 0.392554 1
0.00402838 0.392706 1
0.976577 0.817624 1
0.0040589 0.392401 1
0.0040589 0.392401 1
0.0040589 0.392416 1
0.00404364 0.392584 1
0.976516 0.818387 1
0.00416571 0.391104 1
0.00416571 0.391104 1
0.00416571 0.391135 1
1 0.0429847 1
0.976287 0.82118 1
0.861479 1 1
0.86305 1 1
0.874189 1 1
0.923033 1 1
0.951354 1 1
