BBLuts/BB_103_0770_LUT.cube
TITLE "Generated by Resolve"
LUT_3D_SIZE 33
0.00477607 0 0.0194705
0.00477607 0 0.0194705
0.00477607 0 0.0194705
0.00477607 0 0.0194705
0.00477607 0 0.0194705
0.0345464 0 0.0237583
0.0750134 0.00196841 0.0282902
0.106294 0.00411994 0.0307317
0.139254 0.00572213 0.0323491
0.180789 0.0068513 0.032929
0.232807 0.0071107 0.0316167
0.294499 0.00624094 0.0274052
0.368795 0.00448615 0.0180056
0.46273 0.00180056 0.010193
0.598032 0 0.00234989
0.757168 0 0
0.915251 0 0
1 0 0
1 0 0
1 0 0
1 0 0
1 0 0
1 0.190127 0.108217
1 0.416571 0.184634
1 0.581506 0.243671
1 0.715801 0.310765
1 0.833936 0.392264
1 0.927916 0.512505
1 0.994873 0.651484
1 1 0.773785
1 1 0.845243
1 1 0.901473
1 1 0.946975
0.00477607 0 0.0194705
0.00477607 0 0.0194705
0.00477607 0 0.0194705
0.00477607 0 0.0194705
0.00477607 0 0.0194705
0.042298 0 0.0247654
0.0779583 0.0021973 0.0285496
0.108797 0.00425727 0.0308995
0.143389 0.00587472 0.0324712
0.185992 0.0069276 0.0328985
0.238483 0.00706493 0.0313573
0.299779 0.00613413 0.0269017
0.372168 0.0043946 0.0176547
0.465431 0.00172427 0.0100099
0.600946 0 0.0021973
0.759213 0 0
0.916426 0 0
1 0 0
1 0 0
1 0 0
1 0 0
1 0 0
1 0.232105 0.0872206
1 0.43505 0.176257
1 0.592554 0.239658
1 0.722881 0.3084
1 0.838575 0.38967
1 0.930526 0.511116
1 0.996262 0.650736
1 1 0.773495
1 1 0.845136
1 1 0.901411
1 1 0.946944
0.00477607 0 0.0194705
0.00477607 0 0.0194705
0.00477607 0 0.0194705
0.00477607 0 0.0194705
0.00477607 0 0.0194705
0.0470588 0 0.0253452
0.0790265 0.00228885 0.0286564
0.111208 0.0043946 0.0310369
0.147784 0.00602731 0.0325933
0.190921 0.00698863 0.0328374
0.242893 0.00703441 0.0311284
0.302678 0.00607309 0.0266117
0.37496 0.00430304 0.0173495
0.46836 0.00164797 0.00981155
0.603952 0 0.00204471
0.761212 0 0
0.917617 0 0
1 0 0
1 0 0
1 0 0
1 0 0
1 0 0
1 0.26804 0.0362554
1 0.452796 0.166705
1 0.603372 0.235416
1 0.72987 0.305974
1 0.843168 0.387152
1 0.933089 0.509697
1 0.99765 0.650019
1 1 0.77319
1 1 0.845029
1 1 0.90135
1 1 0.946914
0.00477607 0 0.0194705
0.00477607 0 0.0194705
0.00477607 0 0.0194705
0.00289921 0 0.0177615
0.012726 0.00840772 0.0182193
0.0508583 0 0.0259251
0.07953 0.00231937 0.028687
0.111452 0.00440986 0.0310521
0.148592 0.00605783 0.0326238
0.192966 0.00701915 0.0328222
0.245777 0.00701915 0.0309758
0.305303 0.00601205 0.0263371
0.37763 0.00421149 0.0170748
0.471366 0.00157168 0.00961318
0.606973 0 0.00189212
0.763287 0 0
0.918776 0 0
1 0 0
1 0 0
1 0 0
1 0 0
1 0 0
1 0.298466 0.0398718
1 0.469718 0.156008
1 0.61384 0.231022
1 0.736721 0.303548
1 0.847623 0.385916
1 0.935622 0.508309
1 0.999039 0.649287
1 1 0.7729
1 1 0.844938
1 1 0.901289
1 1 0.946883
0 0.0529488 0.00843824
0 0.0560922 0.00808728
0 0.0591745 0.00776684
0 0.0621958 0.00746166
0 0.063447 0.00743114
0.025742 0.0679484 0.0126802
0.0568856 0.0680858 0.0156405
0.0910811 0.0644846 0.0184176
0.132509 0.0530251 0.0215
0.193927 0.00727855 0.0333257
0.24744 0.00698863 0.030869
0.307668 0.00595102 0.0260929
0.380209 0.0041352 0.0168002
0.474418 0.00148013 0.00939956
0.610086 0 0.00173953
0.765377 0 0
0.919936 0 0
1 0 0
1 0 0
1 0 0
1 0 0
1 0.0554055 0
1 0.326116 0.0424506
1 0.48603 0.143297
1 0.624018 0.226398
1 0.74345 0.301091
1 0.851987 0.384695
1 0.938125 0.506935
1 1 0.648524
1 1 0.772595
1 1 0.844816
1 1 0.901228
1 1 0.946853
0 0.0882124 0.00503548
0 0.0906844 0.00482185
0 0.0931716 0.00462348
0 0.0951247 0.00444038
0 0.0960861 0.00436408
0.00628672 0.100084 0.00814832
0.0442206 0.102663 0.0117952
0.0795758 0.102647 0.0143587
0.12018 0.0994888 0.0162356
0.169543 0.0906844 0.0169833
0.227909 0.0717937 0.0164645
0.309865 0.00624094 0.0268254
0.382818 0.0040589 0.0165408
0.477684 0.00138857 0.00918593
0.613413 0 0.00157168
0.767605 0 0
0.921126 0 0
1 0 0
1 0 0
1 0 0
1 0 0
1 0.154543 0.0169223
1 0.352285 0.0441901
1 0.502266 0.126452
1 0.634073 0.221378
1 0.750301 0.298512
1 0.856413 0.383474
1 0.940658 0.505455
1 1 0.647776
1 1 0.772305
1 1 0.844709
1 1 0.901152
1 1 0.946807
0 0.124636 0.0019379
0 0.126696 0.00177005
0 0.128756 0.00158694
0 0.129931 0.00148013
0 0.130678 0.00141909
0 0.131029 0.00157168
0.0263371 0.137316 0.00791943
0.066453 0.139193 0.0111238
0.108812 0.138766 0.0132448
0.158953 0.135058 0.0138399
0.216144 0.125872 0.0123751
0.282414 0.109361 0.00819409
0.362722 0.0780652 0.000518807
0.482078 0.00164797 0.00972
0.617716 0 0.00134279
0.770474 0 0
0.922698 0 0
1 0 0
1 0 0
1 0 0
1 0 0
1 0.218784 0.0283055
1 0.38262 0.0453803
1 0.522164 0.0879683
1 0.646265 0.214511
1 0.758877 0.295201
1 0.861967 0.381933
1 0.943862 0.503639
1 1 0.646799
1 1 0.771893
1 1 0.844587
1 1 0.901061
1 1 0.946761
0 0.165789 0
0 0.16759 0
0 0.168963 0
0 0.169863 0
0 0.170504 0
0 0.170871 0
0 0.173892 0.000503548
0.0469368 0.179599 0.007187
0.0939193 0.181125 0.0103151
0.145922 0.179538 0.0116732
0.204746 0.173816 0.0107881
0.272862 0.164096 0.00717174
0.351644 0.148867 0
0.452979 0.122621 0
0.599557 0.0673838 0
0.774624 0 0
0.924819 0 0
1 0 0
1 0 0
1 0 0
1 0.104952 0.00683604
1 0.280171 0.0377661
1 0.418448 0.045716
1 0.546715 0.0451362
1 0.661784 0.204776
1 0.769909 0.290745
1 0.869062 0.379965
1 0.947967 0.501213
1 1 0.645533
1 1 0.771359
1 1 0.844404
1 1 0.900954
1 1 0.946715
0 0.214298 0
0 0.215686 0
0 0.21648 0
0 0.217273 0
0 0.217838 0
0 0.218219 0
0 0.218494 0
0.0108949 0.225498 0
0.0709087 0.228748 0.00595102
0.127092 0.228672 0.00901808
0.18941 0.225696 0.00958267
0.261326 0.219379 0.00746166
0.343542 0.209201 0.00308232
0.446677 0.194125 0
0.587167 0.172412 0
0.741817 0.141329 0
0.898726 0.0943008 0
1 0 0
1 0 0
1 0.112215 0.00619516
1 0.228916 0.0302739
1 0.344015 0.0437171
1 0.460578 0.0454414
1 0.57557 0.0454108
1 0.681437 0.190509
1 0.783856 0.284779
1 0.878019 0.377447
1 0.953201 0.49807
1 1 0.643824
1 1 0.770672
1 1 0.84416
1 1 0.900801
1 1 0.946624
0 0.270298 0
0 0.270756 0
0 0.271183 0
0 0.27155 0
0 0.271778 0
0 0.271839 0
0 0.271733 0
0 0.271458 0
0.0328222 0.281315 0
0.100099 0.284413 0.00442512
0.167712 0.284031 0.00730907
0.244511 0.2804 0.00717174
0.332341 0.273304 0.00508125
0.44065 0.262699 0.00285344
0.584024 0.249897 7.62951e-05
0.735927 0.234562 0
0.886305 0.21825 0.0010071
1 0.204822 0.00796521
1 0.211307 0.0187228
1 0.252995 0.0319677
1 0.322744 0.0423743
1 0.411292 0.045716
1 0.509804 0.0451209
1 0.61001 0.046067
1 0.705821 0.167544
1 0.801358 0.276783
1 0.88922 0.37435
1 0.959777 0.493965
1 1 0.641611
1 1 0.769757
1 1 0.843824
1 1 0.900603
1 1 0.946517
0 0.332753 0
0 0.333196 0
0 0.333669 0
0 0.333989 0
0 0.334264 0
0 0.334417 0
0 0.334462 0
0 0.334356 0
0 0.334005 0
0.057908 0.348272 0
0.13611 0.351293 0.002533
0.219333 0.350484 0.0052491
0.314275 0.346242 0.00564584
0.429358 0.339498 0.0062562
0.578714 0.331273 0.00691234
0.73164 0.322774 0.00891127
0.879744 0.316228 0.0144045
1 0.314565 0.0234226
1 0.326329 0.03299
1 0.359747 0.0422827
1 0.413474 0.0459297
1 0.483162 0.0452735
1 0.564614 0.0452583
1 0.649805 0.0463874
1 0.735805 0.118502
1 0.82298 0.265843
1 0.902953 0.370581
1 0.967941 0.488624
1 1 0.638712
1 1 0.768551
1 1 0.843412
1 1 0.900343
1 1 0.94638
0 0.409491 0
0 0.409949 0
0 0.410376 0
0 0.410727 0
0 0.410986 0
0 0.4112 0
0 0.411353 0
0 0.411429 0
0 0.411261 0
0 0.415717 0
0.0865949 0.430381 0
0.181476 0.433371 0.00128176
0.285298 0.432563 0.00430304
0.406592 0.429358 0.00691234
0.562371 0.424338 0.00939956
0.721248 0.419409 0.0129244
0.869444 0.417533 0.019379
1 0.421103 0.0274968
1 0.434943 0.0364691
1 0.46276 0.04271
1 0.504906 0.0453346
1 0.559503 0.0452125
1 0.624506 0.0462501
1 0.695277 0.0462043
1 0.772305 0.045182
1 0.848798 0.251316
1 0.919432 0.36614
1 0.977722 0.487877
1 1 0.634943
1 1 0.766949
1 1 0.842832
1 1 0.900008
1 1 0.946197
0 0.503578 0
0 0.504005 0
0 0.504387 0
0 0.504692 0
0 0.504952 0
0 0.50518 0
0 0.505379 0
0 0.505547 0
0 0.505699 0
0 0.505898 0
0 0.518898 0
0.123598 0.531411 0
0.241978 0.53434 0.00306706
0.369329 0.533593 0.00665293
0.529381 0.530816 0.00950637
0.697551 0.527443 0.0127871
0.851255 0.52639 0.0187076
0.986084 0.530404 0.0272679
1 0.542367 0.0350042
1 0.564248 0.041825
1 0.595926 0.0460365
1 0.637446 0.0463569
1 0.687861 0.0462654
1 0.747265 0.0455329
1 0.813397 0.044419
1 0.878401 0.232609
1 0.938659 0.361227
1 0.989761 0.487556
1 1 0.629999
1 1 0.764828
1 1 0.8421
1 1 0.89955
1 1 0.945953
0 0.607919 0
0 0.608255 0
0 0.608545 0
0 0.608789 0
0 0.609018 0
0 0.609216 0
0 0.609415 0
0 0.609613 0
0 0.609751 0
0 0.609781 0
0 0.609766 0
0.0303655 0.629068 0
0.182132 0.637812 0.00370794
0.320134 0.638605 0.00730907
0.481163 0.637125 0.0099794
0.66154 0.634424 0.0131685
0.825772 0.633219 0.019501
0.964782 0.635966 0.0284123
1 0.644831 0.035996
1 0.660792 0.0423285
1 0.684504 0.0464942
1 0.715953 0.0459907
1 0.756451 0.0453803
1 0.804868 0.0445716
1 0.859266 0.0438239
1 0.911162 0.208042
1 0.960327 0.356329
1 1 0.487816
1 1 0.624491
1 1 0.762066
1 1 0.841123
1 1 0.898939
1 1 0.945617
0 0.711086 0
0 0.711269 0
0 0.711437 0
0 0.711574 0
0 0.711681 0
0 0.711788 0
0 0.711879 0
0 0.711955 0
0 0.711971 0
0 0.711894 0
0 0.711635 0
0 0.711177 0
0.0976883 0.735759 0.000213626
0.262974 0.739742 0.0080415
0.421241 0.73959 0.0115358
0.612436 0.737621 0.0145876
0.789044 0.735912 0.0202335
0.935027 0.737087 0.0285039
1 0.743175 0.0353552
1 0.755123 0.04094
1 0.773068 0.0446326
1 0.797314 0.0449226
1 0.828489 0.0441901
1 0.865843 0.0437934
1 0.90663 0.0439765
1 0.945968 0.175082
1 0.983749 0.352361
1 1 0.488991
1 1 0.626886
1 1 0.758419
1 1 0.839841
1 1 0.898146
1 1 0.94519
0 0.813443 0
0 0.813535 0
0 0.813596 0
0 0.813657 0
0 0.813672 0
0 0.813687 0
0 0.813703 0
0 0.813672 0
0 0.813596 0
0 0.813397 0
0 0.813001 0
0 0.812253 0
0 0.819608 0
0.189853 0.84036 0.0146181
0.358404 0.841382 0.0182193
0.552941 0.839734 0.0199283
0.741497 0.837385 0.0232242
0.895277 0.837034 0.0294499
1 0.84033 0.0357977
1 0.848066 0.0396429
1 0.860456 0.0427253
1 0.877501 0.0439918
1 0.898863 0.0438849
1 0.924376 0.0442664
1 0.953002 0.0450294
1 0.981262 0.127749
1 1 0.350851
1 1 0.491905
1 1 0.630671
1 1 0.754788
1 1 0.838163
1 1 0.897078
1 1 0.944625
0 0.912413 0
0 0.912398 0
0 0.912383 0
0 0.912352 0
0 0.912322 0
0 0.912261 0
0 0.912169 0
0 0.912047 0
0 0.911818 0
0 0.911467 0
0 0.910887 0
0 0.909926 0
0 0.908537 0
0.100954 0.934035 0.0278019
0.295064 0.936889 0.0323644
0.490623 0.935027 0.0320134
0.689815 0.931411 0.0315709
0.850065 0.929015 0.0342565
0.968017 0.929198 0.0383307
1 0.932296 0.0408637
1 0.938491 0.0433814
1 0.948241 0.0449378
1 0.961303 0.0455177
1 0.977279 0.0459602
1 0.996246 0.0468452
1 1 0.0480201
1 1 0.35314
1 1 0.497658
1 1 0.636469
1 1 0.758633
1 1 0.835935
1 1 0.895674
1 1 0.943862
0 0.994522 0.0117037
0 0.99443 0.0116732
0 0.994339 0.0116426
0 0.994232 0.0116121
0 0.99411 0.0115663
0 0.993988 0.0115511
0 0.993805 0.0115511
0 0.993561 0.0115358
0 0.993194 0.0115206
0 0.99266 0.01149
0 0.991852 0.0114443
0 0.990662 0.0113832
0 0.988998 0.0108186
0.0147555 1 0.0384375
0.24976 1 0.0486305
0.442176 1 0.0455329
0.648493 1 0.0424201
0.810788 1 0.0417792
0.930968 1 0.0435187
1 1 0.0446784
1 1 0.0462959
1 1 0.0473487
1 1 0.0479896
1 1 0.0483253
1 1 0.0490425
1 1 0.0787518
1 1 0.362371
1 1 0.507713
1 1 0.64509
1 1 0.763912
1 1 0.836164
1 1 0.893812
1 1 0.942855
0 1 0.0327916
0 1 0.0327459
0 1 0.0326848
0 1 0.0326238
0 1 0.032578
0 1 0.0325017
0 1 0.0324254
0 1 0.0323033
0 1 0.0321508
0 1 0.0319371
0 1 0.0316167
0 1 0.0311742
0 1 0.0305791
0 1 0.0487984
0.231571 1 0.062562
0.42118 1 0.0573892
0.625299 1 0.0513313
0.784024 1 0.0483558
0.901961 1 0.0482643
0.993576 1 0.0491188
1 1 0.0498512
1 1 0.0503548
1 1 0.0506447
1 1 0.0510109
1 1 0.0512703
1 1 0.177249
1 1 0.38146
1 1 0.523812
1 1 0.657496
1 1 0.771084
1 1 0.839521
1 1 0.892226
1 1 0.941512
0 1 0.0480201
0 1 0.0479591
0 1 0.0479133
0 1 0.047837
0 1 0.047776
0 1 0.0476997
0 1 0.0476081
0 1 0.0474861
0 1 0.0473182
0 1 0.0470893
0 1 0.0467842
0 1 0.0463569
0 1 0.0458228
0.0256809 1 0.0695201
0.246509 1 0.0720531
0.428702 1 0.0653544
0.619989 1 0.0583047
0.768948 1 0.0542306
0.881224 1 0.0529335
0.970657 1 0.0528572
1 1 0.0530251
1 1 0.0531319
1 1 0.0531167
1 1 0.0531624
1 1 0.053193
1 1 0.250782
1 1 0.412345
1 1 0.547219
1 1 0.675151
1 1 0.780545
1 1 0.844022
1 1 0.895445
1 1 0.939712
0 1 0.0581216
0 1 0.0580453
0 1 0.0579843
0 1 0.0579232
0 1 0.057847
0 1 0.0577859
0 1 0.0576944
0 1 0.0575723
0 1 0.0574197
0 1 0.0572061
0 1 0.0569314
0 1 0.0565499
0 1 0.0560769
0.127703 1 0.0819104
0.295705 1 0.076463
0.468711 1 0.0691081
0.635019 1 0.062089
0.767865 1 0.057908
0.871061 1 0.0561685
0.955139 1 0.0556344
1 1 0.0554513
1 1 0.0552987
1 1 0.0551003
1 1 0.0548714
1 1 0.0549935
1 1 0.322515
1 1 0.455467
1 1 0.579232
1 1 0.698985
1 1 0.792798
1 1 0.850019
1 1 0.899641
1 1 0.941741
0 1 0.0649424
0 1 0.0648966
0 1 0.0648356
0 1 0.0647746
0 1 0.0647135
0 1 0.0646525
0 1 0.0645762
0 1 0.0644541
0 1 0.0643168
0 1 0.0641337
0 1 0.0639048
0 1 0.0635843
0.105928 1 0.0872511
0.246571 1 0.0831006
0.378912 1 0.0766766
0.530068 1 0.0696422
0.665919 1 0.0636912
0.777951 1 0.0601053
0.869795 1 0.0583505
0.946944 1 0.0576028
1 1 0.0572518
1 1 0.0569772
1 1 0.056672
1 1 0.0563516
1 1 0.258701
1 1 0.397726
1 1 0.511055
1 1 0.620844
1 1 0.727291
1 1 0.808042
1 1 0.857862
1 1 0.905043
1 1 0.944976
0 1 0.0695201
0 1 0.0694896
0 1 0.0694285
0 1 0.0693675
0 1 0.0693217
0 1 0.069276
0 1 0.0691997
0 1 0.0691081
0 1 0.0690013
0.0243687 1 0.0882582
0.113893 1 0.090959
0.197559 1 0.0885481
0.281315 1 0.0841535
0.377325 1 0.0792248
0.491508 1 0.0736095
0.604822 1 0.0681315
0.708461 1 0.063859
0.798077 1 0.0611582
0.87718 1 0.0596628
0.945418 1 0.0589151
1 1 0.0585031
1 1 0.0581674
1 1 0.0578317
1 1 0.241901
1 1 0.372778
1 1 0.477058
1 1 0.575647
1 1 0.672145
1 1 0.759457
1 1 0.823468
1 1 0.867994
1 1 0.911925
1 1 0.949111
0.134874 1 0.09308
0.150484 1 0.0926375
0.165438 1 0.0921035
0.17966 1 0.0915236
0.193271 1 0.090898
0.20676 1 0.0902419
0.223301 1 0.0893721
0.243839 1 0.0882277
0.268467 1 0.0867628
0.300923 1 0.0849775
0.341573 1 0.0827955
0.39173 1 0.0800183
0.456443 1 0.0767681
0.529335 1 0.0730755
0.606195 1 0.069276
0.683314 1 0.0659037
0.757168 1 0.0632944
0.827176 1 0.0614633
0.89218 1 0.0603647
0.949996 1 0.0597238
0.996841 1 0.181125
1 1 0.258091
1 1 0.317983
1 1 0.393591
1 1 0.475731
1 1 0.560189
1 1 0.645121
1 1 0.728389
1 1 0.794186
1 1 0.839673
1 1 0.880827
1 1 0.920501
1 1 0.954284
0.40763 1 0.369177
0.416251 1 0.369131
0.424994 1 0.369116
0.433707 1 0.3691
0.442267 1 0.369085
0.450874 1 0.369085
0.461585 1 0.369085
0.475242 1 0.369116
0.492561 1 0.369162
0.514199 1 0.369284
0.54081 1 0.369528
0.572824 1 0.369985
0.610376 1 0.37084
0.652979 1 0.37232
0.699489 1 0.374792
0.748898 1 0.378637
0.800992 1 0.384314
0.85333 1 0.392294
0.903807 1 0.403174
0.950713 1 0.417548
0.993408 1 0.4365
1 1 0.460212
1 1 0.489448
1 1 0.524987
1 1 0.580087
1 1 0.646647
1 1 0.717952
1 1 0.778546
1 1 0.825147
1 1 0.859983
1 1 0.896483
1 1 0.930861
1 1 0.960632
0.623224 1 0.558755
0.627436 1 0.558785
0.631632 1 0.558846
0.635752 1 0.558877
0.639811 1 0.558953
0.643977 1 0.558984
0.64921 1 0.559091
0.655955 1 0.559197
0.664576 1 0.559365
0.675471 1 0.559625
0.689067 1 0.559976
0.705898 1 0.560525
0.726482 1 0.561303
0.751125 1 0.562478
0.779843 1 0.564157
0.812451 1 0.566583
0.848142 1 0.570047
0.885435 1 0.574884
0.922713 1 0.581476
0.959945 1 0.590311
0.995911 1 0.601862
1 1 0.616846
1 1 0.636027
1 1 0.660136
1 1 0.6907
1 1 0.734447
1 1 0.780331
1 1 0.821408
1 1 0.851194
1 1 0.882963
1 1 0.914153
1 1 0.94287
1 1 0.96817
0.758526 1 0.716533
0.760678 1 0.716594
0.762844 1 0.71667
0.764981 1 0.716731
0.767117 1 0.716793
0.769299 1 0.716884
0.772061 1 0.716976
0.775677 1 0.717098
0.780377 1 0.717266
0.786404 1 0.71751
0.794095 1 0.71783
0.803784 1 0.718257
0.815808 1 0.718868
0.830533 1 0.719692
0.848646 1 0.721172
0.869123 1 0.722713
0.892241 1 0.724819
0.91722 1 0.727672
0.944213 1 0.731456
0.973449 1 0.736431
1 1 0.742901
1 1 0.751171
1 1 0.761547
1 1 0.77435
1 1 0.789685
1 1 0.807462
1 1 0.828794
1 1 0.852705
1 1 0.879377
1 1 0.906874
1 1 0.932692
1 1 0.956085
1 1 0.976745
0.853071 1 0.822141
0.854215 1 0.822171
0.855375 1 0.822202
0.856504 1 0.822232
0.857649 1 0.822263
0.858824 1 0.822293
0.860319 1 0.822339
0.862272 1 0.822385
0.86482 1 0.822461
