BBLuts/BB_106_0170_LUT.cube
TITLE "Generated by Resolve"
LUT_3D_SIZE 9
0.0137179 0.0137179 0.0137179
0.0137179 0.0137179 0.0137179
0.186297 0.0133822 0.0138399
0.407553 0.0129244 0.0140078
0.733837 0.0121767 0.0142672
0.950225 0.0116274 0.0144503
0.965988 0.481971 0.161257
0.977401 0.770062 0.475166
0.981598 0.87216 0.785733
0.0157626 0.0634012 0.0139467
0.0161288 0.0724041 0.0139925
0.197894 0.055787 0.0140536
0.41796 0.0129091 0.0140078
0.736278 0.0121614 0.0142672
0.950225 0.0116274 0.0144503
0.966964 0.508843 0.151492
0.977539 0.773556 0.473594
0.981628 0.872557 0.785565
0.0212711 0.198215 0.0145724
0.0213931 0.201465 0.0145876
0.172137 0.200381 0.0146944
0.433463 0.180224 0.014786
0.742184 0.0777447 0.0145724
0.95668 0.208423 0.0153506
0.968261 0.544198 0.13492
0.977752 0.778592 0.471244
0.981643 0.873152 0.785306
0.0305943 0.420798 0.0156252
0.0306401 0.421805 0.0156252
0.0306706 0.422324 0.0156405
0.396277 0.419776 0.0158846
0.759197 0.408148 0.0161135
0.965103 0.457053 0.0165408
0.971511 0.626917 0.0174258
0.978317 0.792508 0.464042
0.98172 0.874968 0.784466
0.0445716 0.713787 0.0171969
0.0445716 0.71368 0.0171969
0.0445411 0.713329 0.0171969
0.044419 0.710933 0.0171817
0.713985 0.701259 0.0176394
0.949416 0.705074 0.0178531
0.976593 0.751278 0.018143
0.979553 0.822629 0.463203
0.981933 0.880079 0.781826
0.0526589 0.872557 0.0180972
0.0526131 0.871824 0.0180972
0.0525521 0.870695 0.0180972
0.0523842 0.867216 0.0180819
0.70161 0.857084 0.0185092
0.910491 0.848203 0.0186465
0.980621 0.849683 0.13962
0.981323 0.866056 0.501137
0.982406 0.891646 0.775601
0.63389 0.917861 0.278416
0.647654 0.91783 0.279103
0.666651 0.917372 0.28014
0.714534 0.915572 0.283497
0.804105 0.911635 0.294331
0.907179 0.906249 0.327214
0.979706 0.902358 0.418036
0.982834 0.902525 0.60824
0.983063 0.907759 0.798108
0.883238 0.916869 0.683299
0.884428 0.916869 0.683421
0.886198 0.916854 0.683604
0.891493 0.916854 0.684199
0.905821 0.916823 0.686122
0.935393 0.916747 0.692149
0.972366 0.916655 0.710155
0.983413 0.916564 0.759762
0.983429 0.916442 0.848524
0.95697 0.916457 0.876921
0.957092 0.916457 0.876921
0.95729 0.916457 0.876951
0.957916 0.916457 0.877012
0.959808 0.916442 0.877226
0.964935 0.916442 0.877897
0.975296 0.916411 0.880018
0.983429 0.916396 0.886381
0.983429 0.916365 0.904051
0.0137331 0.0136568 0.0653544
0.0137331 0.0136568 0.0656138
0.186053 0.0133059 0.0664073
0.408408 0.0128481 0.0678416
0.73373 0.0120851 0.0720989
0.950225 0.0115053 0.10779
0.96582 0.476753 0.22446
0.977371 0.769253 0.503655
0.981598 0.872053 0.790402
0.0149081 0.0425116 0.0567788
0.0558633 0.0526436 0.0554055
0.203372 0.0132906 0.0580758
0.413581 0.0128634 0.0562905
0.734768 0.0121309 0.042649
0.950225 0.0115358 0.0823682
0.966796 0.504448 0.214588
0.977508 0.772778 0.502266
0.981613 0.87245 0.790234
0.0209354 0.190173 0.0145418
0.0210574 0.19295 0.0145571
0.18883 0.19202 0.0146639
0.431174 0.171664 0.0147402
0.737163 0.0121614 0.0142672
0.956252 0.195239 0.0152895
0.968139 0.540688 0.198352
0.977722 0.777859 0.500191
0.981643 0.873045 0.789975
0.0304417 0.416938 0.01561
0.0304723 0.417899 0.01561
0.0304875 0.418265 0.01561
0.406149 0.415335 0.0158694
0.758373 0.404547 0.0160983
0.965011 0.454108 0.0165255
0.971435 0.625025 0.12961
0.978286 0.791897 0.493843
0.98172 0.874861 0.789181
0.0445106 0.712657 0.0171817
0.0445106 0.712535 0.0171817
0.04448 0.712154 0.0171817
0.044358 0.709728 0.0171664
0.71667 0.700099 0.0176242
0.949462 0.70428 0.0178531
0.976577 0.750851 0.018143
0.979538 0.822385 0.475181
0.981918 0.879988 0.786679
0.0526436 0.872312 0.0180972
0.0525978 0.87158 0.0180972
0.0525521 0.870466 0.0180972
0.052369 0.866987 0.0180667
0.703395 0.856901 0.0185092
0.91078 0.848066 0.0186465
0.980621 0.849592 0.13901
0.981323 0.866011 0.500984
0.982391 0.891585 0.778851
0.636011 0.917861 0.278279
0.649607 0.91783 0.278965
0.668376 0.917281 0.280018
0.715785 0.915511 0.28336
0.804715 0.911589 0.294224
0.907347 0.906233 0.327108
0.979736 0.902327 0.418021
0.982834 0.90251 0.608179
0.983063 0.907744 0.798077
0.883421 0.916869 0.683268
0.884611 0.916869 0.683406
0.886366 0.916854 0.683589
0.891646 0.916854 0.684184
0.905943 0.916808 0.686091
0.935454 0.916747 0.692119
0.972381 0.916655 0.71014
0.983413 0.916564 0.759762
0.983429 0.916442 0.848524
0.956985 0.916457 0.876905
0.957122 0.916457 0.876921
0.957321 0.916457 0.876951
0.957946 0.916457 0.877012
0.959823 0.916442 0.877226
0.96495 0.916442 0.877897
0.975296 0.916411 0.880018
0.983429 0.916396 0.886381
0.983429 0.916365 0.904051
0.0137331 0.0134737 0.194186
0.0137331 0.0134737 0.1944
0.166293 0.0131685 0.194217
0.41854 0.012665 0.191348
0.733608 0.0119173 0.197253
0.950225 0.0113375 0.227512
0.965484 0.467292 0.312856
0.977325 0.768017 0.541192
0.981598 0.8719 0.79707
0.0137331 0.013489 0.190188
0.0137331 0.013489 0.190555
0.19173 0.0131228 0.190082
0.417197 0.0126802 0.187427
0.735958 0.0119173 0.192859
0.950225 0.0113527 0.220325
0.966506 0.496223 0.306859
0.977462 0.771588 0.540002
0.981613 0.872297 0.796918
0.0200504 0.168124 0.179385
0.0201419 0.170169 0.179065
0.177157 0.164691 0.175402
0.416846 0.148745 0.178164
0.734447 0.0119478 0.181659
0.954986 0.156252 0.207675
0.967895 0.533761 0.29752
0.977676 0.776745 0.538216
0.981628 0.872892 0.796674
0.0299687 0.406088 0.0973678
0.0300145 0.407172 0.0984512
0.030045 0.40766 0.0998856
0.4056 0.404334 0.103197
0.753033 0.394308 0.108766
0.964675 0.444221 0.14374
0.971267 0.620569 0.266377
0.978256 0.790967 0.532769
0.981704 0.874708 0.795926
0.0444038 0.710521 0.0171817
0.0444038 0.710384 0.0171817
0.0443732 0.710002 0.0171817
0.0442512 0.707546 0.0171664
0.71899 0.697963 0.0176242
0.949248 0.702602 0.0178378
0.976532 0.749584 0.15404
0.979522 0.821805 0.517021
0.981918 0.87985 0.793561
0.0526284 0.871962 0.0180972
0.0525826 0.871229 0.0180972
0.0525368 0.8701 0.0180972
0.168719 0.866453 0.0181582
0.706081 0.856611 0.0185092
0.911223 0.847868 0.0186465
0.980621 0.84947 0.138033
0.981323 0.86595 0.500725
0.982391 0.891493 0.786282
0.639185 0.917845 0.278065
0.652537 0.917815 0.278752
0.670985 0.917174 0.279805
0.717662 0.915404 0.283162
0.805646 0.911528 0.294041
0.907622 0.906188 0.32697
0.979797 0.902312 0.41799
0.982818 0.902495 0.608072
0.983063 0.907744 0.798032
0.883696 0.916869 0.683238
0.884871 0.916854 0.68336
0.886625 0.916854 0.683558
0.89189 0.916854 0.684153
0.906126 0.916808 0.686061
0.935561 0.916747 0.692088
0.972412 0.916655 0.710109
0.983413 0.916564 0.759747
0.983429 0.916442 0.848508
0.957015 0.916457 0.876905
0.957153 0.916457 0.876921
0.957351 0.916457 0.876951
0.957961 0.916457 0.877012
0.959854 0.916442 0.877226
0.964965 0.916442 0.877897
0.975311 0.916411 0.880018
0.983429 0.916396 0.886381
0.983429 0.916365 0.904051
0.0137484 0.0131685 0.413855
0.0137484 0.0131685 0.413993
0.0137484 0.0131685 0.414069
0.397345 0.0124056 0.412924
0.751324 0.0115663 0.416037
0.95024 0.0110475 0.435996
0.96437 0.434623 0.495323
0.977172 0.764035 0.629725
0.981582 0.871397 0.815564
0.0137484 0.0131685 0.41178
0.0137484 0.0131685 0.411963
0.0828565 0.0130312 0.411948
0.411734 0.0123751 0.410712
0.749218 0.0115816 0.413718
0.95024 0.0110475 0.43331
0.965515 0.467613 0.492348
0.977325 0.767773 0.628885
0.981598 0.871794 0.815427
0.016144 0.0720378 0.408392
0.0163729 0.0773785 0.408591
0.116533 0.0725109 0.408499
0.417334 0.0123598 0.407248
0.743358 0.0115969 0.410208
0.95024 0.0110628 0.428565
0.967041 0.510201 0.487785
0.977539 0.773159 0.627619
0.981613 0.872404 0.815213
0.0283055 0.366781 0.387411
0.0283665 0.368338 0.387717
0.0284123 0.369345 0.388296
0.393729 0.365805 0.389899
0.735698 0.356313 0.393545
0.963485 0.40972 0.411093
0.970687 0.606088 0.473411
0.978149 0.787991 0.623835
0.981689 0.87425 0.814572
0.0439155 0.700282 0.304509
0.0439155 0.700221 0.305196
0.0439002 0.699931 0.306188
0.0437781 0.697658 0.309102
0.71458 0.688167 0.318776
0.946593 0.694331 0.349523
0.976349 0.744549 0.435584
0.979461 0.820005 0.613336
0.981903 0.879454 0.812558
0.0525673 0.870939 0.0180972
0.0525368 0.870207 0.0180972
0.0524758 0.869078 0.0180819
0.194919 0.865385 0.0181582
0.706813 0.855619 0.0185092
0.910658 0.846769 0.16733
0.980591 0.848432 0.357382
0.981292 0.865202 0.584802
0.982391 0.891203 0.806424
0.648844 0.91783 0.277409
0.661448 0.917449 0.278111
0.67895 0.916808 0.279164
0.723415 0.915099 0.282551
0.80853 0.911315 0.293477
0.908446 0.906081 0.326513
0.979965 0.902235 0.417914
0.982818 0.902449 0.607752
0.983063 0.907713 0.797909
0.88455 0.916869 0.683146
0.88571 0.916854 0.683268
0.887449 0.916854 0.683452
0.892638 0.916838 0.684062
0.906722 0.916808 0.685969
0.935882 0.916747 0.691997
0.972503 0.916655 0.710033
0.983413 0.916564 0.759731
0.983429 0.916442 0.848463
0.957107 0.916457 0.876905
0.957244 0.916457 0.876905
0.957443 0.916457 0.876936
0.958053 0.916457 0.876997
0.959945 0.916442 0.877211
0.965026 0.916442 0.877882
0.975341 0.916411 0.880003
0.983429 0.916396 0.886366
0.983429 0.916365 0.904051
0.0137636 0.0126802 0.72462
0.0137636 0.0126802 0.724712
0.0137636 0.0126802 0.724834
0.24567 0.0122072 0.72401
0.739452 0.0111086 0.720668
0.950256 0.0105898 0.72491
0.959258 0.284184 0.741634
0.976623 0.750469 0.779538
0.981521 0.869856 0.856291
0.0137636 0.0126802 0.72398
0.0137636 0.0126802 0.724056
0.0137636 0.0126802 0.724178
0.273045 0.0121614 0.723201
0.745022 0.0111086 0.719982
0.950256 0.0105898 0.724224
0.961257 0.343664 0.740398
0.976806 0.754803 0.779034
0.981537 0.870283 0.856199
0.0137636 0.0126802 0.722972
0.0137636 0.0126802 0.723064
0.0137636 0.0126802 0.723201
0.308186 0.0120851 0.721965
0.748226 0.0110933 0.718883
0.950256 0.0105898 0.723079
0.963561 0.411032 0.73843
0.977066 0.761028 0.778286
0.981567 0.870909 0.856046
0.0217899 0.209155 0.717891
0.0218967 0.211795 0.717906
0.022034 0.215091 0.717922
0.324102 0.206332 0.71696
0.750027 0.088304 0.714321
0.957214 0.222812 0.71751
0.96846 0.547585 0.732219
0.977752 0.778027 0.776074
0.981643 0.872831 0.855619
0.0420233 0.66215 0.688609
0.0420386 0.662425 0.688746
0.0420386 0.662486 0.688899
0.0419623 0.66099 0.689219
0.696818 0.651896 0.690532
0.937423 0.664134 0.69572
0.975662 0.726864 0.715953
0.979232 0.814237 0.770336
0.981857 0.878233 0.854261
0.05243 0.866819 0.645594
0.0523995 0.866102 0.645747
0.0523384 0.864973 0.646006
0.0521553 0.861463 0.646799
0.678935 0.851148 0.649943
0.900893 0.842023 0.660868
0.980468 0.844495 0.691432
0.981216 0.862699 0.757351
0.982361 0.890364 0.85034
0.644373 0.916732 0.551141
0.656977 0.916304 0.551492
0.674449 0.915679 0.552026
0.718853 0.913985 0.55375
0.803983 0.910231 0.559304
0.903929 0.905028 0.576883
0.975418 0.901228 0.625101
0.982803 0.90164 0.724361
0.983047 0.907301 0.839231
0.887205 0.916854 0.682826
0.888319 0.916854 0.682948
0.889982 0.916854 0.683131
0.894987 0.916838 0.683742
0.908553 0.916808 0.685649
0.936873 0.916747 0.691707
0.972824 0.916655 0.709773
0.983413 0.916564 0.759686
0.983429 0.916442 0.848325
0.957412 0.916457 0.87686
0.957549 0.916457 0.876875
0.957748 0.916457 0.876905
0.958358 0.916457 0.876966
0.960204 0.916442 0.87718
0.96524 0.916442 0.877852
0.975464 0.916411 0.879973
0.983429 0.916396 0.886336
0.983429 0.916365 0.904051
0.0137789 0.0123445 0.919371
0.0137789 0.0123445 0.919387
0.0137789 0.0123445 0.919402
0.0137789 0.0123445 0.919448
0.625208 0.0110628 0.914046
0.950256 0.0102693 0.90927
0.950256 0.0102693 0.910201
0.974151 0.689525 0.902144
0.981323 0.864988 0.911482
0.0137789 0.0123445 0.919295
0.0137789 0.0123445 0.91931
0.0137789 0.0123445 0.919326
0.0137789 0.0123445 0.919371
0.633158 0.0110475 0.913863
0.950256 0.0102693 0.909178
0.950256 0.0102693 0.910124
0.974487 0.697597 0.901656
0.981338 0.865476 0.911421
0.0137789 0.0123445 0.919188
0.0137789 0.0123445 0.919188
0.0137789 0.0123445 0.919203
0.0137789 0.0123445 0.919249
0.644877 0.011017 0.913573
0.950256 0.0102693 0.909056
0.950256 0.0102693 0.910002
0.974945 0.708843 0.900954
0.981369 0.866209 0.911345
0.0137789 0.0123445 0.918822
0.0137789 0.0123445 0.918837
0.0137789 0.0123445 0.918853
0.0137789 0.0123445 0.918639
0.673609 0.010956 0.912779
0.950256 0.0102693 0.90866
0.950256 0.0102693 0.90779
0.976104 0.737438 0.899062
0.98146 0.868406 0.91107
0.032517 0.462486 0.908064
0.032578 0.463828 0.908019
0.0326696 0.465843 0.907942
0.0328222 0.469566 0.907362
0.670573 0.457115 0.904173
0.966018 0.480491 0.90013
0.971923 0.635096 0.895781
0.978363 0.792676 0.894926
0.98172 0.87454 0.910292
0.0518349 0.85452 0.880278
0.0518196 0.854047 0.880232
0.0517739 0.853193 0.880156
0.0515908 0.849805 0.87985
0.601495 0.838636 0.879332
0.887541 0.828077 0.879225
0.979828 0.833188 0.881163
0.980957 0.855879 0.888579
0.982269 0.88806 0.908248
0.538476 0.915908 0.864164
0.560708 0.915373 0.864164
0.590005 0.914611 0.864149
0.655879 0.912551 0.864149
0.767559 0.908156 0.864302
0.885466 0.902403 0.865324
0.964034 0.898619 0.869413
0.982742 0.899702 0.880308
0.983017 0.906279 0.903716
0.880369 0.916671 0.825864
0.881498 0.916671 0.825925
0.883177 0.916671 0.825986
0.888182 0.916655 0.82623
0.901823 0.916625 0.827008
0.929961 0.916579 0.82948
0.966857 0.916487 0.837095
0.983429 0.916426 0.857053
0.983429 0.916381 0.892363
0.958373 0.916457 0.876753
0.958495 0.916457 0.876768
0.958679 0.916457 0.876783
0.959274 0.916442 0.876844
0.961059 0.916442 0.877058
0.965911 0.916442 0.877745
0.975814 0.916411 0.879866
0.983429 0.916396 0.886244
0.983429 0.916365 0.904021
0.0137789 0.012253 0.969787
0.0137789 0.012253 0.969787
0.0137789 0.012253 0.969787
0.0137789 0.012253 0.969787
0.0137789 0.012253 0.969787
0.940322 0.010193 0.970367
0.950271 0.0101625 0.970367
0.950271 0.0101625 0.970367
0.980453 0.843595 0.958404
0.0137789 0.012253 0.969787
0.0137789 0.012253 0.969787
0.0137789 0.012253 0.969787
0.0137789 0.012253 0.969787
0.0137789 0.012253 0.969787
0.941649 0.010193 0.970367
0.950271 0.0101625 0.970367
0.950271 0.0101625 0.970367
0.980499 0.84448 0.958328
0.0137789 0.012253 0.969787
0.0137789 0.012253 0.969787
0.0137789 0.012253 0.969787
0.0137789 0.012253 0.969787
0.0137789 0.012253 0.969787
0.943648 0.0101778 0.970367
0.950271 0.0101625 0.970367
0.950271 0.0101625 0.970367
0.980545 0.845792 0.958236
0.0137789 0.012253 0.969787
0.0137789 0.012253 0.969787
0.0137789 0.012253 0.969787
0.0137789 0.012253 0.969787
0.0137789 0.012253 0.969787
0.949676 0.0101778 0.970367
0.950271 0.0101625 0.970367
0.950271 0.0101625 0.970367
0.980697 0.849653 0.957946
0.0137789 0.012253 0.969787
0.0137789 0.012253 0.969787
0.0137789 0.012253 0.969787
0.0137789 0.012253 0.969787
0.224094 0.011841 0.969909
0.950271 0.0101625 0.970367
0.950271 0.0101625 0.970367
0.968902 0.558816 0.970184
0.981125 0.859892 0.957153
0.046479 0.748898 0.966339
0.046479 0.749187 0.966323
0.0465095 0.74963 0.966293
0.0465858 0.751003 0.966201
0.0463722 0.746899 0.964889
0.890791 0.734051 0.962036
0.977096 0.76141 0.959365
0.97966 0.824048 0.956115
0.981933 0.879896 0.955489
0.0550851 0.917983 0.950729
0.0550851 0.917983 0.950668
0.0550698 0.917678 0.950561
0.054902 0.914549 0.950256
0.664988 0.906035 0.949905
0.862501 0.897475 0.949355
0.958358 0.893111 0.949294
0.982574 0.895369 0.950088
0.98291 0.903761 0.953033
0.853819 0.916564 0.943694
0.855314 0.916564 0.943694
0.857527 0.916564 0.943694
0.864118 0.916548 0.943694
0.881712 0.916518 0.943679
0.916381 0.916442 0.943725
0.95877 0.916365 0.944106
0.983429 0.916304 0.945724
0.983429 0.916304 0.950011
0.955398 0.916381 0.92871
0.95552 0.916381 0.928725
0.955703 0.916381 0.928725
0.956298 0.916381 0.928756
0.958083 0.916381 0.928832
0.962936 0.916365 0.929122
0.972869 0.91635 0.930022
0.983429 0.91632 0.932815
0.983429 0.91632 0.940688
0.01738 0.100191 0.970108
0.01738 0.100191 0.970108
0.01738 0.100191 0.970108
0.01738 0.100191 0.970108
0.01738 0.100237 0.970108
0.01738 0.100328 0.970108
0.950271 0.0101625 0.970367
0.957534 0.2318 0.971191
0.971588 0.626627 0.972763
0.0173648 0.100175 0.970108
0.0173648 0.100175 0.970108
0.0173648 0.100175 0.970108
0.01738 0.100191 0.970108
0.01738 0.100221 0.970108
0.01738 0.100313 0.970108
0.950271 0.0101625 0.970367
0.957549 0.23209 0.971191
0.971588 0.626596 0.972763
0.0173648 0.100145 0.970108
0.0173648 0.100145 0.970108
0.0173648 0.10016 0.970108
0.0173648 0.100175 0.970108
0.01738 0.100191 0.970108
0.01738 0.100282 0.970108
0.950271 0.0101625 0.970367
0.957565 0.232547 0.971191
0.971588 0.626566 0.972763
0.0173648 0.100069 0.970108
0.0173648 0.100069 0.970108
0.0173648 0.100084 0.970108
0.0173648 0.100099 0.970108
0.0173648 0.10013 0.970108
0.01738 0.100221 0.970108
0.950271 0.0101625 0.970367
0.95761 0.233951 0.971191
0.971588 0.626474 0.972763
0.0173648 0.0998398 0.970108
0.0173648 0.0998398 0.970108
0.0173648 0.099855 0.970108
0.0173648 0.099855 0.970108
0.0173648 0.0998856 0.970108
0.0173648 0.0999924 0.970108
0.950271 0.0101625 0.970367
0.957702 0.2365 0.971206
0.971572 0.626139 0.972763
0.0173342 0.0990921 0.970108
0.0173342 0.0991073 0.970108
0.0173342 0.0990921 0.970108
0.0173342 0.0991073 0.970108
0.0173342 0.0991379 0.970108
0.697414 0.0107881 0.970199
0.950271 0.0101625 0.970367
0.957839 0.24065 0.971222
0.978607 0.798398 0.973556
0.0534524 0.885969 0.973373
0.0534524 0.886015 0.973373
0.0534524 0.886061 0.973373
0.0534676 0.886213 0.973373
0.0534829 0.886702 0.973373
0.729366 0.865766 0.973693
0.960159 0.858045 0.973816
0.981476 0.868498 0.973877
0.982437 0.891905 0.973983
0.714458 0.916808 0.973907
0.720638 0.916793 0.973922
0.729534 0.916777 0.973922
0.754101 0.916732 0.973938
0.808194 0.916625 0.973983
0.884398 0.916472 0.974029
0.950362 0.916335 0.974075
0.983429 0.916274 0.974105
0.983429 0.916274 0.974105
0.946105 0.91635 0.97258
0.946273 0.91635 0.97258
0.946517 0.91635 0.97258
0.947295 0.91635 0.972564
0.949615 0.916335 0.972564
0.955795 0.916335 0.972564
0.968032 0.916304 0.972564
0.981994 0.916274 0.972671
0.983429 0.916274 0.973114
0.0259098 0.308034 0.970886
0.0259098 0.308034 0.970886
0.0259098 0.308034 0.970886
0.0259098 0.308034 0.970886
0.0259098 0.308049 0.970886
0.0259098 0.30808 0.970886
0.0259251 0.308171 0.970886
0.961181 0.340673 0.971603
0.973266 0.667674 0.972961
0.0259098 0.308034 0.970886
0.0259098 0.308034 0.970886
0.0259098 0.308034 0.970886
0.0259098 0.308034 0.970886
0.0259098 0.308049 0.970886
0.0259098 0.30808 0.970886
0.0259098 0.308171 0.970886
0.961181 0.340825 0.971603
0.973266 0.66772 0.972961
0.0259098 0.308019 0.970886
0.0259098 0.308019 0.970886
0.0259098 0.308019 0.970886
0.0259098 0.308034 0.970886
0.0259098 0.308034 0.970886
0.0259098 0.308064 0.970886
0.0259098 0.308171 0.970886
0.961181 0.34107 0.971603
0.973266 0.667765 0.972961
0.0259098 0.307988 0.970886
0.0259098 0.307988 0.970886
0.0259098 0.307988 0.970886
0.0259098 0.308003 0.970886
0.0259098 0.308019 0.970886
0.0259098 0.308049 0.970886
0.0259098 0.308141 0.970886
0.961212 0.341848 0.971603
0.973281 0.667918 0.972961
0.0259098 0.307912 0.970886
0.0259098 0.307912 0.970886
0.0259098 0.307927 0.970886
0.0259098 0.307927 0.970886
0.0259098 0.307927 0.970886
0.0259098 0.307958 0.970886
0.0259098 0.308064 0.970886
0.961303 0.344305 0.971603
0.973297 0.668391 0.972961
0.0258946 0.307668 0.970886
0.0258946 0.307668 0.970886
0.0258946 0.307668 0.970886
0.0258946 0.307668 0.970886
0.0258946 0.307683 0.970886
0.0258946 0.307713 0.970886
0.0258183 0.30576 0.970871
0.961563 0.352026 0.971633
0.973327 0.669261 0.972961
0.025864 0.306859 0.970871
0.025864 0.306859 0.970871
0.025864 0.306859 0.970871
0.025864 0.306874 0.970871
0.025864 0.306874 0.970871
0.025864 0.306905 0.970871
0.950271 0.0101625 0.970367
0.962173 0.36997 0.97171
0.973388 0.67071 0.972976
0.0550851 0.917952 0.97351
0.0550851 0.917952 0.97351
0.0550851 0.917952 0.97351
0.0550851 0.917952 0.97351
0.0550851 0.917952 0.97351
0.0550851 0.917952 0.97351
0.902449 0.907744 0.973999
0.982956 0.904601 0.974044
0.983108 0.908309 0.97406
0.899474 0.916442 0.974044
0.900069 0.916442 0.974044
0.900954 0.916426 0.974044
0.903639 0.916426 0.974044
0.911345 0.916411 0.974044
0.929412 0.916381 0.97406
0.956985 0.91632 0.974075
0.97911 0.916274 0.97409
0.983429 0.916274 0.974105
