BBLuts/BB_106_0230_LUT.cube
TITLE "Generated by Resolve"
LUT_3D_SIZE 33
0.0148013 0.0243076 0.0409094
0.0148013 0.0243076 0.0409094
0.0148013 0.0243076 0.0409094
0.0148013 0.0243076 0.0409094
0.0148013 0.0243076 0.0409094
0.0644846 0.0248722 0.0413672
0.123629 0.0255283 0.0404974
0.165988 0.0260166 0.0411688
0.209567 0.0265049 0.0418708
0.261051 0.027451 0.0456855
0.324407 0.0289921 0.0479591
0.394873 0.031754 0.052018
0.4766 0.037232 0.0601053
0.559472 0.0495613 0.0782483
0.630961 0.0799268 0.122759
0.703716 0.156161 0.232349
0.778149 0.298131 0.373541
0.853361 0.432547 0.508217
0.921324 0.541772 0.600214
0.974914 0.605447 0.658625
0.984802 0.615656 0.669383
0.984802 0.615656 0.669383
0.984756 0.618875 0.669886
0.984665 0.626505 0.670039
0.984436 0.643549 0.66949
0.983993 0.675837 0.66714
0.983261 0.724269 0.660471
0.982284 0.777584 0.646159
0.981186 0.823423 0.624094
0.979995 0.86096 0.604593
0.978698 0.890211 0.62826
0.977447 0.912978 0.704448
0.97641 0.931579 0.780987
0.0148013 0.0243076 0.0409094
0.0148013 0.0243076 0.0409094
0.0148013 0.0243076 0.0409094
0.0148013 0.0243076 0.0409094
0.0148013 0.0243076 0.0409094
0.0767834 0.0250095 0.0402075
0.127718 0.0255741 0.0405585
0.169345 0.0260471 0.0412146
0.215183 0.0265812 0.0419623
0.267674 0.0276036 0.0458839
0.331136 0.0291905 0.0482643
0.400809 0.0320439 0.0524758
0.480232 0.0375525 0.0606088
0.561456 0.0500343 0.0789197
0.632303 0.0808118 0.124071
0.704646 0.157671 0.234195
0.778729 0.299229 0.374609
0.853635 0.433021 0.508644
0.921233 0.541665 0.600137
0.974563 0.605066 0.658244
0.984802 0.615656 0.669383
0.984802 0.615656 0.669383
0.984756 0.619577 0.669612
0.984649 0.627695 0.669886
0.984421 0.645426 0.669291
0.983963 0.678187 0.666835
0.98323 0.726589 0.659876
0.982238 0.779232 0.645243
0.981155 0.82443 0.622827
0.97998 0.861585 0.603021
0.978683 0.890547 0.627192
0.977432 0.913191 0.704005
0.97641 0.931716 0.780819
0.0148013 0.0243076 0.0409094
0.0148013 0.0243076 0.0409094
0.0148013 0.0243076 0.0409094
0.0148013 0.0243076 0.0409094
0.0148013 0.0243076 0.0409094
0.0839246 0.0250858 0.0399634
0.129122 0.0255894 0.040589
0.172519 0.0260929 0.0412757
0.221057 0.0266575 0.0420691
0.273793 0.0277256 0.0460517
0.336263 0.0293736 0.0485237
0.403983 0.0322118 0.0527199
0.483223 0.0378576 0.0610361
0.563561 0.0505379 0.0796521
0.633677 0.0817273 0.125399
0.705577 0.159152 0.235996
0.779309 0.300282 0.375677
0.853895 0.433478 0.509071
0.921126 0.541527 0.600015
0.974197 0.6047 0.657832
0.984802 0.615656 0.669383
0.984802 0.615656 0.669383
0.984741 0.620295 0.669123
0.984619 0.628962 0.669703
0.98439 0.647334 0.669093
0.983932 0.680537 0.666514
0.983185 0.728908 0.659251
0.982208 0.78085 0.644297
0.98114 0.825711 0.621546
0.97995 0.862196 0.601419
0.978683 0.890898 0.626108
0.977417 0.913405 0.703563
0.976394 0.931838 0.780652
0.0148013 0.0243076 0.0409094
0.0148013 0.0243076 0.0409094
0.0148013 0.0243076 0.0409094
0.0140383 0.0292515 0.0405432
0.0366522 0.0339971 0.0406195
0.0893416 0.0251469 0.0399634
0.129778 0.0255894 0.0406043
0.172793 0.0260929 0.0412757
0.222065 0.026688 0.0420844
0.27628 0.0277714 0.0461433
0.33959 0.0294652 0.0486763
0.406851 0.0323644 0.0529641
0.486061 0.0381323 0.0614328
0.565667 0.0510567 0.0804303
0.635065 0.0826734 0.126787
0.706538 0.160693 0.237842
0.779873 0.301335 0.37673
0.854124 0.43389 0.509438
0.921004 0.541344 0.599878
0.973785 0.604273 0.657404
0.984802 0.615656 0.669383
0.984802 0.615656 0.669383
0.984726 0.621134 0.669078
0.984604 0.630289 0.66952
0.98436 0.649287 0.668894
0.983902 0.682918 0.666178
0.983139 0.731167 0.658671
0.982177 0.782467 0.643336
0.981109 0.826703 0.620233
0.979934 0.862806 0.599832
0.978668 0.891249 0.62501
0.977401 0.913634 0.703105
0.976379 0.93196 0.780484
0.00782788 0.0700389 0.0373846
0.00741588 0.0726024 0.0371862
0.00704967 0.0750744 0.0369879
0.00668345 0.0774701 0.0368048
0.00653086 0.0784009 0.0367285
0.0732128 0.0785687 0.0359197
0.117708 0.0771344 0.0365148
0.163256 0.0730602 0.037583
0.216617 0.0631113 0.0392462
0.277409 0.0278019 0.0461891
0.341512 0.0295262 0.0487831
0.409476 0.0325017 0.0531624
0.488777 0.038407 0.0618601
0.567819 0.0515908 0.0812085
0.636469 0.0836347 0.128222
0.707485 0.162249 0.239719
0.780438 0.302388 0.377752
0.854337 0.434272 0.509773
0.920851 0.541146 0.599741
0.973388 0.603876 0.656962
0.984802 0.615656 0.669383
0.984787 0.616648 0.669337
0.98471 0.622034 0.669032
0.984588 0.631678 0.669306
0.984344 0.651286 0.668666
0.983856 0.685328 0.665827
0.983108 0.73341 0.658061
0.982147 0.784054 0.642374
0.981079 0.827665 0.618936
0.979904 0.863401 0.59826
0.978637 0.891585 0.623911
0.977386 0.913832 0.702678
0.976364 0.932082 0.780301
0.00349432 0.0983291 0.0352026
0.00318914 0.100374 0.03505
0.00288396 0.102388 0.0348821
0.00263981 0.10396 0.0347753
0.002533 0.104738 0.0347143
0.0482643 0.105318 0.035523
0.106157 0.10515 0.0342107
0.154513 0.103822 0.035111
0.209369 0.100465 0.0362707
0.274784 0.0937057 0.0383154
0.339422 0.0802472 0.0449073
0.411795 0.032639 0.0533608
0.491493 0.0386816 0.0622721
0.570077 0.0521859 0.082063
0.63798 0.0847028 0.129793
0.708522 0.163973 0.241718
0.781018 0.303471 0.37882
0.854566 0.434669 0.51014
0.920699 0.540948 0.599573
0.972946 0.603403 0.656474
0.984802 0.615656 0.669383
0.984771 0.618235 0.66923
0.98471 0.623026 0.668971
0.984573 0.633188 0.669047
0.984298 0.653437 0.668421
0.983825 0.687831 0.665461
0.983078 0.735729 0.65742
0.982101 0.785672 0.641352
0.981048 0.828672 0.617517
0.979889 0.864027 0.596628
0.978622 0.891951 0.622736
0.977371 0.914061 0.70219
0.976364 0.932235 0.780133
0.000579843 0.12813 0.0329137
0.000579843 0.129824 0.0327764
0.000579843 0.131533 0.032639
0.000579843 0.132479 0.0325628
0.000579843 0.133089 0.032517
0.000579843 0.133303 0.0325017
0.083711 0.134142 0.0340429
0.142092 0.133745 0.032639
0.199725 0.132326 0.0337072
0.269642 0.129305 0.0354925
0.336477 0.12372 0.0415503
0.410697 0.114443 0.0472419
0.493263 0.0966201 0.0583658
0.572961 0.0529488 0.0832074
0.639933 0.0861372 0.131868
0.709834 0.166201 0.244297
0.781781 0.304891 0.38024
0.854856 0.435157 0.510597
0.920485 0.540612 0.599344
0.972335 0.602777 0.655818
0.984802 0.615656 0.669383
0.984756 0.619242 0.669184
0.984695 0.624399 0.668879
0.984543 0.635233 0.668544
0.984268 0.656245 0.668116
0.98378 0.691066 0.664958
0.983017 0.738674 0.656565
0.982071 0.787747 0.639994
0.981018 0.829953 0.615686
0.979858 0.864805 0.594476
0.978607 0.892393 0.621225
0.977356 0.914351 0.701579
0.976349 0.932387 0.779889
0.000579843 0.161898 0.0303044
0.000579843 0.163378 0.0301823
0.000579843 0.164492 0.0300908
0.000579843 0.165225 0.030045
0.000579843 0.165728 0.0300145
0.000579843 0.166033 0.0299687
0.025452 0.166476 0.0305486
0.117861 0.167239 0.0322423
0.184115 0.166659 0.030869
0.259724 0.164965 0.0325322
0.330861 0.161959 0.0384527
0.409812 0.15787 0.0439612
0.495201 0.153292 0.0545663
0.575189 0.148577 0.077348
0.642023 0.141161 0.130541
0.71162 0.169238 0.247761
0.782818 0.306813 0.382147
0.855222 0.435813 0.511193
0.920165 0.540185 0.599008
0.971496 0.601907 0.654917
0.984787 0.617456 0.669291
0.984726 0.6206 0.669108
0.984665 0.626398 0.668772
0.984512 0.638102 0.667964
0.984222 0.660075 0.667643
0.983719 0.695384 0.664256
0.982956 0.742504 0.655406
0.981994 0.790402 0.638178
0.980972 0.831601 0.613199
0.979828 0.865858 0.591531
0.978576 0.892989 0.619165
0.977325 0.914717 0.700786
0.976333 0.932616 0.779583
0.000167849 0.20708 0.0267796
0.000137331 0.20853 0.0266728
0.000137331 0.209339 0.0265812
0.000122072 0.210147 0.0265202
0.000122072 0.210712 0.0264744
0.000122072 0.211109 0.0264439
0.000106813 0.211353 0.0264286
0.0710002 0.212116 0.0279393
0.153811 0.211368 0.029572
0.240497 0.209155 0.0286717
0.319631 0.206882 0.0345464
0.405219 0.203891 0.0401617
0.496147 0.201877 0.0512093
0.578317 0.204654 0.0747387
0.644541 0.222187 0.127901
0.713268 0.265187 0.245853
0.783993 0.339956 0.383001
0.855726 0.436683 0.511971
0.919676 0.539498 0.598505
0.970275 0.602945 0.653483
0.984756 0.61944 0.669184
0.98471 0.622675 0.668986
0.984619 0.629343 0.668574
0.984451 0.642206 0.667659
0.984146 0.665293 0.666972
0.983627 0.701091 0.663279
0.982864 0.747433 0.653788
0.981933 0.793835 0.635691
0.980911 0.833768 0.609781
0.979782 0.867185 0.587335
0.978531 0.893767 0.616403
0.977295 0.915206 0.699687
0.976303 0.932906 0.779156
0 0.264561 0.0207523
0 0.265003 0.0206912
0 0.265446 0.0206302
0 0.265827 0.0205997
0 0.266041 0.0205539
0 0.266102 0.0205539
0 0.26598 0.0205844
0 0.265583 0.0206149
0.104097 0.265583 0.0230259
0.199741 0.2645 0.0249027
0.298543 0.262669 0.0280613
0.39382 0.260273 0.033753
0.492973 0.258198 0.0452735
0.580407 0.259525 0.0704814
0.647684 0.272938 0.126543
0.715923 0.307851 0.247318
0.785626 0.372488 0.384283
0.856138 0.463691 0.511635
0.918837 0.548638 0.59733
0.968505 0.604089 0.651423
0.98471 0.621897 0.669032
0.98468 0.625956 0.668788
0.984558 0.633783 0.668284
0.984375 0.648127 0.667185
0.984054 0.672435 0.665965
0.983505 0.708644 0.661845
0.982757 0.753765 0.65156
0.981826 0.798184 0.632288
0.980819 0.836515 0.605081
0.979721 0.868925 0.580835
0.9785 0.894789 0.612589
0.977264 0.915846 0.698253
0.976272 0.933303 0.778622
0 0.327276 0.0104524
0 0.327718 0.0103456
0 0.328191 0.0102693
0 0.328496 0.010193
0 0.328756 0.0101472
0 0.328923 0.0101015
0 0.328984 0.0101015
0 0.328862 0.010132
0 0.328389 0.0102235
0.132647 0.328161 0.0135653
0.258228 0.326986 0.0165408
0.371008 0.325124 0.0220645
0.482216 0.322957 0.0337377
0.57908 0.323079 0.0603647
0.649714 0.331502 0.119844
0.718654 0.356298 0.246387
0.787564 0.406027 0.385504
0.856641 0.482368 0.511543
0.917571 0.555291 0.595758
0.965942 0.605859 0.648432
0.984665 0.626078 0.668772
0.984604 0.631235 0.668452
0.984482 0.640574 0.667796
0.984268 0.656596 0.666438
0.983902 0.682139 0.664256
0.983352 0.718593 0.659724
0.982605 0.761746 0.648386
0.981704 0.803647 0.627573
0.980728 0.84004 0.598566
0.979644 0.871138 0.570504
0.978439 0.896101 0.607385
0.977203 0.916671 0.696345
0.976242 0.933791 0.77792
0 0.402014 0.00399786
0 0.402472 0.00399786
0 0.402869 0.00399786
0 0.403204 0.00399786
0 0.403464 0.00399786
0 0.403662 0.00399786
0 0.403815 0.00399786
0 0.403876 0.00399786
0 0.403723 0.00399786
0 0.403342 0.00399786
0.160616 0.402853 0.00421149
0.324788 0.401572 0.00442512
0.457404 0.400015 0.0105898
0.570397 0.399344 0.0371557
0.647608 0.40325 0.098436
0.719661 0.418555 0.23415
0.789014 0.453529 0.38323
0.856672 0.509682 0.509804
0.915465 0.567452 0.593011
0.96228 0.610468 0.644007
0.984573 0.63328 0.668299
0.984482 0.639857 0.667842
0.984329 0.650965 0.666957
0.9841 0.668727 0.665202
0.983719 0.695308 0.661662
0.983154 0.731334 0.656535
0.982406 0.771664 0.643839
0.981537 0.810361 0.621332
0.980591 0.844495 0.589578
0.979553 0.873945 0.554925
0.978347 0.897795 0.600107
0.977127 0.917754 0.693751
0.976165 0.934432 0.776974
0 0.491386 0.00442512
0 0.491768 0.00442512
0 0.492119 0.00442512
0 0.492393 0.00442512
0 0.492607 0.00444038
0 0.492805 0.00444038
0 0.492988 0.00444038
0 0.493141 0.00444038
0 0.493278 0.00444038
0 0.49337 0.00444038
0 0.49337 0.00444038
0.193378 0.49308 0.00469978
0.404486 0.492226 0.00497444
0.548608 0.490974 0.00517281
0.638239 0.491493 0.0450446
0.715618 0.497917 0.184039
0.788159 0.516014 0.36907
0.855604 0.548699 0.503731
0.912383 0.588052 0.588342
0.957458 0.62089 0.637827
0.984405 0.645579 0.667399
0.984298 0.653727 0.666697
0.984131 0.66659 0.665431
0.983856 0.685802 0.663081
0.983444 0.712886 0.658488
0.982879 0.747066 0.651652
0.982147 0.783688 0.637186
0.981338 0.818479 0.612421
0.980438 0.850019 0.573404
0.979431 0.877485 0.52961
0.978256 0.899962 0.590173
0.977035 0.919127 0.690288
0.976104 0.935271 0.775708
0 0.576226 0.00492866
0 0.576471 0.00492866
0 0.576699 0.00492866
0 0.576867 0.00492866
0 0.577035 0.00492866
0 0.577173 0.00492866
0 0.577325 0.00492866
0 0.577478 0.00492866
0 0.577585 0.00492866
0 0.5776 0.00492866
0 0.577478 0.00492866
0 0.577096 0.00492866
0.251591 0.576303 0.00526436
0.501335 0.57499 0.00560006
0.619226 0.573922 0.00579843
0.704707 0.574899 0.0639811
0.782635 0.581445 0.320668
0.852216 0.595224 0.486641
0.907866 0.616205 0.578836
0.951202 0.641077 0.628748
0.984146 0.665629 0.665537
0.984009 0.67512 0.664454
0.98381 0.689219 0.662593
0.983505 0.709072 0.659251
0.983078 0.735332 0.653056
0.982528 0.76585 0.644007
0.981857 0.797787 0.627222
0.981094 0.828428 0.599176
0.98024 0.856733 0.544625
0.979309 0.881804 0.4822
0.978134 0.902678 0.572366
0.976928 0.920867 0.685573
0.976013 0.936355 0.77406
0 0.642557 0.00544747
0 0.64268 0.00544747
0 0.642786 0.00544747
0 0.642863 0.00544747
0 0.642939 0.00544747
0 0.643 0.00544747
0 0.643061 0.00546273
0 0.643107 0.00546273
0 0.643122 0.00546273
0 0.643076 0.00546273
0 0.642908 0.00544747
0 0.642481 0.00544747
0 0.641688 0.00544747
0.351766 0.640543 0.00590524
0.585275 0.639231 0.00624094
0.684657 0.638346 0.00645457
0.770611 0.639506 0.10782
0.843976 0.645457 0.43209
0.900633 0.657588 0.556451
0.943069 0.674022 0.613993
0.977005 0.693111 0.653666
0.983551 0.705745 0.659876
0.983337 0.719982 0.656962
0.983017 0.738827 0.652033
0.982605 0.761593 0.643809
0.982086 0.787198 0.631678
0.981476 0.813687 0.611826
0.980774 0.839796 0.577111
0.980011 0.864683 0.4925
0.979232 0.887022 0.363622
0.977996 0.906081 0.539528
0.976776 0.923079 0.679072
0.975891 0.937713 0.771847
0 0.7093 0.00598154
0 0.709361 0.00598154
0 0.709407 0.00598154
0 0.709438 0.00598154
0 0.709453 0.00598154
0 0.709468 0.00598154
0 0.709468 0.00598154
0 0.709453 0.00598154
0 0.709407 0.00598154
0 0.70927 0.00598154
0 0.708995 0.00598154
0 0.708507 0.00598154
0 0.707622 0.00596628
0 0.706371 0.00596628
0.464546 0.704952 0.00657664
0.650339 0.70341 0.00689708
0.749889 0.702541 0.0071107
0.829404 0.704097 0.127901
0.888518 0.709651 0.488853
0.932036 0.71931 0.584985
0.965576 0.732097 0.629633
0.98291 0.745083 0.650065
0.982696 0.757137 0.64567
0.982391 0.772244 0.638743
0.982025 0.790188 0.62768
0.981567 0.810117 0.611002
0.981018 0.83122 0.587182
0.980407 0.852766 0.526345
0.979858 0.873899 0.340322
0.979446 0.893263 0.0091249
0.977859 0.910246 0.466987
0.976593 0.925811 0.670008
0.975753 0.939406 0.768948
0 0.774807 0.00650034
0 0.774792 0.00650034
0 0.774792 0.00650034
0 0.774746 0.00650034
0 0.774731 0.00650034
0 0.774701 0.00650034
0 0.774639 0.00650034
0 0.774563 0.00650034
0 0.774395 0.00650034
0 0.774166 0.00650034
0 0.77377 0.00650034
0 0.773129 0.00650034
0 0.772137 0.00648508
0 0.770748 0.00646983
0 0.769009 0.00645457
0.574777 0.767163 0.00724804
0.717968 0.76524 0.00753796
0.807248 0.764416 0.00773632
0.871717 0.766018 0.00788891
0.917739 0.770153 0.467796
0.952682 0.777157 0.581781
0.978088 0.786419 0.623224
0.981903 0.795422 0.623667
0.981659 0.806119 0.613886
0.981353 0.81883 0.598657
0.980972 0.833585 0.571252
0.980514 0.84979 0.522652
0.980117 0.867002 0.354238
0.979873 0.884215 0.00906386
0.979065 0.900191 0.00918593
0.978027 0.915373 0.133013
0.976364 0.929107 0.657053
0.975555 0.941512 0.765072
0 0.830732 0.00695811
0 0.830671 0.00695811
0 0.83061 0.00695811
0 0.830533 0.00694286
0 0.830442 0.00694286
0 0.830365 0.00694286
0 0.830243 0.00694286
0 0.830076 0.00694286
0 0.829816 0.00694286
0 0.82945 0.00694286
0 0.828901 0.00694286
0 0.828077 0.0069276
0 0.826932 0.0069276
0 0.825406 0.00691234
0 0.823148 0.00689708
0 0.820768 0.00688182
0.67187 0.818387 0.00787366
0.781567 0.816358 0.00808728
0.851804 0.815702 0.00823987
0.902388 0.816846 0.00836194
0.939666 0.81976 0.248005
0.966247 0.824506 0.530297
0.981033 0.830884 0.578302
0.980865 0.83772 0.558663
0.980636 0.846433 0.521141
0.980392 0.856916 0.428336
0.980392 0.869032 0.104036
0.979965 0.88191 0.0090486
0.979324 0.894926 0.00914015
0.978592 0.90811 0.00924697
0.977813 0.921157 0.00935378
0.976074 0.933028 0.637736
0.975311 0.944106 0.759854
0 0.873518 0.00729381
0 0.873411 0.00729381
0 0.873304 0.00729381
0 0.873198 0.00729381
0 0.873075 0.00729381
0 0.872938 0.00729381
0 0.87277 0.00729381
0 0.872526 0.00727855
0 0.872206 0.00727855
0 0.871733 0.00727855
0 0.871046 0.00727855
0 0.870146 0.00726329
0 0.86891 0.00726329
0 0.867292 0.00724804
0 0.865248 0.00723278
0 0.86273 0.00720226
0.589395 0.86009 0.00801099
0.754696 0.857618 0.00836194
0.832227 0.856016 0.00851453
0.886412 0.855528 0.00863661
0.926482 0.856367 0.00872816
0.955398 0.858686 0.00880446
0.977432 0.862318 0.138979
0.98056 0.866712 0.0594186
0.980392 0.872328 0.0089723
0.980087 0.879271 0.00901808
0.97969 0.887373 0.00909438
0.979217 0.896361 0.00915541
0.978668 0.906233 0.00923171
0.978027 0.916823 0.00932326
0.97734 0.927581 0.00939956
0.975769 0.937514 0.610925
0.975021 0.947188 0.752834
0 0.906966 0.00755322
0 0.906813 0.00755322
0 0.906691 0.00755322
0 0.906523 0.00755322
0 0.906386 0.00755322
0 0.906233 0.00755322
0 0.906004 0.00755322
0 0.905715 0.00755322
0 0.905318 0.00755322
0 0.904784 0.00753796
0 0.904082 0.00753796
0 0.903136 0.0075227
0 0.9019 0.0075227
0 0.900267 0.00750744
0 0.898238 0.00749218
0 0.89572 0.00747692
0 0.892912 0.0074464
0.724956 0.890562 0.00856031
0.813275 0.888563 0.00872816
0.871046 0.887266 0.00885023
0.912963 0.886885 0.00894179
0.943832 0.88751 0.00901808
0.967712 0.889128 0.00907912
0.979461 0.891569 0.0091249
0.979294 0.894667 0.00914015
0.979065 0.898863 0.00917067
0.978759 0.904173 0.00921645
0.978378 0.910567 0.00926223
0.977905 0.917952 0.00932326
0.977371 0.92604 0.0093843
0.976806 0.934524 0.00946059
0.975372 0.94255 0.600259
0.97467 0.95079 0.743206
0 0.93167 0.00775158
0 0.931487 0.00775158
0 0.931319 0.00775158
0 0.931151 0.00775158
0 0.930983 0.00775158
0 0.9308 0.00775158
0 0.930571 0.00775158
0 0.930266 0.00775158
0 0.929854 0.00773632
0 0.92932 0.00773632
0 0.928603 0.00773632
0 0.927657 0.00772107
0 0.926436 0.00772107
0 0.924865 0.00770581
0 0.922881 0.00769055
0 0.92047 0.00767529
0 0.917861 0.00764477
0.697093 0.915587 0.00869764
0.798367 0.913542 0.00889601
0.858732 0.91191 0.00901808
0.901274 0.910918 0.00910964
0.933349 0.910628 0.00917067
0.958572 0.91104 0.00923171
0.977493 0.912261 0.00927749
0.978134 0.913893 0.00929274
0.977966 0.916457 0.009308
0.977737 0.919951 0.00933852
0.977432 0.924315 0.00936904
0.977066 0.929503 0.00941482
0.976638 0.935378 0.00946059
0.976196 0.941741 0.00950637
0.974914 0.948074 0.590997
0.974289 0.954833 0.742779
0 0.950393 0.00790417
0 0.95021 0.00790417
0 0.950057 0.00790417
0 0.949874 0.00790417
0 0.949691 0.00790417
0 0.949538 0.00790417
0 0.94931 0.00790417
0 0.948974 0.00788891
0 0.948577 0.00788891
0 0.948074 0.00788891
0 0.947372 0.00788891
0 0.946487 0.00787366
0 0.945327 0.00787366
0 0.943832 0.0078584
0 0.941985 0.00784314
0 0.939834 0.00782788
0 0.937545 0.00779736
0.675471 0.935561 0.00880446
0.787854 0.933623 0.00903334
0.849271 0.93193 0.00915541
0.891493 0.930724 0.00923171
0.923858 0.930007 0.009308
0.949737 0.929747 0.00935378
0.969558 0.930083 0.00939956
0.976913 0.930831 0.00943008
0.976806 0.932143 0.00943008
0.976654 0.934188 0.00944533
0.97644 0.936934 0.00947585
0.976165 0.940352 0.00950637
0.97586 0.944442 0.00953689
0.97554 0.949157 0.00956741
0.97438 0.953918 0.58706
0.973877 0.959258 0.745159
0 0.964324 0.00802625
0 0.964172 0.00801099
0 0.964004 0.00801099
0 0.963836 0.00801099
0 0.963668 0.00801099
0 0.9635 0.00801099
0 0.963287 0.00801099
0 0.963012 0.00801099
0 0.962615 0.00801099
0 0.962142 0.00799573
0 0.961501 0.00799573
0 0.960678 0.00799573
0 0.959594 0.00798047
0 0.958251 0.00796521
0 0.956664 0.00794995
0 0.954864 0.00794995
0 0.952956 0.00793469
0.67422 0.951324 0.00894179
0.784604 0.949554 0.00915541
0.843809 0.947951 0.00927749
0.884489 0.94667 0.00935378
0.916411 0.945708 0.00941482
0.942077 0.945083 0.00946059
0.962219 0.944884 0.00950637
0.975692 0.945052 0.00953689
0.975662 0.94548 0.00953689
0.97557 0.946502 0.00955215
0.975433 0.948135 0.00956741
0.97525 0.950347 0.00958267
0.975052 0.95314 0.00959792
0.974838 0.956466 0.00962844
0.973785 0.959854 0.595453
0.973419 0.963867 0.750027
0 0.974136 0.00810254
0 0.974014 0.00810254
0 0.973861 0.00808728
0 0.973709 0.00808728
0 0.973556 0.00808728
0 0.973419 0.00808728
0 0.973205 0.00808728
0 0.972961 0.00808728
0 0.97261 0.00808728
0 0.972168 0.00808728
0 0.971618 0.00807202
0 0.970916 0.00807202
0 0.970031 0.00805676
0 0.968963 0.00805676
0 0.967697 0.0080415
0 0.966293 0.0080415
0 0.964813 0.00802625
0.701305 0.963485 0.00909438
0.790417 0.961975 0.00926223
0.843091 0.960555 0.00936904
0.880781 0.959335 0.00944533
0.911315 0.958328 0.00950637
0.93608 0.957549 0.00955215
0.955856 0.957061 0.00959792
0.971893 0.956878 0.00962844
0.974533 0.956878 0.00962844
0.974502 0.957229 0.00962844
0.974456 0.958068 0.0096437
0.97435 0.959396 0.0096437
0.974227 0.961181 0.00965896
0.974136 0.963394 0.00967422
0.973159 0.965576 0.62089
0.972946 0.968444 0.758297
0 0.980911 0.00814832
0 0.980789 0.00814832
0 0.980667 0.00814832
0 0.98056 0.00814832
0 0.980438 0.00814832
0 0.980316 0.00814832
0 0.980163 0.00814832
0 0.97998 0.00814832
0 0.979736 0.00814832
0 0.9794 0.00813306
0 0.978973 0.00813306
0 0.978469 0.00813306
0 0.977829 0.00813306
0 0.97705 0.0081178
0 0.97615 0.0081178
0 0.975128 0.00810254
0.598474 0.974166 0.00895705
0.741436 0.972976 0.00924697
0.803967 0.971725 0.0093843
0.84686 0.970535 0.00946059
0.880537 0.969421 0.00952163
0.908598 0.968414 0.00958267
0.931762 0.967605 0.00962844
0.95079 0.966995 0.00965896
0.966461 0.966598 0.00968948
0.97348 0.966339 0.00970474
0.973526 0.966278 0.00970474
0.97351 0.966552 0.00970474
0.973495 0.967193 0.00970474
0.97348 0.968231 0.00972
0.97351 0.969619 0.00973526
0.972534 0.970871 0.659205
0.972488 0.972885 0.77055
0 0.982376 0.00816358
0 0.982376 0.00816358
0 0.982376 0.00816358
0 0.982376 0.00816358
0 0.982376 0.00816358
0 0.982376 0.00816358
0 0.982376 0.00816358
0 0.982376 0.00816358
0 0.982376 0.00816358
0 0.982376 0.00816358
0 0.982391 0.00816358
0 0.982391 0.00816358
0 0.982406 0.00816358
0 0.982422 0.00816358
0 0.982254 0.00816358
0.623652 0.98172 0.00906386
0.726314 0.980896 0.00927749
0.781949 0.979965 0.00939956
0.82237 0.979004 0.00947585
0.855451 0.978042 0.00953689
0.883925 0.977081 0.00959792
0.908568 0.976165 0.0096437
0.929442 0.975357 0.00967422
0.947219 0.974716 0.00972
0.962203 0.974212 0.00973526
0.97258 0.973846 0.00976577
0.972656 0.973556 0.00976577
0.972702 0.973495 0.00976577
0.972763 0.973724 0.00976577
0.972824 0.974258 0.00976577
0.972946 0.975082 0.00976577
0.971969 0.975692 0.70193
0.972076 0.97705 0.786664
0 0.982452 0.00816358
0 0.982452 0.00816358
0 0.982452 0.00816358
0 0.982452 0.00816358
0 0.982452 0.00816358
0 0.982452 0.00816358
0 0.982467 0.00816358
0 0.982467 0.00816358
0 0.982467 0.00816358
0 0.982483 0.00816358
0.433967 0.98262 0.00875868
0.594491 0.982696 0.00901808
0.652247 0.982727 0.00914015
0.695323 0.982773 0.00923171
0.731334 0.982818 0.009308
0.763195 0.982849 0.0093843
0.792126 0.98291 0.00944533
0.818616 0.982971 0.00950637
0.844038 0.983032 0.00955215
0.867918 0.983124 0.00961318
0.890379 0.982849 0.00965896
0.910933 0.982071 0.00968948
0.92903 0.981353 0.00972
0.945113 0.980713 0.00975052
0.958953 0.980163 0.00978103
0.970336 0.979782 0.00981155
0.971939 0.9794 0.00981155
0.972045 0.979156 0.00979629
0.972168 0.979156 0.00979629
0.97232 0.979355 0.00981155
0.971527 0.97937 0.622736
0.971527 0.979919 0.743999
0.971756 0.980804 0.805966
0.745388 0.982879 0.00933852
0.747189 0.982879 0.00933852
0.748974 0.982879 0.00935378
0.750713 0.982879 0.00935378
0.752407 0.982879 0.00935378
0.754162 0.982895 0.00935378
0.756359 0.982895 0.00936904
0.759152 0.982895 0.00936904
0.762753 0.982895 0.0093843
