BBLuts/BB_106_0260_LUT.cube
TITLE "Generated by Resolve"
LUT_3D_SIZE 33
0.00764477 0.0238346 0.0493172
0.00764477 0.0238346 0.0493172
0.00764477 0.0238346 0.0493172
0.00764477 0.0238346 0.0493172
0.00764477 0.0238346 0.0493172
0.0601053 0.0255436 0.0509041
0.122179 0.0274815 0.0509804
0.166445 0.0288243 0.0525826
0.211902 0.0301823 0.0542
0.265232 0.0321202 0.0597391
0.330083 0.0348974 0.0634623
0.401038 0.0390784 0.069337
0.481651 0.0463417 0.0799115
0.56199 0.0612192 0.101976
0.630777 0.0957504 0.153094
0.69955 0.179538 0.272343
0.768368 0.331609 0.41529
0.838544 0.470649 0.540322
0.902174 0.572519 0.619913
0.952438 0.630014 0.675059
0.961715 0.640284 0.685161
0.961715 0.640284 0.685161
0.961563 0.643519 0.685527
0.961196 0.651164 0.685389
0.960357 0.668223 0.68423
0.95877 0.700465 0.680812
0.95639 0.74876 0.672679
0.953643 0.801785 0.656992
0.95108 0.847562 0.634012
0.94873 0.884474 0.613764
0.946578 0.91342 0.635981
0.944686 0.935958 0.709102
0.943206 0.954437 0.781903
0.00764477 0.0238346 0.0493172
0.00764477 0.0238346 0.0493172
0.00764477 0.0238346 0.0493172
0.00764477 0.0238346 0.0493172
0.00764477 0.0238346 0.0493172
0.0730449 0.0259556 0.0496986
0.126452 0.0276036 0.051133
0.16994 0.0289311 0.0526894
0.217762 0.0303655 0.0544137
0.272038 0.0323949 0.0600748
0.336934 0.0352178 0.0639353
0.406912 0.0394903 0.0699474
0.485145 0.0467536 0.0805524
0.563912 0.0617838 0.10277
0.632059 0.0967422 0.154543
0.700435 0.18117 0.274281
0.768902 0.332753 0.416327
0.838804 0.471138 0.540703
0.902098 0.572412 0.619837
0.952117 0.629633 0.674708
0.961715 0.640284 0.685161
0.961715 0.640284 0.685161
0.961532 0.644221 0.685237
0.961135 0.652354 0.685191
0.960266 0.670085 0.683986
0.958648 0.702815 0.68043
0.956268 0.75108 0.672007
0.953536 0.803433 0.656046
0.951019 0.848569 0.632746
0.948699 0.885084 0.612207
0.946548 0.913756 0.634928
0.944671 0.936172 0.708675
0.943206 0.954559 0.78175
0.00764477 0.0238346 0.0493172
0.00764477 0.0238346 0.0493172
0.00764477 0.0238346 0.0493172
0.00764477 0.0238346 0.0493172
0.00764477 0.0238346 0.0493172
0.0805524 0.0261845 0.049546
0.127916 0.0276646 0.0511788
0.173266 0.0290379 0.0528267
0.22388 0.0305638 0.0546426
0.27834 0.032639 0.0603952
0.342138 0.0355077 0.0643168
0.410056 0.0397192 0.0702831
0.488014 0.0471199 0.0810712
0.565957 0.0623484 0.103639
0.633371 0.0977646 0.156054
0.701289 0.182788 0.276158
0.769436 0.333883 0.41738
0.839048 0.471595 0.541085
0.902007 0.572274 0.619715
0.951766 0.629267 0.674311
0.961715 0.640284 0.685161
0.961715 0.640284 0.685161
0.961501 0.644938 0.684733
0.961059 0.65362 0.684977
0.960159 0.671992 0.683726
0.958541 0.705165 0.680034
0.956146 0.753384 0.671336
0.95346 0.80502 0.65507
0.950957 0.849546 0.631449
0.948653 0.885695 0.610605
0.946532 0.914107 0.63386
0.94464 0.936385 0.708247
0.943191 0.954681 0.781567
0.00764477 0.0238346 0.0493172
0.00764477 0.0238346 0.0493172
0.00764477 0.0238346 0.0493172
0.00662242 0.0295415 0.0486152
0.0303349 0.035462 0.0489509
0.0862287 0.0263676 0.0496529
0.128603 0.0276799 0.0512093
0.173556 0.0290379 0.0528267
0.224918 0.0306096 0.0546731
0.280888 0.0327459 0.0605325
0.345525 0.0356756 0.0645457
0.412909 0.0399329 0.0706035
0.490745 0.0474708 0.0815747
0.568002 0.0629587 0.10457
0.634699 0.0988174 0.157595
0.702174 0.184451 0.278111
0.76997 0.334981 0.418418
0.839261 0.472023 0.541405
0.901884 0.572106 0.619577
0.951385 0.62884 0.673899
0.961715 0.640284 0.685161
0.961715 0.640284 0.685161
0.961456 0.645777 0.684642
0.960998 0.654948 0.684749
0.960067 0.673961 0.683452
0.958419 0.707546 0.679637
0.956024 0.755627 0.670695
0.953368 0.806622 0.654093
0.950896 0.850523 0.630152
0.948623 0.886305 0.608988
0.946502 0.914443 0.632776
0.944625 0.936599 0.707805
0.943175 0.954818 0.781415
0 0.0759747 0.0429999
0 0.0788739 0.0426642
0 0.081651 0.0423133
0 0.0843519 0.0420081
0 0.0853895 0.0418708
0.0669108 0.0866102 0.0419013
0.113481 0.0857099 0.0433814
0.161151 0.0818494 0.0456092
0.217166 0.0715343 0.0489815
0.282032 0.0327916 0.0606088
0.347463 0.0357671 0.0646982
0.415503 0.0401312 0.0708934
0.49337 0.0478218 0.0821088
0.570077 0.0635691 0.10547
0.636057 0.0999008 0.159213
0.703059 0.18616 0.280064
0.770489 0.336095 0.419425
0.83946 0.472404 0.541711
0.901747 0.571923 0.61944
0.951019 0.628428 0.673503
0.961715 0.640284 0.685161
0.961669 0.641291 0.685069
0.96141 0.646677 0.684565
0.960937 0.656352 0.684489
0.959976 0.675959 0.683162
0.958312 0.709941 0.67921
0.955917 0.757855 0.670024
0.953292 0.808194 0.653086
0.950851 0.851484 0.62884
0.948577 0.886885 0.607355
0.946471 0.914778 0.631693
0.94461 0.936812 0.707378
0.94316 0.954925 0.781231
0 0.107744 0.0392309
0 0.110018 0.0389715
0 0.112276 0.0386969
0 0.114046 0.0384985
0 0.1149 0.0383917
0.0397498 0.116152 0.0399939
0.100298 0.116808 0.0391852
0.150713 0.115999 0.0410468
0.207874 0.113039 0.0434119
0.275746 0.106432 0.0471656
0.342351 0.0923476 0.0568551
0.417792 0.0403296 0.0711528
0.49601 0.0481727 0.0826429
0.572259 0.064271 0.106493
0.637507 0.101091 0.160967
0.704021 0.188022 0.28217
0.771038 0.337224 0.420462
0.839673 0.472816 0.542031
0.90161 0.571725 0.619287
0.950591 0.627955 0.673045
0.961715 0.640284 0.685161
0.961593 0.642878 0.684916
0.961364 0.647669 0.684474
0.960861 0.657862 0.684184
0.959869 0.678096 0.682857
0.95819 0.712444 0.678767
0.95581 0.760159 0.669322
0.953201 0.809812 0.652049
0.95079 0.852476 0.627436
0.948547 0.887495 0.605631
0.946441 0.915129 0.630533
0.944595 0.937026 0.706905
0.943145 0.955077 0.781064
0 0.140948 0.0353399
0 0.14284 0.035111
0 0.144732 0.0348974
0 0.145785 0.0347601
0 0.146471 0.034699
0 0.146715 0.0346532
0.0757763 0.148623 0.037583
0.136614 0.148959 0.0366064
0.196521 0.148119 0.0387274
0.268894 0.145663 0.0419623
0.337285 0.140307 0.0505531
0.412131 0.130968 0.0588846
0.494575 0.112306 0.0743267
0.575067 0.0651713 0.10782
0.639368 0.102678 0.163287
0.705242 0.190448 0.284855
0.77174 0.338735 0.421866
0.839933 0.47332 0.542428
0.901396 0.57142 0.619043
0.950027 0.627329 0.672419
0.961715 0.640284 0.685161
0.961547 0.643885 0.68484
0.961288 0.649058 0.684352
0.960754 0.659892 0.683619
0.959731 0.680903 0.682445
0.958038 0.715679 0.678157
0.955657 0.763104 0.668391
0.953094 0.811872 0.65066
0.950713 0.853742 0.625589
0.948501 0.888289 0.603342
0.94641 0.915572 0.629053
0.944549 0.937316 0.706294
0.943114 0.95523 0.780835
0 0.178363 0.0310063
0 0.179995 0.030808
0 0.181216 0.0306401
0 0.182025 0.0305791
0 0.182589 0.0305028
0 0.182925 0.0304417
0.0137942 0.183658 0.0314031
0.11017 0.185519 0.0345464
0.179004 0.185672 0.0336309
0.257267 0.18468 0.0366522
0.329946 0.182147 0.0449531
0.409339 0.1785 0.0528115
0.49398 0.17435 0.0668803
0.573297 0.170031 0.0953841
0.639551 0.162707 0.158602
0.706889 0.193744 0.288457
0.772702 0.340749 0.423728
0.840284 0.473976 0.542962
0.901091 0.571023 0.618723
0.949248 0.626459 0.671565
0.961639 0.6421 0.684993
0.961471 0.645243 0.684703
0.961196 0.651057 0.684169
0.960616 0.66276 0.682963
0.959548 0.684733 0.681865
0.957809 0.719966 0.677348
0.955459 0.766903 0.66714
0.952941 0.814511 0.648798
0.950607 0.85539 0.623102
0.948425 0.889311 0.600259
0.946365 0.916167 0.627024
0.944518 0.937682 0.705531
0.943099 0.955459 0.780529
0 0.228077 0.0251469
0 0.229648 0.0249638
0 0.230533 0.0248264
0 0.231434 0.0247349
0 0.232059 0.0246433
0 0.232486 0.0246128
0 0.232746 0.0245823
0.0599222 0.234211 0.0271153
0.145968 0.234226 0.0300298
0.235843 0.232731 0.0298924
0.316777 0.231006 0.0381628
0.402914 0.22858 0.0461128
0.492988 0.227176 0.0606088
0.574487 0.2309 0.089662
0.639673 0.250294 0.151614
0.705745 0.296422 0.281758
0.772992 0.375296 0.423194
0.840757 0.474861 0.543648
0.900649 0.570382 0.618219
0.947997 0.627497 0.67013
0.961547 0.644083 0.68481
0.961379 0.647334 0.68452
0.961044 0.654002 0.683864
0.960418 0.66688 0.682521
0.959289 0.689937 0.681025
0.957534 0.725673 0.676188
0.955215 0.771817 0.665415
0.952758 0.817914 0.646265
0.950484 0.857527 0.619699
0.948348 0.890639 0.596246
0.946303 0.91693 0.624292
0.944472 0.938155 0.704463
0.943069 0.955749 0.780118
0 0.290394 0.0157626
0 0.290883 0.015671
0 0.291356 0.0155795
0 0.291768 0.0155184
0 0.291997 0.0154574
0 0.292058 0.0154574
0 0.291936 0.0154879
0 0.291508 0.0155489
0.092668 0.292287 0.0194705
0.191745 0.291981 0.0227665
0.293324 0.290867 0.0277104
0.389578 0.289097 0.0357977
0.487755 0.287617 0.0509957
0.574868 0.289677 0.0822309
0.641443 0.304341 0.147829
0.70724 0.341329 0.281498
0.773754 0.408591 0.423163
0.840513 0.500343 0.542489
0.89955 0.578897 0.616724
0.946227 0.628626 0.668101
0.96141 0.64654 0.684596
0.961227 0.650614 0.684199
0.96083 0.658457 0.683421
0.960128 0.672786 0.681849
0.958938 0.697078 0.679789
0.957153 0.733196 0.67454
0.954879 0.778103 0.66302
0.952514 0.822232 0.642817
0.950317 0.860258 0.615015
0.948226 0.892363 0.590707
0.946227 0.917937 0.620539
0.944411 0.938796 0.703059
0.943023 0.95613 0.779583
0 0.357412 0.000549325
0 0.35787 0.000396735
0 0.358373 0.000274662
0 0.358709 0.00015259
0 0.358984 9.15541e-05
0 0.359152 4.57771e-05
0 0.359213 4.57771e-05
0 0.359091 6.10361e-05
0 0.358587 0.000213626
0.120455 0.359182 0.00553903
0.250095 0.358877 0.0104372
0.364599 0.357702 0.0185092
0.474662 0.356115 0.034165
0.571756 0.356802 0.0675517
0.642008 0.365927 0.137713
0.708705 0.391699 0.278477
0.774838 0.442771 0.423056
0.840558 0.517128 0.541817
0.898131 0.584863 0.614878
0.943664 0.630396 0.66511
0.961212 0.650736 0.684184
0.960952 0.655894 0.68368
0.960494 0.665248 0.682704
0.959716 0.681254 0.680827
0.958465 0.706767 0.677806
0.956664 0.743114 0.672145
0.954467 0.786053 0.659678
0.952209 0.827955 0.638041
0.950118 0.863752 0.608423
0.948089 0.89456 0.581994
0.946136 0.919249 0.615412
0.944335 0.939605 0.701198
0.942977 0.956619 0.778912
0 0.435218 0
0 0.435691 0
0 0.436088 0
0 0.436439 0
0 0.436713 0
0 0.436912 0
0 0.437079 0
0 0.43714 0
0 0.436973 0
0 0.436591 0
0.14725 0.436957 0
0.315679 0.436728 0
0.447608 0.435874 0.00163272
0.561166 0.435599 0.0363622
0.638392 0.439719 0.11017
0.708247 0.455421 0.26273
0.775143 0.490654 0.418921
0.839887 0.542306 0.539284
0.89572 0.594354 0.611612
0.939925 0.634989 0.660624
0.960861 0.657938 0.683467
0.960525 0.664515 0.68278
0.959991 0.675624 0.681514
0.959121 0.69337 0.679179
0.957824 0.719905 0.67483
0.956024 0.755795 0.668605
0.953948 0.795895 0.654932
0.951843 0.834623 0.631724
0.949844 0.868162 0.598993
0.947921 0.897353 0.566979
0.945998 0.920913 0.608194
0.944228 0.940673 0.69865
0.942885 0.957244 0.777996
0 0.522972 0
0 0.523339 0
0 0.523659 0
0 0.523919 0
0 0.524132 0
0 0.524315 0
0 0.524483 0
0 0.52462 0
0 0.524758 0
0 0.524849 0
0 0.524849 0
0.178317 0.525292 0
0.392813 0.52546 0
0.537148 0.525017 0
0.627649 0.525567 0.0433814
0.702617 0.53109 0.20444
0.772808 0.54786 0.402029
0.837781 0.578622 0.532235
0.892042 0.611597 0.60618
0.934829 0.645411 0.654215
0.96025 0.670237 0.682139
0.959854 0.678386 0.681163
0.959228 0.691234 0.679484
0.958282 0.71043 0.676524
0.956939 0.737423 0.671138
0.95523 0.77145 0.66334
0.953307 0.807843 0.648051
0.951385 0.842664 0.622766
0.949523 0.87364 0.585275
0.947723 0.900862 0.542565
0.945846 0.923064 0.59794
0.944091 0.942016 0.695262
0.942794 0.958068 0.776761
0 0.599878 0
0 0.600076 0
0 0.600259 0
0 0.600397 0
0 0.600534 0
0 0.600656 0
0 0.600778 0
0 0.6009 0
0 0.600977 0
0 0.601007 0
0 0.6009 0
0 0.60058 0
0.235248 0.600458 0
0.486229 0.600076 0
0.607416 0.599664 0
0.690562 0.600275 0.0633097
0.765682 0.605066 0.348882
0.833036 0.618906 0.514412
0.886595 0.640513 0.596872
0.928008 0.665599 0.644617
0.959274 0.690288 0.679622
0.958816 0.699763 0.678233
0.958114 0.713832 0.675929
0.957137 0.733623 0.672007
0.955825 0.759762 0.66511
0.954253 0.790112 0.655283
0.952544 0.821836 0.637888
0.950835 0.852232 0.6094
0.949126 0.880308 0.557794
0.947509 0.90518 0.496986
0.945647 0.92575 0.582559
0.943923 0.94374 0.690654
0.942672 0.959136 0.775143
0 0.666392 0
0 0.666514 0
0 0.666621 0
0 0.666712 0
0 0.666773 0
0 0.666835 0
0 0.666896 0
0 0.666957 0
0 0.666957 0
0 0.666911 0
0 0.666743 0
0 0.666316 0
0 0.665507 0
0.333898 0.664942 0
0.569619 0.664179 0
0.66949 0.663676 0
0.752667 0.664317 0.111589
0.822965 0.669673 0.459998
0.87808 0.681941 0.576898
0.918914 0.698512 0.629007
0.951354 0.717678 0.667124
0.957305 0.730297 0.672724
0.956588 0.744488 0.669413
0.955642 0.763241 0.663981
0.954482 0.785885 0.655222
0.953124 0.811337 0.642573
0.951659 0.837919 0.622324
0.950164 0.863508 0.588663
0.948714 0.888228 0.507576
0.947433 0.910521 0.378103
0.945434 0.929137 0.550942
0.943709 0.945922 0.684306
0.942504 0.960464 0.772992
0 0.73373 0
0 0.733791 0
0 0.733822 0
0 0.733867 0
0 0.733867 0
0 0.733883 0
0 0.733898 0
0 0.733867 0
0 0.733822 0
0 0.733684 0
0 0.733425 0
0 0.732921 0
0 0.732036 0
0 0.73077 0
0.442298 0.729915 0
0.633906 0.728832 0
0.731258 0.728267 0
0.807614 0.729091 0.131411
0.864546 0.733944 0.511009
0.9066 0.743664 0.598535
0.938857 0.756497 0.642374
0.955337 0.769467 0.66186
0.954711 0.781445 0.657191
0.953918 0.796475 0.649958
0.952956 0.814298 0.638575
0.951858 0.834363 0.621637
0.950668 0.855009 0.597147
0.949447 0.876387 0.540459
0.948501 0.897581 0.354528
0.949248 0.918486 0
0.945235 0.933333 0.48127
0.94345 0.948608 0.675441
0.942306 0.962142 0.770184
0 0.799527 0
0 0.799512 0
0 0.799496 0
0 0.799466 0
0 0.799451 0
0 0.799405 0
0 0.799359 0
0 0.799268 0
0 0.799115 0
0 0.798871 0
0 0.798474 0
0 0.797833 0
0 0.796841 0
0 0.795453 0
0 0.793713 0
0.553841 0.792401 0
0.698177 0.790814 0
0.785367 0.790219 0
0.848203 0.791959 0
0.891066 0.794324 0.488701
0.924819 0.801282 0.594156
0.949264 0.810544 0.634348
0.952682 0.819486 0.634501
0.952087 0.830396 0.624598
0.951385 0.843015 0.609171
0.950561 0.857359 0.583978
0.94963 0.873442 0.537072
0.948928 0.890715 0.36939
0.949935 0.909529 0
0.948684 0.925353 0
0.946197 0.939361 0.126711
0.943114 0.951858 0.662791
0.942061 0.964218 0.7664
0 0.855497 0
0 0.855436 0
0 0.855375 0
0 0.855299 0
0 0.855207 0
0 0.855131 0
0 0.855009 0
0 0.854841 0
0 0.854582 0
0 0.854215 0
0 0.853666 0
0 0.852842 0
0 0.851698 0
0 0.850172 0
0 0.848219 0
0 0.845838 0
0.651606 0.843976 0
0.758755 0.842176 0
0.827283 0.841657 0
0.876539 0.842893 0
0.911284 0.844373 0.259144
0.936538 0.848646 0.545373
0.950713 0.854673 0.589868
0.950317 0.861448 0.571954
0.949859 0.870115 0.53576
0.949386 0.880598 0.445274
0.950072 0.89366 0.0958724
0.950103 0.907256 0
0.949081 0.920134 0
0.947982 0.933181 0
0.946838 0.94609 0
0.942702 0.955718 0.643885
0.941726 0.966766 0.761334
0 0.898207 0
0 0.8981 0
0 0.897993 0
0 0.897887 0
0 0.897765 0
0 0.897627 0
0 0.897459 0
0 0.897215 0
0 0.896895 0
0 0.896422 0
0 0.89575 0
0 0.894835 0
0 0.893614 0
0 0.891997 0
0 0.889967 0
0 0.887449 0
0.56669 0.885023 0
0.73135 0.882826 0
0.806699 0.881361 0
0.859815 0.880964 0
0.898817 0.881865 0
0.926894 0.884199 0
0.947188 0.886793 0.136187
0.950622 0.891676 0.0435645
0.95082 0.897765 0
0.950301 0.904631 0
0.949676 0.912657 0
0.948943 0.921553 0
0.948104 0.931334 0
0.947173 0.941787 0
0.946197 0.952422 0
0.942275 0.960159 0.617609
0.941344 0.969802 0.754528
0 0.931533 0
0 0.931395 0
0 0.931258 0
0 0.931105 0
0 0.930953 0
0 0.9308 0
0 0.930587 0
0 0.930297 0
0 0.9299 0
0 0.929366 0
0 0.928664 0
0 0.927733 0
0 0.926482 0
0 0.92488 0
0 0.92285 0
0 0.920348 0
0 0.91754 0
0.701411 0.915465 0
0.787579 0.913603 0
0.843915 0.912413 0
0.884749 0.912077 0
0.914778 0.912749 0
0.937972 0.914397 0
0.949325 0.916823 0
0.949065 0.91989 0
0.94873 0.924025 0
0.948257 0.92929 0
0.947692 0.935622 0
0.947021 0.942916 0
0.946258 0.950912 0
0.945464 0.959289 0
0.941741 0.965118 0.606989
0.940871 0.973327 0.74519
0 0.956115 0
0 0.955932 0
0 0.955779 0
0 0.955612 0
0 0.955444 0
0 0.955261 0
0 0.955032 0
0 0.954711 0
0 0.954314 0
0 0.95378 0
0 0.953063 0
0 0.952132 0
0 0.950912 0
0 0.949355 0
0 0.947372 0
0 0.944976 0
0 0.942382 0
0.673518 0.940261 0
0.772335 0.938338 0
0.831205 0.936797 0
0.872648 0.935866 0
0.903883 0.935607 0
0.92842 0.936065 0
0.946792 0.937285 0
0.947356 0.938903 0
0.947127 0.941436 0
0.946792 0.944884 0
0.946365 0.949203 0
0.945861 0.954345 0
0.945266 0.960143 0
0.944656 0.96643 0
0.941131 0.970581 0.59733
0.940383 0.977325 0.744656
0 0.974731 0
0 0.974563 0
0 0.974395 0
0 0.974227 0
0 0.974044 0
0 0.973877 0
0 0.973648 0
0 0.973327 0
0 0.97293 0
0 0.972427 0
0 0.971725 0
0 0.970855 0
0 0.969696 0
0 0.968215 0
0 0.966384 0
0 0.964233 0
0 0.961959 0
0.651865 0.960021 0
0.761517 0.958206 0
0.821103 0.956603 0
0.862562 0.955444 0
0.894087 0.954772 0
0.91928 0.954543 0
0.938537 0.95491 0
0.945678 0.955642 0
0.945541 0.956939 0
0.945312 0.958953 0
0.945037 0.961685 0
0.944671 0.965057 0
0.944244 0.9691 0
0.943801 0.973739 0
0.940429 0.976364 0.59353
0.939849 0.981689 0.746807
0 0.988571 0
0 0.988418 0
0 0.988251 0
0 0.988098 0
0 0.98793 0
0 0.987762 0
0 0.987533 0
0 0.987259 0
0 0.986877 0
0 0.986404 0
0 0.985779 0
0 0.984939 0
0 0.983871 0
0 0.982544 0
0 0.980972 0
0 0.979171 0
0 0.977279 0
0.650217 0.975616 0
0.7579 0.973953 0
0.815335 0.972427 0
0.855283 0.971206 0
0.886381 0.970291 0
0.91136 0.969696 0
0.930968 0.969512 0
0.944076 0.969696 0
0.944015 0.970108 0
0.943908 0.97113 0
0.943725 0.972747 0
0.943481 0.974929 0
0.943206 0.977691 0
0.942901 0.980972 0
0.939681 0.982208 0.601465
0.939269 0.986236 0.751339
0 0.998322 0
0 0.998184 0
0 0.998047 0
0 0.997879 0
0 0.997742 0
0 0.997589 0
0 0.997391 0
0 0.997147 0
0 0.996811 0
0 0.996353 0
0 0.995804 0
0 0.995117 0
0 0.994232 0
0 0.993179 0
0 0.991928 0
0 0.990539 0
0 0.989059 0
0.67631 0.987671 0
0.763226 0.986252 0
0.814282 0.984894 0
0.851301 0.983719 0
0.881056 0.982742 0
0.90518 0.98201 0
0.924422 0.981552 0
0.940032 0.981369 0
0.942596 0.981369 0
0.942565 0.98172 0
0.942473 0.982544 0
0.942336 0.983856 0
0.942184 0.985626 0
0.942016 0.987808 0
0.938888 0.987839 0.62649
0.938689 0.990753 0.759121
0 1 0
0 1 0
0 1 0
0 1 0
0 1 0
0 1 0
0 1 0
0 1 0
0 1 0
0 1 0
0 1 0
0 1 0
0 1 0
0 1 0
0 1 0
0 0.999298 0
0.574548 0.998169 0
0.71519 0.997086 0
0.77615 0.995895 0
0.81767 0.994766 0
0.850782 0.993683 0
0.878126 0.992706 0
0.900679 0.991928 0
0.919219 0.991333 0
0.934462 0.990967 0
0.941299 0.990707 0
0.941329 0.990646 0
0.941329 0.990921 0
0.941283 0.991562 0
0.941238 0.992584 0
0.941222 0.993942 0
0.938125 0.993072 0.663615
0.938125 0.995163 0.770687
0 1 0
0 1 0
0 1 0
0 1 0
0 1 0
0 1 0
0 1 0
0 1 0
0 1 0
0 1 0
0 1 0
0 1 0
0 1 0
0 1 0
0 1 0
0.600092 1 0
0.700236 1 0
0.754482 1 0
0.793881 1 0
0.826123 1 0
0.853864 1 0
0.877867 1 0
0.898192 0.999588 0
0.915511 0.998962 0
0.930098 0.998474 0
0.9402 0.998123 0
0.940291 0.997833 0
0.940337 0.997772 0
0.940383 0.998001 0
0.940429 0.998535 0
0.94052 0.999344 0
0.937453 0.997848 0.704784
0.937621 0.999298 0.785916
0 1 0
0 1 0
0 1 0
0 1 0
0 1 0
0 1 0
0 1 0
0 1 0
0 1 0
0 1 0
0.40061 1 0
0.569146 1 0
0.627939 1 0
0.669947 1 0
0.705058 1 0
0.736126 1 0
0.764309 1 0
0.790112 1 0
0.814557 1 0
0.838117 1 0
0.859983 1 0
0.879988 1 0
0.897627 1 0
0.913298 1 0
0.926757 1 0
0.93785 1 0
0.939406 1 0
0.939529 1 0
0.939635 1 0
0.939788 1 0
0.936904 1 0.627894
0.93695 1 0.745068
0.93724 1 0.804196
0.718761 1 0
0.720516 1 0
0.722255 1 0
0.723949 1 0
0.725612 1 0
0.727321 1 0
0.729458 1 0
0.732189 1 0
0.735683 1 0
