BBLuts/BB_104_0070_LUT.cube
TITLE "Generated by Resolve"
LUT_3D_SIZE 9
0.0184329 0.0276799 0.0437629
0.0184329 0.0276799 0.0437629
0.196338 0.0294499 0.0466773
0.477317 0.0294041 0.050782
0.721172 0.288945 0.375418
0.850965 0.617197 0.662913
0.849928 0.637675 0.66244
0.842512 0.760525 0.623407
0.836912 0.824079 0.739483
0.0115358 0.0700389 0.0405585
0.0102541 0.07776 0.0399786
0.202197 0.0632334 0.0441444
0.490257 0.0298314 0.0517281
0.72282 0.293904 0.380667
0.850965 0.617197 0.662913
0.849622 0.643305 0.661631
0.842435 0.763058 0.619455
0.836881 0.824384 0.738994
0.00175479 0.197498 0.0293584
0.00158694 0.200946 0.0289616
0.14342 0.202502 0.0328832
0.500023 0.186404 0.0459297
0.725963 0.337133 0.389532
0.850843 0.619989 0.662699
0.849012 0.653437 0.659953
0.842313 0.766934 0.612467
0.836851 0.824872 0.738201
0 0.491051 0
0 0.492363 0
0 0.49308 0
0.39472 0.502983 0.00596628
0.728725 0.533745 0.376928
0.849851 0.639155 0.660792
0.846815 0.687114 0.652018
0.842176 0.777325 0.585916
0.836744 0.826291 0.735775
0 0.720424 0
0 0.720378 0
0 0.720134 0
0 0.718471 0
0.677577 0.719081 0.0149538
0.826917 0.730785 0.591516
0.842954 0.75787 0.604135
0.843336 0.799695 0.0295415
0.836484 0.83006 0.728023
0 0.831373 0.038056
0 0.830915 0.0378729
0 0.830137 0.037583
0 0.827817 0.0366827
0 0.821973 0.0344091
0.797253 0.815518 0.0293431
0.842329 0.817639 0.030518
0.841703 0.826978 0.0310063
0.835874 0.838102 0.711971
0.00598154 0.864271 0.049485
0.0059205 0.863966 0.0493782
0.00582895 0.863493 0.0492409
0.00556954 0.862242 0.0488594
0.597955 0.85803 0.0439765
0.785199 0.850523 0.0314641
0.835416 0.848951 0.0318456
0.839521 0.849302 0.0318761
0.834409 0.848447 0.732143
0.752895 0.858808 0.0320439
0.75436 0.858808 0.0320134
0.756664 0.858793 0.0319677
0.763043 0.858778 0.0318761
0.777935 0.858778 0.0317693
0.802869 0.8589 0.0318303
0.829511 0.859205 0.0320439
0.835172 0.856657 0.617227
0.833371 0.854887 0.787396
0.81323 0.854887 0.812345
0.813336 0.854887 0.81236
0.813535 0.854887 0.81239
0.814084 0.854902 0.812512
0.815702 0.854902 0.812848
0.81973 0.854963 0.813809
0.827359 0.85507 0.816419
0.83386 0.855238 0.822522
0.834272 0.855528 0.836713
0.0240177 0.0314031 0.0881361
0.0240482 0.0314183 0.0883497
0.201816 0.0331579 0.0918135
0.478828 0.0332952 0.0971695
0.721141 0.291203 0.393606
0.850965 0.617304 0.663905
0.849973 0.636835 0.66331
0.842435 0.759945 0.630747
0.836881 0.823987 0.745571
0.0191348 0.0548104 0.078645
0.056672 0.064271 0.0774548
0.218494 0.0325475 0.0846571
0.485344 0.0326543 0.0874495
0.721843 0.292042 0.38613
0.850965 0.617273 0.6636
0.849668 0.642405 0.662516
0.842344 0.762478 0.627131
0.836851 0.824292 0.745144
0.00216678 0.188739 0.0302739
0.00204471 0.191623 0.029984
0.162829 0.193835 0.0341039
0.497871 0.177539 0.0459449
0.723964 0.32105 0.383581
0.850858 0.619745 0.662699
0.849073 0.652476 0.660914
0.842222 0.766369 0.620798
0.83682 0.824781 0.744411
0 0.486015 0
0 0.487282 0
0 0.4878 0
0.413993 0.497475 0.00602731
0.728481 0.530571 0.376913
0.849882 0.638651 0.660853
0.84686 0.68629 0.652888
0.842039 0.776806 0.597284
0.836698 0.8262 0.742199
0 0.719615 0
0 0.719539 0
0 0.71928 0
0 0.717586 0
0.679927 0.718318 0.0148928
0.826993 0.730327 0.592248
0.842954 0.757626 0.604562
0.843336 0.799573 0.0295262
0.836423 0.829953 0.735393
0 0.831205 0.037995
0 0.830747 0.0378119
0 0.829984 0.0375219
0 0.827649 0.0366217
0 0.821836 0.0343481
0.797467 0.815442 0.0293278
0.842344 0.817578 0.030518
0.841703 0.826932 0.0310063
0.835859 0.838087 0.712795
0.00596628 0.86421 0.0494545
0.00590524 0.863905 0.0493629
0.00581369 0.863447 0.0492256
0.00555428 0.862196 0.0488441
0.603265 0.857801 0.0434272
0.785336 0.850507 0.0314641
0.835447 0.848936 0.0318456
0.839536 0.849302 0.0318761
0.834409 0.848447 0.732097
0.753124 0.858808 0.0320439
0.754589 0.858808 0.0320134
0.756878 0.858793 0.0319677
0.763195 0.858778 0.0318761
0.778058 0.858778 0.031754
0.802915 0.8589 0.0318303
0.829541 0.859205 0.0320439
0.835172 0.856657 0.617166
0.833371 0.854887 0.787396
0.813245 0.854887 0.812345
0.813352 0.854887 0.81236
0.81355 0.854887 0.81239
0.814115 0.854902 0.812512
0.815717 0.854917 0.812848
0.81973 0.854963 0.813809
0.827375 0.85507 0.816419
0.83386 0.855238 0.822522
0.834272 0.855528 0.836713
0.0387884 0.0411994 0.209003
0.038819 0.0412146 0.209232
0.195148 0.0426184 0.211292
0.493645 0.043183 0.212985
0.721157 0.29662 0.430762
0.85095 0.617487 0.665446
0.85005 0.635294 0.665644
0.842298 0.758953 0.643626
0.836835 0.82385 0.754421
0.0383001 0.0408789 0.204959
0.0383307 0.0408942 0.205341
0.218204 0.0422827 0.207309
0.491905 0.0428016 0.209339
0.722698 0.300877 0.433249
0.85095 0.617472 0.665324
0.84976 0.640665 0.664851
0.842206 0.761517 0.640528
0.836805 0.824155 0.754025
0.0138552 0.178027 0.181399
0.0134737 0.179858 0.180941
0.17467 0.177264 0.181537
0.482597 0.168063 0.194232
0.721782 0.297719 0.42771
0.850858 0.619257 0.664988
0.84918 0.650492 0.663279
0.842069 0.765454 0.635157
0.836774 0.824659 0.753399
0 0.471336 0.0254673
0 0.472923 0.0254978
0 0.473701 0.0262913
0.420829 0.483879 0.0602426
0.725277 0.520211 0.401297
0.849958 0.637095 0.662516
0.846983 0.684153 0.656123
0.841779 0.775952 0.615946
0.836652 0.826078 0.751476
0 0.717922 0
0 0.717845 0
0 0.717586 0
0 0.715877 0
0.682124 0.716716 0.0147402
0.826963 0.729198 0.593332
0.842939 0.756878 0.608042
0.842969 0.799084 0.321508
0.836347 0.829831 0.745632
0 0.830961 0.0378882
0 0.830488 0.0377203
0 0.829725 0.0374151
0 0.827405 0.0365301
0 0.821622 0.0342718
0.797803 0.815305 0.0293431
0.842344 0.817487 0.030518
0.841718 0.826886 0.0310063
0.835706 0.837873 0.726848
0.00595102 0.864118 0.049424
0.00588998 0.863813 0.0493477
0.00579843 0.863355 0.0491951
0.00553903 0.862135 0.0488136
0.611032 0.85745 0.0426032
0.78558 0.850492 0.0314641
0.835492 0.84892 0.0318456
0.839536 0.849287 0.0318761
0.834424 0.848447 0.732036
0.753475 0.858808 0.0320439
0.754925 0.858808 0.0319982
0.757198 0.858793 0.0319677
0.763485 0.858778 0.0318608
0.778256 0.858778 0.031754
0.803006 0.8589 0.0318303
0.829557 0.859205 0.0320439
0.835172 0.856657 0.617166
0.833371 0.854887 0.787381
0.81326 0.854887 0.812345
0.813382 0.854887 0.81236
0.813581 0.854887 0.812406
0.81413 0.854902 0.812512
0.815732 0.854917 0.812833
0.819745 0.854963 0.813794
0.827375 0.85507 0.816419
0.83386 0.855238 0.822522
0.834272 0.855528 0.836713
0.129686 0.100221 0.495171
0.129824 0.100313 0.495354
0.1299 0.100343 0.49546
0.477729 0.102403 0.489372
0.733791 0.358907 0.563867
0.850858 0.618753 0.675471
0.850172 0.632029 0.680949
0.841917 0.756054 0.685115
0.83682 0.82356 0.775235
0.127672 0.0989242 0.492485
0.127871 0.0990311 0.492714
0.202457 0.0995804 0.492638
0.493889 0.101839 0.486229
0.732525 0.355032 0.561486
0.850858 0.618708 0.675212
0.849912 0.636591 0.680064
0.841779 0.758679 0.683192
0.836789 0.823865 0.77496
0.115251 0.152834 0.487129
0.114717 0.157321 0.487327
0.216907 0.154726 0.487709
0.499916 0.0999008 0.481025
0.728618 0.34403 0.555962
0.850858 0.618647 0.674754
0.849409 0.64538 0.678416
0.841581 0.762722 0.679957
0.836759 0.824353 0.774502
0 0.428092 0.431235
0 0.430091 0.431388
0 0.43154 0.432181
0.434211 0.441794 0.451881
0.715297 0.4869 0.52987
0.850156 0.632975 0.671839
0.847303 0.677791 0.671534
0.841108 0.773449 0.669322
0.836622 0.825788 0.773159
0 0.710552 0
0 0.710536 0
0 0.710338 0
0 0.708766 0
0.680323 0.709926 0.013962
0.82565 0.723918 0.609827
0.842786 0.753735 0.631662
0.840513 0.795804 0.626642
0.836286 0.829541 0.769116
0 0.830228 0.0376135
0 0.829755 0.0374304
0 0.828977 0.0371405
0 0.826658 0.0362402
0 0.82089 0.0339818
0.797452 0.814679 0.0292668
0.84239 0.816983 0.0304875
0.841794 0.826535 0.0309911
0.835523 0.837537 0.757092
0.00588998 0.863828 0.0493477
0.00582895 0.863554 0.0492561
0.00573739 0.863096 0.0491188
0.00549325 0.861906 0.0487526
0.629953 0.85658 0.0406195
0.786313 0.850416 0.0314641
0.835615 0.848859 0.0318456
0.839536 0.849256 0.0318761
0.834424 0.848432 0.731838
0.754559 0.858808 0.0320134
0.755978 0.858793 0.0319829
0.758206 0.858793 0.0319524
0.764355 0.858763 0.0318608
0.778851 0.858763 0.031754
0.803281 0.8589 0.0318456
0.829633 0.859205 0.0320439
0.835172 0.856657 0.617029
0.833371 0.854887 0.78732
0.813352 0.854887 0.812329
0.813474 0.854887 0.81236
0.813657 0.854887 0.812375
0.814221 0.854902 0.812497
0.815808 0.854917 0.812833
0.819806 0.854963 0.813794
0.827405 0.85507 0.816403
0.83386 0.855238 0.822522
0.834272 0.855528 0.836713
0.574487 0.548089 0.737514
0.574533 0.54818 0.737575
0.574624 0.548333 0.737667
0.580575 0.547387 0.736996
0.727733 0.565728 0.738079
0.849805 0.639612 0.761105
0.849561 0.644526 0.768887
0.84184 0.749264 0.777798
0.837201 0.823041 0.811734
0.574014 0.547311 0.737057
0.574075 0.547402 0.737118
0.574166 0.54757 0.737209
0.58143 0.546441 0.736431
0.73109 0.566369 0.737835
0.849805 0.639475 0.760754
0.849454 0.645884 0.768032
0.841642 0.752178 0.77705
0.837171 0.823362 0.811566
0.57322 0.545998 0.736309
0.573297 0.546105 0.73637
0.573404 0.546304 0.736477
0.583017 0.544945 0.735531
0.732982 0.56614 0.737179
0.849821 0.639231 0.760143
0.84921 0.649226 0.766583
0.841337 0.756558 0.775876
0.83711 0.82388 0.811322
0.566217 0.552728 0.73196
0.566217 0.552987 0.731975
0.566171 0.553307 0.731975
0.579721 0.551873 0.731304
0.732021 0.567117 0.733684
0.849714 0.640391 0.756741
0.847791 0.668559 0.761486
0.840589 0.768002 0.772442
0.836988 0.82533 0.81059
0 0.689952 0.699428
0 0.69015 0.699504
0 0.690196 0.699641
0 0.689235 0.699977
0.679026 0.690562 0.708751
0.82092 0.708675 0.729564
0.842161 0.744396 0.743023
0.839109 0.791562 0.762875
0.836606 0.829175 0.808469
0 0.828031 0.0367742
0 0.827588 0.0365911
0 0.826825 0.0363012
0 0.824506 0.0354009
0 0.818509 0.033051
0.789929 0.81033 0.601053
0.838468 0.811673 0.68954
0.837156 0.821286 0.737484
0.835706 0.837232 0.802655
0.00579843 0.863355 0.0491951
0.00573739 0.86305 0.0491035
0.00564584 0.862608 0.0489662
0.00538643 0.861418 0.0486
0.604471 0.857114 0.0432136
0.782818 0.849958 0.0314336
0.832792 0.848432 0.0318151
0.836255 0.846006 0.635279
0.834318 0.848035 0.78793
0.757733 0.858793 0.0319524
0.759045 0.858778 0.0319219
0.76112 0.858778 0.0318914
0.766888 0.858763 0.0318303
0.780591 0.858778 0.031754
0.804074 0.858915 0.0318456
0.829877 0.859205 0.0320439
0.835187 0.856657 0.616709
0.833356 0.854887 0.787167
0.813626 0.854887 0.812314
0.813733 0.854887 0.812329
0.813916 0.854887 0.812375
0.814466 0.854902 0.812482
0.816037 0.854917 0.812802
0.819974 0.854963 0.813779
0.827482 0.85507 0.816388
0.83386 0.855238 0.822492
0.834272 0.855528 0.836713
0.701259 0.691951 0.861662
0.701274 0.691951 0.861677
0.701289 0.691966 0.861692
0.70132 0.691997 0.861723
0.718914 0.688914 0.85864
0.847593 0.704265 0.860777
0.847593 0.704723 0.861295
0.844953 0.73312 0.854582
0.838636 0.821485 0.852369
0.701213 0.69189 0.861616
0.701228 0.691905 0.861631
0.701228 0.691905 0.861631
0.701259 0.691951 0.861662
0.720348 0.688838 0.858549
0.847593 0.704219 0.860731
0.847593 0.704677 0.86125
0.844694 0.736156 0.854017
0.838605 0.821851 0.852277
0.701137 0.691798 0.86154
0.701152 0.691814 0.861555
0.701152 0.691829 0.861555
0.701183 0.691844 0.861585
0.722789 0.688731 0.858396
0.847593 0.704143 0.860639
0.847593 0.704616 0.861189
0.844266 0.74107 0.853132
0.838544 0.822416 0.852155
0.700893 0.691539 0.861295
0.700893 0.691539 0.861311
0.700908 0.691554 0.861311
0.700694 0.691325 0.861112
0.729137 0.688472 0.85803
0.847593 0.703929 0.860395
0.847593 0.703624 0.860059
0.843137 0.75491 0.850782
0.838392 0.824079 0.851759
0.691783 0.692012 0.853483
0.691737 0.692088 0.853468
0.691661 0.69221 0.853422
0.691249 0.692134 0.85304
0.719066 0.690227 0.851453
0.845304 0.706523 0.854109
0.845289 0.725963 0.850553
0.840986 0.783886 0.846082
0.837964 0.828367 0.850675
0 0.823102 0.838224
0 0.822828 0.838193
0 0.822324 0.838148
0 0.820325 0.837964
0.580636 0.813214 0.836378
0.785733 0.803479 0.832547
0.836957 0.807446 0.835615
0.838239 0.819181 0.838743
0.837003 0.837079 0.848035
0 0.862745 0.82089
0 0.862409 0.820981
0 0.861921 0.821118
0 0.860578 0.82153
0.564294 0.854627 0.819287
0.770199 0.844892 0.815183
0.822263 0.843229 0.820798
0.835492 0.844205 0.82884
0.835477 0.848371 0.842863
0.748852 0.854612 0.777661
0.750134 0.854597 0.777737
0.752178 0.854582 0.777859
0.757855 0.854551 0.778256
0.771389 0.854505 0.779507
0.794766 0.854551 0.783185
0.820691 0.85478 0.792004
0.8336 0.855039 0.808606
0.83415 0.855451 0.833188
0.814404 0.854887 0.812238
0.814496 0.854887 0.812268
0.814679 0.854902 0.812299
0.815213 0.854902 0.812406
0.816709 0.854917 0.812726
0.820478 0.854963 0.813687
0.827756 0.85507 0.816297
0.83386 0.855238 0.8224
0.834272 0.855528 0.836698
0.734279 0.728054 0.894667
0.734279 0.728054 0.894667
0.734279 0.728054 0.894667
0.734279 0.728054 0.894667
0.734279 0.728054 0.894667
0.839063 0.736126 0.896971
0.847913 0.73753 0.8972
0.847913 0.73753 0.8972
0.84152 0.810987 0.883513
0.734279 0.728054 0.894667
0.734279 0.728054 0.894667
0.734279 0.728054 0.894667
0.734279 0.728054 0.894667
0.734279 0.728054 0.894667
0.839719 0.736233 0.897002
0.847913 0.73753 0.8972
0.847913 0.73753 0.8972
0.841474 0.811566 0.883421
0.734279 0.728054 0.894667
0.734279 0.728054 0.894667
0.734279 0.728054 0.894667
0.734279 0.728054 0.894667
0.734279 0.728054 0.894667
0.840803 0.7364 0.897032
0.847913 0.73753 0.8972
0.847913 0.73753 0.8972
0.841398 0.812497 0.883284
0.734279 0.728054 0.894667
0.734279 0.728054 0.894667
0.734279 0.728054 0.894667
0.734279 0.728054 0.894667
0.734279 0.728054 0.894667
0.843946 0.736889 0.897108
0.847913 0.73753 0.8972
0.847913 0.73753 0.8972
0.841169 0.815167 0.882902
0.734279 0.728054 0.894667
0.734279 0.728054 0.894667
0.734279 0.728054 0.894667
0.734279 0.728054 0.894667
0.735027 0.728069 0.894682
0.847913 0.73753 0.8972
0.847913 0.73753 0.8972
0.847288 0.740978 0.893935
0.840558 0.821881 0.88191
0.716686 0.77734 0.887602
0.71664 0.777447 0.887602
0.716564 0.77763 0.887572
0.71632 0.778149 0.887526
0.716014 0.775937 0.886748
0.799847 0.772366 0.885435
0.843488 0.78294 0.884642
0.841642 0.807187 0.881804
0.839292 0.834287 0.87985
0 0.866224 0.884855
0 0.865827 0.884825
0 0.865202 0.884794
0 0.86334 0.884672
0.59443 0.854032 0.879301
0.767529 0.844205 0.873854
0.822705 0.842359 0.874739
0.837949 0.843809 0.875517
0.837522 0.848478 0.87686
0.743236 0.856397 0.868666
0.74461 0.856382 0.868666
0.746761 0.856367 0.86865
0.752758 0.856306 0.868605
0.767208 0.856245 0.868574
0.792233 0.856291 0.868818
0.819226 0.856519 0.869596
0.835966 0.856779 0.871107
0.836164 0.856916 0.873823
0.814374 0.856077 0.860197
0.814466 0.856077 0.860212
0.814633 0.856077 0.860212
0.815152 0.856077 0.860258
0.816602 0.856092 0.860349
0.820249 0.856138 0.860639
0.827344 0.856245 0.861448
0.835462 0.856413 0.863447
0.835767 0.856626 0.867948
0.734264 0.728359 0.894667
0.734264 0.728359 0.894667
0.734264 0.728359 0.894667
0.734264 0.728359 0.894667
0.734264 0.728359 0.894667
0.734264 0.728359 0.894667
0.847913 0.73753 0.8972
0.847913 0.73753 0.8972
0.847135 0.746822 0.896696
0.734264 0.728359 0.894667
0.734264 0.728359 0.894667
0.734264 0.728359 0.894667
0.734264 0.728359 0.894667
0.734264 0.728359 0.894667
0.734264 0.728359 0.894667
0.847913 0.73753 0.8972
0.847913 0.73753 0.8972
0.847135 0.746822 0.896696
0.734264 0.728359 0.894667
0.734264 0.728359 0.894667
0.734264 0.728359 0.894667
0.734264 0.728359 0.894667
0.734264 0.728359 0.894667
0.734264 0.728359 0.894667
0.847913 0.73753 0.8972
0.847913 0.73753 0.8972
0.847135 0.746822 0.896696
0.734264 0.728359 0.894667
0.734264 0.728359 0.894667
0.734264 0.728359 0.894667
0.734264 0.728359 0.894667
0.734264 0.728359 0.894667
0.734279 0.728115 0.894667
0.847913 0.73753 0.8972
0.847913 0.73753 0.8972
0.84715 0.746807 0.896696
0.734264 0.728359 0.894667
0.734264 0.728359 0.894667
0.734264 0.728359 0.894667
0.734264 0.728359 0.894667
0.734264 0.728359 0.894667
0.735271 0.728084 0.894682
0.847913 0.73753 0.8972
0.847913 0.73753 0.8972
0.84715 0.746761 0.896712
0.734264 0.728359 0.894667
0.734264 0.728359 0.894667
0.734264 0.728359 0.894667
0.734264 0.728359 0.894667
0.734264 0.728359 0.894667
0.768383 0.729519 0.895171
0.847913 0.73753 0.8972
0.847898 0.737621 0.8972
0.843671 0.795178 0.894759
0.669718 0.841428 0.894087
0.669673 0.841443 0.894087
0.669596 0.841474 0.894087
0.669367 0.841581 0.894102
0.668666 0.841856 0.894102
0.733669 0.829938 0.892775
0.828077 0.827024 0.893339
0.840803 0.831861 0.893385
0.839628 0.84303 0.89276
0.65391 0.860212 0.8934
0.659342 0.859983 0.893141
0.66746 0.859648 0.89276
0.688319 0.858885 0.891905
0.729259 0.857847 0.890669
0.778103 0.857466 0.890196
0.816678 0.85771 0.890455
0.837003 0.857328 0.890898
0.837644 0.857633 0.891035
0.811505 0.857557 0.888945
0.811643 0.857557 0.888945
0.811856 0.857557 0.888945
0.812482 0.857572 0.88896
0.814282 0.857588 0.888975
0.818708 0.857633 0.889052
0.826856 0.857725 0.889204
0.835645 0.857832 0.889479
0.837491 0.857877 0.889845
0.734188 0.728923 0.894652
0.734188 0.728923 0.894652
0.734188 0.728923 0.894652
0.734188 0.728923 0.894652
0.734188 0.728923 0.894652
0.734188 0.728923 0.894652
0.734188 0.728923 0.894652
0.847868 0.738048 0.897185
0.846738 0.752026 0.896437
0.734188 0.728923 0.894652
0.734188 0.728923 0.894652
0.734188 0.728923 0.894652
0.734188 0.728923 0.894652
0.734188 0.728923 0.894652
0.734188 0.728923 0.894652
0.734188 0.728923 0.894652
0.847868 0.738048 0.897185
0.846738 0.752041 0.896437
0.734188 0.728923 0.894652
0.734188 0.728923 0.894652
0.734188 0.728923 0.894652
0.734188 0.728923 0.894652
0.734188 0.728923 0.894652
0.734188 0.728923 0.894652
0.734188 0.728923 0.894652
0.847868 0.738048 0.897185
0.846738 0.752056 0.896437
0.734188 0.728923 0.894652
0.734188 0.728923 0.894652
0.734188 0.728923 0.894652
0.734188 0.728923 0.894652
0.734188 0.728923 0.894652
0.734188 0.728923 0.894652
0.734188 0.728923 0.894652
0.847868 0.738048 0.897185
0.846723 0.752087 0.896437
0.734188 0.728923 0.894652
0.734188 0.728923 0.894652
0.734188 0.728923 0.894652
0.734188 0.728923 0.894652
0.734188 0.728923 0.894652
0.734188 0.728923 0.894652
0.735195 0.728862 0.894667
0.847868 0.738064 0.897185
0.846723 0.752178 0.896422
0.734188 0.728923 0.894652
0.734188 0.728923 0.894652
0.734188 0.728923 0.894652
0.734188 0.728923 0.894652
0.734188 0.728923 0.894652
0.734188 0.728923 0.894652
0.775586 0.730068 0.895323
0.847852 0.738125 0.897169
0.846708 0.752316 0.896422
0.734188 0.728923 0.894652
0.734188 0.728923 0.894652
0.734188 0.728923 0.894652
0.734188 0.728923 0.894652
0.734188 0.728923 0.894652
0.734188 0.728923 0.894652
0.847913 0.73753 0.8972
0.847852 0.738231 0.897169
0.846693 0.75259 0.896406
0 0.868498 0.902144
0 0.868498 0.902144
0 0.868498 0.902144
0 0.868498 0.902144
0 0.868498 0.902144
0 0.868498 0.902144
0.795544 0.85185 0.891371
0.838651 0.850813 0.892226
0.838422 0.852659 0.892073
0.782391 0.857511 0.890776
0.782849 0.857511 0.890776
0.783581 0.857511 0.890776
0.785702 0.857527 0.890791
0.791333 0.857557 0.890837
0.803403 0.857633 0.89099
0.820615 0.857801 0.891264
0.834302 0.857954 0.891554
0.837659 0.858 0.89163
