BBLuts/BB_103_0900_LUT.cube
TITLE "Generated by Resolve"
LUT_3D_SIZE 33
0.0157626 0.00544747 0.00973526
0.0157626 0.00544747 0.00973526
0.0157626 0.00544747 0.00973526
0.0157626 0.00544747 0.00973526
0.0157626 0.00544747 0.00973526
0.062562 0.00590524 0.0101167
0.117311 0.00654612 0.0106508
0.157107 0.00703441 0.0110628
0.196368 0.0075227 0.0114748
0.242435 0.00810254 0.0119783
0.295583 0.0087892 0.0125582
0.35375 0.00953689 0.0131838
0.420279 0.0103914 0.0139162
0.498314 0.0114137 0.0147707
0.588861 0.012604 0.0157778
0.686412 0.013901 0.0168765
0.788022 0.0152438 0.0180209
0.89012 0.0166171 0.0191653
0.983841 0.0178683 0.0202182
1 0.0188449 0.0210574
1 0.0190585 0.0212253
1 0.0190585 0.0212406
1 0.184878 0.0506905
1 0.370123 0.0722362
1 0.506828 0.0986343
1 0.628809 0.13196
0.992966 0.742367 0.176425
0.981872 0.839429 0.244221
0.973388 0.914687 0.325383
0.966934 0.972839 0.410315
0.962127 1 0.496696
0.958556 1 0.582254
0.955703 1 0.657252
0.0157626 0.00544747 0.00973526
0.0157626 0.00544747 0.00973526
0.0157626 0.00544747 0.00973526
0.0157626 0.00544747 0.00973526
0.0157626 0.00544747 0.00973526
0.0732738 0.00602731 0.0102235
0.121202 0.0065919 0.0106966
0.160174 0.00706493 0.0110933
0.201099 0.00758373 0.0115206
0.247959 0.00817884 0.0120394
0.301167 0.00885023 0.012604
0.358648 0.00959792 0.0132448
0.423407 0.0104372 0.0139467
0.500435 0.0114443 0.0148013
0.590661 0.0126345 0.0158083
0.687709 0.0139162 0.0168917
0.788815 0.015259 0.0180209
0.890501 0.0166171 0.0191653
0.983749 0.0178531 0.0202182
1 0.0188449 0.0210574
1 0.0190585 0.0212253
1 0.0190585 0.0212406
1 0.218448 0.032929
1 0.385504 0.0652018
1 0.516457 0.0948653
1 0.635447 0.129747
0.992416 0.74696 0.174319
0.981537 0.842237 0.24303
0.97319 0.916274 0.324712
0.966827 0.973785 0.409918
0.962066 1 0.496468
0.958526 1 0.582101
0.955673 1 0.65716
0.0157626 0.00544747 0.00973526
0.0157626 0.00544747 0.00973526
0.0157626 0.00544747 0.00973526
0.0157626 0.00544747 0.00973526
0.0157626 0.00544747 0.00973526
0.0798047 0.00610361 0.0102846
0.122652 0.00660716 0.0107118
0.163104 0.0071107 0.0111238
0.206119 0.00764477 0.0115816
0.253208 0.00823987 0.0120851
0.305531 0.00891127 0.012665
0.361395 0.00962844 0.0132753
0.425956 0.0104677 0.0139773
0.502708 0.0114748 0.0148318
0.592538 0.012665 0.0158236
0.688991 0.0139315 0.016907
0.789624 0.0152743 0.0180362
0.890867 0.0166171 0.0191806
0.983627 0.0178531 0.0202182
1 0.0188296 0.0210422
1 0.0190585 0.0212253
1 0.0190585 0.0212406
1 0.246525 0.00149538
1 0.400168 0.0571603
1 0.525948 0.090959
1 0.642039 0.127504
0.991867 0.751553 0.172244
0.981201 0.844999 0.24181
0.973007 0.917876 0.324041
0.966705 0.974731 0.409506
0.962005 1 0.496208
0.95848 1 0.581949
0.955657 1 0.657053
0.0157626 0.00544747 0.00973526
0.0157626 0.00544747 0.00973526
0.0157626 0.00544747 0.00973526
0.0154269 0.0113222 0.00949111
0.036759 0.0168765 0.00933852
0.0851606 0.00637827 0.0103151
0.123354 0.00662242 0.0107118
0.163424 0.0071107 0.0111238
0.207034 0.00764477 0.0115969
0.255329 0.00827039 0.0121157
0.308324 0.00894179 0.0126802
0.363821 0.00965896 0.0132906
0.428412 0.0104982 0.0140078
0.505013 0.0115053 0.014847
0.594415 0.0126802 0.0158389
0.690318 0.0139467 0.0169223
0.790433 0.0152743 0.0180514
0.891218 0.0166323 0.0191806
0.983474 0.0178531 0.0202182
1 0.0188296 0.0210422
1 0.0190585 0.0212253
1 0.0190585 0.0212406
1 0.270756 0
1 0.414008 0.0493172
1 0.535149 0.0869917
1 0.648478 0.125292
0.991348 0.756008 0.171008
0.98088 0.84773 0.240635
0.972808 0.919432 0.323369
0.966598 0.975662 0.40911
0.961929 1 0.495964
0.95845 1 0.581796
0.955627 1 0.656977
0.0116579 0.0603799 0.00656138
0.0113985 0.063386 0.00634775
0.0111543 0.0663462 0.00614939
0.0108949 0.0693065 0.00595102
0.0112306 0.0705577 0.00585946
0.0721904 0.0700694 0.00616464
0.113909 0.0681621 0.00660716
0.156085 0.0631723 0.00732433
0.202426 0.0512856 0.00862135
0.256168 0.00946059 0.0120546
0.309941 0.0089723 0.0127108
0.365972 0.00968948 0.0133211
0.430793 0.0105287 0.014023
0.507332 0.0115358 0.0148775
0.596353 0.0127108 0.0158694
0.691661 0.013962 0.0169375
0.791226 0.0152895 0.0180514
0.891524 0.0166323 0.0191806
0.983307 0.0178531 0.0202182
1 0.0188296 0.0210422
1 0.0190585 0.0212253
1 0.0706188 0.0168154
1 0.294087 0
1 0.427237 0.0403754
1 0.544106 0.082887
1 0.654826 0.123049
0.990829 0.760388 0.169787
0.98056 0.850431 0.23949
0.972625 0.920974 0.322698
0.966491 0.976593 0.408698
0.961868 1 0.49572
0.958404 1 0.581643
0.955612 1 0.656886
0.00863661 0.0951553 0.0041352
0.00840772 0.097612 0.00395209
0.00819409 0.100069 0.00376898
0.00802625 0.102007 0.00363165
0.00793469 0.102953 0.00355535
0.0513008 0.10312 0.00366217
0.103563 0.102663 0.00399786
0.148562 0.10074 0.00448615
0.19617 0.0962997 0.00521859
0.248997 0.0868849 0.00640879
0.305241 0.0695964 0.00828565
0.36762 0.0125277 0.0131533
0.433173 0.0105592 0.0140536
0.509789 0.0115663 0.0149081
0.598413 0.0127413 0.0158999
0.693095 0.0139925 0.0169528
0.79205 0.0153048 0.0180667
0.891844 0.0166323 0.0191806
0.983108 0.0178531 0.0202182
1 0.0188144 0.0210269
1 0.0190433 0.0212253
1 0.153368 0.00949111
1 0.317113 0
1 0.440391 0.0290379
1 0.553201 0.0784466
1 0.661311 0.120699
0.990295 0.764858 0.168551
0.980224 0.853178 0.23827
0.972427 0.922591 0.321996
0.966369 0.977554 0.408286
0.961807 1 0.49546
0.958358 1 0.581476
0.955581 1 0.656779
0.00534066 0.131182 0.00144961
0.00514229 0.133227 0.00129702
0.00495918 0.135271 0.00114443
0.00485237 0.136446 0.00105287
0.00477607 0.137194 0.000991836
0.00560006 0.137469 0.000976577
0.084947 0.13756 0.00122072
0.137514 0.136889 0.00161746
0.188205 0.134813 0.00215152
0.243015 0.130404 0.00296025
0.299916 0.121767 0.00416571
0.360449 0.10692 0.0059205
0.429465 0.0800946 0.00875868
0.512535 0.0158389 0.0146334
0.601083 0.0127718 0.0159304
0.694942 0.0140078 0.016968
0.793118 0.0153201 0.0180667
0.892271 0.0166323 0.0191958
0.982834 0.0178531 0.0202182
1 0.0187991 0.0210269
1 0.0190433 0.0212253
1 0.206348 0.00469978
1 0.342489 0
1 0.456458 0.00529488
1 0.564492 0.0723278
1 0.669459 0.117693
0.989639 0.770474 0.166979
0.979812 0.856657 0.236744
0.972183 0.924605 0.321126
0.966217 0.978759 0.407752
0.961715 1 0.495155
0.958312 1 0.581262
0.95555 1 0.656657
0.00148013 0.171832 0
0.00131228 0.173602 0
0.0011902 0.17496 0
0.00109865 0.175845 0
0.00103761 0.176471 0
0.0010071 0.176837 0
0.0323796 0.176928 0
0.117784 0.176959 0
0.175631 0.17612 0
0.233417 0.173342 0
0.292699 0.167773 0.000366217
0.355779 0.159564 0.0016022
0.425681 0.146883 0.00331121
0.505806 0.124559 0.00595102
0.598199 0.0783703 0.0107271
0.697017 0.0181888 0.0166781
0.794583 0.0153353 0.0180972
0.892821 0.0166476 0.0191958
0.982452 0.0178378 0.0202029
1 0.0187839 0.0210117
1 0.112184 0.0131533
1 0.258412 0
1 0.372076 0
1 0.476493 0
1 0.578866 0.0640574
1 0.679942 0.11371
0.988785 0.777676 0.164965
0.979278 0.861112 0.23473
0.971862 0.92723 0.319966
0.966033 0.980362 0.40705
0.961608 1 0.494713
0.958236 1 0.580987
0.955505 1 0.656489
0 0.218875 0
0 0.220218 0
0 0.220996 0
0 0.221759 0
0 0.222293 0
0 0.22266 0
0 0.222889 0
0.0765087 0.22295 0
0.153277 0.221912 0
0.217426 0.219745 0
0.281163 0.216175 0
0.348241 0.210773 0
0.421637 0.202716 0
0.503182 0.190448 0.000396735
0.592905 0.172641 0.0027924
0.687327 0.146975 0.00596628
0.787243 0.107774 0.0103914
0.893095 0.0212253 0.0188296
0.981857 0.0178378 0.0202029
1 0.117571 0.0124361
1 0.216648 0.00375372
1 0.311742 0
1 0.406409 0
1 0.500999 0
1 0.596887 0.0532998
0.998428 0.693233 0.108415
0.987701 0.786816 0.162387
0.978592 0.866789 0.232136
0.971466 0.930617 0.318441
0.965774 0.982406 0.406134
0.961456 1 0.494148
0.958144 1 0.580606
0.955459 1 0.65626
0 0.271702 0
0 0.272129 0
0 0.272541 0
0 0.272892 0
0 0.273106 0
0 0.273167 0
0 0.273075 0
0 0.272725 0
0.111666 0.272175 0
0.192432 0.271046 0
0.263386 0.268864 0
0.33576 0.265232 0
0.41413 0.259556 0
0.499779 0.251133 0
0.590433 0.241108 0
0.682765 0.228962 0
0.778592 0.214817 0.00102235
0.875349 0.200763 0.00328069
0.961471 0.203815 0.00393683
1 0.237705 0.00158694
1 0.294896 0
1 0.366629 0
1 0.446189 0
1 0.530785 0
1 0.619287 0.0368811
0.99646 0.710018 0.101335
0.986343 0.798276 0.159167
0.977722 0.873945 0.228779
0.970932 0.934936 0.316472
0.965454 0.985031 0.404944
0.961273 1 0.4934
0.958038 1 0.580133
0.955383 1 0.65597
0 0.328084 0
0 0.328481 0
0 0.328893 0
0 0.329198 0
0 0.329412 0
0 0.329564 0
0 0.32961 0
0 0.329488 0
0 0.32903 0
0.148775 0.328573 0
0.235843 0.327443 0
0.315923 0.325185 0
0.40061 0.321248 0
0.492439 0.315572 0
0.58648 0.30901 0
0.679026 0.302266 0
0.772824 0.296132 0
0.866361 0.292744 0
0.949554 0.299855 0
1 0.325216 0
1 0.368322 0
1 0.424582 0
1 0.491569 0
1 0.566201 0
1 0.646555 0.00494392
0.993988 0.730846 0.0916304
0.984665 0.81239 0.155154
0.976654 0.882826 0.224445
0.970275 0.940414 0.313939
0.965042 0.988388 0.403388
0.961028 1 0.492439
0.957824 1 0.579446
0.955291 1 0.655604
0 0.393881 0
0 0.394278 0
0 0.394644 0
0 0.394934 0
0 0.395163 0
0 0.395346 0
0 0.395468 0
0 0.395514 0
0 0.395377 0
0.0322881 0.394858 0
0.187808 0.394583 0
0.284474 0.393454 0
0.378256 0.391302 0
0.477378 0.387884 0
0.576715 0.383536 0
0.672572 0.379416 0
0.76643 0.376883 0
0.857496 0.377768 0
0.937011 0.386816 0
0.999649 0.407919 0
1 0.441428 0
1 0.486625 0
1 0.542763 0
1 0.607584 0
1 0.679362 0
0.991012 0.755947 0.0789197
0.982635 0.829435 0.150332
0.975372 0.893584 0.222614
0.969436 0.947234 0.31078
0.964538 0.992599 0.401373
0.960723 1 0.491173
0.957626 1 0.578622
0.955169 1 0.655116
0 0.472236 0
0 0.472602 0
0 0.472938 0
0 0.473198 0
0 0.473411 0
0 0.473594 0
0 0.473762 0
0 0.473899 0
0 0.474037 0
0 0.474067 0
0.0828412 0.473976 0
0.230701 0.474067 0
0.342443 0.473274 0
0.45098 0.471229 0
0.557321 0.46833 0
0.658854 0.465461 0
0.756359 0.46389 0
0.846891 0.465476 0
0.92369 0.473533 0
0.983825 0.490562 0
1 0.517174 0
1 0.553658 0
1 0.600168 0
1 0.655375 0
0.995285 0.718227 0
0.987533 0.785306 0.0640269
0.98024 0.849622 0.144717
0.973846 0.906447 0.220844
0.968414 0.955657 0.306737
0.963897 0.997864 0.398779
0.960327 1 0.489525
0.957366 1 0.577539
0.955016 1 0.654475
0 0.561593 0
0 0.561883 0
0 0.562158 0
0 0.562371 0
0 0.562554 0
0 0.562737 0
0 0.562905 0
0 0.563073 0
0 0.56321 0
0 0.563241 0
0 0.563058 0
0.133394 0.562783 0
0.287984 0.562371 0
0.412512 0.560983 0
0.527718 0.558785 0
0.6365 0.556222 0
0.740093 0.55436 0
0.833143 0.555077 0
0.908446 0.561379 0
0.966491 0.574945 0
1 0.596124 0
1 0.625315 0
1 0.663218 0
0.996323 0.709361 0
0.990082 0.762692 0
0.983597 0.818433 0.0449378
0.977493 0.872709 0.138582
0.972045 0.921584 0.219135
0.967193 0.965835 0.302129
0.963104 1 0.395483
0.959838 1 0.487404
0.957046 1 0.57615
0.954818 1 0.653635
0 0.656046 0
0 0.656214 0
0 0.656382 0
0 0.656519 0
0 0.656626 0
0 0.656718 0
0 0.656809 0
0 0.656886 0
0 0.656901 0
0 0.65684 0
0 0.656611 0
0 0.65597 0
0.203082 0.655344 0
0.360357 0.654322 0
0.487999 0.652567 0
0.604807 0.650294 0
0.715572 0.648112 0
0.813046 0.64773 0
0.889525 0.651865 0
0.946517 0.662028 0
0.990326 0.678462 0
0.996979 0.701473 0
0.993698 0.731807 0
0.989364 0.768872 0
0.984451 0.81059 0
0.979278 0.854612 0.0200809
0.974441 0.898329 0.132464
0.969924 0.939284 0.21767
0.965743 0.97789 0.30193
0.962158 1 0.39147
0.959213 1 0.484611
0.956649 1 0.574304
0.954559 1 0.652506
0 0.751553 0
0 0.751644 0
0 0.751705 0
0 0.751766 0
0 0.751781 0
0 0.751812 0
0 0.751827 0
0 0.751812 0
0 0.751751 0
0 0.751568 0
0 0.751202 0
0 0.750515 0
0.0312505 0.749126 0
0.286595 0.748318 0
0.438682 0.746853 0
0.564996 0.744808 0
0.682826 0.742504 0
0.785245 0.741314 0
0.864637 0.743465 0
0.922957 0.750393 0
0.966674 0.762463 0
0.987396 0.779629 0
0.985504 0.801694 0
0.982345 0.828443 0
0.978744 0.859007 0
0.974823 0.891783 0
0.971206 0.925414 0.127352
0.967575 0.959106 0.216999
0.964111 0.991669 0.302647
0.961059 1 0.38735
0.958465 1 0.481086
0.956146 1 0.571908
0.954253 1 0.651072
0 0.846403 0
0 0.846403 0
0 0.846387 0
0 0.846357 0
0 0.846326 0
0 0.846281 0
0 0.846189 0
0 0.846082 0
0 0.845869 0
0 0.845548 0
0 0.844999 0
0 0.844114 0
0 0.842695 0
0.195193 0.841138 0
0.380072 0.839643 0
0.519829 0.837507 0
0.644572 0.834852 0
0.751141 0.832731 0
0.834104 0.83267 0
0.895766 0.835782 0
0.941497 0.842512 0
0.973434 0.853223 0
0.977584 0.867475 0
0.975647 0.88513 0
0.973205 0.90576 0
0.970459 0.928756 0
0.967758 0.954269 0.123949
0.964981 0.980819 0.217884
0.96228 1 0.304463
0.959823 1 0.388998
0.957565 1 0.476753
0.955535 1 0.568795
0.953857 1 0.64918
0 0.927596 0
0 0.92752 0
0 0.927413 0
0 0.927321 0
0 0.927199 0
0 0.927077 0
0 0.926909 0
0 0.92668 0
0 0.926329 0
0 0.925826 0
0 0.925048 0
0 0.923919 0
0 0.922316 0
0.0963302 0.920119 0
0.327474 0.918395 0
0.481453 0.915938 0
0.611429 0.912825 0
0.719371 0.909895 0
0.804074 0.908171 0
0.868467 0.908354 0
0.917433 0.910918 0
0.952041 0.916289 0
0.970397 0.924346 0
0.969696 0.935149 0
0.968078 0.94876 0
0.966125 0.964858 0
0.964294 0.983444 0.126482
0.962325 1 0.221485
0.960357 1 0.308064
0.958419 1 0.392126
0.956466 1 0.475731
0.954818 1 0.56495
0.953384 1 0.646723
0 0.990494 0
0 0.990341 0
0 0.990188 0
0 0.990036 0
0 0.989868 0
0 0.98967 0
0 0.989441 0
0 0.989105 0
0 0.988632 0
0 0.987976 0
0 0.98703 0
0 0.985763 0
0 0.984039 0
0.0360723 0.981582 0
0.30074 0.97969 0
0.460517 0.97705 0
0.590402 0.973739 0
0.696162 0.970443 0
0.779339 0.967941 0
0.8448 0.966583 0
0.895628 0.966812 0
0.932296 0.969024 0
0.960342 0.973327 0
0.964263 0.979721 0
0.963363 0.988281 0
0.962097 0.998779 0.000198367
0.960998 1 0.136828
0.959731 1 0.229145
0.958343 1 0.314107
0.956802 1 0.396887
0.955337 1 0.479377
0.953994 1 0.561517
0.952804 1 0.643565
0 1 0
0 1 0
0 1 0
0 1 0
0 1 0
0 1 0
0 1 0
0 1 0
0 1 0
0 1 0
0 1 0
0 1 0
0 1 0
0.088365 1 0
0.310903 1 0
0.460136 1 0
0.582513 1 0
0.682124 1 0
0.761303 1 0
0.825315 1 0
0.87628 1 0
0.914488 1 0
0.94461 1 0
0.959411 1 0
0.959304 1 0
0.958648 1 0.0451514
0.958022 1 0.154894
0.957229 1 0.241688
0.956222 1 0.323323
0.9552 1 0.404028
0.954131 1 0.484886
0.953109 1 0.565469
0.952132 1 0.639796
0 1 0
0 1 0
0 1 0
0 1 0
0 1 0
0 1 0
0 1 0
0 1 0
0 1 0
0 1 0
0 1 0
0 1 0
0 1 0
0.187778 1 0
0.355184 1 0
0.482063 1 0
0.589364 1 0
0.678737 1 0
0.751629 1 0
0.81239 1 0
0.860945 1 0
0.899794 1 0
0.930968 1 0
0.954513 1 0
0.955825 1 0
0.95555 1 0.0896925
0.955245 1 0.180804
0.954803 1 0.259907
0.954238 1 0.336843
0.953582 1 0.414298
0.952895 1 0.492714
0.952163 1 0.571191
0.951415 1 0.64239
0 1 0
0 1 0
0 1 0
0 1 0
0 1 0
0 1 0
0 1 0
0 1 0
0 1 0
0 1 0
0 1 0
0 1 0
0.161089 1 0
0.306294 1 0
0.420081 1 0
0.519249 1 0
0.607752 1 0
0.683909 1 0
0.749004 1 0
0.804807 1 0
0.850156 1 0
0.887785 1 0
0.918883 1 0
0.943282 1 0
0.952621 1 0.0420233
0.952956 1 0.139391
0.952865 1 0.214435
0.952682 1 0.284611
0.952407 1 0.35552
0.952056 1 0.428534
0.951644 1 0.503426
0.951186 1 0.578927
0.950668 1 0.647166
0 1 0
0 1 0
0 1 0
0 1 0
0 1 0
0 1 0
0 1 0
0 1 0
0 1 0
0.079408 1 0
0.176913 1 0
0.255879 1 0
0.339223 1 0
0.417578 1 0
0.49366 1 0
0.566278 1 0
0.634913 1 0
0.696635 1 0
0.753002 1 0
0.802487 1 0
0.843656 1 0
0.879255 1 0
0.909148 1 0
0.933471 1 0.0281529
0.950103 1 0.11957
0.950774 1 0.18999
0.950851 1 0.253971
0.950851 1 0.31606
0.950774 1 0.380224
0.950622 1 0.447623
0.950439 1 0.517937
0.950195 1 0.589212
0.949889 1 0.65359
0.198428 1 0
0.213352 1 0
0.227527 1 0
0.240772 1 0
0.25333 1 0
0.265736 1 0
0.280812 1 0
0.299428 1 0
0.322072 1 0
0.354849 1 0
0.389425 1 0
0.427863 1 0
0.470634 1 0
0.517128 1 0
0.566705 1 0
0.617197 1 0
0.667262 1 0
0.716106 1 0
0.762844 1 0
0.804929 1 0
0.841306 1 0
0.874189 1 0.0370947
0.902296 1 0.0779889
0.925704 1 0.131182
0.945083 1 0.186862
0.948882 1 0.241962
0.949157 1 0.297246
0.949279 1 0.353109
0.94934 1 0.411048
0.94934 1 0.472251
0.949325 1 0.537041
0.949264 1 0.602625
0.949142 1 0.661997
0.442023 1 0.0955062
0.447944 1 0.0957504
0.453788 1 0.0959945
0.459464 1 0.0962234
0.465003 1 0.0964675
0.470649 1 0.0967269
0.477684 1 0.0970474
0.486656 1 0.0974899
0.497948 1 0.0980392
0.512016 1 0.0987869
0.529229 1 0.0997482
0.549859 1 0.101015
0.574228 1 0.102678
0.602136 1 0.104845
0.63328 1 0.107683
0.666804 1 0.111376
0.703044 1 0.116228
0.740429 1 0.122438
0.777325 1 0.130434
0.81146 1 0.140551
0.843061 1 0.155367
0.87245 1 0.172503
0.898024 1 0.192676
0.919966 1 0.216861
0.938598 1 0.25301
0.947295 1 0.296544
0.947784 1 0.34406
0.947982 1 0.394415
0.94815 1 0.447318
0.948272 1 0.502632
0.948363 1 0.561288
0.94844 1 0.619486
0.948425 1 0.67274
0.585748 1 0.227985
0.588571 1 0.228107
0.591379 1 0.228244
0.594125 1 0.228367
0.596857 1 0.228504
0.599664 1 0.228641
0.603174 1 0.228824
0.607706 1 0.229053
0.613504 1 0.229358
0.620844 1 0.229786
0.629984 1 0.230304
0.641276 1 0.231022
0.655192 1 0.231952
0.671962 1 0.233173
0.691814 1 0.234806
0.714565 1 0.237049
0.740017 1 0.239979
0.767102 1 0.243809
0.794583 1 0.248783
0.821591 1 0.255177
0.848173 1 0.263355
0.87361 1 0.273701
0.896208 1 0.286809
0.916289 1 0.303151
0.933761 1 0.323568
0.946136 1 0.355413
0.946761 1 0.395178
0.94699 1 0.439551
0.947219 1 0.487526
0.947417 1 0.538094
0.947585 1 0.589761
0.947707 1 0.639735
0.947784 1 0.685893
0.680858 1 0.334691
0.682368 1 0.334783
0.683894 1 0.334874
0.685389 1 0.334966
0.686885 1 0.335042
0.688411 1 0.335149
0.690364 1 0.335271
0.692897 1 0.335424
0.696193 1 0.335622
0.700404 1 0.335897
0.705791 1 0.336278
0.712535 1 0.336736
0.720974 1 0.337377
0.731334 1 0.338201
0.743877 1 0.3393
0.758511 1 0.340734
0.77528 1 0.342657
0.793561 1 0.345174
0.813474 1 0.34847
0.834501 1 0.352804
0.856397 1 0.358495
0.877134 1 0.36585
0.896529 1 0.375265
0.914427 1 0.387243
0.930327 1 0.402335
0.943664 1 0.421347
0.945968 1 0.45127
0.946258 1 0.488807
0.946502 1 0.531243
0.946746 1 0.57644
0.946944 1 0.620813
0.947112 1 0.66276
0.947234 1 0.70135
0.749828 1 0.432593
0.750668 1 0.432654
0.751507 1 0.432731
0.752346 1 0.432792
0.75317 1 0.432837
0.75404 1 0.432914
0.755123 1 0.433005
0.756558 1 0.433112
0.758419 1 0.433265
