BBLuts/BB_103_0200_LUT.cube
TITLE "Generated by Resolve"
LUT_3D_SIZE 33
0 0 0.00141909
0 0 0.00141909
0 0 0.00141909
0 0 0.00141909
0 0 0.00141909
0.0345922 0 0
0.0867628 0 0
0.125856 0 0
0.166247 0 0
0.216464 0 0
0.277501 0 0
0.346929 0 0
0.426841 0 0
0.513252 0 0
0.610651 0 0
0.707118 0 0
0.799741 0 0
0.887678 0 0
0.965194 0 0
1 0 0
1 0 0
1 0 0
1 0.083711 0
1 0.303563 0.0212863
1 0.454765 0.0526741
1 0.580133 0.0881819
1 0.684031 0.132708
1 0.768475 0.199603
1 0.829831 0.277867
1 0.875349 0.354711
1 0.909346 0.427665
1 0.935256 0.49398
1 0.957061 0.549386
0 0 0.00141909
0 0 0.00141909
0 0 0.00141909
0 0 0.00141909
0 0 0.00141909
0.0450141 0 0
0.0905776 0 0
0.129061 0 0
0.171435 0 0
0.222843 0 0
0.284276 0 0
0.352956 0 0
0.429938 0 0
0.515648 0 0
0.612589 0 0
0.708354 0 0
0.800458 0 0
0.887938 0 0
0.965103 0 0
1 0 0
1 0 0
1 0 0
1 0.123278 0
1 0.3205 0.0186313
1 0.464912 0.0513161
1 0.586404 0.0872511
1 0.688121 0.131624
1 0.770825 0.198917
1 0.831037 0.277546
1 0.876036 0.354528
1 0.909758 0.427558
1 0.935515 0.493904
1 0.957214 0.54934
0 0 0.00141909
0 0 0.00141909
0 0 0.00141909
0 0 0.00141909
0 0 0.00141909
0.0514229 0 0
0.0918898 0 0
0.132052 0 0
0.176699 0 0
0.228656 0 0
0.289189 0 0
0.355932 0 0
0.43267 0 0
0.518181 0 0
0.614527 0 0
0.709575 0 0
0.801175 0 0
0.888182 0 0
0.964981 0 0
1 0 0
1 0 0
1 0 0
1 0.155276 0
1 0.336736 0.0156252
1 0.474678 0.0496834
1 0.592599 0.0863661
1 0.691936 0.130358
1 0.773053 0.198291
1 0.832273 0.277211
1 0.876783 0.354299
1 0.91017 0.42742
1 0.935714 0.493812
1 0.957351 0.549279
0 0 0.00141909
0 0 0.00141909
0 0 0.00141909
0 0 0.00131228
0.0106355 0 0.000457771
0.0560922 0 0
0.0925002 0 0
0.132311 0 0
0.177646 0 0
0.231128 0 0
0.292546 0 0
0.358877 0 0
0.43537 0 0
0.520562 0 0
0.616327 0 0
0.710689 0 0
0.801892 0 0
0.888457 0 0
0.964828 0 0
1 0 0
1 0 0
1 0 0
1 0.185138 0
1 0.352026 0.0122377
1 0.484016 0.0479591
1 0.59826 0.0852674
1 0.695781 0.129686
1 0.775296 0.197543
1 0.833524 0.276814
1 0.877501 0.354086
1 0.910582 0.427298
1 0.935912 0.493736
1 0.957504 0.549249
0 0.0218662 0.000137331
0 0.0244907 0.000137331
0 0.0270237 0.000167849
0 0.0294957 0.000122072
0 0.0303502 4.57771e-05
0.0434119 0.027863 0
0.0835889 0.0247807 0
0.125338 0.0183719 0
0.173663 0.00531014 0
0.232227 0 0
0.294484 0 0
0.361486 0 0
0.437888 0 0
0.523171 0 0
0.618357 0 0
0.711894 0 0
0.802548 0 0
0.888685 0 0
0.96466 0 0
1 0 0
1 0 0
1 0 0
1 0.21178 0
1 0.366537 0.00802625
1 0.493004 0.0462654
1 0.603952 0.0843061
1 0.69958 0.129274
1 0.77731 0.196597
1 0.83473 0.276463
1 0.878233 0.353841
1 0.910964 0.427161
1 0.936095 0.49366
1 0.957641 0.549203
0 0.0505531 0
0 0.0526894 0
0 0.0547646 0
0 0.0564126 0
0 0.057145 0
0.0234836 0.0560464 0
0.0742199 0.0538949 0
0.118624 0.0504463 0
0.168521 0.0440375 0
0.227222 0.0328374 0
0.292134 0.0122225 0
0.363516 0 0
0.440604 0 0
0.525948 0 0
0.620539 0 0
0.713252 0 0
0.803128 0 0
0.88896 0 0
0.964477 0 0
1 0 0
1 0 0
1 0.0467994 0
1 0.23653 0
1 0.379751 0.00251774
1 0.502312 0.0445563
1 0.609552 0.0830549
1 0.703258 0.128481
1 0.779507 0.195956
1 0.835996 0.276173
1 0.878965 0.353613
1 0.911376 0.427024
1 0.936294 0.493568
1 0.957794 0.549157
0 0.0813611 0
0 0.0831464 0
0 0.0849317 0
0 0.0859083 0
0 0.0864576 0
0 0.0866407 0
0.0567178 0.0847181 0
0.108568 0.0823682 0
0.161578 0.0781872 0
0.222736 0.0708019 0
0.289372 0.0585794 0
0.361334 0.0394903 0
0.441093 0.00688182 0
0.52929 0 0
0.62324 0 0
0.714992 0 0
0.804074 0 0
0.889296 0 0
0.964218 0 0
1 0 0
1 0 0
1 0.107652 0
1 0.2654 0
1 0.395392 0
1 0.513512 0.0420233
1 0.616663 0.0817426
1 0.708125 0.127901
1 0.782361 0.194949
1 0.837583 0.275731
1 0.879896 0.353307
1 0.91191 0.426871
1 0.936568 0.493416
1 0.957977 0.549081
0 0.116899 0
0 0.118532 0
0 0.119768 0
0 0.120577 0
0 0.121172 0
0 0.121477 0
0.00393683 0.121019 0
0.0899977 0.119127 0
0.149416 0.11606 0
0.214099 0.110369 0
0.284108 0.101122 0
0.360571 0.0875257 0
0.442512 0.0684367 0
0.531182 0.039704 0
0.626413 0 0
0.717266 0 0
0.805371 0 0
0.889738 0 0
0.963836 0 0
1 0 0
1 0.000213626 0
1 0.16701 0
1 0.29926 0
1 0.415305 0
1 0.527443 0.0383307
1 0.625986 0.079942
1 0.714153 0.126909
1 0.785962 0.193973
1 0.83946 0.275029
1 0.881086 0.352926
1 0.912596 0.426673
1 0.936996 0.493263
1 0.958251 0.549004
0 0.160052 0
0 0.161257 0
0 0.161975 0
0 0.162707 0
0 0.163226 0
0 0.163577 0
0 0.16379 0
0.0478218 0.162905 0
0.127291 0.160388 0
0.197711 0.155612 0
0.273533 0.148333 0
0.35581 0.137713 0
0.443091 0.123217 0
0.535332 0.103731 0
0.630426 0.0782635 0
0.720974 0.0452277 0
0.809186 0 0
0.890333 0 0
0.963272 0 0
1 0.00764477 0
1 0.117205 0
1 0.228702 0
1 0.338613 0
1 0.441611 0
1 0.545113 0.0330053
1 0.637812 0.0773785
1 0.722057 0.12604
1 0.790402 0.192065
1 0.842069 0.274052
1 0.882445 0.352483
1 0.913375 0.426398
1 0.93756 0.493065
1 0.958572 0.548898
0 0.211231 0
0 0.211658 0
0 0.21207 0
0 0.21239 0
0 0.212573 0
0 0.212604 0
0 0.212528 0
0 0.212177 0
0.0840009 0.211353 0
0.170871 0.208667 0
0.255024 0.203632 0
0.344778 0.194903 0
0.439597 0.183139 0
0.538003 0.167452 0
0.635569 0.150423 0
0.726329 0.131395 0
0.815305 0.112947 0
0.900145 0.0985275 0
0.974273 0.102846 0
1 0.140856 0
1 0.208133 0
1 0.292576 0
1 0.382864 0
1 0.47332 0
1 0.566445 0.0243076
1 0.65275 0.0740368
1 0.731731 0.124544
1 0.796216 0.189975
1 0.845441 0.273014
1 0.884504 0.351797
1 0.914427 0.425895
1 0.938293 0.492805
1 0.958999 0.54876
0 0.26804 0
0 0.268391 0
0 0.268757 0
0 0.269017 0
0 0.269215 0
0 0.269322 0
0 0.269368 0
0 0.269276 0
0 0.26891 0
0.124224 0.269932 0
0.224002 0.266941 0
0.324025 0.261067 0
0.428504 0.251881 0
0.535775 0.240269 0
0.638117 0.227649 0
0.730434 0.215854 0
0.819455 0.206775 0
0.903777 0.203265 0
0.97641 0.213275 0
1 0.244114 0
1 0.294606 0
1 0.359731 0
1 0.43154 0
1 0.509941 0
1 0.591455 0.00675975
1 0.670985 0.0695354
1 0.743389 0.122637
1 0.803204 0.187182
1 0.849607 0.271366
1 0.887114 0.350881
1 0.915953 0.425376
1 0.939254 0.49247
1 0.959564 0.548577
0 0.336858 0
0 0.337301 0
0 0.337682 0
0 0.338018 0
0 0.338262 0
0 0.338445 0
0 0.338598 0
0 0.338643 0
0 0.338506 0
0 0.339788 0
0.169238 0.34168 0
0.287465 0.338415 0
0.406455 0.332204 0
0.523842 0.324147 0
0.633219 0.314611 0
0.730083 0.306645 0
0.819776 0.302358 0
0.902312 0.304204 0
0.972244 0.316106 0
1 0.341146 0
1 0.378546 0
1 0.426902 0
1 0.48661 0
1 0.551949 0
1 0.619181 0
1 0.692912 0.0634928
1 0.757748 0.12079
1 0.811795 0.186877
1 0.854963 0.269612
1 0.890364 0.349798
1 0.917891 0.42475
1 0.940505 0.492027
1 0.960296 0.548333
0 0.418784 0
0 0.41915 0
0 0.419486 0
0 0.41976 0
0 0.419974 0
0 0.420172 0
0 0.420356 0
0 0.420508 0
0 0.420645 0
0 0.420737 0
0.0468299 0.424903 0
0.226017 0.426749 0
0.367529 0.422889 0
0.498711 0.416983 0
0.617914 0.41004 0
0.721325 0.403632 0
0.814817 0.400534 0
0.897017 0.402731 0
0.964401 0.412482 0
1 0.431403 0
1 0.460334 0
1 0.498589 0
1 0.545098 0
1 0.598047 0
1 0.654551 0
1 0.718059 0.055787
1 0.77438 0.118425
1 0.822003 0.186938
1 0.861387 0.266957
1 0.894286 0.348043
1 0.920363 0.423987
1 0.942092 0.491432
1 0.961242 0.548074
0 0.510842 0
0 0.511147 0
0 0.511421 0
0 0.51162 0
0 0.511833 0
0 0.512016 0
0 0.512184 0
0 0.512367 0
0 0.512489 0
0 0.512535 0
0 0.512367 0
0.111345 0.518853 0
0.3066 0.517784 0
0.459693 0.512322 0
0.591287 0.506035 0
0.704036 0.50016 0
0.804517 0.49688 0
0.889723 0.49836 0
0.95584 0.50605 0
1 0.520638 0
1 0.542138 0
1 0.570687 0
1 0.605707 0
1 0.64715 0
1 0.694163 0
1 0.745678 0.0457465
1 0.793332 0.116365
1 0.834058 0.187228
1 0.869429 0.264408
1 0.899245 0.346273
1 0.923476 0.422843
1 0.944015 0.490913
1 0.962448 0.547707
0 0.603647 0
0 0.603784 0
0 0.603906 0
0 0.603998 0
0 0.604074 0
0 0.60415 0
0 0.604212 0
0 0.604257 0
0 0.604273 0
0 0.604227 0
0 0.604044 0
0 0.603555 0
0.209934 0.609461 0
0.405951 0.605234 0
0.553933 0.599802 0
0.678126 0.5944 0
0.786786 0.590707 0
0.87628 0.590585 0
0.943572 0.595376 0
0.993866 0.604974 0
1 0.619989 0
1 0.640696 0
1 0.667521 0
1 0.699794 0
1 0.735073 0
1 0.774884 0.0327001
1 0.813657 0.114794
1 0.847745 0.188006
1 0.878691 0.265843
1 0.904982 0.343542
1 0.927123 0.421149
1 0.946517 0.489555
1 0.963973 0.547127
0 0.690318 0
0 0.690394 0
0 0.690455 0
0 0.690501 0
0 0.690517 0
0 0.690532 0
0 0.690547 0
0 0.690517 0
0 0.690455 0
0 0.690272 0
0 0.689906 0
0 0.68925 0
0 0.692287 0.000732433
0.331731 0.693156 0
0.507576 0.687877 0
0.64509 0.682155 0
0.761837 0.677653 0
0.856474 0.676066 0
0.926085 0.678508 0
0.977066 0.684657 0
1 0.695262 0
1 0.709895 0
1 0.728466 0
1 0.750729 0
1 0.775601 0
1 0.803983 0.0154116
1 0.835142 0.114458
1 0.863294 0.190112
1 0.889174 0.267903
1 0.911894 0.341207
1 0.931853 0.419242
1 0.949996 0.488197
1 0.965881 0.546365
0 0.775296 0.00428778
0 0.77528 0.00428778
0 0.775265 0.00428778
0 0.775235 0.00428778
0 0.775204 0.00427253
0 0.775158 0.00427253
0 0.775082 0.00427253
0 0.77496 0.00425727
0 0.774762 0.00424201
0 0.774456 0.00421149
0 0.773907 0.00416571
0 0.773068 0.00410468
0 0.77174 0.0039826
0.228779 0.777691 0.00585946
0.453956 0.771969 0.000961318
0.610132 0.765362 0
0.733593 0.759258 0
0.832685 0.755901 0
0.904921 0.755291 0
0.958236 0.757671 0
0.998734 0.762997 0
1 0.771405 0
1 0.782788 0
1 0.796811 0
1 0.813245 0
1 0.83125 0
1 0.857603 0.116213
1 0.879866 0.193332
1 0.900694 0.271122
1 0.919738 0.343908
1 0.937224 0.416358
1 0.954162 0.486809
1 0.968261 0.545373
0 0.846815 0.0112306
0 0.846738 0.0112154
0 0.846632 0.0112154
0 0.84654 0.0112001
0 0.846433 0.0111849
0 0.846326 0.0111696
0 0.846159 0.0111543
0 0.845945 0.0111391
0 0.845609 0.0110933
0 0.845136 0.0110475
0 0.844404 0.0109712
0 0.84332 0.0108644
0 0.841825 0.0106508
0.115801 0.846342 0.0126802
0.409949 0.840894 0.00749218
0.58117 0.832944 0.00228885
0.710643 0.825193 0
0.811383 0.820035 0
0.885191 0.817517 0
0.940307 0.816938 0
0.982864 0.818418 0
1 0.821973 0
1 0.827817 0
1 0.836179 0
1 0.846723 0
1 0.859937 0.00155642
1 0.88014 0.121263
1 0.89688 0.199023
1 0.912978 0.275944
1 0.928649 0.347875
1 0.943725 0.416678
1 0.958526 0.484535
1 0.971176 0.54403
0 0.900679 0.0171969
0 0.900557 0.0171817
0 0.900404 0.0171511
0 0.900267 0.0171359
0 0.900114 0.0171206
0 0.899931 0.0171054
0 0.899718 0.0170748
0 0.899397 0.0170443
0 0.898985 0.0169985
0 0.898375 0.0169223
0 0.897536 0.0167544
0 0.896391 0.0165713
0 0.895018 0.0165713
0.059205 0.897398 0.0180667
0.394369 0.892378 0.012604
0.568933 0.88336 0.00654612
0.698482 0.874678 0.00169375
0.796643 0.868391 0
0.869307 0.864637 0
0.925216 0.862699 0
0.968826 0.861982 0
1 0.862928 0
1 0.86569 0
1 0.870512 0
1 0.876966 0
1 0.888014 0.0361028
1 0.901305 0.13135
1 0.913603 0.208484
1 0.925872 0.282933
1 0.93846 0.353201
1 0.9514 0.420356
1 0.963531 0.482506
1 0.974624 0.542412
0 0.942229 0.0219883
0 0.942046 0.021973
0 0.941863 0.0219577
0 0.941665 0.0219272
0 0.941482 0.021912
0 0.941283 0.0218814
0 0.941009 0.0218509
0 0.940642 0.0218204
0 0.940124 0.0217594
0 0.939467 0.0216831
0 0.938628 0.0214694
0 0.937423 0.0213321
0 0.935851 0.0211643
0.138521 0.938659 0.0219425
0.412284 0.930785 0.0152132
0.57583 0.921462 0.00926223
0.696483 0.912703 0.0041352
0.788769 0.906172 0.000671397
0.858213 0.901946 0
0.912505 0.89897 0
0.956008 0.897185 0
0.988724 0.89659 0
1 0.897124 0
1 0.899184 0
1 0.902617 0
1 0.91191 0.0677348
1 0.920821 0.147951
1 0.929778 0.221729
1 0.938949 0.292348
1 0.949371 0.360327
1 0.959533 0.425864
1 0.969116 0.486397
1 0.978653 0.540063
0 0.9729 0.0246891
0 0.972732 0.0247044
0 0.972564 0.0247044
0 0.972381 0.0247196
0 0.972213 0.0247196
0 0.972015 0.0247196
0 0.971725 0.0246891
0 0.971344 0.0246433
0 0.97084 0.0245823
0 0.970169 0.024506
0 0.969268 0.0243992
0 0.968093 0.0242618
0 0.966583 0.0240787
0.276921 0.966873 0.0217594
0.465797 0.957946 0.0152895
0.602533 0.948943 0.00975052
0.706416 0.940963 0.00521859
0.788968 0.934371 0.00202945
0.852857 0.92987 0.000259403
0.904646 0.926772 0
0.945342 0.92462 0
0.978897 0.923018 0
1 0.922347 0
1 0.922759 0
1 0.924315 0
1 0.933181 0.10164
1 0.939651 0.171176
1 0.945922 0.239597
1 0.952621 0.305241
1 0.959731 0.36994
1 0.967605 0.432532
1 0.975296 0.491356
1 0.9832 0.54258
0 0.99559 0.0269322
0 0.995392 0.0269169
0 0.995178 0.0268864
0 0.994965 0.0268711
0 0.994751 0.0268406
0 0.994537 0.0268101
0 0.994247 0.0267796
0 0.993866 0.0267491
0 0.993378 0.026688
0 0.992767 0.0266423
0 0.992065 0.0266728
0 0.990997 0.0265812
0.251118 0.991394 0.0242008
0.414481 0.984115 0.0188296
0.539986 0.976349 0.0136873
0.641672 0.968658 0.00921645
0.726268 0.961898 0.00546273
0.795773 0.956542 0.00271611
0.852506 0.952667 0.00102235
0.900038 0.949554 0
0.938064 0.947234 0
0.970413 0.945296 0
0.99678 0.943999 0
1 0.943603 0
1 0.948333 0.0716564
1 0.952377 0.140429
1 0.956146 0.201755
1 0.960281 0.263355
1 0.964721 0.322484
1 0.970352 0.383215
1 0.975891 0.441566
1 0.981857 0.497719
1 0.988174 0.546456
0 1 0.0283818
0 1 0.0283665
0 1 0.0283513
0 1 0.0283207
0 1 0.0283207
0 1 0.0283207
0 1 0.028336
0 1 0.0283513
0 1 0.0283513
0.140749 1 0.0277409
0.260548 1 0.0251469
0.362814 1 0.0218967
0.453071 1 0.0183413
0.539193 0.994598 0.0146334
0.617548 0.988525 0.0110781
0.688884 0.982849 0.0078584
0.753063 0.9776 0.00503548
0.808774 0.973419 0.00302129
0.857572 0.96997 0.00155642
0.899519 0.967102 0.000427253
0.934188 0.964736 0
0.964645 0.962661 0
0.990127 0.961288 0
1 0.964279 0.0645457
1 0.966323 0.127428
1 0.968277 0.183185
1 0.970611 0.238239
1 0.973495 0.291524
1 0.976577 0.345113
1 0.980133 0.399771
1 0.984085 0.453391
1 0.988525 0.506004
1 0.993347 0.551476
0.286656 1 0.0252537
0.306172 1 0.0245975
0.324437 1 0.0239261
0.34168 1 0.0234226
0.357565 1 0.0228122
0.372732 1 0.0222782
0.390875 1 0.021622
0.413184 1 0.0205997
0.440681 1 0.0195773
0.472984 1 0.018204
0.509651 1 0.0166018
0.550713 1 0.0147097
0.595819 1 0.012665
0.641611 1 0.0105745
0.689952 0.996796 0.00823987
0.738018 0.992935 0.0061799
0.783749 0.989364 0.00437934
0.827054 0.986114 0.00289921
0.867216 0.9832 0.00167849
0.902708 0.980667 0.000701915
0.935973 0.981369 0.040589
0.965682 0.981109 0.0727245
0.990478 0.980713 0.100649
1 0.980819 0.138766
1 0.981125 0.18262
1 0.982284 0.229877
1 0.983413 0.277333
1 0.984909 0.323873
1 0.986847 0.371542
1 0.989166 0.420371
1 0.991852 0.468513
1 0.994995 0.51632
1 0.998535 0.557839
0.573968 1 0.134936
0.580056 1 0.134798
0.58616 1 0.134615
0.591913 1 0.134478
0.597421 1 0.134371
0.602945 1 0.134249
0.609552 1 0.133883
0.618021 1 0.133761
0.629114 1 0.133532
0.642878 1 0.133349
0.659632 1 0.132921
0.679896 1 0.132799
0.703471 1 0.132631
0.730297 1 0.132998
0.75935 1 0.133669
0.790204 1 0.13492
0.822614 1 0.13727
0.855314 1 0.141054
0.886763 1 0.146334
0.915557 0.99884 0.15349
0.942184 0.997162 0.163104
0.967941 0.995758 0.175479
0.990173 0.994965 0.191287
1 0.994079 0.210651
1 0.993637 0.241352
1 0.993515 0.278202
1 0.993927 0.317479
1 0.99469 0.359228
1 0.995743 0.401633
1 0.997131 0.443793
1 0.998871 0.487236
1 1 0.528939
1 1 0.565591
0.71632 1 0.234211
0.719066 1 0.234165
0.721767 1 0.234134
0.724285 1 0.234134
0.726848 1 0.234104
0.729534 1 0.234073
0.732738 1 0.234089
0.737087 1 0.234043
0.742473 1 0.234043
0.749279 1 0.234012
0.757687 1 0.23389
0.768185 1 0.234058
0.781247 1 0.234302
0.796506 1 0.234562
0.814755 1 0.235569
0.834882 1 0.23653
0.857084 1 0.238071
0.880171 1 0.240391
0.903456 1 0.243778
0.926497 1 0.248875
0.948898 1 0.254994
0.970932 1 0.263142
0.990097 1 0.27332
1 1 0.286061
1 1 0.302052
1 1 0.328206
1 1 0.360815
1 1 0.396445
1 1 0.433494
1 1 0.470954
1 1 0.508537
1 1 0.543618
1 1 0.575006
0.804852 1 0.319768
0.806256 1 0.319783
0.807462 1 0.319844
0.808835 1 0.31986
0.810193 1 0.319875
0.811597 1 0.319905
0.813367 1 0.319936
0.815518 1 0.320012
0.818524 1 0.320058
0.822293 1 0.320165
0.827131 1 0.320302
0.832944 1 0.320317
0.840482 1 0.320623
0.849729 1 0.321035
0.860639 1 0.321599
0.873335 1 0.322118
0.888106 1 0.323705
0.903532 1 0.325368
0.920241 1 0.327504
0.938018 1 0.330632
0.956298 1 0.334951
0.974762 1 0.340276
0.99118 1 0.347433
1 1 0.356573
1 1 0.368261
1 1 0.382834
1 1 0.406561
1 1 0.435187
1 1 0.466636
1 1 0.499535
1 1 0.530983
1 1 0.559838
1 1 0.585565
0.866377 1 0.397879
0.867124 1 0.397894
0.867857 1 0.397925
0.868467 1 0.397971
0.869123 1 0.398001
0.869886 1 0.398032
0.870817 1 0.398077
0.872068 1 0.398108
0.873701 1 0.398184
