BBLuts/BB_102_0300_LUT.cube
TITLE "Generated by Resolve"
LUT_3D_SIZE 33
0 0 0
0 0 0
0 0 0
0 0 0
0.0028687 0 0
0.071458 0 0.000915541
0.155444 0 0.000411994
0.22031 0 0
0.287602 0 0
0.366644 0 0
0.457649 0 0
0.558114 0 0
0.64686 0 0
0.710323 0 0
0.781552 0 0
0.859556 0 0
0.9411 0 0
1 0 0
1 0 0
1 0 0
1 0 0
1 0 0
0.890669 0.405951 0
1 0.56109 0
1 0.630014 0.0116274
1 0.702586 0.10341
1 0.769223 0.206683
1 0.820996 0.33431
1 0.859342 0.475532
1 0.889296 0.556252
1 0.911543 0.629267
0.999023 0.929015 0.701595
0.995773 0.942565 0.76669
0 0 0
0 0 0
0 0 0
0 0 0
0.0034638 0 0
0.0868544 0 0.0010071
0.160754 0 0.000274662
0.225071 0 0
0.294942 0 0
0.375601 0 0
0.466819 0 0
0.56437 0 0
0.648432 0 0
0.711589 0 0
0.782727 0 0
0.860349 0 0
0.941787 0 0
1 0 0
1 0 0
1 0 0
1 0 0
1 0 0
0.868376 0.448264 0
1 0.561502 0
1 0.63418 0.00646983
1 0.705821 0.0993973
1 0.770977 0.205783
1 0.821912 0.334051
1 0.859815 0.475151
1 0.88954 0.5561
1 0.91165 0.629191
0.999008 0.929076 0.701549
0.995773 0.942611 0.766659
0 0 0
0 0 0
0 0 0
0 0 0
0.00358587 0 0
0.0951247 0 0.000900282
0.16144 0 0.000228885
0.228809 0 0
0.302205 0 0
0.381247 0 0
0.470542 0 0
0.565881 0 0
0.650477 0 0
0.713207 0 0
0.783886 0 0
0.861448 0 0
0.942153 0 0
1 0 0
1 0 0
1 0 0
1 0 0
1 0.0625467 0
0.864851 0.482109 0
1 0.566812 0
1 0.638346 0.000518807
1 0.708736 0.0964828
1 0.772488 0.204196
1 0.822751 0.333791
1 0.860258 0.474769
1 0.889769 0.555932
1 0.911788 0.629099
0.999008 0.929152 0.701488
0.995758 0.942641 0.766644
0 0 0
0 0 0
0 0 0
0 0 0
0.0211643 0.0068513 0
0.0968338 0 0.000869764
0.157733 0 0.000503548
0.225086 0 0
0.299886 0 0
0.382971 0 0
0.474022 0 0
0.568643 0 0
0.652811 0 0
0.714733 0 0
0.785183 0 0
0.862257 0 0
0.942763 0 0
1 0 0
1 0 0
1 0 0
1 0 0
1 0.170138 0
0.878248 0.503136 0
1 0.571756 0
1 0.642329 0
1 0.711406 0.0939193
1 0.774044 0.203143
1 0.823575 0.333532
1 0.860716 0.474403
1 0.890013 0.555795
1 0.91191 0.629007
0.998993 0.929213 0.701442
0.995758 0.942687 0.766629
0 0.0712596 0
0 0.0759899 0
0 0.0801709 0
0 0.0845502 0
0 0.0864118 0
0.0616617 0.0875715 0
0.129061 0.08365 0
0.156527 0.0912337 0
0.274907 0.0566567 0
0.38204 0 0
0.475776 0 0
0.571908 0 0
0.655238 0 0
0.716365 0 0
0.786816 0 0
0.863401 0 0
0.943328 0 0
1 0 0
1 0 0
1 0 0
1 0 0
1 0.251942 0
0.907881 0.516045 0
1 0.577173 0
1 0.646479 0
1 0.713924 0.0905013
1 0.775494 0.202365
1 0.824369 0.333303
1 0.861112 0.473945
1 0.890227 0.555673
1 0.912032 0.628931
0.998993 0.92929 0.701381
0.995758 0.942718 0.766583
0 0.122805 0
0 0.126467 0
0 0.130388 0
0 0.133455 0
0 0.135012 0
0.0245518 0.137118 0
0.105974 0.135744 0
0.182101 0.13106 0
0.213779 0.141619 0
0.297078 0.129885 0
0.450706 0.0783856 0
0.569955 0 0
0.656184 0 0
0.718456 0 0
0.788342 0 0
0.864393 0 0
0.944091 0 0
1 0 0
1 0 0
1 0 0
1 0 0
0.961975 0.332326 0
0.944274 0.522545 0
1 0.582345 0
1 0.650538 0
1 0.716793 0.0868086
1 0.777142 0.201343
1 0.825132 0.333059
1 0.861463 0.473472
1 0.890471 0.55555
1 0.912154 0.62884
0.998978 0.929366 0.701335
0.995758 0.942748 0.766567
0 0.177035 0
0 0.179767 0
0 0.182742 0
0 0.184649 0
0 0.186007 0
0 0.18645 0
0.066392 0.188479 0
0.157992 0.185733 0
0.245792 0.179965 0
0.2981 0.186236 0
0.347494 0.189303 0
0.498497 0.14699 0
0.634424 0.085008 0
0.715709 0 0
0.788403 0 0
0.866056 0 0
0.944686 0 0
1 0 0
1 0 0
1 0 0
1 0.069398 0
0.894652 0.40058 0
0.984268 0.527535 0
1 0.588815 0
1 0.654932 0
1 0.719951 0.0829786
1 0.77911 0.199969
1 0.826154 0.33312
1 0.861906 0.472953
1 0.89073 0.555413
1 0.912306 0.628733
0.998978 0.929427 0.701274
0.995743 0.942794 0.766522
0 0.23798 0
0 0.24036 0
0 0.24239 0
0 0.243946 0
0 0.244907 0
0 0.245747 0
0 0.247333 0
0.114015 0.24744 0
0.218509 0.24271 0
0.319539 0.235248 0
0.397055 0.232486 0
0.416693 0.249042 0
0.509346 0.226612 0
0.643458 0.166552 0
0.767468 0.0791485 0
0.860716 0 0
0.941512 0 0
1 0 0
1 0 0
1 0.0117494 0
1 0.1991 0
0.865141 0.460533 0
1 0.53576 0
1 0.598001 0
1 0.661433 0
1 0.724041 0.0774548
1 0.781552 0.198062
1 0.827604 0.332769
1 0.86276 0.472282
1 0.891112 0.5552
1 0.912505 0.628595
0.998962 0.929549 0.701183
0.995743 0.942855 0.766476
0 0.307805 0
0 0.309804 0
0 0.311192 0
0 0.312276 0
0 0.313054 0
0 0.313909 0
0 0.31429 0
0.0426947 0.316365 0
0.171557 0.312505 0
0.286763 0.305638 0
0.39855 0.29546 0
0.502251 0.286412 0
0.500679 0.306462 0
0.529122 0.300328 0
0.61268 0.269642 0
0.770138 0.201068 0
0.910399 0.121935 0
1 0.0107271 0
1 0.0191196 0
1 0.158846 0
0.918151 0.371633 0
0.884276 0.507195 0
1 0.551339 0
1 0.609918 0
1 0.6701 0
1 0.729931 0.0690013
1 0.785061 0.195666
1 0.829511 0.332067
1 0.86392 0.471351
1 0.891768 0.554864
1 0.91281 0.628367
0.998947 0.929717 0.70106
0.995727 0.942962 0.7664
0 0.384924 0
0 0.38584 0
0 0.386404 0
0 0.386877 0
0 0.387549 0
0 0.387655 0
0 0.387564 0
0 0.387106 0
0.0842603 0.388098 0
0.235187 0.382239 0
0.363378 0.374365 0
0.488945 0.363165 0
0.592096 0.350179 0
0.624811 0.347585 0
0.607889 0.363729 0
0.637675 0.360937 0
0.711269 0.343069 0
0.813016 0.317769 0
0.88423 0.323079 0
0.878767 0.390539 0
0.863355 0.4804 0
0.987625 0.527794 0
1 0.572854 0
1 0.625162 0
1 0.681498 0
1 0.737789 0.0581979
1 0.789776 0.19263
1 0.832029 0.331548
1 0.865446 0.470344
1 0.892576 0.554467
1 0.913314 0.628
0.998901 0.929961 0.700877
0.995712 0.943084 0.766293
0 0.464897 0
0 0.465644 0
0 0.466102 0
0 0.466468 0
0 0.466728 0
0 0.466896 0
0 0.467018 0
0 0.467292 0
0 0.466819 0
0.133806 0.466911 0
0.307774 0.459907 0
0.450614 0.450492 0
0.569955 0.439078 0
0.645518 0.42678 0
0.720516 0.414466 0
0.763546 0.413596 0
0.75877 0.432212 0
0.770413 0.449561 0
0.812009 0.46772 0
0.868452 0.499367 0
0.973999 0.52549 0
1 0.554681 0
1 0.596231 0
1 0.64445 0
1 0.696193 0
1 0.748119 0.0447852
1 0.796109 0.188205
1 0.835706 0.3308
1 0.867552 0.468666
1 0.893721 0.553674
1 0.914 0.627512
0.998871 0.930358 0.700542
0.995697 0.943267 0.766155
0 0.551507 0
0 0.551812 0
0 0.552193 0
0 0.55285 0
0 0.553109 0
0 0.553323 0
0 0.553521 0
0 0.553628 0
0 0.553521 0
0 0.553933 0
0.200275 0.552102 0
0.388724 0.543786 0
0.536461 0.534569 0
0.624262 0.52607 0
0.703944 0.516625 0
0.78204 0.507393 0
0.858122 0.500984 0
0.924865 0.50074 0
0.97409 0.514122 0
1 0.535653 0
1 0.56228 0
1 0.589426 0
1 0.625956 0
1 0.667948 0
1 0.714488 0
1 0.76112 0.0298161
1 0.80441 0.182895
1 0.840406 0.329854
1 0.870283 0.467735
1 0.895186 0.552575
1 0.9149 0.626947
0.998932 0.930877 0.700191
0.995651 0.943587 0.765911
0 0.620111 0
0 0.620218 0
0 0.620417 0
0 0.6206 0
0 0.620737 0
0 0.621088 0
0 0.62121 0
0 0.621332 0
0 0.621424 0
0 0.621485 0
0.0360723 0.623667 0
0.281758 0.618128 0
0.485725 0.608988 0
0.598047 0.602167 0
0.683375 0.596078 0
0.765789 0.589944 0
0.844877 0.584665 0
0.918715 0.581445 0
0.98117 0.582498 0
1 0.590417 0
1 0.605768 0
1 0.62948 0
1 0.6598 0
1 0.695735 0
1 0.736416 0
1 0.776959 0.00775158
1 0.814298 0.175891
1 0.846479 0.328923
1 0.874128 0.468208
1 0.897414 0.551324
1 0.916152 0.626032
0.998886 0.931624 0.699611
0.995575 0.944015 0.765499
0 0.676036 0
0 0.676066 0
0 0.676234 0
0 0.676387 0
0 0.676509 0
0 0.676631 0
0 0.676753 0
0 0.676905 0
0 0.677226 0
0 0.677287 0
0 0.677226 0
0.107042 0.678523 0
0.38883 0.669078 0
0.564767 0.659907 0
0.657694 0.653574 0
0.746517 0.647074 0
0.830839 0.641047 0
0.906935 0.637049 0
0.968704 0.637308 0
1 0.643076 0
1 0.654307 0
1 0.673228 0
1 0.69778 0
1 0.727703 0
1 0.761852 0
1 0.795254 0
1 0.82652 0.168154
1 0.854063 0.328206
1 0.878828 0.468894
1 0.900282 0.549889
1 0.917922 0.624842
0.998764 0.932616 0.698802
0.995407 0.944518 0.76492
0 0.734569 0
0 0.734569 0
0 0.734646 0
0 0.734737 0
0 0.734813 0
0 0.734874 0
0 0.734951 0
0 0.735027 0
0 0.735073 0
0 0.735042 0
0 0.735164 0
0 0.734813 0
0.212512 0.733074 0
0.508019 0.720607 0
0.624002 0.71342 0
0.719524 0.706706 0
0.810025 0.70013 0
0.889693 0.695216 0
0.953231 0.693889 0
1 0.697307 0
1 0.705455 0
1 0.719646 0
1 0.739116 0
1 0.762982 0
1 0.789502 0
1 0.815732 0
1 0.840284 0.160571
1 0.863371 0.328328
1 0.884825 0.470283
1 0.903838 0.549264
1 0.920073 0.62327
0.998596 0.934035 0.697643
0.995254 0.945251 0.764202
0 0.794202 0
0 0.794202 0
0 0.794202 0
0 0.794247 0
0 0.794278 0
0 0.794308 0
0 0.794324 0
0 0.794339 0
0 0.794324 0
0 0.794232 0
0 0.794018 0
0 0.793835 0
0 0.793393 0
0.365164 0.785275 0
0.580972 0.774441 0
0.685542 0.767315 0
0.782238 0.760327 0
0.866361 0.754406 0
0.932403 0.751766 0
0.981262 0.752926 0
1 0.758206 0
1 0.767834 0
1 0.781598 0
1 0.798398 0
1 0.81767 0
1 0.837491 0
1 0.855604 0.153719
1 0.874174 0.3308
1 0.891936 0.472175
1 0.908309 0.550607
1 0.923079 0.622156
0.998291 0.935836 0.696162
0.995132 0.94638 0.763272
0 0.852232 0
0 0.852232 0
0 0.852232 0
0 0.852232 0
0 0.852216 0
0 0.852201 0
0 0.852171 0
0 0.852125 0
0 0.852018 0
0 0.85182 0
0 0.851499 0
0 0.85095 0
0 0.850278 0
0.195956 0.848402 0
0.528679 0.83386 0
0.647257 0.826291 0
0.750225 0.818769 0
0.838285 0.812146 0
0.907744 0.807721 0
0.959335 0.806348 0
0.998596 0.80795 0
1 0.812634 0
1 0.821195 0
1 0.832044 0
1 0.845151 0
1 0.859663 0
1 0.872068 0.151934
1 0.885969 0.335531
1 0.899992 0.475868
1 0.913741 0.552316
1 0.92668 0.621958
0.998062 0.938079 0.694636
0.995117 0.947799 0.762295
0 0.901366 0
0 0.901366 0
0 0.901366 0
0 0.901366 0
0 0.901366 0
0 0.901335 0
0 0.901274 0
0 0.901167 0
0 0.900969 0
0 0.900664 0
0 0.900206 0
0 0.899458 0
0 0.898421 0
0.0563821 0.898817 0
0.444892 0.885603 0
0.613809 0.875425 0
0.722057 0.867338 0
0.812604 0.860319 0
0.883543 0.854871 0
0.938216 0.851347 0
0.979538 0.85034 0
1 0.851682 0
1 0.855451 0
1 0.862257 0
1 0.87071 0
1 0.880415 0
1 0.88867 0.162768
1 0.898573 0.345769
1 0.908827 0.481376
1 0.920104 0.555093
1 0.931105 0.623682
0.997726 0.941024 0.692943
0.994904 0.949706 0.760693
0 0.939132 0
0 0.939132 0
0 0.939132 0
0 0.939132 0
0 0.939132 0
0 0.939132 0
0 0.939132 0
0 0.938994 0
0 0.938735 0
0 0.938277 0
0 0.937652 0
0 0.936797 0
0 0.935699 0
0 0.934234 0
0.365713 0.925765 0
0.592615 0.91342 0
0.703197 0.905211 0
0.793652 0.89781 0
0.863935 0.891981 0
0.919341 0.887572 0
0.962264 0.884962 0
0.993957 0.884321 0
1 0.885374 0
1 0.88896 0
1 0.894331 0
1 0.899428 0
1 0.904707 0.190188
1 0.910872 0.362356
1 0.918425 0.489708
1 0.927245 0.559304
0.999924 0.93611 0.627131
0.997177 0.944335 0.695033
0.994644 0.952087 0.75877
0 0.968597 0
0 0.968597 0
0 0.968597 0
0 0.968597 0
0 0.968597 0
0 0.968597 0
0 0.968597 0
0 0.968597 0
0 0.968475 0
0 0.967971 0
0 0.967178 0
0 0.966293 0
0 0.965179 0
0 0.963424 0
0.37409 0.954726 0
0.586694 0.942962 0
0.694377 0.935012 0
0.781247 0.927794 0
0.849241 0.921874 0
0.903685 0.917082 0
0.946899 0.91368 0
0.979965 0.911635 0
1 0.910964 0
1 0.911971 0
1 0.914763 0
1 0.916747 0.0273899
1 0.919341 0.228
1 0.923232 0.388296
1 0.928405 0.500313
1 0.934966 0.565454
0.999222 0.941848 0.631968
0.996643 0.948394 0.69865
0.994186 0.954711 0.760098
0 0.990478 0
0 0.990478 0
0 0.990478 0
0 0.990478 0
0 0.990478 0
0 0.990478 0
0 0.990478 0
0 0.990478 0
0 0.990478 0
0 0.990463 0
0 0.989609 0
0 0.988479 0
0 0.987243 0
0 0.985214 0
0.447105 0.973724 0
0.597818 0.964553 0
0.697032 0.956924 0
0.777111 0.950301 0
0.840894 0.944533 0
0.893278 0.939773 0
0.935119 0.936095 0
0.968322 0.93341 0
0.994858 0.931701 0
1 0.931121 0
1 0.932357 0
1 0.931777 0.103075
1 0.932738 0.279515
1 0.93492 0.419547
1 0.938384 0.510826
1 0.942855 0.573922
0.998215 0.947845 0.638621
0.995819 0.952819 0.703349
0.993698 0.958007 0.762875
0 1 0
0 1 0
0 1 0
0 1 0
0 1 0
0 1 0
0 1 0
0 1 0
0 1 0
0 1 0
0 1 0
0 1 0
0 1 0
0.136858 1 0
0.518074 0.987778 0
0.623041 0.980606 0
0.708629 0.97377 0
0.779614 0.967681 0
0.837659 0.962554 0
0.886702 0.958053 0
0.926345 0.954314 0
0.958633 0.951415 0
0.985031 0.949264 0
1 0.947845 0
1 0.945769 0.0261387
1 0.944686 0.204303
1 0.944686 0.342
1 0.945556 0.456123
1 0.947707 0.526299
0.999191 0.950591 0.586069
0.997147 0.954009 0.647318
0.995163 0.957702 0.710369
0.993088 0.961425 0.767086
0 1 0
0 1 0
0 1 0
0 1 0
0 1 0
0 1 0
0 1 0
0 1 0
0 1 0
0 1 0
0 1 0
0 1 0
0 1 0
0.4318 1 0
0.571038 0.998489 0
0.656901 0.992309 0
0.728252 0.986542 0
0.788357 0.981231 0
0.839933 0.976532 0
0.884001 0.972396 0
0.920684 0.968856 0
0.951522 0.965805 0
0.977234 0.963455 0
0.994797 0.959823 0.00177005
1 0.957046 0.169085
1 0.95552 0.299672
1 0.954726 0.412238
1 0.955108 0.494896
0.99939 0.956313 0.546685
0.997787 0.958053 0.60174
0.996048 0.960159 0.659831
0.994263 0.962539 0.718868
0.992615 0.965225 0.772747
0.378576 1 0
0.378576 1 0
0.378576 1 0
0.378576 1 0
0.378576 1 0
0.378576 1 0
0.378576 1 0
0.378576 1 0
0.378561 1 0
0.378531 1 0
0.378531 1 0
0.378485 1 0
0.378424 1 0
0.535912 1 0
0.625849 1 0
0.694041 1 0
0.75227 0.995789 0
0.802075 0.991348 0
0.846357 0.987091 0
0.885283 0.983352 0
0.916442 0.978988 0
0.943282 0.975311 0.026688
0.966339 0.972 0.106828
0.984619 0.968963 0.19826
0.998917 0.966262 0.296407
1 0.964401 0.39443
1 0.963546 0.473213
0.998978 0.963455 0.524361
0.997757 0.963973 0.571893
0.996384 0.964828 0.62211
0.99498 0.965896 0.6757
0.993317 0.967285 0.73022
0.99176 0.968963 0.779431
0.609781 1 0.177737
0.609781 1 0.177737
0.609781 1 0.177737
0.609781 1 0.177737
0.609781 1 0.177737
0.609781 1 0.177737
0.609781 1 0.177737
0.609781 1 0.177737
0.609781 1 0.177737
0.609766 1 0.177752
0.609766 1 0.177752
0.609766 1 0.177752
0.609751 1 0.177752
0.609751 1 0.177752
0.666194 1 0.180957
0.724956 1 0.18674
0.771069 0.99852 0.194522
0.811795 0.994705 0.203983
0.849287 0.990906 0.217502
0.881941 0.987396 0.234867
0.910689 0.984131 0.256687
0.935988 0.981308 0.283787
0.957809 0.9785 0.317617
0.975921 0.975937 0.358251
0.990677 0.973541 0.41503
0.997909 0.971923 0.473091
0.998093 0.970932 0.516625
0.997208 0.970626 0.558114
0.996063 0.970428 0.601328
0.99498 0.970718 0.647105
0.993622 0.971069 0.695628
0.99237 0.971618 0.74432
0.991211 0.972717 0.788785
0.714397 1 0.405722
0.714397 1 0.405722
0.714397 1 0.405722
0.714397 1 0.405722
0.714397 1 0.405722
0.714397 1 0.405722
0.714397 1 0.405722
0.714397 1 0.405722
0.714397 1 0.405722
0.714397 1 0.405722
0.714397 1 0.405722
0.714397 1 0.405722
0.714382 1 0.405722
0.714382 1 0.405722
0.714366 1 0.405722
0.751217 1 0.407462
0.792203 1 0.411612
0.826566 0.996887 0.415732
0.857282 0.993774 0.421637
0.884764 0.99086 0.429572
0.909514 0.988128 0.439628
0.932586 0.985641 0.452567
0.952422 0.983276 0.467521
0.969711 0.981247 0.486
0.98439 0.9794 0.503227
0.995132 0.97792 0.526757
0.996338 0.976913 0.558419
0.99559 0.976303 0.594949
0.994553 0.975753 0.63444
0.993606 0.975586 0.676387
0.992447 0.975464 0.719371
0.991455 0.975738 0.761212
0.990463 0.976043 0.799771
0.785611 0.998688 0.526818
0.785611 0.998688 0.526818
0.785611 0.998688 0.526818
0.785611 0.998688 0.526818
0.785611 0.998688 0.526818
0.785611 0.998688 0.526818
0.785611 0.998688 0.526818
0.785611 0.998688 0.526818
0.785611 0.998688 0.526818
0.785611 0.998688 0.526818
0.785611 0.998688 0.526818
0.785611 0.998688 0.526818
0.785611 0.998688 0.526818
0.785611 0.998688 0.526818
0.785595 0.998688 0.526818
0.785595 0.998688 0.526818
0.812512 0.997177 0.527077
0.843061 0.995468 0.527932
0.868132 0.993988 0.529595
0.890822 0.992706 0.531884
0.912566 0.991257 0.535683
0.932525 0.989288 0.540459
0.95024 0.987457 0.547036
0.966064 0.985504 0.555764
0.979904 0.983948 0.567391
0.991104 0.982437 0.581765
0.994125 0.981521 0.605035
0.994018 0.980728 0.63563
0.993118 0.97998 0.670481
0.992309 0.979553 0.708339
0.991318 0.97911 0.745129
0.990509 0.979034 0.780392
0.989746 0.979156 0.812818
0.838087 0.994446 0.603525
0.838087 0.994446 0.603525
0.838087 0.994446 0.603525
0.838087 0.994446 0.603525
0.838087 0.994446 0.603525
0.838087 0.994446 0.603525
0.838087 0.994446 0.603525
0.838087 0.994446 0.603525
0.838087 0.994446 0.603525
