BBLuts/BB_104_0110_LUT.cube
TITLE "Generated by Resolve"
LUT_3D_SIZE 5
0.0455329 0.0566262 0.066865
0.254108 0.0579995 0.0689708
0.800534 0.350454 0.353674
0.990295 0.677714 0.616907
0.973571 0.954406 0.699397
0.0220188 0.254276 0.049012
0.187991 0.258198 0.0502937
0.805264 0.395102 0.360937
0.989242 0.698528 0.614343
0.973419 0.955673 0.697902
0 0.803937 0.0106813
0 0.80354 0.0106966
0.728527 0.79237 0.00595102
0.980819 0.845441 0.548608
0.972305 0.963836 0.686366
0 1 0.00273136
0 0.999985 0.00277714
0.607217 0.993011 0
0.958801 0.984237 0
0.968338 0.993942 0.690013
0.935393 1 0.786587
0.935882 1 0.786664
0.939452 1 0.787213
0.958633 1 0.791669
0.970245 1 0.818326
0.0708476 0.0738231 0.223713
0.253117 0.075227 0.224948
0.800336 0.357931 0.396429
0.990478 0.674632 0.620295
0.973892 0.954437 0.716701
0.0381323 0.233021 0.194476
0.226963 0.229938 0.193774
0.80116 0.358907 0.393957
0.989471 0.694667 0.617838
0.973724 0.955718 0.715465
0 0.800656 0.0108034
0 0.800214 0.0108339
0.73489 0.78912 0.00601205
0.980941 0.844022 0.55433
0.972625 0.963943 0.706233
0 1 0.00273136
0 0.999771 0.00277714
0.624567 0.992828 0
0.958938 0.984192 0
0.968353 0.993912 0.689891
0.935454 1 0.786587
0.935958 1 0.786679
0.939529 1 0.787198
0.958648 1 0.791653
0.970245 1 0.818326
0.602762 0.584955 0.710765
0.60293 0.585138 0.710933
0.806363 0.595728 0.707973
0.991348 0.687846 0.733593
0.97583 0.954345 0.786938
0.601297 0.583368 0.709468
0.601495 0.583597 0.709636
0.813581 0.595834 0.706706
0.990982 0.694102 0.730968
0.975662 0.955688 0.786389
0 0.764828 0.67248
0 0.765148 0.672694
0.735393 0.756497 0.67332
0.983459 0.828534 0.705516
0.974563 0.964279 0.782498
0 0.999771 0.00277714
0 0.998703 0.00282292
0.615915 0.991928 0
0.954543 0.983413 0
0.96968 0.994629 0.755901
0.936034 1 0.786557
0.936522 1 0.786633
0.940002 1 0.787152
0.958831 1 0.791608
0.970245 1 0.818326
0.814298 0.808942 0.901381
0.814298 0.808942 0.901381
0.814298 0.808942 0.901381
0.994537 0.819715 0.901442
0.984405 0.935653 0.882734
0.814298 0.808942 0.901381
0.814298 0.808942 0.901381
0.814298 0.808942 0.901381
0.994537 0.819715 0.901442
0.984146 0.938109 0.882383
0.814298 0.808942 0.901381
0.814298 0.808942 0.901381
0.815412 0.808957 0.901381
0.994537 0.819715 0.901442
0.982452 0.953368 0.88014
0 1 0.871534
0 1 0.87158
0.613474 0.998032 0.869764
0.952392 0.986755 0.869795
0.976394 0.996643 0.872206
0.938003 1 0.84979
0.938445 1 0.849805
0.941649 1 0.849958
0.959289 1 0.85127
0.973083 1 0.859892
0.81416 0.809918 0.90135
0.81416 0.809918 0.90135
0.81416 0.809918 0.90135
0.81416 0.809918 0.90135
0.993225 0.841901 0.900786
0.81416 0.809918 0.90135
0.81416 0.809918 0.90135
0.81416 0.809918 0.90135
0.81416 0.809918 0.90135
0.993225 0.841932 0.900786
0.81416 0.809918 0.90135
0.81416 0.809918 0.90135
0.81416 0.809918 0.90135
0.815641 0.809812 0.90135
0.993194 0.842115 0.900771
0.81416 0.809918 0.90135
0.81416 0.809918 0.90135
0.81416 0.809918 0.90135
0.994537 0.819715 0.901442
0.993164 0.842756 0.900755
0.886046 1 0.891112
0.887968 1 0.891112
0.900618 1 0.891112
0.948623 1 0.89131
0.97644 1 0.891569
