BBLuts/BB_106_0420_LUT.cube
TITLE "Generated by Resolve"
LUT_3D_SIZE 9
0 0 0
0 0 0
0.13904 0 0
0.400839 0 0
0.808988 0 0
1 0 0
1 0.483284 0.0884413
1 0.867262 0.34255
1 0.978607 0.670298
0 0.00764477 0
0 0.0188449 0
0.152163 0 0
0.413123 0 0
0.812055 0 0
1 0 0
1 0.521141 0.0772564
1 0.872129 0.340307
1 0.979156 0.670069
0 0.15697 0
0 0.160128 0
0.118517 0.157855 0
0.423636 0.130053 0
0.818051 0.0251621 0
1 0.163531 0
1 0.575097 0.0544594
1 0.879576 0.336706
1 0.980041 0.669718
0 0.418479 0
0 0.41973 0
0 0.420417 0
0.370245 0.426856 0
0.846372 0.419669 0
1 0.493034 0
1 0.698848 0
1 0.898939 0.326223
1 0.983063 0.668635
0 0.814176 0
0 0.814069 0
0 0.813581 0
0 0.810285 0
0.786404 0.800763 0
1 0.813886 0
1 0.866667 0
1 0.936934 0.329274
1 0.989761 0.66537
0.0359808 1 0
0.0357519 1 0
0.035462 1 0
0.0347295 1 0
0.776211 0.986542 0
1 0.973892 0
1 0.975769 0
1 0.984848 0.369574
1 1 0.66154
0.630503 1 0.149889
0.654658 1 0.148882
0.690196 1 0.147646
0.771298 1 0.146319
0.894377 1 0.153124
1 1 0.187625
1 1 0.286412
1 1 0.488502
1 1 0.685267
0.965438 1 0.570291
0.966964 1 0.570443
0.969406 1 0.570687
0.97641 1 0.57145
0.994675 1 0.573816
1 1 0.58114
1 1 0.601648
1 1 0.65124
1 1 0.73051
1 1 0.754299
1 1 0.754314
1 1 0.754345
1 1 0.754421
1 1 0.75462
1 1 0.755261
1 1 0.757183
1 1 0.762524
1 1 0.776791
0 0 0.00708019
0 0 0.00732433
0.140246 0 0.00975052
0.40174 0 0.00463874
0.809232 0 0
1 0 0.0347295
1 0.477348 0.144045
1 0.865431 0.376165
1 0.978408 0.675883
0 0 0
0 0 0
0.157931 0 0.00181582
0.408026 0 0
0.810407 0 0
1 0 0.00968948
1 0.516152 0.133577
1 0.870329 0.374197
1 0.978958 0.675685
0 0.148989 0
0 0.151644 0
0.135531 0.149615 0
0.421088 0.121157 0
0.815885 0 0
1 0.146181 0
1 0.571389 0.114382
1 0.877806 0.371069
1 0.979843 0.675349
0 0.413672 0
0 0.414862 0
0 0.415351 0
0.382849 0.421393 0
0.845777 0.415229 0
1 0.489525 0
1 0.696529 0.0132448
1 0.897307 0.362036
1 0.982864 0.674327
0 0.812558 0
0 0.812421 0
0 0.811902 0
0 0.808545 0
0.789899 0.799252 0
1 0.812894 0
1 0.866163 0
1 0.936492 0.33756
1 0.989593 0.67126
0.0359045 1 0
0.0356603 1 0
0.0354467 1 0
0.0346532 1 0
0.778637 0.986236 0
1 0.973754 0
1 0.975677 0
1 0.984787 0.369375
1 1 0.662058
0.634195 1 0.149447
0.658061 1 0.148486
0.693172 1 0.14728
0.773236 1 0.146044
0.89514 1 0.152987
1 1 0.187503
1 1 0.286397
1 1 0.488441
1 1 0.685222
0.965667 1 0.57026
0.967208 1 0.570428
0.969635 1 0.570657
0.976608 1 0.57142
0.994812 1 0.573785
1 1 0.581109
1 1 0.601633
1 1 0.65124
1 1 0.73051
1 1 0.754299
1 1 0.754314
1 1 0.754345
1 1 0.754406
1 1 0.75462
1 1 0.755261
1 1 0.757183
1 1 0.762524
1 1 0.776791
0 0 0.12137
0 0 0.121553
0.121294 0 0.12398
0.415076 0 0.116487
0.809293 0 0.110811
1 0 0.147295
1 0.464256 0.234485
1 0.862623 0.423301
1 0.978073 0.684245
0 0 0.118044
0 0 0.118349
0.147097 0 0.121187
0.413321 0 0.113268
0.812177 0 0.107164
1 0 0.14107
1 0.504814 0.227375
1 0.867582 0.421561
1 0.978637 0.684047
0 0.12549 0.107958
0 0.127504 0.107637
0.12488 0.120546 0.102388
0.403464 0.0974441 0.0981918
0.810452 0 0.0970779
1 0.0912337 0.134142
1 0.562142 0.215045
1 0.875166 0.418799
1 0.979538 0.683742
0 0.400397 0.0199435
0 0.401785 0.0208438
0 0.402441 0.0221103
0.384268 0.408316 0.0342718
0.841031 0.402655 0.0442206
1 0.478859 0.0892195
1 0.691127 0.174502
1 0.894881 0.411002
1 0.982559 0.682811
0 0.809201 0
0 0.809049 0
0 0.80853 0
0 0.805127 0
0.792798 0.796185 0
1 0.810544 0
1 0.864042 0.0450446
1 0.934386 0.390646
1 0.989319 0.680003
0.0357671 1 0
0.035523 1 0
0.0354314 1 0
0.0345159 1 0
0.782544 0.985718 0
1 0.97351 0
1 0.975509 0
1 0.98471 0.36907
1 1 0.671687
0.640177 1 0.14876
0.6636 1 0.147829
0.697932 1 0.1467
0.776333 1 0.145632
0.896391 1 0.152728
1 1 0.18732
1 1 0.286366
1 1 0.488289
1 1 0.685191
0.966049 1 0.570214
0.967575 1 0.570382
0.970001 1 0.570611
0.976928 1 0.571374
0.995071 1 0.573739
1 1 0.581064
1 1 0.601602
1 1 0.65124
1 1 0.730495
1 1 0.754299
1 1 0.754314
1 1 0.754345
1 1 0.754406
1 1 0.75462
1 1 0.755261
1 1 0.757183
1 1 0.762524
1 1 0.776791
0 0 0.340169
0 0 0.340322
0 0 0.340398
0.387228 0 0.338125
0.831495 0 0.333074
1 0 0.364141
1 0.416358 0.430259
1 0.854627 0.53611
1 0.977234 0.704768
0 0 0.338003
0 0 0.338201
0.0363928 0 0.339132
0.404791 0 0.335225
0.829068 0 0.330571
1 0 0.361395
1 0.46389 0.42562
1 0.859846 0.534752
1 0.977783 0.704631
0 0.0256352 0.334493
0 0.0308537 0.334508
0.0667887 0.0250095 0.333013
0.411963 0 0.331106
0.821607 0 0.326436
1 0 0.356191
1 0.527855 0.418601
1 0.86775 0.532631
1 0.978698 0.704372
0 0.352483 0.298665
0 0.354406 0.298909
0 0.355734 0.299535
0.374517 0.361517 0.30721
0.823697 0.356359 0.315114
1 0.437491 0.349111
1 0.668116 0.39501
1 0.888289 0.526711
1 0.981765 0.703655
0 0.797833 0.220829
0 0.797803 0.221485
0 0.797421 0.222477
0 0.794293 0.22504
0.788556 0.78407 0.230426
1 0.798795 0.26508
1 0.854002 0.343465
1 0.929137 0.511833
1 0.988602 0.701473
0.035462 1 0
0.0354314 1 0
0.0353399 1 0
0.0341192 1 0
0.782269 0.984543 0
1 0.970672 0.105287
1 0.969726 0.258885
1 0.980575 0.476432
1 1 0.695216
0.657679 1 0.146685
0.679835 1 0.145907
0.711879 1 0.144991
0.785443 1 0.144381
0.900114 1 0.15198
1 1 0.186786
1 1 0.286259
1 1 0.487877
1 1 0.685039
0.967178 1 0.570077
0.968688 1 0.57023
0.971084 1 0.570489
0.97792 1 0.571237
0.995819 1 0.573602
1 1 0.580941
1 1 0.601495
1 1 0.651209
1 1 0.730449
1 1 0.754299
1 1 0.754299
1 1 0.754314
1 1 0.754406
1 1 0.754604
1 1 0.755245
1 1 0.757168
1 1 0.762524
1 1 0.776791
0 0 0.660014
0 0 0.66009
0 0 0.660212
0.213001 0 0.659052
0.815061 0 0.646311
1 0 0.660929
1 0.157504 0.684321
1 0.833356 0.691279
1 0.975052 0.743282
0 0 0.659434
0 0 0.659495
0 0 0.659632
0.241993 0 0.657877
0.821881 0 0.645838
1 0 0.660304
1 0.274372 0.688136
1 0.839734 0.690425
1 0.975662 0.743175
0 0 0.658442
0 0 0.658534
0 0 0.658656
0.281971 0 0.655909
0.826001 0 0.644846
1 0 0.65922
1 0.39086 0.684916
1 0.849165 0.689174
1 0.976608 0.743023
0 0.173404 0.648157
0 0.17615 0.648142
0 0.179675 0.648081
0.294148 0.173709 0.64741
0.832837 0.0689555 0.641642
1 0.20737 0.666362
1 0.587442 0.671885
1 0.872908 0.685939
1 0.979355 0.74255
0 0.744823 0.617624
0 0.745251 0.617761
0 0.745357 0.617929
0 0.743206 0.618143
0.764248 0.7337 0.616709
1 0.756161 0.625711
1 0.827192 0.639292
1 0.918914 0.679072
1 0.986954 0.741176
0.0351873 1 0.602914
0.0350042 1 0.603006
0.034699 1 0.603143
0.0337377 1 0.603555
0.735912 0.970687 0.580819
0.996628 0.95491 0.585443
1 0.956695 0.612543
1 0.973632 0.666377
1 1 0.737484
0.636439 1 0.487938
0.658839 1 0.486809
0.69189 1 0.485298
0.767727 1 0.482734
0.885313 1 0.483833
0.998627 1 0.499916
1 1 0.547723
1 1 0.636728
1 1 0.727779
0.970596 1 0.569635
0.97203 1 0.569802
0.974304 1 0.570031
0.98085 1 0.570809
0.998062 1 0.57319
1 1 0.580545
1 1 0.601205
1 1 0.651148
1 1 0.730312
1 1 0.754253
1 1 0.754269
1 1 0.754299
1 1 0.75436
1 1 0.754574
1 1 0.755215
1 1 0.757137
1 1 0.762493
1 1 0.776791
0 0 0.813931
0 0 0.813947
0 0 0.813962
0 0 0.813993
0.675044 0 0.799023
1 0 0.808331
1 0 0.809064
1 0.740764 0.796033
1 0.968643 0.789044
0 0 0.81387
0 0 0.813886
0 0 0.813901
0 0 0.813931
0.686061 0 0.79881
1 0 0.80827
1 0 0.808988
1 0.754528 0.7944
1 0.96936 0.788968
0 0 0.813779
0 0 0.813794
0 0 0.813794
0 0 0.813825
0.703288 0 0.798505
1 0 0.808164
1 0 0.808896
1 0.774395 0.792065
1 0.970489 0.788861
0 0 0.813474
0 0 0.813489
0 0 0.813489
0 0 0.813245
0.740047 0 0.79794
1 0 0.807828
1 0 0.80737
1 0.820356 0.786847
1 0.973724 0.788556
0 0.495857 0.795377
0 0.497414 0.795346
0 0.499916 0.795285
0 0.503838 0.794827
0.742626 0.499641 0.797009
1 0.543954 0.80882
1 0.71722 0.792462
1 0.89337 0.779721
1 0.982528 0.787732
0.03505 1 0.799558
0.0349432 1 0.799496
0.0347143 1 0.799344
0.0338598 0.996246 0.798795
0.629984 0.961944 0.778195
0.981567 0.938613 0.767407
1 0.943786 0.768505
1 0.965805 0.773068
1 0.999268 0.785794
0.458732 1 0.777859
0.498833 1 0.775387
0.551919 1 0.772168
0.669444 1 0.765194
0.838376 1 0.757565
0.976226 1 0.756039
1 1 0.758816
1 1 0.766247
1 1 0.781933
0.958663 1 0.728145
0.960143 1 0.728176
0.962524 1 0.728222
0.969299 1 0.728374
0.986572 1 0.728862
1 1 0.730571
1 1 0.73579
1 1 0.749233
1 1 0.77319
1 1 0.754147
1 1 0.754162
1 1 0.754177
1 1 0.754253
1 1 0.754467
1 1 0.755093
1 1 0.757031
1 1 0.762402
1 1 0.776776
0 0 0.855894
0 0 0.855894
0 0 0.855894
0 0 0.855894
0 0 0.855894
1 0 0.856825
1 0 0.857984
1 0 0.857984
1 0.940414 0.82562
0 0 0.855894
0 0 0.855894
0 0 0.855894
0 0 0.855894
0 0 0.855894
1 0 0.856916
1 0 0.857984
1 0 0.857984
1 0.941726 0.825513
0 0 0.855894
0 0 0.855894
0 0 0.855894
0 0 0.855894
0 0 0.855894
1 0 0.857069
1 0 0.857984
1 0 0.857984
1 0.943786 0.825376
0 0 0.855894
0 0 0.855894
0 0 0.855894
0 0 0.855894
0 0 0.855894
1 0 0.857496
1 0 0.857984
1 0 0.857984
1 0.949615 0.824964
0 0 0.855894
0 0 0.855894
0 0 0.855894
0 0 0.855894
0.303304 0 0.852186
1 0 0.857984
1 0 0.857984
1 0.597192 0.859663
1 0.963973 0.823957
0.00779736 0.881559 0.851896
0.00788891 0.88191 0.851926
0.00805676 0.882506 0.851972
0.00851453 0.884291 0.852049
0.00677501 0.877775 0.850462
0.986938 0.845777 0.830503
1 0.872236 0.827588
1 0.932708 0.823484
1 0.989899 0.822095
0.0489662 1 0.857252
0.0488899 1 0.857176
0.0487526 1 0.857053
0.0483558 1 0.856703
0.705486 1 0.826062
0.953231 1 0.817731
1 1 0.817365
1 1 0.817731
1 1 0.819715
0.927977 1 0.813062
0.930007 1 0.813031
0.933196 1 0.812985
0.94229 1 0.812894
0.964874 1 0.812696
1 1 0.812573
1 1 0.812818
1 1 0.81387
1 1 0.816922
1 1 0.802625
1 1 0.80264
1 1 0.80264
1 1 0.80267
1 1 0.802716
1 1 0.802915
1 1 0.803525
1 1 0.805402
1 1 0.81033
0 0.0124666 0.854047
0 0.0124666 0.854047
0 0.0124666 0.854047
0 0.0124666 0.854047
0 0.0124666 0.854047
0 0.0124819 0.854047
1 0 0.857984
1 0 0.857984
1 0.656458 0.858854
0 0.0124666 0.854047
0 0.0124666 0.854047
0 0.0124666 0.854047
0 0.0124666 0.854047
0 0.0124666 0.854047
0 0.0124666 0.854047
1 0 0.857984
1 0 0.857984
1 0.656428 0.858854
0 0.0124666 0.854047
0 0.0124666 0.854047
0 0.0124666 0.854047
0 0.0124666 0.854047
0 0.0124666 0.854047
0 0.0124666 0.854047
1 0 0.857984
1 0 0.857984
1 0.656382 0.858869
0 0.0124666 0.854047
0 0.0124666 0.854047
0 0.0124666 0.854047
0 0.0124666 0.854047
0 0.0124666 0.854047
0 0 0.85594
1 0 0.857984
1 0 0.857984
1 0.656199 0.858885
0 0.0121309 0.854109
0 0.0121309 0.854109
0 0.0121462 0.854109
0 0.0121614 0.854093
0 0.0122072 0.854093
0.342855 0 0.85124
1 0 0.857984
1 0 0.857984
1 0.65565 0.85893
0 0.0106508 0.854322
0 0.0106508 0.854322
0 0.0106508 0.854322
0 0.0106661 0.854322
0 0.0107271 0.854307
0.843717 0 0.846479
1 0 0.857984
1 0.0206455 0.860914
1 0.897444 0.840696
0.0445563 1 0.875105
0.0445563 1 0.875105
0.0445563 1 0.875105
0.0445869 1 0.87512
0.0446784 1 0.875151
0.825315 0.982834 0.842237
1 0.972244 0.839048
1 0.982101 0.838773
1 1 0.838544
0.733181 1 0.844907
0.744244 1 0.844343
0.760693 1 0.843534
0.802213 1 0.841688
0.881132 1 0.838697
0.972457 1 0.837324
1 1 0.836988
1 1 0.83714
1 1 0.837247
1 1 0.83534
1 1 0.83534
1 1 0.83534
1 1 0.83534
1 1 0.835325
1 1 0.835309
1 1 0.835294
1 1 0.835355
1 1 0.83566
0 0.237705 0.850294
0 0.237705 0.850294
0 0.237705 0.850294
0 0.23772 0.850294
0 0.23772 0.850294
0 0.237781 0.850294
0 0.237888 0.850294
1 0.26125 0.873182
1 0.713344 0.853513
0 0.237705 0.850294
0 0.237705 0.850294
0 0.237705 0.850294
0 0.237705 0.850294
0 0.23772 0.850294
0 0.237766 0.850294
0 0.237888 0.850294
1 0.261555 0.873198
1 0.71342 0.853498
0 0.237675 0.850294
0 0.237675 0.850294
0 0.237675 0.850294
0 0.237705 0.850294
0 0.237705 0.850294
0 0.237766 0.850294
0 0.237873 0.850294
1 0.262028 0.873198
1 0.713497 0.853483
0 0.237659 0.850294
0 0.237659 0.850294
0 0.237659 0.850294
0 0.237659 0.850294
0 0.237675 0.850294
0 0.23772 0.850294
0 0.237827 0.850294
1 0.263508 0.873228
1 0.713771 0.853468
0 0.237552 0.850294
0 0.237552 0.850294
0 0.237552 0.850294
0 0.237552 0.850294
0 0.237568 0.850294
0 0.237613 0.850294
0.35848 0.223133 0.853788
1 0.268009 0.873335
1 0.71458 0.853391
0 0.237232 0.850294
0 0.237232 0.850294
0 0.237232 0.850294
0 0.237263 0.850294
0 0.237263 0.850294
0 0.237293 0.850294
0.880095 0.032105 0.848798
1 0.281315 0.873564
1 0.715801 0.853269
0 0.236271 0.850309
0 0.236271 0.850309
0 0.236271 0.850309
0 0.236286 0.850309
0 0.236286 0.850309
0 0.236332 0.850309
1 0 0.857984
1 0.307225 0.873777
1 0.718074 0.853056
0.0492103 1 0.876799
0.0492103 1 0.876799
0.0492103 1 0.876799
0.0492103 1 0.876799
0.0492103 1 0.876799
0.0492103 1 0.876799
1 1 0.83856
1 1 0.838453
1 1 0.838361
0.980026 1 0.838209
0.98088 1 0.838209
0.982238 1 0.838209
0.98616 1 0.838193
0.997055 1 0.838163
1 1 0.838132
1 1 0.838132
1 1 0.838102
1 1 0.838315
