BBLuts/BB_102_0420_LUT.cube
TITLE "Generated by Resolve"
LUT_3D_SIZE 5
0 0 0
0.210788 0 0
0.851652 0 0
1 0.670268 0.0618143
0.992752 1 0.763134
0 0.233539 0
0.139178 0.234104 0
0.855299 0.126284 0
1 0.735271 0.0218357
0.992721 1 0.762798
0 0.933089 0
0 0.932342 0
0.73814 0.925811 0
1 0.985962 0
0.992248 1 0.757671
0.592615 1 0.183093
0.592615 1 0.183093
0.783017 1 0.192004
0.988235 1 0.347433
0.989273 1 0.797452
0.952865 1 0.897124
0.952865 1 0.897124
0.952865 1 0.897124
0.972091 1 0.900557
0.986877 1 0.929885
0 0 0.168505
0.174899 0 0.163775
0.855467 0 0.139498
1 0.656336 0.252644
0.992752 1 0.763134
0 0.187778 0.149905
0.13843 0.186206 0.146548
0.852506 0.0478828 0.131456
1 0.726589 0.233173
0.992721 1 0.762798
0 0.92723 0
0 0.926513 0
0.741726 0.920592 0
1 0.987213 0.0653544
0.992248 1 0.757671
0.601465 1 0.181842
0.601465 1 0.181842
0.78526 1 0.19144
0.988342 1 0.347189
0.989273 1 0.797452
0.952911 1 0.897124
0.952911 1 0.897124
0.952911 1 0.897124
0.972107 1 0.900542
0.986877 1 0.929885
0 0 0.799298
0 0 0.799649
0.83534 0 0.769848
1 0.296483 0.823468
0.991714 1 0.878859
0 0 0.797986
0 0 0.798093
0.846143 0 0.768261
1 0.508156 0.821546
0.991669 1 0.878706
0 0.862821 0.752667
0 0.862974 0.752728
0.703685 0.858854 0.756924
1 0.950484 0.777371
0.991119 1 0.87657
0.578576 1 0.642237
0.578576 1 0.642237
0.76347 1 0.64062
0.976822 1 0.692882
0.988708 1 0.857053
0.953536 1 0.897047
0.953536 1 0.897047
0.953536 1 0.897047
0.972335 1 0.900465
0.986877 1 0.929854
0 0 1
0 0 1
0 0 1
1 0 1
0.99382 1 1
0 0 1
0 0 1
0 0 1
1 0 1
0.993667 1 1
0 0 1
0 0 1
0 0 1
1 0 1
0.992203 1 1
0 1 1
0 1 1
0 1 1
0.956985 1 0.997848
0.987961 1 1
0.94815 1 0.980758
0.94815 1 0.980758
0.94815 1 0.980758
0.966461 1 0.981598
0.98645 1 0.98909
0 0.285237 1
0 0.285237 1
0 0.285237 1
0 0.285344 1
1 0.787839 1
0 0.285237 1
0 0.285237 1
0 0.285237 1
0 0.285344 1
1 0.787839 1
0 0.285237 1
0 0.285237 1
0 0.285237 1
0 0.285344 1
1 0.787839 1
0 0.28368 1
0 0.28368 1
0 0.28368 1
0.0480507 0.265339 1
1 0.793072 1
0.88159 1 1
0.88159 1 1
0.88159 1 1
0.890471 1 1
0.986526 1 1
