BBLuts/BB_103_0270_LUT.cube
TITLE "Generated by Resolve"
LUT_3D_SIZE 33
0 0 0
0 0 0
0 0 0
0 0 0
0 0 0
0.0267338 0 0
0.0712749 0 0
0.104402 0 0
0.138613 0 0
0.180255 0 0
0.230716 0 0
0.288548 0 0
0.35523 0 0
0.430274 0 0
0.516014 0 0
0.599496 0 0
0.675883 0 0
0.747906 0 0
0.810422 0 0
0.860075 0 0
0.87248 0 0
0.873487 0 0
0.878431 0.205631 0
0.870924 0.381186 0.0120394
0.862516 0.519936 0.0431373
0.854093 0.63122 0.0794995
0.846601 0.718044 0.12488
0.841245 0.782635 0.18999
0.83711 0.827939 0.280125
0.833539 0.861311 0.375402
0.830381 0.885451 0.468177
0.827237 0.904189 0.549783
0.825162 0.918944 0.617365
0 0 0
0 0 0
0 0 0
0 0 0
0 0 0
0.0351415 0 0
0.0740826 0 0
0.106737 0 0
0.142489 0 0
0.184955 0 0
0.235813 0 0
0.292729 0 0
0.356573 0 0
0.43183 0 0
0.517403 0 0
0.600229 0 0
0.676478 0 0
0.747906 0 0
0.810361 0 0
0.859754 0 0
0.872465 0 0
0.873915 0 0
0.877943 0.232502 0
0.869276 0.394736 0.00238041
0.86183 0.527352 0.0404974
0.853666 0.635279 0.0780652
0.846387 0.72018 0.124361
0.841169 0.783658 0.189883
0.837079 0.828443 0.27985
0.833524 0.86157 0.375235
0.830381 0.885573 0.468101
0.827237 0.90425 0.549752
0.825162 0.91899 0.617334
0 0 0
0 0 0
0 0 0
0 0 0
0 0 0
0.0395361 0 0
0.0744488 0 0
0.108568 0 0
0.146151 0 0
0.188251 0 0
0.23798 0 0
0.29369 0 0
0.358404 0 0
0.433768 0 0
0.518807 0 0
0.601251 0 0
0.676799 0 0
0.748165 0 0
0.810269 0 0
0.859388 0 0
0.872435 0 0
0.874952 0.0340124 0
0.877073 0.259129 0
0.867765 0.406928 0
0.861158 0.534417 0.0381018
0.853284 0.63888 0.0767987
0.846204 0.722148 0.123903
0.841077 0.784604 0.189792
0.837049 0.828901 0.279606
0.833509 0.86183 0.375082
0.830365 0.88571 0.468025
0.827237 0.904326 0.549691
0.825162 0.91902 0.617319
0 0 0
0 0 0
0 0 0
0 0 0
0 0 0
0.0407874 0 0
0.0728161 0 0
0.106828 0 0
0.145068 0 0
0.189166 0 0
0.24004 0 0
0.29546 0 0
0.360616 0 0
0.435752 0 0
0.520226 0 0
0.601999 0 0
0.677409 0 0
0.748409 0 0
0.810162 0 0
0.859037 0 0
0.872404 0 0
0.876844 0.0992905 0
0.876081 0.28043 0
0.866606 0.417243 0
0.860578 0.540475 0.0360266
0.852934 0.64213 0.0756695
0.846036 0.72398 0.123461
0.841001 0.785504 0.189685
0.837003 0.829389 0.279347
0.833494 0.862074 0.374929
0.830365 0.885832 0.467933
0.827237 0.904387 0.549661
0.825162 0.919066 0.617304
0 0.0269627 0
0 0.0294347 0
0 0.0318303 0
0 0.0341802 0
0 0.0351568 0
0.0273899 0.0337072 0
0.063798 0.031632 0
0.0999008 0.0271153 0
0.140475 0.0170596 0
0.189075 0 0
0.241184 0 0
0.297597 0 0
0.362768 0 0
0.437766 0 0
0.522026 0 0
0.603067 0 0
0.678004 0 0
0.748638 0 0
0.81004 0 0
0.858625 0 0
0.872374 0 0
0.877775 0.137606 0
0.875044 0.298924 0
0.865812 0.428244 0
0.859937 0.546838 0.0333715
0.852567 0.645487 0.0743877
0.845869 0.725719 0.123049
0.84094 0.786404 0.189593
0.836973 0.829862 0.279088
0.833478 0.862318 0.374777
0.83035 0.885954 0.467857
0.827222 0.904479 0.549599
0.825162 0.919097 0.617273
0 0.0547646 0
0 0.0567636 0
0 0.0588235 0
0 0.0604257 0
0 0.0612345 0
0.00793469 0.0606546 0
0.0534981 0.059556 0
0.0929427 0.057557 0
0.135195 0.0534981 0
0.183597 0.0453956 0
0.237613 0.0298009 0
0.298314 0 0
0.364935 0 0
0.440269 0 0
0.523705 0 0
0.603983 0 0
0.678676 0 0
0.748882 0 0
0.809903 0 0
0.858183 0 0
0.872892 0 0
0.878157 0.169863 0
0.873991 0.315114 0
0.865141 0.43772 0
0.859327 0.552743 0.0308232
0.852186 0.648981 0.0729839
0.845685 0.727657 0.122591
0.840864 0.787243 0.189517
0.836942 0.83032 0.278843
0.833463 0.862562 0.374624
0.83035 0.886091 0.467765
0.827222 0.90454 0.549554
0.825162 0.919142 0.617243
0 0.0840925 0
0 0.0857862 0
0 0.0874342 0
0 0.0884413 0
0 0.0891585 0
0 0.0894026 0
0.0338598 0.0884108 0
0.0824903 0.0873579 0
0.127825 0.0850843 0
0.17847 0.0803235 0
0.23389 0.0715953 0
0.294759 0.0576791 0
0.363882 0.033051 0
0.442298 0 0
0.525948 0 0
0.605631 0 0
0.679194 0 0
0.748913 0 0
0.809491 0 0
0.857649 0 0
0.873854 0.0380407 0
0.878462 0.202686 0
0.872755 0.332952 0
0.864378 0.44889 0
0.858671 0.559167 0.0280461
0.851774 0.652934 0.071397
0.845472 0.729976 0.122042
0.840772 0.788449 0.189425
0.836912 0.830854 0.278569
0.833448 0.862837 0.374441
0.830335 0.886244 0.467658
0.827222 0.904616 0.549508
0.825147 0.919188 0.617227
0 0.117784 0
0 0.11928 0
0 0.120378 0
0 0.121233 0
0 0.121752 0
0 0.12221 0
0 0.122148 0
0.0609903 0.121218 0
0.115724 0.119905 0
0.169589 0.116854 0
0.227924 0.110536 0
0.292073 0.101198 0
0.363363 0.0878157 0
0.441733 0.0670787 0
0.526375 0.0265049 0
0.606561 0 0
0.680003 0 0
0.749523 0 0
0.809247 0 0
0.857389 0.00166323 0
0.875959 0.113909 0
0.877684 0.241718 0
0.871092 0.356069 0
0.863355 0.464027 0
0.857618 0.568276 0.0224918
0.851194 0.658152 0.069276
0.845182 0.733059 0.121294
0.840635 0.790066 0.189303
0.836851 0.831769 0.278111
0.833417 0.863249 0.374182
0.83032 0.886458 0.467536
0.827207 0.904738 0.549432
0.825147 0.919249 0.617182
0 0.157977 0
0 0.159136 0
0 0.159915 0
0 0.16054 0
0 0.160998 0
0 0.161486 0
0 0.1617 0
0.0222782 0.161212 0
0.0923018 0.160281 0
0.153735 0.157992 0
0.216999 0.153643 0
0.286061 0.146761 0
0.361913 0.137316 0
0.443595 0.124117 0
0.527977 0.106706 0
0.606592 0.0838941 0
0.680079 0.052369 0
0.74966 0 0
0.809125 0.00135805 0
0.858381 0.0907912 0
0.876768 0.187488 0
0.875837 0.285252 0
0.869001 0.384497 0
0.861997 0.483726 0
0.856153 0.580209 0.0140383
0.850385 0.665568 0.0661021
0.8448 0.737148 0.120333
0.840452 0.792279 0.189151
0.836759 0.833005 0.277501
0.833371 0.863935 0.373785
0.830304 0.886778 0.467323
0.827207 0.904921 0.549325
0.825147 0.919341 0.617121
0 0.204822 0
0 0.205371 0
0 0.205722 0
0 0.206012 0
0 0.206424 0
0 0.206485 0
0 0.206439 0
0 0.206149 0
0.045594 0.205951 0
0.126955 0.205295 0
0.198581 0.202869 0
0.27396 0.198047 0
0.356207 0.19086 0
0.443305 0.181186 0
0.529778 0.170413 0
0.608011 0.158892 0
0.681498 0.148852 0
0.750881 0.14345 0
0.81062 0.154665 0
0.858152 0.194553 0
0.875578 0.25771 0
0.872633 0.334585 0
0.866438 0.419532 0
0.860182 0.508293 0
0.854109 0.595666 0.00306706
0.849317 0.675395 0.0617685
0.844282 0.742885 0.11899
0.840208 0.795239 0.188937
0.836637 0.834699 0.276661
0.83331 0.864851 0.373236
0.830274 0.887312 0.466957
0.827176 0.905165 0.549157
0.825132 0.919478 0.617044
0 0.257694 0
0 0.258274 0
0 0.258625 0
0 0.25893 0
0 0.259144 0
0 0.259297 0
0 0.259373 0
0 0.259571 0
0 0.25922 0
0.0714427 0.26038 0
0.167651 0.260471 0
0.252522 0.257877 0
0.342901 0.252827 0
0.437705 0.246128 0
0.528893 0.239292 0
0.608454 0.233097 0
0.68159 0.229847 0
0.749966 0.232136 0
0.808255 0.246632 0
0.853208 0.27924 0
0.871351 0.328099 0
0.868605 0.390005 0
0.863554 0.461189 0
0.857816 0.538506 0
0.851347 0.614633 0
0.847959 0.68809 0.056672
0.84361 0.750393 0.117235
0.839887 0.799298 0.188724
0.836484 0.836927 0.275547
0.833234 0.866117 0.372488
0.830228 0.888029 0.466468
0.827161 0.905592 0.548882
0.825116 0.919676 0.616922
0 0.322515 0
0 0.322774 0
0 0.32314 0
0 0.323751 0
0 0.32398 0
0 0.324163 0
0 0.324346 0
0 0.324437 0
0 0.324346 0
0 0.325521 0
0.105776 0.328267 0
0.216281 0.32874 0
0.318364 0.32636 0
0.42269 0.32256 0
0.521065 0.317922 0
0.604379 0.314488 0
0.678492 0.315084 0
0.745449 0.32079 0
0.801297 0.335653 0
0.844388 0.3626 0
0.86569 0.401129 0
0.864317 0.449897 0
0.86009 0.509514 0
0.854856 0.573816 0
0.849073 0.638498 0
0.846342 0.70367 0.0509346
0.842771 0.759991 0.115053
0.83946 0.80473 0.188525
0.836255 0.84007 0.275196
0.833127 0.867781 0.371511
0.830167 0.889021 0.465812
0.827115 0.906172 0.54847
0.825101 0.919997 0.616709
0 0.402029 0
0 0.402197 0
0 0.402518 0
0 0.402792 0
0 0.403021 0
0 0.403571 0
0 0.403784 0
0 0.403952 0
0 0.40412 0
0 0.404211 0
0.00770581 0.407263 0
0.149691 0.412009 0
0.278004 0.412146 0
0.395102 0.410193 0
0.502922 0.407324 0
0.592889 0.405173 0
0.670329 0.405707 0
0.73753 0.411337 0
0.791836 0.424323 0
0.833936 0.445823 0
0.860044 0.476493 0
0.859648 0.515267 0
0.855879 0.561761 0
0.851331 0.613901 0
0.846448 0.666926 0
0.844388 0.722759 0.0426337
0.841764 0.771679 0.112474
0.838941 0.811643 0.188418
0.835935 0.844221 0.275822
0.832959 0.87013 0.37026
0.830076 0.890333 0.464912
0.82707 0.906966 0.547921
0.825071 0.92047 0.616403
0 0.493217 0
0 0.493294 0
0 0.493553 0
0 0.493812 0
0 0.493996 0
0 0.494194 0
0 0.494392 0
0 0.494621 0
0 0.49514 0
0 0.495232 0
0 0.495125 0
0.0460365 0.500221 0
0.212161 0.50399 0
0.354253 0.502312 0
0.474357 0.500084 0
0.573983 0.497887 0
0.657603 0.498329 0
0.72752 0.50277 0
0.781567 0.513024 0
0.822263 0.529885 0
0.852979 0.552865 0
0.853864 0.581399 0
0.851072 0.616754 0
0.847471 0.655756 0
0.843565 0.698894 0
0.842222 0.744488 0.0324712
0.84062 0.785702 0.109316
0.8383 0.820142 0.18851
0.835538 0.849485 0.276829
0.832761 0.873198 0.368734
0.829969 0.892195 0.463706
0.827008 0.908003 0.547204
0.825025 0.921096 0.616007
0 0.584039 0
0 0.584039 0
0 0.584161 0
0 0.584298 0
0 0.584421 0
0 0.584512 0
0 0.584604 0
0 0.58471 0
0 0.584787 0
0 0.584741 0
0 0.584909 0
0 0.584421 0
0.103151 0.590341 0
0.294331 0.591257 0
0.435218 0.589548 0
0.547601 0.587808 0
0.638468 0.587411 0
0.71252 0.590356 0
0.768139 0.59736 0
0.808362 0.60911 0
0.839597 0.625559 0
0.847562 0.645182 0
0.846128 0.670359 0
0.843442 0.700282 0
0.840711 0.732952 0
0.839887 0.767971 0.0194553
0.839368 0.801495 0.106615
0.837522 0.830564 0.188968
0.835065 0.855924 0.278248
0.832486 0.877104 0.368688
0.829816 0.894667 0.462135
0.826917 0.909483 0.546212
0.824979 0.921904 0.615442
0 0.666575 0
0 0.666575 0
0 0.666575 0
0 0.666651 0
0 0.666682 0
0 0.666712 0
0 0.666743 0
0 0.666773 0
0 0.666743 0
0 0.666621 0
0 0.666346 0
0 0.666117 0
0 0.667674 0
0.19527 0.671946 0
0.384482 0.671077 0
0.513909 0.669062 0
0.613657 0.667918 0
0.692836 0.669047 0
0.750912 0.673365 0
0.792599 0.680766 0
0.823621 0.691722 0
0.840864 0.706218 0
0.841184 0.723476 0
0.839841 0.743954 0
0.838102 0.766888 0
0.837354 0.792035 0.00268559
0.838087 0.818753 0.104341
0.836652 0.842542 0.190768
0.834485 0.863722 0.280446
0.832105 0.881865 0.37084
0.829602 0.89781 0.461234
0.826795 0.911452 0.544869
0.824903 0.923064 0.614664
0 0.744595 0
0 0.744595 0
0 0.744595 0
0 0.744595 0
0 0.744595 0
0 0.744579 0
0 0.744518 0
0 0.744472 0
0 0.74432 0
0 0.74406 0
0 0.743648 0
0 0.742931 0
0 0.742077 0
0.0973373 0.746868 0
0.322881 0.746517 0
0.475563 0.743999 0
0.585931 0.741131 0
0.6701 0.740337 0
0.73135 0.741802 0
0.775296 0.745586 0
0.80798 0.751568 0
0.831403 0.760128 0
0.83714 0.770962 0
0.836881 0.783841 0
0.835859 0.798901 0
0.834852 0.81561 0
0.836805 0.837186 0.104326
0.835706 0.855695 0.194263
0.833814 0.872557 0.28426
0.831647 0.887785 0.373831
0.829313 0.901686 0.461387
0.826627 0.913939 0.543465
0.824796 0.92462 0.613565
0 0.809415 0
0 0.809415 0
0 0.809415 0
0 0.809415 0
0 0.809415 0
0 0.809384 0
0 0.809277 0
0 0.809125 0
0 0.808865 0
0 0.808454 0
0 0.807874 0
0 0.806928 0
0 0.805615 0
0.0216678 0.807477 0
0.257099 0.808545 0
0.442557 0.804364 0
0.56257 0.799954 0
0.649851 0.797391 0
0.712993 0.796857 0
0.759243 0.797848 0
0.793622 0.800427 0
0.81854 0.804654 0
0.83331 0.81059 0
0.834287 0.818402 0
0.833982 0.827985 0
0.83386 0.840101 0
0.835584 0.855772 0.109834
0.834714 0.869505 0.200443
0.833066 0.882246 0.289921
0.831083 0.894682 0.378485
0.828916 0.906401 0.464332
0.826429 0.917006 0.542062
0.824674 0.926619 0.612238
0 0.858122 0
0 0.858122 0
0 0.858122 0
0 0.858122 0
0 0.858122 0
0 0.858122 0
0 0.858122 0
0 0.857954 0
0 0.857618 0
0 0.857053 0
0 0.856291 0
0 0.855238 0
0 0.853788 0
0 0.854231 0
0.210788 0.855024 0
0.422721 0.849729 0
0.547509 0.844266 0
0.635264 0.840436 0
0.698344 0.838712 0
0.745357 0.838254 0
0.780957 0.838834 0
0.80708 0.840726 0
0.8271 0.84387 0
0.83212 0.848356 0
0.832334 0.854231 0
0.833631 0.8636 0.0272831
0.834455 0.873823 0.122911
0.833722 0.883177 0.21001
0.832227 0.892699 0.298177
0.830442 0.902388 0.384955
0.828443 0.911849 0.468986
0.826108 0.920684 0.544686
0.824506 0.929076 0.61062
0 0.895415 0
0 0.895415 0
0 0.895415 0
0 0.895415 0
0 0.895415 0
0 0.895415 0
0 0.895415 0
0 0.895415 0
0 0.895247 0
0 0.894652 0
0 0.893675 0
0 0.892485 0
0 0.891035 0
0 0.891127 0
0.219532 0.8907 0
0.420066 0.884428 0
0.541512 0.878508 0
0.626154 0.874128 0
0.68748 0.871611 0
0.733867 0.870329 0
0.769574 0.869871 0
0.796674 0.870207 0
0.817807 0.871458 0
0.829709 0.87364 0
0.830915 0.876783 0
0.83299 0.883772 0.0554971
0.833387 0.890349 0.141451
0.83267 0.896773 0.224903
0.831327 0.903487 0.309224
0.829709 0.910689 0.393866
0.827893 0.917876 0.475303
0.825727 0.924956 0.548913
0.824262 0.932067 0.612253
0 0.922469 0
0 0.922469 0
0 0.922469 0
0 0.922469 0
0 0.922469 0
0 0.922469 0
0 0.922469 0
0 0.922469 0
0 0.922469 0
0 0.922438 0
0 0.921416 0
0 0.920058 0
0 0.918502 0
0 0.917418 0
0.270695 0.916136 0
0.436942 0.909636 0
0.546365 0.903578 0
0.624018 0.89926 0
0.681559 0.896498 0
0.726116 0.894759 0
0.760769 0.893751 0
0.78793 0.893324 0
0.80972 0.893446 0
0.826825 0.894362 0
0.829465 0.896162 0
0.832258 0.901671 0.0866102
0.832334 0.905699 0.167361
0.831571 0.909789 0.245335
0.83035 0.914244 0.325032
0.828931 0.919127 0.405524
0.827283 0.924331 0.483879
0.825284 0.929747 0.554528
0.823957 0.935515 0.615457
0 0.942718 0
0 0.942718 0
0 0.942718 0
0 0.942718 0
0 0.942718 0
0 0.942718 0
0 0.942718 0
0 0.942718 0
0 0.942718 0
0 0.942718 0
0 0.942718 0
0 0.94139 0
0 0.939879 0
0.0835737 0.940185 0
0.337362 0.934615 0
0.468788 0.92842 0
0.559533 0.922881 0
0.627451 0.918898 0
0.679652 0.916228 0
0.721401 0.914427 0
0.754269 0.913146 0
0.780682 0.912367 0
0.80238 0.91194 0
0.819638 0.912123 0
0.829862 0.915282 0.0562295
0.831479 0.917403 0.131411
0.831205 0.919432 0.201251
0.830427 0.92166 0.272602
0.829358 0.924315 0.34583
0.828061 0.927459 0.421469
0.826596 0.930968 0.494942
0.824781 0.934936 0.561975
0.823621 0.939345 0.619928
0 0.957855 0
0 0.957855 0
0 0.957855 0
0 0.957855 0
0 0.957855 0
0 0.957855 0
0 0.957855 0
0 0.957855 0
0 0.957855 0
0 0.957855 0
0 0.957855 0
0 0.957855 0
0 0.956344 0
0.262303 0.95407 0
0.408194 0.947845 0
0.508156 0.942245 0
0.579538 0.937591 0
0.636362 0.934218 0
0.682139 0.931807 0
0.719783 0.930007 0
0.750195 0.928756 0
0.775494 0.927764 0
0.796551 0.927077 0
0.815579 0.928969 0.04654
0.828763 0.929961 0.115877
0.830228 0.930556 0.179217
0.83003 0.931136 0.242084
0.829267 0.932128 0.306508
0.828321 0.933547 0.372793
0.827146 0.935393 0.441672
0.825849 0.937606 0.509285
0.824231 0.94023 0.571298
0.82324 0.943435 0.625772
0.227909 0.968933 0
0.227909 0.968933 0
0.227909 0.968933 0
0.227909 0.968933 0
0.227893 0.968933 0
0.227893 0.968933 0
0.227893 0.968933 0
0.227893 0.968933 0
0.227878 0.968933 0
0.227863 0.968933 0
0.227863 0.968933 0
0.227832 0.968933 0
0.227802 0.968933 0
0.364889 0.963256 0
0.474647 0.957504 0
0.546944 0.952407 0
0.603449 0.948791 0
0.649363 0.94609 0
0.688441 0.944015 0
0.721447 0.942397 0
0.750042 0.942519 0.0164034
0.774319 0.942535 0.0557565
0.794751 0.942214 0.0885023
0.811429 0.94197 0.129107
0.82533 0.94168 0.177859
0.828809 0.94136 0.231281
0.828809 0.941131 0.287938
0.828077 0.941283 0.345571
0.827222 0.941817 0.405814
0.826185 0.942641 0.466819
0.824674 0.943832 0.526665
0.823651 0.945434 0.583551
0.822843 0.947555 0.633005
0.466529 0.971588 0.119127
0.466529 0.971588 0.119127
0.466529 0.971588 0.119127
0.466529 0.971588 0.119127
0.466529 0.971588 0.119127
0.466529 0.971588 0.119127
0.466529 0.971588 0.119127
0.466529 0.971588 0.119127
0.466529 0.971588 0.119127
0.466529 0.971588 0.119142
0.466529 0.971588 0.119142
0.466529 0.971588 0.119142
0.466514 0.971588 0.119142
0.466484 0.971588 0.119142
0.52842 0.967666 0.11902
0.586603 0.963836 0.120562
0.630564 0.960723 0.123781
0.667613 0.958633 0.128466
0.700267 0.956924 0.135286
0.72813 0.95552 0.144137
0.752285 0.954345 0.15555
0.77351 0.953277 0.16997
0.791867 0.952377 0.188342
0.80734 0.951537 0.210544
0.820188 0.950774 0.244755
0.827024 0.950042 0.288563
0.827558 0.94934 0.336965
0.826902 0.948974 0.389456
0.826093 0.948806 0.442908
0.825193 0.948943 0.496757
0.823896 0.949371 0.548501
0.823072 0.950256 0.598321
0.822431 0.951629 0.642329
0.580774 0.968841 0.232715
0.580774 0.968841 0.232715
0.580774 0.968841 0.232715
0.580774 0.968841 0.232715
0.580774 0.968841 0.232715
0.580774 0.968841 0.232715
0.580774 0.968841 0.232715
0.580774 0.968841 0.232715
0.580774 0.968841 0.232715
0.580774 0.968841 0.232715
0.580774 0.968841 0.232715
0.580774 0.968841 0.232715
0.580758 0.968841 0.232715
0.580758 0.968841 0.232715
0.580743 0.968841 0.232715
0.616098 0.96791 0.233829
0.653727 0.967025 0.236637
0.684138 0.965438 0.240192
0.710445 0.964034 0.244862
0.733577 0.962386 0.25124
0.754238 0.961257 0.259312
0.773114 0.960174 0.269657
0.789593 0.959182 0.282719
0.803861 0.958297 0.299489
0.816052 0.957458 0.319417
0.825193 0.956634 0.350454
0.826337 0.955764 0.390951
0.825727 0.955047 0.435798
0.824994 0.954513 0.48275
0.82385 0.954223 0.528527
0.823117 0.954238 0.57351
0.822507 0.954635 0.615702
0.822019 0.955428 0.653315
0.649012 0.966293 0.338064
0.649012 0.966293 0.338064
0.649012 0.966293 0.338064
0.649012 0.966293 0.338064
0.649012 0.966293 0.338064
0.649012 0.966293 0.338064
0.649012 0.966293 0.338064
0.649012 0.966293 0.338064
0.648997 0.966293 0.338064
0.648997 0.966293 0.338064
0.648997 0.966293 0.338064
0.648997 0.966293 0.338064
0.648997 0.966293 0.338064
0.648997 0.966293 0.338064
0.648997 0.966293 0.338064
0.648997 0.966293 0.338064
0.672953 0.966033 0.339773
0.69929 0.965927 0.342702
0.720531 0.965942 0.346303
0.739391 0.966003 0.350744
0.757366 0.96585 0.356939
0.773663 0.96524 0.364462
0.788266 0.963912 0.374105
0.801251 0.963058 0.386313
0.812512 0.962249 0.401785
0.821836 0.961501 0.42031
0.824582 0.960693 0.448692
0.824552 0.959792 0.48455
0.82356 0.95906 0.52282
0.82295 0.958587 0.562356
0.822431 0.958358 0.600153
0.821988 0.95845 0.634943
0.821637 0.958816 0.665995
0.695323 0.964721 0.437003
0.695323 0.964721 0.437003
0.695323 0.964721 0.437003
0.695323 0.964721 0.437003
0.695323 0.964721 0.437003
0.695323 0.964721 0.437003
0.695323 0.964721 0.437003
0.695323 0.964721 0.437003
0.695323 0.964721 0.437003
