BBLuts/BB_103_0910_LUT.cube
TITLE "Generated by Resolve"
LUT_3D_SIZE 9
0.0221714 0.0127108 0.0162051
0.0221714 0.0127108 0.0162051
0.218875 0.0145724 0.017731
0.446159 0.0172427 0.0199588
0.795727 0.0218051 0.0237736
1 0.0254826 0.0268406
1 0.533227 0.113375
0.968277 0.921523 0.350042
0.951446 1 0.665675
0.0173648 0.0722057 0.0124208
0.016846 0.083299 0.0116274
0.225483 0.0622416 0.0146334
0.456138 0.01738 0.0200656
0.798779 0.0218509 0.0238041
1 0.0254673 0.0268406
1 0.568689 0.0966506
0.967544 0.927504 0.347494
0.951354 1 0.665324
0.00077821 0.245411 0
0.000396735 0.249073 0
0.17145 0.248905 0
0.444984 0.22797 0.00328069
0.794171 0.12311 0.0157931
1 0.242237 0.00816358
1 0.618891 0.0650339
0.96643 0.93669 0.34345
0.951217 1 0.664744
0 0.49955 0
0 0.500664 0
0 0.501244 0
0.367712 0.501122 0
0.761517 0.492149 0
1 0.542885 0
0.988815 0.734188 0
0.963546 0.96051 0.332326
0.95079 1 0.663035
0 0.855497 0
0 0.855406 0
0 0.854978 0
0 0.851987 0
0.655009 0.845182 0
0.937606 0.852461 0
0.967773 0.912642 0
0.957702 1 0.330159
0.949691 1 0.658
0 1 0
0 1 0
0 1 0
0 1 0
0.602441 1 0
0.860899 1 0
0.951232 1 0
0.950042 1 0.360922
0.947372 1 0.651545
0.462501 1 0.119478
0.484352 1 0.120485
0.515679 1 0.122133
0.588266 1 0.127016
0.710857 1 0.141329
0.844144 1 0.182498
0.935149 1 0.281193
0.944259 1 0.465995
0.944533 1 0.680415
0.802518 1 0.540902
0.804334 1 0.541085
0.807202 1 0.54136
0.815351 1 0.542229
0.836194 1 0.544823
0.876997 1 0.552743
0.925124 1 0.575189
0.942367 1 0.635355
0.942992 1 0.742733
0.903044 1 0.777356
0.903258 1 0.777371
0.903624 1 0.777401
0.904692 1 0.777523
0.907774 1 0.777859
0.915618 1 0.778897
0.930495 1 0.781949
0.943282 1 0.790295
0.94342 1 0.812055
0.0223545 0.0129244 0.0693065
0.0223545 0.0129244 0.0695811
0.21915 0.0147555 0.07187
0.446998 0.0174258 0.0753338
0.795743 0.0219577 0.0824445
1 0.0257267 0.118883
1 0.526955 0.180606
0.968582 0.920409 0.381353
0.951507 1 0.673075
0.0196841 0.0468605 0.0582589
0.0623636 0.0599374 0.056199
0.236912 0.0149233 0.0634775
0.452033 0.0174411 0.0635386
0.797009 0.0218814 0.0516823
1 0.0256352 0.0906233
1 0.563378 0.165652
0.967849 0.926436 0.379004
0.951431 1 0.672724
0.00170901 0.236118 0
0.00138857 0.239231 0
0.191043 0.239582 0.000244144
0.44448 0.217853 0.0041352
0.793912 0.090959 0.0184634
1 0.222538 0.00996414
1 0.614725 0.13962
0.96672 0.935683 0.37528
0.951278 1 0.672175
0 0.495293 0
0 0.496345 0
0 0.496757 0
0.378195 0.496315 0
0.761456 0.488106 0
1 0.539574 0
0.989166 0.731838 0.0159152
0.963806 0.959762 0.364797
0.950866 1 0.670512
0 0.853941 0
0 0.853834 0
0 0.853376 0
0 0.85034 0
0.658518 0.843641 0
0.937865 0.851362 0
0.967849 0.912032 0
0.957763 1 0.337758
0.949752 1 0.66569
0 1 0
0 1 0
0 1 0
0 1 0
0.604776 1 0
0.861311 1 0
0.951247 1 0
0.950042 1 0.360739
0.947387 1 0.652369
0.465888 1 0.11931
0.487388 1 0.120333
0.518318 1 0.121981
0.590066 1 0.126864
0.711696 1 0.141192
0.844373 1 0.182391
0.935195 1 0.281178
0.944259 1 0.465919
0.944533 1 0.680369
0.802792 1 0.540871
0.804608 1 0.541054
0.807462 1 0.541344
0.815579 1 0.542199
0.836378 1 0.544793
0.877089 1 0.552712
0.925155 1 0.575158
0.942367 1 0.63534
0.942992 1 0.742718
0.903075 1 0.777356
0.903288 1 0.777371
0.903655 1 0.777401
0.904723 1 0.777523
0.907805 1 0.777859
0.915633 1 0.778897
0.93051 1 0.781949
0.943282 1 0.790295
0.94342 1 0.812055
0.0231022 0.0137942 0.208667
0.0231022 0.0137942 0.208881
0.197421 0.0153201 0.209812
0.457816 0.0182345 0.209049
0.796185 0.0225986 0.217792
1 0.0263676 0.248325
1 0.514382 0.276738
0.969055 0.918502 0.426001
0.951614 1 0.684245
0.0230716 0.0137636 0.20473
0.0230716 0.0137636 0.205097
0.224613 0.0155642 0.205966
0.456779 0.018204 0.205173
0.798871 0.0226139 0.213611
1 0.0263218 0.24155
1 0.552361 0.266804
0.968322 0.924636 0.42388
0.951522 1 0.683925
0.00512703 0.209064 0.178027
0.00488289 0.211521 0.177508
0.183291 0.206027 0.174975
0.434012 0.189364 0.181048
0.797223 0.0241703 0.201785
1 0.165606 0.216297
1 0.605585 0.251133
0.967178 0.934035 0.420508
0.951385 1 0.683391
0 0.482856 0.070985
0 0.484062 0.0718853
0 0.484642 0.0732433
0.379782 0.483772 0.0781567
0.757061 0.476295 0.0870832
1 0.528267 0.11429
0.990555 0.726009 0.205051
0.964218 0.958465 0.411109
0.950957 1 0.681834
0 0.850721 0
0 0.850599 0
0 0.850126 0
0 0.847059 0
0.661768 0.840421 0
0.938018 0.848737 0
0.968215 0.910445 0.0415045
0.958114 1 0.387213
0.949859 1 0.677287
0 1 0
0 1 0
0 1 0
0 1 0
0.608499 1 0
0.861967 1 0
0.951278 1 0
0.950057 1 0.360525
0.947478 1 0.6645
0.471321 1 0.119066
0.492302 1 0.120089
0.522545 1 0.121736
0.592981 1 0.126619
0.713039 1 0.140978
0.84477 1 0.182193
0.935286 1 0.281163
0.944259 1 0.465797
0.944533 1 0.680308
0.803235 1 0.540825
0.805035 1 0.541024
0.807874 1 0.541299
0.815961 1 0.542153
0.836667 1 0.544747
0.877241 1 0.552666
0.9252 1 0.575128
0.942367 1 0.63534
0.942992 1 0.742702
0.90312 1 0.777356
0.903349 1 0.777371
0.903716 1 0.777401
0.904768 1 0.777523
0.907851 1 0.777859
0.915663 1 0.778897
0.930526 1 0.781949
0.943282 1 0.790295
0.94342 1 0.812055
0.024567 0.0154574 0.418662
0.024567 0.0154574 0.418784
0.0297704 0.0155032 0.418875
0.437369 0.01944 0.420645
0.819471 0.0242161 0.42678
1 0.0276036 0.446113
1 0.471199 0.454948
0.970413 0.912398 0.529656
0.951888 1 0.712261
0.0245518 0.0154421 0.41677
0.0245518 0.0154421 0.416953
0.110201 0.0160678 0.41735
0.451575 0.0195926 0.418769
0.817212 0.0241703 0.424674
1 0.0275883 0.443717
1 0.51516 0.447639
0.969635 0.918853 0.527886
0.951797 1 0.711971
0.0176242 0.0953994 0.40766
0.0170748 0.101244 0.40737
0.13431 0.0969863 0.408225
0.457267 0.019913 0.415427
0.810147 0.0240635 0.421164
1 0.0275425 0.4392
1 0.575006 0.436851
0.968444 0.928725 0.525093
0.951644 1 0.711513
0 0.440742 0.357351
0 0.44242 0.357488
0 0.44358 0.357961
0.375265 0.442527 0.361288
0.743725 0.435737 0.36788
1 0.489738 0.379721
0.993942 0.706203 0.409186
0.965362 0.954284 0.517418
0.951232 1 0.710185
0 0.837827 0.242603
0 0.837827 0.243244
0 0.837491 0.244266
0 0.834684 0.247303
0.659449 0.828138 0.259785
0.93753 0.83859 0.287633
0.970275 0.904707 0.351476
0.959014 1 0.498665
0.950103 1 0.70634
0 1 0
0 1 0
0 1 0
0 1 0
0.608652 1 0
0.861708 1 0.0953231
0.952377 1 0.260853
0.950668 1 0.458885
0.947707 1 0.695842
0.48687 1 0.118318
0.506416 1 0.119341
0.534813 1 0.120989
0.601511 1 0.125902
0.717052 1 0.140337
0.845914 1 0.181598
0.935546 1 0.281071
0.944259 1 0.465415
0.944533 1 0.680354
0.804562 1 0.540703
0.806332 1 0.540887
0.80914 1 0.541176
0.817105 1 0.542016
0.837552 1 0.544625
0.877684 1 0.552544
0.925338 1 0.575021
0.942351 1 0.635309
0.942992 1 0.742641
0.903288 1 0.77734
0.903517 1 0.777356
0.903868 1 0.777386
0.904936 1 0.777508
0.907988 1 0.777844
0.91577 1 0.778881
0.930587 1 0.781933
0.943282 1 0.79028
0.94342 1 0.812055
0.0271 0.0183413 0.726879
0.0271 0.0183413 0.726955
0.0271 0.0183413 0.727108
0.287465 0.0204318 0.727733
0.805844 0.0263828 0.72871
1 0.0298009 0.735576
1 0.237873 0.734585
0.974197 0.890303 0.707042
0.95256 1 0.767849
0.0271 0.0183413 0.726146
0.0271 0.0183413 0.726238
0.0271 0.0183413 0.72639
0.316167 0.0207065 0.727047
0.812375 0.0264591 0.728023
1 0.0297856 0.734798
1 0.343725 0.723171
0.973266 0.898146 0.705516
0.952453 1 0.767636
0.0270848 0.0183261 0.724956
0.0270848 0.0183261 0.725063
0.0270848 0.0183261 0.725216
0.354421 0.021088 0.725902
0.816556 0.0265049 0.726757
1 0.0297856 0.733471
1 0.44889 0.710567
0.971847 0.90988 0.703212
0.9523 1 0.767269
0.00277714 0.26891 0.698421
0.00244144 0.272175 0.698161
0.00201419 0.276188 0.697826
0.335195 0.26598 0.699428
0.800641 0.171923 0.709346
1 0.276295 0.705211
1 0.631266 0.685145
0.968292 0.939513 0.697108
0.951858 1 0.766247
0 0.789822 0.617105
0 0.790219 0.617212
0 0.790356 0.61738
0 0.788479 0.617945
0.648173 0.78201 0.623072
0.934478 0.799756 0.628656
0.974838 0.881148 0.640848
0.961135 0.998672 0.683513
0.950698 1 0.763348
0 1 0.541588
0 1 0.541878
0 1 0.542336
0 1 0.543709
0.578424 1 0.550408
0.853697 1 0.564446
0.954406 1 0.595682
0.952193 1 0.660182
0.948226 1 0.756008
0.47567 1 0.442832
0.496086 1 0.443336
0.525475 1 0.444129
0.593881 1 0.446448
0.711284 1 0.453025
0.841291 1 0.47129
0.931151 1 0.518914
0.94522 1 0.617411
0.944961 1 0.739391
0.808499 1 0.540307
0.810193 1 0.54049
0.812879 1 0.540764
0.820508 1 0.541634
0.840177 1 0.544244
0.879057 1 0.552148
0.92578 1 0.574685
0.942351 1 0.635233
0.942992 1 0.742458
0.903792 1 0.777279
0.904021 1 0.777295
0.904356 1 0.77734
0.905409 1 0.777447
0.908431 1 0.777783
0.916091 1 0.778836
0.930755 1 0.781888
0.943282 1 0.790234
0.94342 1 0.812055
0.0290227 0.0205234 0.942855
0.0290227 0.0205234 0.94287
0.0290227 0.0205234 0.942901
0.0290227 0.0205234 0.942946
0.676555 0.0266728 0.941833
1 0.0315099 0.940337
1 0.0315404 0.941436
0.988128 0.78172 0.86186
0.954055 1 0.838849
0.0290227 0.0205234 0.942763
0.0290227 0.0205234 0.942779
0.0290227 0.0205234 0.942794
0.0290227 0.0205234 0.942855
0.685939 0.0267796 0.941711
1 0.0315099 0.940246
1 0.0315251 0.941329
0.986297 0.797116 0.859586
0.953933 1 0.838666
0.0290227 0.0205081 0.942626
0.0290227 0.0205081 0.942641
0.0290227 0.0205081 0.942657
0.0290227 0.0205081 0.942687
0.700771 0.0269627 0.941482
1 0.0315099 0.940078
1 0.0315251 0.941176
0.983597 0.819791 0.855756
0.95375 1 0.838361
0.0290227 0.0205081 0.942168
0.0290227 0.0205081 0.942184
0.0290227 0.0205081 0.942199
0.0290227 0.0205081 0.941848
0.733089 0.0273442 0.940871
1 0.0315099 0.93959
1 0.0406348 0.938308
0.977142 0.87393 0.847425
0.953231 1 0.837507
0 0.556085 0.882414
0 0.557549 0.882231
0 0.55993 0.881926
0 0.563561 0.880919
0.652247 0.553475 0.882033
1 0.577234 0.877867
0.991241 0.754803 0.855695
0.966064 0.966079 0.832334
0.951873 1 0.835233
0 1 0.801846
0 1 0.801862
0 1 0.801892
0 1 0.802106
0.488151 1 0.804501
0.842069 1 0.807736
0.953017 1 0.809827
0.954314 1 0.814313
0.949126 1 0.830182
0.319585 1 0.775372
0.353704 1 0.775586
0.400015 1 0.775876
0.510369 1 0.776684
0.66833 1 0.778256
0.821759 1 0.781109
0.919875 1 0.786679
0.946609 1 0.798199
0.945647 1 0.821256
0.79794 1 0.737697
0.79968 1 0.737758
0.802457 1 0.737865
0.8103 1 0.738186
0.830442 1 0.739147
0.870253 1 0.742031
0.918105 1 0.750118
0.943175 1 0.770443
0.943389 1 0.806653
0.905318 1 0.777111
0.905516 1 0.777142
0.905852 1 0.777173
0.906859 1 0.777279
0.909728 1 0.77763
0.917098 1 0.778668
0.931289 1 0.781735
0.943282 1 0.790097
0.94342 1 0.812024
0.0295872 0.0211643 1
0.0295872 0.0211643 1
0.0295872 0.0211643 1
0.0295872 0.0211643 1
0.033051 0.0211795 1
1 0.0318608 1
1 0.032166 1
1 0.032166 1
0.959121 1 0.898116
0.0295872 0.0211643 1
0.0295872 0.0211643 1
0.0295872 0.0211643 1
0.0295872 0.0211643 1
0.0352026 0.0211795 1
1 0.0318914 1
1 0.032166 1
1 0.032166 1
0.958907 1 0.89781
0.0295872 0.0211643 1
0.0295872 0.0211643 1
0.0295872 0.0211643 1
0.0295872 0.0211643 1
0.0373541 0.0211948 1
1 0.0319219 1
1 0.032166 1
1 0.032166 1
0.958556 1 0.897337
0.0295872 0.0211643 1
0.0295872 0.0211643 1
0.0295872 0.0211643 1
0.0295872 0.0211643 1
0.0415351 0.02121 1
1 0.0320134 1
1 0.032166 1
1 0.0465858 1
0.95761 1 0.89604
0.0295872 0.0211643 1
0.0295872 0.0211643 1
0.0295872 0.0211643 1
0.0295872 0.0211643 1
0.357809 0.0237583 1
1 0.0321355 1
1 0.032166 1
1 0.616281 0.953704
0.9552 1 0.892729
0 0.916793 0.911788
0 0.917174 0.911727
0 0.9178 0.911635
0 0.919676 0.911345
0 0.913375 0.910597
0.863279 0.90399 0.912917
0.969894 0.938552 0.907378
0.960235 1 0.895598
0.951003 1 0.886763
0 1 0.87129
0 1 0.871321
0 1 0.871351
0 1 0.871458
0.541176 1 0.873854
0.796109 1 0.875776
0.914763 1 0.877012
0.94786 1 0.877745
0.946471 1 0.879683
0.762661 1 0.865827
0.765011 1 0.865843
0.768704 1 0.865858
0.779095 1 0.865904
0.805158 1 0.866026
0.853742 1 0.866346
0.90898 1 0.867124
0.943603 1 0.869139
0.943816 1 0.873808
0.900557 1 0.851362
0.900771 1 0.851377
0.901106 1 0.851377
0.902129 1 0.851423
0.905074 1 0.85153
0.912581 1 0.851896
0.927047 1 0.852964
0.943481 1 0.856016
0.94374 1 0.863706
0.0240177 0.0835737 1
0.0240177 0.0835737 1
0.0240177 0.0835737 1
0.0240177 0.0835889 1
0.0240177 0.0836652 1
0.0500649 0.0839399 1
1 0.032166 1
1 0.032166 1
0.998901 0.695521 0.951705
0.024033 0.0835279 1
0.024033 0.0835279 1
0.0240177 0.0835431 1
0.0240177 0.0835737 1
0.0240177 0.0836347 1
0.0504005 0.0839246 1
1 0.032166 1
1 0.032166 1
0.998917 0.695491 0.951705
0.024033 0.0834821 1
0.024033 0.0834821 1
0.024033 0.0834974 1
0.024033 0.0835126 1
0.0240177 0.0835737 1
0.0509346 0.0838788 1
1 0.032166 1
1 0.032166 1
0.998917 0.695445 0.95172
0.0240482 0.0833295 1
0.0240482 0.0833143 1
0.0240482 0.0833295 1
0.0240482 0.0833448 1
0.024033 0.0834211 1
0.0551461 0.0546273 1
1 0.032166 1
1 0.032166 1
0.998795 0.696498 0.951614
0.024094 0.082826 1
0.024094 0.082826 1
0.024094 0.0828412 1
0.024094 0.0828565 1
0.0240787 0.0829175 1
0.406653 0.0259403 1
1 0.032166 1
1 0.032166 1
0.998093 0.702495 0.951003
0.0242466 0.0812238 1
0.0242466 0.0812238 1
0.0242466 0.0812238 1
0.0242466 0.0812543 1
0.0242313 0.0813153 1
0.823484 0.029099 1
1 0.032166 1
1 0.0901503 1
0.966796 0.965682 0.924346
0 1 0.905425
0 1 0.905409
0 1 0.905409
0 1 0.905379
0 1 0.905318
0.662745 1 0.910796
0.923796 1 0.913283
0.952499 1 0.912047
0.948775 1 0.908827
0.553796 1 0.902205
0.563165 1 0.902235
0.577279 1 0.902266
0.619455 1 0.902388
0.709072 1 0.902647
0.814298 1 0.902937
0.898573 1 0.903166
0.942596 1 0.903548
0.944106 1 0.903746
0.887587 1 0.900557
0.887877 1 0.900557
0.888334 1 0.900572
0.889708 1 0.900572
0.893614 1 0.900587
0.903365 1 0.900633
0.921035 1 0.90074
0.939971 1 0.900984
0.943984 1 0.901595
0 0.334859 0.979248
0 0.334859 0.979248
0 0.334859 0.979248
0 0.334874 0.979248
0 0.334874 0.979248
0 0.33492 0.979232
0.0391394 0.326879 0.980056
1 0.318914 0.988373
0.99202 0.753933 0.945846
0 0.334859 0.979248
0 0.334859 0.979248
0 0.334859 0.979248
0 0.334859 0.979248
0 0.334874 0.979248
0 0.334905 0.979248
0.0391852 0.326879 0.980056
1 0.319188 0.988342
0.99202 0.753994 0.945846
0 0.334829 0.979248
0 0.334829 0.979248
0 0.334829 0.979248
0 0.334859 0.979248
0 0.334859 0.979248
0 0.334905 0.979248
0.0392767 0.326863 0.980056
1 0.319631 0.988312
0.992004 0.75407 0.94583
0 0.334813 0.979248
0 0.334813 0.979248
0 0.334813 0.979248
0 0.334813 0.979248
0 0.334829 0.979248
0 0.334874 0.979248
0.0394446 0.326833 0.980056
1 0.320974 0.988174
0.991974 0.75436 0.945815
0 0.334707 0.979263
0 0.334707 0.979263
0 0.334707 0.979263
0 0.334707 0.979263
0 0.334722 0.979263
0 0.334768 0.979248
0.383276 0.309087 0.983581
1 0.326116 0.987701
0.991882 0.755199 0.945724
0 0.334401 0.979294
0 0.334401 0.979294
0 0.334401 0.979294
0 0.334417 0.979278
0 0.334417 0.979278
0 0.334447 0.979278
0.835599 0.129473 1
1 0.341054 0.986282
0.991714 0.756558 0.945586
0 0.333455 0.97937
0 0.333455 0.97937
0 0.333455 0.97937
0 0.333471 0.97937
0 0.333471 0.97937
0 0.333516 0.97937
1 0.0378576 1
1 0.366674 0.983856
0.991424 0.758984 0.945342
0 1 0.900481
0 1 0.900481
0 1 0.900481
0 1 0.900481
0 1 0.900481
0 1 0.900465
0.849271 1 0.905882
0.945876 1 0.906889
0.945724 1 0.90634
0.819532 1 0.904082
0.820661 1 0.904082
0.822446 1 0.904097
0.827543 1 0.904128
0.840726 1 0.904204
0.868803 1 0.904387
0.906844 1 0.904631
0.93666 1 0.904814
0.943999 1 0.90486
