BBLuts/BB_102_0160_LUT.cube
TITLE "Generated by Resolve"
LUT_3D_SIZE 5
0.00782788 0.00891127 0.0037232
0.209003 0.00564584 0.000457771
0.725185 0 0
0.870115 0.554818 0.0988479
0.844327 0.935134 0.659998
0 0.240162 0.00178531
0.16553 0.24239 0
0.724727 0.0996109 0
0.86482 0.622889 0.0653697
0.844236 0.936431 0.659434
0 0.780331 0
0 0.77995 0
0.637369 0.774456 0
0.848234 0.818784 0
0.843626 0.944854 0.655299
0.520653 0.978744 0.166278
0.554986 0.978073 0.168933
0.68542 0.974243 0.18822
0.836759 0.968582 0.335393
0.841337 0.974884 0.674983
0.81294 0.985183 0.750042
0.813336 0.985183 0.750088
0.816144 0.985214 0.750423
0.83151 0.985351 0.753491
0.839994 0.985367 0.776486
0.00941482 0.011017 0.162081
0.188296 0.00862135 0.158923
0.728008 0.000198367 0.151949
0.872694 0.537667 0.25977
0.844282 0.934768 0.673716
0 0.205066 0.145113
0.178729 0.20029 0.139406
0.728664 1.5259e-05 0.136751
0.867216 0.616449 0.241947
0.84419 0.936095 0.673228
0 0.777203 0
0 0.776776 0
0.641733 0.771313 0
0.850752 0.820005 0.0686198
0.84358 0.944579 0.669551
0.526268 0.978592 0.16585
0.559457 0.97792 0.168505
0.68687 0.974121 0.187823
0.836851 0.968536 0.335332
0.841337 0.974853 0.674922
0.812985 0.985183 0.750042
0.813397 0.985183 0.750088
0.816205 0.985214 0.750408
0.83154 0.985351 0.753475
0.839994 0.985367 0.776486
0.00367742 0.00665293 0.645579
0.00367742 0.00663767 0.645747
0.731533 0 0.63534
0.893126 0.214176 0.651865
0.844129 0.932143 0.737102
0.00370794 0.00666819 0.64419
0.00370794 0.00666819 0.644373
0.738552 0 0.633753
0.877302 0.459983 0.649165
0.844022 0.933562 0.736828
0 0.740307 0.608713
0 0.740627 0.608942
0.632868 0.73608 0.609857
0.854109 0.801892 0.628367
0.843381 0.942596 0.734798
0.529137 0.979461 0.505653
0.561166 0.978821 0.506477
0.685237 0.974929 0.512139
0.833036 0.968292 0.557366
0.841138 0.974319 0.720088
0.813458 0.985183 0.749981
0.81384 0.985183 0.750027
0.816602 0.985214 0.750362
0.831693 0.985351 0.753429
0.839994 0.985367 0.776486
0 0.0024567 0.854109
0 0.0024567 0.854109
0 0.0024567 0.854109
0.902922 0 0.846021
0.845792 0.900023 0.833463
0 0.0024567 0.854109
0 0.0024567 0.854109
0 0.0024567 0.854109
0.902922 0 0.846021
0.845579 0.90309 0.833219
0 0.0024567 0.854109
0 0.0024567 0.854109
0.366705 0.000427253 0.850477
0.902922 0 0.846021
0.844266 0.921492 0.831739
0 0.975647 0.822751
0 0.974029 0.822629
0.570367 0.968887 0.823072
0.818799 0.960021 0.823896
0.840742 0.970352 0.827024
0.81059 0.984955 0.806806
0.810971 0.984955 0.806821
0.813657 0.984985 0.806928
0.828519 0.985138 0.80798
0.839734 0.985214 0.816236
0 0.329564 0.853315
0 0.329564 0.853315
0 0.32958 0.853315
0 0.329763 0.853315
0.858824 0.712993 0.849775
0 0.329534 0.853315
0 0.329534 0.853315
0 0.329564 0.853315
0 0.329732 0.853315
0.858824 0.7131 0.849775
0 0.329397 0.85333
0 0.329397 0.85333
0 0.329412 0.85333
0.387625 0.307179 0.851255
0.858763 0.713878 0.849775
0 0.328023 0.85333
0 0.328023 0.85333
0 0.328038 0.85333
0.902922 0 0.846021
0.858595 0.716381 0.84976
0.757809 0.984222 0.847883
0.759548 0.984237 0.847898
0.770947 0.98436 0.847959
0.814328 0.984817 0.848157
0.839506 0.985077 0.84828
