BBLuts/BB_102_0660_LUT.cube
TITLE "Generated by Resolve"
LUT_3D_SIZE 33
0 0 0
0 0 0
0 0 0
0 0 0
0 0 0
0.0302129 0 0
0.0850538 0 0
0.125978 0 0
0.167758 0 0
0.21735 0 0
0.27393 0 0
0.335546 0 0
0.402502 0 0
0.477134 0 0
0.556909 0 0
0.633021 0 0
0.710307 0 0
0.788846 0 0
0.860548 0 0
0.91841 0 0
0.932677 0 0
0.933501 0 0
0.920211 0.230991 0
0.910292 0.410986 0.00209049
0.902831 0.544305 0.0394598
0.896819 0.647501 0.0871595
0.891615 0.734188 0.145769
0.887388 0.803662 0.221118
0.884123 0.856168 0.315022
0.881392 0.896849 0.409094
0.879179 0.927382 0.496025
0.877241 0.951934 0.571984
0.875639 0.970779 0.641215
0 0 0
0 0 0
0 0 0
0 0 0
0 0 0
0.0404822 0 0
0.0885176 0 0
0.128847 0 0
0.172412 0 0
0.222797 0 0
0.279484 0 0
0.339895 0 0
0.403815 0 0
0.47866 0 0
0.558206 0 0
0.633753 0 0
0.710948 0 0
0.788846 0 0
0.860471 0 0
0.918044 0 0
0.932647 0 0
0.933043 0 0
0.918486 0.259266 0
0.908721 0.423774 0
0.902251 0.551278 0.0363317
0.896513 0.651484 0.0855421
0.891447 0.736385 0.14522
0.887312 0.804776 0.221027
0.884077 0.856748 0.314763
0.881376 0.897154 0.408942
0.879164 0.927535 0.495964
0.877241 0.952026 0.571939
0.875639 0.970825 0.641199
0 0 0
0 0 0
0 0 0
0 0 0
0 0 0
0.0458686 0 0
0.0889754 0 0
0.13109 0 0
0.176822 0 0
0.226581 0 0
0.281849 0 0
0.340902 0 0
0.40557 0 0
0.480522 0 0
0.559518 0 0
0.634775 0 0
0.711284 0 0
0.789151 0 0
0.86038 0 0
0.917632 0 0
0.932616 0 0
0.930434 0.0416724 0
0.916777 0.287098 0
0.907469 0.435782 0
0.901717 0.557916 0.0335088
0.896239 0.655055 0.0841077
0.891295 0.73843 0.144717
0.887236 0.805829 0.220935
0.884047 0.857282 0.314519
0.881346 0.897459 0.408789
0.879149 0.927703 0.495872
0.877241 0.952117 0.571893
0.875639 0.970855 0.641184
0 0 0
0 0 0
0 0 0
0 0 0
0 0 0
0.047013 0 0
0.0865797 0 0
0.128603 0 0
0.175189 0 0
0.227527 0 0
0.284062 0 0
0.342748 0 0
0.407736 0 0
0.482414 0 0
0.560845 0 0
0.635523 0 0
0.711925 0 0
0.78941 0 0
0.860243 0 0
0.917205 0 0
0.932586 0 0
0.926833 0.114992 0
0.915389 0.309209 0
0.906493 0.445945 0
0.901244 0.563607 0.0310979
0.895979 0.658259 0.0828107
0.891157 0.740337 0.144244
0.88716 0.806836 0.220829
0.884001 0.857832 0.314275
0.881331 0.897749 0.408637
0.879133 0.92784 0.495796
0.877226 0.952193 0.571847
0.875624 0.970916 0.641154
0 0.0298314 0
0 0.0328527 0
0 0.0357977 0
0 0.0386816 0
0 0.0398871 0
0.030869 0.0383612 0
0.076051 0.0357519 0
0.120928 0.0301366 0
0.170535 0.0178988 0
0.227375 0 0
0.285084 0 0
0.344732 0 0
0.409796 0 0
0.484352 0 0
0.562524 0 0
0.636576 0 0
0.712551 0 0
0.78967 0 0
0.860105 0 0
0.916732 0 0
0.93254 0 0
0.924529 0.157198 0
0.914168 0.328328 0
0.905776 0.456657 0
0.90074 0.569589 0.0279698
0.89572 0.661555 0.0813458
0.89102 0.742138 0.143801
0.887083 0.807828 0.220752
0.883955 0.858381 0.314031
0.881315 0.898024 0.408499
0.879133 0.927993 0.49572
0.877226 0.952285 0.571801
0.875624 0.970962 0.641123
0 0.0641489 0
0 0.0666209 0
0 0.0691844 0
0 0.0711833 0
0 0.0722057 0
0.00679026 0.071809 0
0.0632334 0.070573 0
0.112398 0.0681468 0
0.164294 0.0633707 0
0.22179 0.0541085 0
0.281865 0.0363317 0
0.345663 0 0
0.411643 0 0
0.486427 0 0
0.564095 0 0
0.637476 0 0
0.713252 0 0
0.78996 0 0
0.859953 0 0
0.916228 0 0
0.931838 0 0
0.922515 0.19237 0
0.9131 0.345022 0
0.90515 0.465965 0
0.900252 0.575128 0.0250095
0.89546 0.664958 0.0797131
0.890867 0.744167 0.143297
0.887007 0.808759 0.220661
0.883925 0.8589 0.313802
0.881285 0.898314 0.408347
0.879118 0.928161 0.495644
0.877211 0.952377 0.571756
0.875624 0.971008 0.641093
0 0.100755 0
0 0.102861 0
0 0.104936 0
0 0.106203 0
0 0.107103 0
0 0.107393 0
0.0387732 0.106706 0
0.0994125 0.105486 0
0.155276 0.102892 0
0.215641 0.0977951 0
0.277333 0.0885634 0
0.341787 0.0737469 0
0.410422 0.0462806 0
0.488411 0 0
0.566018 0 0
0.638865 0 0
0.713802 0 0
0.78999 0 0
0.85948 0 0
0.915618 0 0
0.929198 0.0462348 0
0.920409 0.227863 0
0.911925 0.363317 0
0.904418 0.476997 0
0.899718 0.581186 0.0217746
0.89514 0.668803 0.0778821
0.890684 0.746578 0.142672
0.886915 0.810101 0.220584
0.883879 0.85951 0.313527
0.88127 0.898634 0.408179
0.879103 0.928344 0.495552
0.877211 0.952453 0.57171
0.875624 0.971054 0.641077
0 0.142916 0
0 0.144762 0
0 0.146136 0
0 0.147204 0
0 0.147845 0
0 0.148409 0
0 0.148623 0
0.0728008 0.147707 0
0.14052 0.146166 0
0.205035 0.142992 0
0.270176 0.136645 0
0.337896 0.127504 0
0.408209 0.113954 0
0.485801 0.0914778 0
0.56524 0.0449226 0
0.639628 0 0
0.714351 0 0
0.790387 0 0
0.85919 0 0
0.912963 0.00588998 0
0.924849 0.131151 0
0.917906 0.26891 0
0.910399 0.386801 0
0.90341 0.491875 0
0.898878 0.589761 0.0153506
0.894743 0.673884 0.0754253
0.89044 0.749813 0.141878
0.886778 0.811902 0.220478
0.883803 0.860563 0.313085
0.881224 0.899123 0.407935
0.879088 0.928588 0.49543
0.877195 0.952605 0.571633
0.875608 0.97113 0.641032
0 0.192767 0
0 0.194186 0
0 0.195163 0
0 0.195926 0
0 0.19649 0
0 0.197086 0
0 0.19736 0
0.0256046 0.197055 0
0.112337 0.195636 0
0.186481 0.19295 0
0.257664 0.188663 0
0.330465 0.182269 0
0.404837 0.173327 0
0.484672 0.159777 0
0.562737 0.141161 0
0.635187 0.115282 0
0.710872 0.0771954 0
0.789487 0.002533 0
0.856962 0.00956741 0
0.906966 0.107225 0
0.920089 0.211521 0
0.915068 0.314199 0
0.908598 0.414282 0
0.902129 0.510613 0
0.897642 0.601007 0.00581369
0.894148 0.681193 0.0717327
0.89012 0.754101 0.140795
0.88661 0.814359 0.22031
0.883696 0.861982 0.31249
0.881163 0.899931 0.407553
0.879057 0.928969 0.495232
0.87718 0.952819 0.571527
0.875608 0.971252 0.64097
0 0.249195 0
0 0.249836 0
0 0.250248 0
0 0.250584 0
0 0.251057 0
0 0.251133 0
0 0.251072 0
0 0.250751 0
0.0563821 0.250034 0
0.15552 0.248417 0
0.237552 0.245808 0
0.317189 0.241535 0
0.397681 0.235126 0
0.481849 0.225513 0
0.560906 0.214221 0
0.632242 0.200931 0
0.706035 0.187198 0
0.780652 0.176303 0
0.846937 0.182803 0
0.898695 0.221103 0
0.915434 0.285634 0
0.911818 0.364981 0
0.906355 0.448157 0
0.900572 0.533501 0
0.895827 0.615412 0
0.893339 0.690913 0.0666514
0.889662 0.760143 0.1393
0.886366 0.817655 0.220127
0.883543 0.863935 0.311696
0.881086 0.901015 0.407034
0.879011 0.929595 0.494896
0.877165 0.953109 0.571359
0.875593 0.971405 0.640879
0 0.309239 0
0 0.30988 0
0 0.310277 0
0 0.310613 0
0 0.310842 0
0 0.311009 0
0 0.311101 0
0 0.311315 0
0 0.310933 0
0.0910048 0.310216 0
0.204471 0.30898 0
0.295171 0.306432 0
0.384024 0.301961 0
0.47483 0.295338 0
0.557412 0.288151 0
0.629633 0.280552 0
0.702358 0.274128 0
0.775113 0.271458 0
0.839734 0.280873 0
0.890379 0.310002 0
0.910597 0.358389 0
0.908248 0.419516 0
0.903593 0.489113 0
0.898619 0.561776 0
0.893812 0.631891 0
0.892302 0.703578 0.0606546
0.889067 0.768109 0.137331
0.88603 0.822217 0.219928
0.883345 0.866514 0.310613
0.88098 0.902495 0.406332
0.87895 0.930465 0.494438
0.877134 0.953613 0.571084
0.875578 0.971649 0.640757
0 0.379034 0
0 0.379324 0
0 0.379705 0
0 0.380331 0
0 0.380575 0
0 0.380774 0
0 0.380957 0
0 0.381033 0
0 0.380957 0
0 0.381445 0
0.1355 0.380636 0
0.258427 0.379629 0
0.360693 0.377371 0
0.460258 0.37351 0
0.549096 0.368399 0
0.624353 0.363592 0
0.697871 0.361135 0
0.769146 0.362249 0
0.831586 0.372366 0
0.881178 0.395575 0
0.905501 0.430274 0
0.904341 0.478004 0
0.900496 0.534646 0
0.89633 0.594965 0
0.892149 0.654597 0
0.891005 0.719295 0.0538949
0.888289 0.778378 0.134844
0.885588 0.828305 0.21973
0.883085 0.870161 0.310277
0.880827 0.904463 0.405402
0.878859 0.931624 0.493812
0.877073 0.954314 0.570672
0.875547 0.972045 0.640528
0 0.457038 0
0 0.457206 0
0 0.457542 0
0 0.457801 0
0 0.45803 0
0 0.458579 0
0 0.458778 0
0 0.458946 0
0 0.459098 0
0 0.459205 0
0.0216526 0.459602 0
0.188159 0.46009 0
0.322011 0.459312 0
0.434424 0.457359 0
0.532418 0.454246 0
0.613489 0.451194 0
0.690333 0.449256 0
0.761975 0.450706 0
0.822644 0.458991 0
0.870817 0.476432 0
0.900145 0.503899 0
0.900114 0.540047 0
0.897108 0.583597 0
0.893782 0.631266 0
0.890166 0.682292 0
0.889326 0.738857 0.0439002
0.887327 0.790997 0.131853
0.885008 0.836133 0.219654
0.882734 0.874998 0.310872
0.880629 0.90721 0.404211
0.878752 0.933196 0.492958
0.877012 0.955245 0.570138
0.875517 0.972595 0.640192
0 0.54284 0
0 0.542901 0
0 0.54313 0
0 0.543343 0
0 0.543526 0
0 0.543694 0
0 0.543862 0
0 0.54406 0
0 0.544533 0
0 0.54461 0
0 0.544518 0
0.0683452 0.544732 0
0.254902 0.545068 0
0.394415 0.543923 0
0.506142 0.542031 0
0.595605 0.539483 0
0.677821 0.537652 0
0.751949 0.538003 0
0.812238 0.543603 0
0.858991 0.556146 0
0.893889 0.575372 0
0.89575 0.60206 0
0.893614 0.633768 0
0.890959 0.671366 0
0.887877 0.714137 0
0.887312 0.761532 0.0315404
0.886152 0.806332 0.12813
0.884306 0.845823 0.21976
0.882277 0.881193 0.311833
0.880354 0.910842 0.402731
0.878584 0.935393 0.491814
0.876921 0.956497 0.569436
0.875456 0.973342 0.639765
0 0.623041 0
0 0.623041 0
0 0.623117 0
0 0.62324 0
0 0.623331 0
0 0.623407 0
0 0.623484 0
0 0.623575 0
0 0.623636 0
0 0.623606 0
0 0.623728 0
0 0.623331 0
0.136751 0.623255 0
0.337545 0.623346 0
0.470451 0.622232 0
0.570703 0.620661 0
0.659098 0.618921 0
0.737026 0.618662 0
0.799054 0.621668 0
0.845487 0.629343 0
0.881666 0.64239 0
0.890974 0.661051 0
0.889937 0.685664 0
0.887785 0.715557 0
0.885344 0.749096 0
0.884886 0.78648 0.015671
0.884825 0.82388 0.12488
0.883436 0.857801 0.220264
0.881727 0.888777 0.313191
0.880018 0.91548 0.402686
0.87834 0.93872 0.490318
0.876799 0.958267 0.568444
0.875395 0.974319 0.639185
0 0.696605 0
0 0.696605 0
0 0.696605 0
0 0.696666 0
0 0.696696 0
0 0.696742 0
0 0.696757 0
0 0.696773 0
0 0.696757 0
0 0.696651 0
0 0.696391 0
0 0.696178 0
0 0.696193 0
0.235706 0.695735 0
0.422156 0.695598 0
0.539147 0.694133 0
0.633967 0.692439 0
0.716503 0.691402 0
0.781186 0.693049 0
0.829435 0.698268 0
0.865492 0.707668 0
0.885267 0.721553 0
0.88603 0.739178 0
0.884504 0.760601 0
0.882704 0.785016 0
0.881804 0.812451 0
0.88336 0.843351 0.122087
0.882429 0.871687 0.222202
0.881056 0.898009 0.315267
0.879606 0.921218 0.404715
0.878065 0.942489 0.489464
0.876631 0.960616 0.567132
0.875288 0.975708 0.638346
0 0.769528 0
0 0.769528 0
0 0.769528 0
0 0.769528 0
0 0.769528 0
0 0.769512 0
0 0.769467 0
0 0.769406 0
0 0.769284 0
0 0.769024 0
0 0.768643 0
0 0.767956 0
0 0.767147 0
0.121035 0.766995 0
0.356741 0.76701 0
0.501503 0.766064 0
0.604135 0.76405 0
0.690913 0.762387 0
0.758999 0.762142 0
0.810056 0.764477 0
0.848234 0.769543 0
0.875639 0.77789 0
0.881926 0.789349 0
0.881346 0.803433 0
0.880125 0.820035 0
0.878813 0.838727 0
0.881788 0.864469 0.121965
0.881315 0.887098 0.22594
0.880293 0.908522 0.318914
0.879072 0.928344 0.407523
0.877729 0.947143 0.489586
0.876402 0.963592 0.565744
0.875151 0.977569 0.637186
0 0.831815 0
0 0.831815 0
0 0.831815 0
0 0.831815 0
0 0.831815 0
0 0.831769 0
0 0.831678 0
0 0.831525 0
0 0.831266 0
0 0.830869 0
0 0.830304 0
0 0.829389 0
0 0.828092 0
0.0210117 0.827466 0
0.285725 0.827482 0
0.465904 0.826474 0
0.577951 0.824292 0
0.667018 0.822095 0
0.736828 0.820661 0
0.790326 0.820615 0
0.831128 0.822568 0
0.860487 0.826673 0
0.877363 0.833021 0
0.878477 0.84181 0
0.877684 0.852781 0
0.877394 0.866682 0
0.880293 0.886122 0.128618
0.880171 0.903456 0.232547
0.879469 0.920165 0.324361
0.878477 0.936675 0.411872
0.877302 0.95288 0.492348
0.876143 0.967254 0.564355
0.874983 0.979965 0.635767
0 0.879942 0
0 0.879942 0
0 0.879942 0
0 0.879942 0
0 0.879942 0
0 0.879942 0
0 0.879942 0
0 0.879774 0
0 0.879438 0
0 0.878874 0
0 0.878111 0
0 0.877058 0
0 0.875608 0
0 0.87512 0
0.231006 0.874235 0
0.442771 0.873671 0
0.560204 0.871473 0
0.649195 0.86891 0
0.718547 0.866941 0
0.772946 0.865812 0
0.815396 0.865873 0
0.846433 0.867597 0
0.870146 0.87097 0
0.875563 0.876097 0
0.87541 0.883009 0
0.877256 0.894484 0.0247196
0.878935 0.907485 0.144442
0.879026 0.919814 0.242741
0.878553 0.932799 0.332311
0.87776 0.946441 0.417899
0.876814 0.959533 0.496666
0.875807 0.97174 0.566918
0.874769 0.98291 0.634058
0 0.917693 0
0 0.917693 0
0 0.917693 0
0 0.917693 0
0 0.917693 0
0 0.917693 0
0 0.917693 0
0 0.917693 0
0 0.917525 0
0 0.916915 0
0 0.915923 0
0 0.914717 0
0 0.913222 0
0 0.912734 0
0.235157 0.911955 0
0.436774 0.911192 0
0.551934 0.909163 0
0.63772 0.90663 0
0.70489 0.904326 0
0.75848 0.902647 0
0.80116 0.901762 0
0.833509 0.901839 0
0.858686 0.90312 0
0.872358 0.905623 0
0.873426 0.909422 0
0.876539 0.918563 0.06009
0.877745 0.927321 0.166323
0.877882 0.936706 0.258457
0.877592 0.946319 0.343191
0.877012 0.956603 0.4262
0.876265 0.966918 0.502281
0.87541 0.976959 0.571084
0.87451 0.986526 0.635767
0 0.946044 0
0 0.946044 0
0 0.946044 0
0 0.946044 0
0 0.946044 0
0 0.946044 0
0 0.946044 0
0 0.946044 0
0 0.946044 0
0 0.945998 0
0 0.944945 0
0 0.943542 0
0 0.941909 0
0 0.940688 0
0.285496 0.941299 0
0.450675 0.940246 0
0.555032 0.938155 0
0.63418 0.935805 0
0.697215 0.933516 0
0.748653 0.931533 0
0.789761 0.929778 0
0.822614 0.929076 0
0.848722 0.929107 0
0.86865 0.930129 0
0.871733 0.932662 0
0.875746 0.940566 0.0993057
0.876646 0.946426 0.195819
0.876829 0.952682 0.279789
0.876661 0.959579 0.358953
0.876249 0.966995 0.437095
0.875669 0.974868 0.50959
0.874968 0.982849 0.576638
0.874189 0.990723 0.639185
0 0.967269 0
0 0.967269 0
0 0.967269 0
0 0.967269 0
0 0.967269 0
0 0.967269 0
0 0.967269 0
0 0.967269 0
0 0.967269 0
0 0.967269 0
0 0.967269 0
0 0.965881 0
0 0.964233 0
0.0727092 0.963806 0
0.35024 0.964324 0
0.479927 0.962997 0
0.566979 0.960998 0
0.637018 0.95877 0
0.694438 0.956619 0
0.742657 0.954726 0
0.781613 0.95314 0
0.813611 0.952102 0
0.839658 0.951507 0
0.860319 0.95169 0
0.872831 0.95642 0.0606394
0.875151 0.959945 0.154299
0.8757 0.96347 0.233066
0.875868 0.967483 0.307378
0.875792 0.972107 0.379965
0.875502 0.977356 0.452033
0.875044 0.983108 0.519036
0.874479 0.989227 0.584039
0.873823 0.995392 0.643961
0 0.983276 0
0 0.983276 0
0 0.983276 0
0 0.983276 0
0 0.983276 0
0 0.983276 0
0 0.983276 0
0 0.983276 0
0 0.983276 0
0 0.983276 0
0 0.983276 0
0 0.983276 0
0 0.981674 0
0.272847 0.983047 0
0.420035 0.982376 0
0.515877 0.980941 0
0.58645 0.979034 0
0.646082 0.977035 0
0.696895 0.975067 0
0.740475 0.973205 0
0.776532 0.971695 0
0.807218 0.970459 0
0.832517 0.969619 0
0.856077 0.972732 0.048249
0.872023 0.974731 0.135348
0.87451 0.976364 0.20885
0.874891 0.978286 0.27631
0.875029 0.980728 0.340383
0.874968 0.983734 0.406363
0.874754 0.98735 0.470954
0.874418 0.991409 0.532326
0.87396 0.995758 0.593408
0.873426 1 0.650217
0.235172 0.997848 0
0.235172 0.997848 0
0.235172 0.997848 0
0.235172 0.997848 0
0.235157 0.997848 0
0.235157 0.997848 0
0.235157 0.997848 0
0.235157 0.997848 0
0.235142 0.997848 0
0.235126 0.997848 0
0.235126 0.997848 0
0.23508 0.997848 0
0.23505 0.997848 0
0.376181 0.997574 0
0.484077 0.996429 0
0.553292 0.994888 0
0.610742 0.993194 0
0.659968 0.99144 0
0.703914 0.98967 0
0.742306 0.987991 0
0.776608 0.988602 0.0106966
0.806546 0.989151 0.059968
0.831418 0.989105 0.101381
0.851881 0.989334 0.151354
0.86865 0.989746 0.207309
0.873594 0.990311 0.264912
0.874174 0.991211 0.322164
0.874266 0.992538 0.379675
0.87422 0.994354 0.437339
0.874067 0.996597 0.494621
0.873808 0.999283 0.54934
0.873457 1 0.60589
0.87303 1 0.65803
0.477821 1 0.128725
0.477821 1 0.128725
0.477821 1 0.128725
0.477821 1 0.128725
0.477821 1 0.128725
0.477821 1 0.128725
0.477821 1 0.128725
0.477821 1 0.128725
0.477821 1 0.128725
0.477806 1 0.128725
0.477806 1 0.128725
0.477806 1 0.128725
0.477791 1 0.128725
0.477775 1 0.128725
0.536645 1 0.132311
0.594888 1 0.137346
0.641077 1 0.143038
0.681819 1 0.149737
0.719142 1 0.158373
0.751888 1 0.168933
0.780774 1 0.182132
0.80679 1 0.198459
0.829114 1 0.21883
0.848051 1 0.242878
0.863996 1 0.278981
0.872419 1 0.322683
0.873533 1 0.370962
0.873579 1 0.422004
0.873549 1 0.472114
0.873442 1 0.520623
0.873243 1 0.570672
0.872953 1 0.621164
0.872618 1 0.668208
0.590494 1 0.26276
0.590494 1 0.26276
0.590494 1 0.26276
0.590494 1 0.26276
0.590494 1 0.26276
0.590494 1 0.26276
0.590494 1 0.26276
0.590494 1 0.26276
0.590494 1 0.26276
0.590494 1 0.26276
0.590494 1 0.26276
0.590494 1 0.26276
0.590478 1 0.26276
0.590478 1 0.26276
0.590463 1 0.26276
0.627283 1 0.265415
0.667781 1 0.26923
0.702037 1 0.273594
0.73254 1 0.278782
0.759884 1 0.285573
0.78468 1 0.293996
0.807858 1 0.304356
0.827924 1 0.316976
0.84535 1 0.333257
0.860304 1 0.353155
0.871275 1 0.384543
0.872969 1 0.423423
0.872999 1 0.465431
0.872969 1 0.508583
0.872877 1 0.551141
0.872709 1 0.595666
0.87248 1 0.63946
0.872221 1 0.680369
0.664424 1 0.370886
0.664424 1 0.370886
0.664424 1 0.370886
0.664424 1 0.370886
0.664424 1 0.370886
0.664424 1 0.370886
0.664424 1 0.370886
0.664424 1 0.370886
0.664408 1 0.370886
0.664408 1 0.370886
0.664408 1 0.370886
0.664408 1 0.370886
0.664408 1 0.370886
0.664408 1 0.370886
0.664393 1 0.370886
0.664393 1 0.370886
0.691173 1 0.373175
0.721447 1 0.376547
0.74638 1 0.380407
0.768826 1 0.385
0.790112 1 0.390936
0.810178 1 0.398291
0.827878 1 0.407477
0.843687 1 0.418952
0.85745 1 0.433478
0.868925 1 0.450858
0.872236 1 0.477501
0.872496 1 0.510124
0.872465 1 0.545632
0.872374 1 0.584451
0.872221 1 0.623072
0.872053 1 0.660151
0.871839 1 0.694621
0.718379 1 0.466255
0.718379 1 0.466255
0.718379 1 0.466255
0.718379 1 0.466255
0.718379 1 0.466255
0.718379 1 0.466255
0.718379 1 0.466255
0.718379 1 0.466255
0.718379 1 0.466255
