BBLuts/BB_103_0160_LUT.cube
TITLE "Generated by Resolve"
LUT_3D_SIZE 9
0.00233463 0.00335698 0.000961318
0.0752575 0.00216678 0
0.284642 0.00257877 0
0.56231 0 0
0.864912 0 0
1 0.0033875 0
0.99501 0.715526 0.111788
0.969162 0.993225 0.443519
0.95671 1 0.768475
0 0.109071 0.000732433
0.0451362 0.115099 0
0.281086 0.0885176 0
0.569543 0 0
0.866163 0 0
1 0.111803 0
0.992874 0.736339 0.0978103
0.969039 0.994965 0.442481
0.956695 1 0.768383
0 0.315908 0
0 0.318029 0
0.202136 0.314458 0
0.556878 0.285283 0
0.855726 0.204211 0
1 0.420172 0.0119326
0.988937 0.770459 0.060441
0.968795 0.998718 0.440375
0.95668 1 0.768185
0 0.627359 0
0 0.628168 0
0 0.628977 0
0.463783 0.631922 0
0.829313 0.631647 0
0.991775 0.696803 0.00956741
0.979843 0.858381 0.0229801
0.96791 1 0.439338
0.956588 1 0.766918
0 0.94258 0.00209049
0 0.94255 0.00207523
0 0.941955 0.00201419
0.0629435 0.93846 0.00128176
0.750072 0.929351 0
0.945357 0.939345 0.00364691
0.970245 0.979278 0.00637827
0.965713 1 0.450416
0.956298 1 0.763592
0 1 0.0265049
0 1 0.0265049
0 1 0.0265049
0.0209964 1 0.0248417
0.720668 1 0.00619516
0.90399 1 0.00492866
0.965438 1 0.0771649
0.962112 1 0.496895
0.955413 1 0.768093
0.62858 1 0.255177
0.62858 1 0.255177
0.628565 1 0.255177
0.62855 1 0.255177
0.786923 1 0.263905
0.894133 1 0.308736
0.95407 1 0.420706
0.957519 1 0.604227
0.953841 1 0.796872
0.861814 1 0.679728
0.861814 1 0.679728
0.861814 1 0.679728
0.861814 1 0.679728
0.861799 1 0.679713
0.902922 1 0.687999
0.941024 1 0.709789
0.953307 1 0.76228
0.952285 1 0.850217
0.924102 1 0.878492
0.924102 1 0.878492
0.924102 1 0.878492
0.924102 1 0.878492
0.924102 1 0.878492
0.924102 1 0.878492
0.939788 1 0.881285
0.951965 1 0.888289
0.951843 1 0.905257
0.00366217 0.00495918 0.0725261
0.0505837 0.00445563 0.0721294
0.283772 0.00456245 0.0716716
0.562554 0 0.0652934
0.866316 0 0.0607767
1 0 0.0803388
0.995972 0.713359 0.161608
0.969162 0.99321 0.443534
0.95671 1 0.768475
0 0.0792096 0.0656901
0.056733 0.0839094 0.0633555
0.283787 0.0508736 0.0636149
0.565255 0 0.0552682
0.866117 0 0.0389105
1 0.0874189 0.0520638
0.993835 0.734554 0.145342
0.969039 0.994965 0.442496
0.956695 1 0.768383
0 0.303166 0.0160678
0 0.305409 0.0161898
0.215625 0.301762 0.013901
0.554849 0.271809 0.00737011
0.853864 0.177752 0
1 0.405493 0.0181277
0.990021 0.769436 0.11043
0.968795 0.998718 0.440375
0.95668 1 0.768185
0 0.622812 0
0 0.623575 0
0 0.624155 0
0.473487 0.626963 0
0.829114 0.627512 0
0.991989 0.69366 0.00962844
0.980026 0.857389 0.0261845
0.96791 1 0.439338
0.956588 1 0.766918
0 0.941085 0.00192264
0 0.941054 0.00192264
0 0.940475 0.0018616
0.0701152 0.937163 0.0011902
0.752102 0.928206 0
0.945541 0.938643 0.00364691
0.97023 0.978943 0.00534066
0.965713 1 0.450416
0.956298 1 0.763592
0 1 0.0264439
0 1 0.0264439
0 1 0.0264591
0.0191501 1 0.0248264
0.722271 1 0.00614939
0.904173 1 0.00492866
0.965438 1 0.0770428
0.962112 1 0.496895
0.955413 1 0.768093
0.631434 1 0.254765
0.631434 1 0.254765
0.631418 1 0.25478
0.631403 1 0.25478
0.78764 1 0.263661
0.894331 1 0.308583
0.954101 1 0.420661
0.957519 1 0.604227
0.953841 1 0.796872
0.861967 1 0.679713
0.861967 1 0.679713
0.861967 1 0.679713
0.861967 1 0.679713
0.861967 1 0.679713
0.902983 1 0.687968
0.941039 1 0.709758
0.953307 1 0.762264
0.952285 1 0.850217
0.924117 1 0.878492
0.924117 1 0.878492
0.924117 1 0.878492
0.924117 1 0.878492
0.924117 1 0.878492
0.924117 1 0.878492
0.939803 1 0.881285
0.951965 1 0.888289
0.951843 1 0.905257
0.00534066 0.00717174 0.234409
0.00535592 0.00717174 0.234668
0.244404 0.00642405 0.231327
0.575326 0 0.220081
0.867765 0 0.220951
1 0.00239567 0.254139
0.998016 0.7028 0.327108
0.96846 0.991379 0.495293
0.95671 1 0.768475
0.00573739 0.00875868 0.231998
0.0106355 0.013138 0.232074
0.267262 0.00627146 0.228229
0.573434 0 0.216587
0.867887 0 0.216358
1 0.049897 0.246738
0.995941 0.725093 0.32018
0.968338 0.993164 0.494453
0.956695 1 0.768383
0 0.263767 0.213886
0 0.266789 0.214008
0.19939 0.260349 0.208789
0.54464 0.23003 0.204105
0.856901 0.112398 0.203174
1 0.352956 0.249943
0.99234 0.761898 0.307195
0.968078 0.996963 0.492546
0.95668 1 0.768185
0 0.61239 0.116228
0 0.613535 0.116655
0 0.614328 0.117876
0.473091 0.617227 0.125536
0.828351 0.618143 0.135668
0.996155 0.685618 0.175265
0.982849 0.854765 0.259297
0.967254 1 0.485237
0.956588 1 0.766918
0 0.937667 0.00157168
0 0.937667 0.00158694
0 0.937072 0.0015259
0.0698863 0.933745 0.000808728
0.753033 0.925002 0
0.945724 0.936324 0.00961318
0.971923 0.979431 0.116136
0.965454 1 0.467491
0.956298 1 0.763592
0 1 0.0263676
0 1 0.0263676
0 1 0.0263676
0.0401465 1 0.024567
0.725414 1 0.00602731
0.904631 1 0.00492866
0.965469 1 0.0767376
0.962127 1 0.49662
0.955413 1 0.768093
0.635981 1 0.253742
0.635981 1 0.253742
0.635981 1 0.253742
0.636179 1 0.254063
0.788785 1 0.263264
0.894606 1 0.308293
0.954147 1 0.420478
0.957519 1 0.60412
0.953841 1 0.796872
0.862272 1 0.679667
0.862272 1 0.679667
0.862272 1 0.679667
0.862272 1 0.679667
0.862272 1 0.679667
0.90309 1 0.687922
0.941085 1 0.709728
0.953307 1 0.762249
0.952285 1 0.850217
0.924147 1 0.878492
0.924147 1 0.878492
0.924147 1 0.878492
0.924147 1 0.878492
0.924147 1 0.878492
0.924147 1 0.878492
0.939803 1 0.881285
0.951965 1 0.888289
0.951843 1 0.905257
0.00218204 0.00497444 0.516533
0.00218204 0.00497444 0.516655
0.0347601 0.00421149 0.516014
0.534737 0 0.508446
0.883101 0 0.507729
1 0.00132753 0.527626
1 0.659251 0.569879
0.966217 0.983658 0.641352
0.95642 1 0.792142
0.0021973 0.0049897 0.515328
0.0021973 0.0049897 0.515465
0.072282 0.00376898 0.514015
0.548028 0 0.506615
0.882124 0 0.506264
1 0.00134279 0.525399
0.998596 0.686076 0.566934
0.966064 0.985565 0.640818
0.956405 1 0.792065
0 0.0970016 0.510384
0 0.0996719 0.510491
0.0659037 0.0979019 0.508659
0.55079 0.0243534 0.501991
0.877058 0 0.502571
1 0.117144 0.522942
0.994461 0.728847 0.561288
0.965759 0.989593 0.639612
0.95639 1 0.791913
0 0.556924 0.478981
0 0.557885 0.479057
0 0.560204 0.479805
0.447501 0.563836 0.484215
0.819989 0.563043 0.492088
0.999771 0.644739 0.514488
0.983017 0.83357 0.542702
0.964782 1 0.635248
0.956298 1 0.791196
0 0.930312 0.410864
0 0.930358 0.410864
0 0.930129 0.411933
0.0319829 0.926589 0.41474
0.747829 0.916884 0.418662
0.944167 0.928237 0.449454
0.969818 0.971542 0.506477
0.962707 1 0.622553
0.955978 1 0.78851
0 1 0.241321
0 1 0.241321
0 1 0.241321
0.0184482 1 0.243549
0.72105 1 0.231556
0.903914 1 0.302602
0.963531 1 0.437049
0.960327 1 0.590555
0.955245 1 0.781033
0.649973 1 0.251301
0.649973 1 0.251301
0.649973 1 0.251301
0.649973 1 0.251301
0.792035 1 0.261784
0.895491 1 0.307424
0.954284 1 0.421576
0.957534 1 0.603693
0.953841 1 0.796735
0.863294 1 0.679515
0.863294 1 0.679515
0.863294 1 0.679515
0.863294 1 0.679515
0.863294 1 0.679515
0.903456 1 0.687755
0.941192 1 0.709575
0.953307 1 0.762142
0.952285 1 0.850156
0.924269 1 0.878477
0.924269 1 0.878477
0.924269 1 0.878477
0.924269 1 0.878477
0.924269 1 0.878477
0.924269 1 0.878477
0.939849 1 0.88127
0.951965 1 0.888273
0.951843 1 0.905257
0 0.00128176 0.806241
0 0.00128176 0.806241
0 0.00128176 0.806531
0.216312 0 0.802579
0.852399 0 0.791409
1 0.00123598 0.802213
1 0.387686 0.824018
0.965148 0.964446 0.818631
0.955795 1 0.863508
0 0.00128176 0.806134
0 0.00128176 0.806134
0 0.00128176 0.80621
0.236912 0 0.801953
0.856046 0 0.791074
1 0.00123598 0.801846
1 0.464851 0.823178
0.96492 0.966873 0.81828
0.955779 1 0.863478
0 0.00128176 0.805142
0 0.00128176 0.805142
0 0.00128176 0.805234
0.293019 0 0.800137
0.861463 0 0.790234
1 0.00122072 0.800732
1 0.584131 0.819348
0.964477 0.971756 0.817594
0.955764 1 0.863386
0 0.281025 0.795926
0 0.281025 0.795926
0 0.285359 0.795941
0.261067 0.274189 0.793072
0.84802 0.194156 0.789517
1 0.343938 0.807507
0.989914 0.756024 0.806745
0.963058 0.987991 0.815198
0.955657 1 0.86302
0 0.880842 0.766812
0 0.880842 0.766812
0 0.880964 0.766873
0 0.87985 0.767147
0.718547 0.870466 0.76289
0.937469 0.888243 0.770321
0.967269 0.946944 0.780377
0.960189 1 0.80914
0.955306 1 0.861631
0 1 0.751553
0 1 0.751553
0 1 0.751537
0 1 0.751858
0.671275 1 0.733593
0.887312 1 0.737621
0.95671 1 0.757885
0.956924 1 0.797238
0.954467 1 0.857359
0.615167 1 0.668208
0.615167 1 0.668208
0.615167 1 0.668208
0.615167 1 0.668208
0.769146 1 0.666163
0.88159 1 0.677867
0.943816 1 0.709697
0.954635 1 0.770092
0.953353 1 0.845624
0.866346 1 0.678737
0.866346 1 0.678737
0.866346 1 0.678737
0.866346 1 0.678737
0.866346 1 0.678737
0.904509 1 0.687114
0.941543 1 0.709133
0.953292 1 0.76347
0.952285 1 0.849989
0.924666 1 0.878416
0.924666 1 0.878416
0.924666 1 0.878416
0.924666 1 0.878416
0.924651 1 0.878416
0.924651 1 0.878416
0.940002 1 0.881209
0.951965 1 0.888228
0.951843 1 0.905226
0 0.00239567 0.955001
0 0.00238041 0.955016
0 0.00238041 0.955016
0 0.00238041 0.955032
0.651102 0 0.940764
1 0.0047303 0.945006
1 0.00502022 0.94551
0.974578 0.874784 0.931853
0.955718 1 0.925597
0 0.00238041 0.955016
0 0.00238041 0.955016
0 0.00238041 0.955016
0 0.00238041 0.955032
0.650706 0 0.94078
1 0.0047303 0.945006
1 0.00502022 0.945434
0.973678 0.881788 0.93106
0.955718 1 0.925582
0 0.00238041 0.95494
0 0.00238041 0.95494
0 0.00238041 0.95494
0 0.00238041 0.954955
0.662974 0 0.940383
1 0.00474556 0.944915
1 0.00500496 0.94522
0.972107 0.894423 0.92961
0.955673 1 0.925521
0 0.00238041 0.954559
0 0.00238041 0.954559
0 0.00238041 0.954559
0 0.00238041 0.954574
0.722881 0 0.938781
1 0.00483711 0.944579
1 0.130098 0.947005
0.967727 0.931838 0.925429
0.95555 1 0.925322
0 0.608667 0.937682
0 0.608667 0.937682
0 0.608667 0.937682
0 0.612512 0.937591
0.665309 0.611444 0.936233
0.988724 0.651408 0.945846
0.980972 0.826261 0.931685
0.961364 0.997177 0.918746
0.955139 1 0.924559
0 1 0.933181
0 1 0.933181
0 1 0.933181
0 1 0.93312
0.48217 1 0.919646
0.872969 1 0.906722
0.952346 1 0.908156
0.956359 1 0.911971
0.954147 1 0.92253
0.4365 1 0.911208
0.436545 1 0.911208
0.437095 1 0.911162
0.437095 1 0.911162
0.694713 1 0.897917
0.861814 1 0.895338
0.933165 1 0.898329
0.953399 1 0.905074
0.952834 1 0.91841
0.851743 1 0.871565
0.851743 1 0.871565
0.851743 1 0.871565
0.851743 1 0.871565
0.851743 1 0.871565
0.891539 1 0.873182
0.931945 1 0.877928
0.951629 1 0.889158
0.951812 1 0.909148
0.925872 1 0.878279
0.925872 1 0.878279
0.925872 1 0.878279
0.925872 1 0.878279
0.925872 1 0.878279
0.925872 1 0.878279
0.940414 1 0.881041
0.951965 1 0.88809
0.951843 1 0.905699
0 0.00268559 0.992996
0 0.00268559 0.992996
0 0.00268559 0.992996
0 0.00268559 0.992996
0 0.00268559 0.992996
0.958877 0 0.988525
1 0.00648508 0.993088
1 0.0425269 0.993561
0.957565 1 0.968811
0 0.00268559 0.992996
0 0.00268559 0.992996
0 0.00268559 0.992996
0 0.00268559 0.992996
0 0.00268559 0.992996
0.958862 0 0.988525
1 0.00648508 0.993088
1 0.047776 0.993683
0.957519 1 0.96878
0 0.00268559 0.992996
0 0.00268559 0.992996
0 0.00268559 0.992996
0 0.00268559 0.992996
0 0.00268559 0.992996
0.958862 0 0.988525
1 0.00648508 0.993088
1 0.0552834 0.993469
0.957443 1 0.968688
0 0.00268559 0.992996
0 0.00268559 0.992996
0 0.00268559 0.992996
0 0.00268559 0.992996
0 0.00268559 0.992996
0.964828 0 0.988876
1 0.00648508 0.993088
1 0.0715648 0.993713
0.957137 1 0.968353
0 0.00268559 0.992996
0 0.00268559 0.992996
0 0.00268559 0.992996
0 0.00268559 0.992996
0 0.00268559 0.992996
0.993698 0.00140383 0.990616
1 0.00648508 0.993088
1 0.578271 1
0.956222 1 0.96733
0 0.886442 0.984405
0 0.886442 0.984405
0 0.886442 0.984405
0 0.886442 0.984405
0 0.889342 0.984421
0.874784 0.878523 0.976928
0.966934 0.928298 0.974319
0.959045 1 0.967788
0.954528 1 0.965301
0 1 0.991119
0 1 0.991119
0 1 0.991119
0 1 0.991119
0.00555428 1 0.990433
0.821805 1 0.960555
0.927474 1 0.960571
0.953033 1 0.961105
0.952728 1 0.962676
0.823774 1 0.955413
0.823774 1 0.955413
0.823774 1 0.955413
0.823774 1 0.955413
0.823774 1 0.955413
0.870024 1 0.955306
0.92401 1 0.95581
0.950423 1 0.957046
0.951446 1 0.959747
0.920256 1 0.9467
0.920256 1 0.9467
0.920256 1 0.9467
0.920256 1 0.9467
0.920256 1 0.9467
0.920256 1 0.9467
0.935195 1 0.947372
0.949752 1 0.949233
0.951492 1 0.95346
0 0.108339 0.990646
0 0.108339 0.990646
0 0.108339 0.990646
0 0.108339 0.990646
0 0.108339 0.990646
0 0.108476 0.990646
1 0.00650034 0.993103
1 0.0925307 0.995117
0.987671 0.777569 0.997131
0 0.108339 0.990646
0 0.108339 0.990646
0 0.108339 0.990646
0 0.108339 0.990646
0 0.108339 0.990646
0 0.108476 0.990646
1 0.00650034 0.993103
1 0.0925307 0.995117
0.987671 0.777554 0.997131
0 0.108339 0.990646
0 0.108339 0.990646
0 0.108339 0.990646
0 0.108339 0.990646
0 0.108339 0.990646
0 0.108476 0.990646
1 0.00650034 0.993103
1 0.0925307 0.995117
0.987686 0.777523 0.997131
0 0.108339 0.990646
0 0.108339 0.990646
0 0.108339 0.990646
0 0.108339 0.990646
0 0.108339 0.990646
0 0.108476 0.990646
1 0.00650034 0.993103
1 0.0925307 0.995117
0.987701 0.777401 0.997147
0 0.108064 0.990646
0 0.108064 0.990646
0 0.108064 0.990646
0 0.108064 0.990646
0 0.108064 0.990646
0 0.108186 0.990646
1 0.0065156 0.993103
1 0.0960098 0.995254
0.987762 0.776959 0.997177
0 0.106188 0.990677
0 0.106188 0.990677
0 0.106188 0.990677
0 0.106188 0.990677
0 0.106188 0.990677
0.0332341 0.0964981 0.989319
1 0.00648508 0.993088
1 0.143725 0.997513
0.967239 0.932677 0.985656
0 1 1
0 1 1
0 1 1
0 1 1
0 1 1
0.0292668 1 1
0.930434 1 0.982757
0.956191 1 0.98233
0.953674 1 0.982071
0.510735 1 0.993439
0.510735 1 0.993439
0.510735 1 0.993439
0.510735 1 0.993439
0.510735 1 0.993439
0.577874 1 0.989639
0.909239 1 0.980621
0.948913 1 0.980865
0.951583 1 0.980911
0.91014 1 0.97911
0.91014 1 0.97911
0.91014 1 0.97911
0.91014 1 0.97911
0.91014 1 0.97911
0.91014 1 0.97911
0.927214 1 0.979217
0.946944 1 0.9794
0.951278 1 0.979614
0 0.375219 0.989731
0 0.375219 0.989731
0 0.375219 0.989731
0 0.375219 0.989731
0 0.375219 0.989731
0 0.375219 0.989731
0 0.375341 0.989731
1 0.211032 1
0.98291 0.812161 0.994339
0 0.375219 0.989731
0 0.375219 0.989731
0 0.375219 0.989731
0 0.375219 0.989731
0 0.375219 0.989731
0 0.375219 0.989731
0 0.375341 0.989731
1 0.211032 1
0.98291 0.812161 0.994339
0 0.375219 0.989731
0 0.375219 0.989731
0 0.375219 0.989731
0 0.375219 0.989731
0 0.375219 0.989731
0 0.375219 0.989731
0 0.375341 0.989731
1 0.211032 1
0.98291 0.812161 0.994339
0 0.375219 0.989731
0 0.375219 0.989731
0 0.375219 0.989731
0 0.375219 0.989731
0 0.375219 0.989731
0 0.375219 0.989731
0 0.375341 0.989731
1 0.211032 1
0.98291 0.812161 0.994339
0 0.375219 0.989731
0 0.375219 0.989731
0 0.375219 0.989731
0 0.375219 0.989731
0 0.375219 0.989731
0 0.375219 0.989731
0 0.375341 0.989731
1 0.210956 1
0.98291 0.812161 0.994339
0 0.375051 0.989731
0 0.375051 0.989731
0 0.375051 0.989731
0 0.375051 0.989731
0 0.375051 0.989731
0 0.375036 0.989731
0 0.375128 0.989731
1 0.235248 1
0.982666 0.813931 0.994202
0 0.373587 0.989746
0 0.373587 0.989746
0 0.373587 0.989746
0 0.373587 0.989746
0 0.373587 0.989746
0 0.373587 0.989746
0.101122 0.351568 0.988724
1 0.3561 1
0.9823 0.81651 0.993988
0 1 1
0 1 1
0 1 1
0 1 1
0 1 1
0 1 1
0.17702 1 1
0.947433 1 0.982025
0.952239 1 0.981949
0.865827 1 0.981155
0.865827 1 0.981155
0.865827 1 0.981155
0.865827 1 0.981155
0.865827 1 0.981155
0.865827 1 0.981155
0.873106 1 0.981186
0.942611 1 0.981628
0.951553 1 0.981964
