BBLuts/BB_102_0160_LUT.cube
TITLE "Generated by Resolve"
LUT_3D_SIZE 9
0.00782788 0.00891127 0.0037232
0.00782788 0.00891127 0.0037232
0.209003 0.00564584 0.000457771
0.463844 0.00227359 0
0.725185 0 0
0.902464 0 0
0.870115 0.554818 0.0988479
0.852552 0.829541 0.39472
0.844327 0.935134 0.659998
0.00239567 0.0664988 0.00325017
0.00132753 0.0772869 0.00315862
0.217395 0.0523384 0.000457771
0.475029 0.00213626 0
0.727138 0 0
0.902464 0 0
0.86772 0.586831 0.0874647
0.852247 0.833539 0.392477
0.844282 0.935637 0.659785
0 0.240162 0.00178531
0 0.243977 0.00173953
0.16553 0.24239 0
0.472114 0.217105 0
0.724727 0.0996109 0
0.889387 0.224918 0
0.86482 0.622889 0.0653697
0.851774 0.839979 0.3888
0.844236 0.936431 0.659434
0 0.524269 0
0 0.525399 0
0 0.526009 0
0.394141 0.525368 0
0.701244 0.513146 0
0.866651 0.561395 0
0.857038 0.698253 0
0.850584 0.856199 0.377752
0.844068 0.93875 0.658396
0 0.780331 0
0 0.780255 0
0 0.77995 0
0 0.777874 0
0.637369 0.774456 0
0.82591 0.778836 0
0.848234 0.818784 0
0.848142 0.889509 0.381384
0.843626 0.944854 0.655299
0 0.924498 0
0 0.923873 0
0 0.922835 0
0 0.919661 0
0.608286 0.916335 0
0.780285 0.91014 0
0.841245 0.912016 0
0.844923 0.933425 0.423346
0.842695 0.957763 0.651698
0.520653 0.978744 0.166278
0.534661 0.978485 0.167285
0.554986 0.978073 0.168933
0.603235 0.976898 0.173816
0.68542 0.974243 0.18822
0.775067 0.970626 0.228809
0.836759 0.968582 0.335393
0.842206 0.96965 0.517143
0.841337 0.974884 0.674983
0.746868 0.984741 0.573297
0.748074 0.984756 0.573434
0.749996 0.984771 0.573632
0.75552 0.984833 0.574243
0.769665 0.984985 0.576135
0.796796 0.98526 0.581811
0.82945 0.985595 0.598138
0.840681 0.985672 0.642435
0.840299 0.985534 0.723461
0.81294 0.985183 0.750042
0.813077 0.985183 0.750057
0.813336 0.985183 0.750088
0.814069 0.985183 0.750179
0.816144 0.985214 0.750423
0.821424 0.98526 0.751202
0.83151 0.985351 0.753491
0.840085 0.985428 0.759808
0.839994 0.985367 0.776486
0.00875868 0.0099794 0.0406806
0.00875868 0.0099794 0.0408942
0.210407 0.0069276 0.0380255
0.465812 0.00376898 0.0357977
0.726589 0 0.0339361
0.904601 0 0.0570077
0.871229 0.549523 0.161227
0.852613 0.828779 0.428717
0.844312 0.934997 0.665446
0.00572213 0.0423133 0.033463
0.0497597 0.0542611 0.0314031
0.228763 0.0065156 0.0311284
0.471366 0.00344854 0.0265507
0.726802 0 0.0108797
0.904143 0 0.0347906
0.868818 0.583032 0.150286
0.852323 0.832822 0.426932
0.844266 0.9355 0.665248
0 0.230457 0.0018616
0 0.233677 0.00183108
0.185702 0.232471 0
0.470985 0.206592 0
0.724529 0.0642252 0
0.890547 0.20647 0
0.865965 0.62118 0.130755
0.85185 0.839307 0.424018
0.844221 0.936309 0.664927
0 0.519905 0
0 0.520989 0
0 0.521431 0
0.406439 0.520424 0
0.701183 0.508812 0
0.866865 0.558328 0
0.858686 0.69836 0.0322271
0.850645 0.855695 0.415381
0.844053 0.938628 0.663935
0 0.779309 0
0 0.779217 0
0 0.778897 0
0 0.776791 0
0.639658 0.773419 0
0.826062 0.778103 0
0.848264 0.818372 0
0.848157 0.889342 0.390326
0.84361 0.944747 0.660975
0 0.924285 0
0 0.923644 0
0 0.922606 0
0 0.919448 0
0.609796 0.916167 0
0.78056 0.910018 0
0.841245 0.911925 0
0.844923 0.933379 0.423148
0.842695 0.957732 0.652201
0.522805 0.978668 0.16611
0.536614 0.978424 0.167132
0.55671 0.978012 0.168765
0.604425 0.976837 0.173632
0.685969 0.974197 0.188067
0.775219 0.970596 0.228687
0.836789 0.968566 0.335378
0.842206 0.969635 0.517082
0.841337 0.974868 0.674952
0.747051 0.984741 0.573281
0.748257 0.984756 0.573404
0.750179 0.984787 0.573602
0.755673 0.984833 0.574228
0.769802 0.984985 0.576104
0.796857 0.98526 0.581781
0.82948 0.985595 0.598123
0.840681 0.985672 0.64242
0.840299 0.985534 0.723445
0.812955 0.985183 0.750042
0.813107 0.985183 0.750057
0.813352 0.985183 0.750088
0.814084 0.985183 0.750164
0.816175 0.985214 0.750423
0.821439 0.98526 0.751202
0.831525 0.985351 0.753491
0.840085 0.985428 0.759808
0.839994 0.985367 0.776486
0.00941482 0.011017 0.162081
0.00941482 0.011017 0.162295
0.188296 0.00862135 0.158923
0.479011 0.00535592 0.151858
0.728008 0.000198367 0.151949
0.905882 0 0.17528
0.872694 0.537667 0.25977
0.852689 0.827436 0.471885
0.844282 0.934768 0.673716
0.00941482 0.011017 0.158312
0.00941482 0.011017 0.158663
0.21648 0.00827039 0.154574
0.477455 0.00534066 0.148165
0.729824 0.000106813 0.147845
0.905837 0 0.16849
0.870192 0.573892 0.253101
0.852384 0.83154 0.470512
0.844251 0.935286 0.673533
0 0.205066 0.145113
0 0.207553 0.144778
0.178729 0.20029 0.139406
0.460609 0.180514 0.140261
0.728664 1.5259e-05 0.136751
0.897688 0.148516 0.159823
0.867216 0.616449 0.241947
0.851911 0.838132 0.468284
0.84419 0.936095 0.673228
0 0.509163 0.0659037
0 0.510475 0.0667735
0 0.511116 0.0679942
0.409827 0.509621 0.0695811
0.700343 0.498451 0.0734417
0.870405 0.550835 0.0996109
0.861387 0.697093 0.205768
0.850706 0.85478 0.461753
0.844022 0.93843 0.672312
0 0.777203 0
0 0.777111 0
0 0.776776 0
0 0.774639 0
0.641733 0.771313 0
0.826078 0.776379 0
0.850752 0.820005 0.0686198
0.848219 0.888914 0.443412
0.84358 0.944579 0.669551
0 0.923934 0
0 0.923293 0
0 0.922255 0
0 0.919097 0
0.612238 0.915877 0
0.781003 0.909804 0
0.84126 0.911788 0
0.844938 0.933288 0.422843
0.842664 0.95761 0.661463
0.526268 0.978592 0.16585
0.539773 0.978332 0.166873
0.559457 0.97792 0.168505
0.606348 0.976761 0.173373
0.68687 0.974121 0.187823
0.775479 0.97055 0.228489
0.836851 0.968536 0.335332
0.842206 0.969619 0.516991
0.841337 0.974853 0.674922
0.747341 0.984756 0.573251
0.748547 0.984756 0.573373
0.750454 0.984787 0.573571
0.755932 0.984848 0.574197
0.769985 0.984985 0.576074
0.796963 0.98526 0.58175
0.829511 0.985595 0.598108
0.840681 0.985672 0.64242
0.840299 0.985534 0.72343
0.812985 0.985183 0.750042
0.813138 0.985183 0.750057
0.813397 0.985183 0.750088
0.814115 0.985183 0.750164
0.816205 0.985214 0.750408
0.821454 0.98526 0.751186
0.83154 0.985351 0.753475
0.840085 0.985428 0.759808
0.839994 0.985367 0.776486
0.00805676 0.0103304 0.394614
0.00805676 0.0103304 0.394781
0.00805676 0.0103151 0.394873
0.454047 0.0059205 0.387121
0.743191 0.000686656 0.384527
0.906172 0 0.401282
0.876112 0.489921 0.458824
0.852888 0.822995 0.548333
0.844221 0.934112 0.694774
0.00808728 0.0103456 0.39234
0.00807202 0.0103304 0.392554
0.0941939 0.00933852 0.391028
0.47068 0.00578317 0.384451
0.741604 0.000717174 0.381964
0.906188 0 0.398459
0.872862 0.53782 0.45594
0.852567 0.827314 0.547524
0.84419 0.93463 0.694621
0.00199893 0.0875715 0.388113
0.00148013 0.0936141 0.388266
0.123247 0.0875105 0.386664
0.477195 0.00573739 0.380194
0.736767 0.000839246 0.377829
0.906188 0 0.393027
0.869078 0.59353 0.451164
0.852079 0.834211 0.546197
0.844129 0.935454 0.694377
0 0.460761 0.358221
0 0.46273 0.358526
0 0.464103 0.359197
0.40293 0.462226 0.360006
0.692454 0.451408 0.362768
0.874662 0.512291 0.379339
0.862898 0.684245 0.436484
0.850828 0.851637 0.542443
0.843961 0.937835 0.693614
0 0.77322 0.26424
0 0.773205 0.264942
0 0.772961 0.266011
0 0.771023 0.269108
0.643427 0.767773 0.281209
0.829053 0.774502 0.310872
0.85333 0.818631 0.395346
0.848249 0.887221 0.532586
0.843519 0.944076 0.691386
0 0.922927 0
0 0.922286 0
0 0.921248 0
0 0.91809 0
0.612222 0.914885 0
0.783963 0.912963 0.135561
0.845945 0.916854 0.306264
0.844938 0.932845 0.509133
0.842573 0.957244 0.684977
0.536385 0.978286 0.165042
0.549035 0.978058 0.166064
0.567559 0.977646 0.167681
0.612024 0.976501 0.17258
0.689555 0.973922 0.187091
0.776257 0.970428 0.227893
0.837034 0.968444 0.335241
0.842206 0.969573 0.516716
0.841337 0.974838 0.674769
0.748241 0.984756 0.573159
0.749416 0.984771 0.573281
0.751308 0.984787 0.57348
0.75671 0.984848 0.574105
0.770596 0.984985 0.575982
0.797269 0.98526 0.581659
0.829602 0.985595 0.598016
0.840681 0.985672 0.642405
0.840299 0.985534 0.723384
0.813107 0.985183 0.750027
0.81326 0.985183 0.750042
0.813489 0.985183 0.750057
0.814237 0.985183 0.750149
0.816297 0.985214 0.750408
0.82153 0.98526 0.751171
0.831571 0.985351 0.75346
0.840085 0.985428 0.759793
0.839994 0.985367 0.776486
0.00367742 0.00665293 0.645579
0.00367742 0.00663767 0.64564
0.00367742 0.00663767 0.645747
0.285451 0.00454719 0.641733
0.731533 0 0.63534
0.904906 0 0.636683
0.893126 0.214176 0.651865
0.853483 0.807157 0.677882
0.844129 0.932143 0.737102
0.00369268 0.00665293 0.64506
0.00369268 0.00665293 0.645121
0.00369268 0.00665293 0.645228
0.31487 0.00436408 0.640848
0.735882 0 0.634745
0.904921 0 0.636118
0.885313 0.338308 0.651072
0.853117 0.812406 0.677302
0.844083 0.932692 0.736996
0.00370794 0.00666819 0.64419
0.00370794 0.00666819 0.644266
0.00370794 0.00666819 0.644373
0.35404 0.00410468 0.639506
0.738552 0 0.633753
0.904921 0 0.635157
0.877302 0.459983 0.649165
0.852552 0.820279 0.676448
0.844022 0.933562 0.736828
0 0.267659 0.638285
0 0.270817 0.638285
0 0.274876 0.638254
0.345571 0.265736 0.635019
0.729534 0.148318 0.631617
0.889921 0.267948 0.633082
0.865751 0.632563 0.643244
0.851102 0.840711 0.674022
0.843854 0.936065 0.736294
0 0.740307 0.608713
0 0.740551 0.60882
0 0.740627 0.608942
0 0.739315 0.609247
0.632868 0.73608 0.609857
0.823819 0.747768 0.613901
0.854109 0.801892 0.628367
0.848219 0.881086 0.668132
0.843381 0.942596 0.734798
0 0.926116 0.571557
0 0.92549 0.57171
0 0.924453 0.571939
0 0.921263 0.572641
0.594675 0.917571 0.575616
0.777783 0.911437 0.584527
0.846067 0.91426 0.607202
0.844678 0.930541 0.656184
0.842405 0.956237 0.730724
0.529137 0.979461 0.505653
0.542153 0.979217 0.505959
0.561166 0.978821 0.506477
0.606577 0.97763 0.507942
0.685237 0.974929 0.512139
0.772473 0.971038 0.524193
0.833036 0.968292 0.557366
0.841962 0.968917 0.628779
0.841138 0.974319 0.720088
0.750912 0.984787 0.572854
0.752041 0.984802 0.572992
0.753841 0.984817 0.57319
0.75903 0.984878 0.5738
0.772381 0.985016 0.575692
0.798215 0.985275 0.581369
0.829908 0.985595 0.597772
0.840681 0.985672 0.642344
0.840299 0.985534 0.723232
0.813458 0.985183 0.749981
0.813596 0.985183 0.749996
0.81384 0.985183 0.750027
0.814557 0.985199 0.750118
0.816602 0.985214 0.750362
0.821759 0.98526 0.751141
0.831693 0.985351 0.753429
0.840085 0.985428 0.759762
0.839994 0.985367 0.776486
0 0.0034638 0.806455
0 0.0034638 0.80647
0 0.0034638 0.806485
0 0.0034638 0.806531
0.645289 0 0.796109
0.903517 0 0.789517
0.903517 0 0.790341
0.857893 0.734005 0.786542
0.844236 0.92604 0.790249
0 0.0034638 0.806394
0 0.0034638 0.806394
0 0.0034638 0.806409
0 0.0034638 0.806455
0.651316 0 0.79588
0.903517 0 0.789441
0.903517 0 0.790265
0.857191 0.744213 0.785946
0.84419 0.92668 0.790188
0 0.0034638 0.806271
0 0.0034638 0.806287
0 0.0034638 0.806302
0 0.0034638 0.806332
0.660868 0 0.795514
0.903517 0 0.789319
0.903517 0 0.790158
0.856153 0.759304 0.785046
0.844114 0.927703 0.790066
0 0.00347906 0.80592
0 0.00347906 0.805936
0 0.00347906 0.805951
0 0.00347906 0.805661
0.681804 0 0.794598
0.903532 0 0.788937
0.903532 0 0.788403
0.85362 0.795773 0.782666
0.8439 0.930663 0.789731
0 0.583246 0.791775
0 0.584482 0.79173
0 0.58648 0.791653
0 0.589563 0.791089
0.627344 0.582437 0.787228
0.864225 0.601419 0.783719
0.859113 0.717052 0.780041
0.84921 0.858213 0.777951
0.843351 0.938293 0.7888
0 0.913756 0.763058
0 0.913375 0.763027
0 0.912612 0.762997
0 0.909606 0.762814
0.534173 0.904555 0.762814
0.767483 0.898024 0.763912
0.843015 0.903395 0.765743
0.844541 0.923552 0.771389
0.842252 0.953597 0.786603
0.394369 0.97702 0.747951
0.432914 0.976944 0.74815
0.478035 0.976715 0.748394
0.549722 0.975601 0.748913
0.654353 0.972656 0.749676
0.757046 0.96846 0.75111
0.823377 0.965682 0.754833
0.841428 0.966873 0.763714
0.840848 0.973114 0.782162
0.742412 0.984527 0.719951
0.743572 0.984543 0.719997
0.745418 0.984558 0.720073
0.750744 0.984619 0.720302
0.764401 0.984756 0.721004
0.790845 0.985031 0.723095
0.823377 0.985351 0.729122
0.840177 0.985473 0.744518
0.840009 0.985382 0.772244
0.814481 0.985199 0.749859
0.814618 0.985199 0.749889
0.814847 0.985199 0.749905
0.815518 0.985199 0.749981
0.817472 0.985229 0.75024
0.822431 0.985275 0.751019
0.832059 0.985367 0.753307
0.840085 0.985428 0.75967
0.839994 0.985367 0.776455
0 0.0024567 0.854109
0 0.0024567 0.854109
0 0.0024567 0.854109
0 0.0024567 0.854109
0 0.0024567 0.854109
0.888395 0 0.846159
0.902922 0 0.846021
0.902922 0 0.846021
0.845792 0.900023 0.833463
0 0.0024567 0.854109
0 0.0024567 0.854109
0 0.0024567 0.854109
0 0.0024567 0.854109
0 0.0024567 0.854109
0.889509 0 0.846143
0.902922 0 0.846021
0.902922 0 0.846021
0.845716 0.901213 0.833356
0 0.0024567 0.854109
0 0.0024567 0.854109
0 0.0024567 0.854109
0 0.0024567 0.854109
0 0.0024567 0.854109
0.891295 0 0.846128
0.902922 0 0.846021
0.902922 0 0.846021
0.845579 0.90309 0.833219
0 0.0024567 0.854109
0 0.0024567 0.854109
0 0.0024567 0.854109
0 0.0024567 0.854109
0 0.0024567 0.854109
0.896483 0 0.846082
0.902922 0 0.846021
0.902922 0 0.846021
0.845197 0.908385 0.832807
0 0.0024567 0.854109
0 0.0024567 0.854109
0 0.0024567 0.854109
0 0.0024567 0.854109
0.366705 0.000427253 0.850477
0.902922 0 0.846021
0.902922 0 0.846021
0.864149 0.634287 0.845335
0.844266 0.921492 0.831739
0 0.823209 0.838651
0 0.823453 0.838636
0 0.823865 0.838605
0 0.825116 0.838499
0 0.820615 0.83743
0.77673 0.816495 0.836042
0.850141 0.839246 0.833906
0.846326 0.89305 0.830823
0.842588 0.944778 0.829725
0 0.975647 0.822751
0 0.975036 0.822705
0 0.974029 0.822629
0 0.971099 0.822431
0.570367 0.968887 0.823072
0.738567 0.963088 0.82356
0.818799 0.960021 0.823896
0.841337 0.962371 0.824628
0.840742 0.970352 0.827024
0.717678 0.983917 0.818173
0.719234 0.983932 0.818173
0.721675 0.983963 0.818173
0.728649 0.984039 0.818204
0.746212 0.984237 0.81828
0.778851 0.984573 0.818448
0.816114 0.98497 0.818952
0.839704 0.985199 0.820447
0.839673 0.985183 0.824079
0.81059 0.984955 0.806806
0.810742 0.984955 0.806821
0.810971 0.984955 0.806821
0.811658 0.98497 0.806851
0.813657 0.984985 0.806928
0.818708 0.985031 0.807202
0.828519 0.985138 0.80798
0.839719 0.985245 0.8103
0.839734 0.985214 0.816236
0 0.066743 0.854444
0 0.066743 0.854444
0 0.066743 0.854444
0 0.0667735 0.854444
0 0.0668498 0.854459
0 0.0670329 0.854459
0.902922 0 0.846021
0.902922 0 0.846021
0.861494 0.673564 0.849836
0 0.0667124 0.854444
0 0.0667124 0.854444
0 0.0667277 0.854459
0 0.066743 0.854444
0 0.0668193 0.854459
0 0.0670176 0.854459
0.902922 0 0.846021
0.902922 0 0.846021
0.861494 0.673548 0.849836
0 0.0666514 0.854444
0 0.0666514 0.854444
0 0.0666667 0.854444
0 0.0666972 0.854444
0 0.066743 0.854444
0 0.0669566 0.854459
0.902922 0 0.846021
0.902922 0 0.846021
0.861494 0.673518 0.849836
0 0.0664988 0.854444
0 0.0664836 0.854444
0 0.0664988 0.854444
0 0.0665141 0.854444
0 0.0665904 0.854444
0 0.0342107 0.854353
0.902922 0 0.846021
0.902922 0 0.846021
0.861509 0.673396 0.849836
0 0.0659648 0.854444
0 0.0659648 0.854444
0 0.06598 0.854444
0 0.0659953 0.854444
0 0.0660563 0.854444
0.40383 0.000228885 0.850263
0.902922 0 0.846021
0.902922 0 0.846021
0.861524 0.67303 0.849836
0 0.0643015 0.854444
0 0.0643015 0.854444
0 0.0643015 0.854444
0 0.0643168 0.854444
0 0.0643931 0.854444
0.743587 0 0.847562
0.902922 0 0.846021
0.899992 0.0587472 0.847562
0.848447 0.861295 0.849134
0 0.945418 0.846036
0 0.945464 0.846036
0 0.94551 0.846036
0 0.945663 0.846036
0 0.94612 0.846021
0.64799 0.933104 0.847745
0.822858 0.928618 0.848615
0.842969 0.937545 0.84863
0.841459 0.958312 0.848493
0.585611 0.982254 0.846769
0.592279 0.98233 0.846799
0.60235 0.982452 0.84683
0.628626 0.982773 0.846906
0.682429 0.983398 0.847013
0.751812 0.984161 0.847105
0.808652 0.984771 0.847135
0.838621 0.984009 0.847242
0.839551 0.984512 0.84744
0.801358 0.984695 0.845136
0.801556 0.984695 0.845136
0.801877 0.98471 0.845136
0.802808 0.98471 0.845151
0.805432 0.984741 0.845151
0.811978 0.984802 0.845167
0.823972 0.984924 0.845212
0.836866 0.985061 0.84538
0.839521 0.985092 0.845838
0 0.329564 0.853315
0 0.329564 0.853315
0 0.329564 0.853315
0 0.32958 0.853315
0 0.32958 0.853315
0 0.329641 0.853315
0 0.329763 0.853315
0.885161 0.313619 0.849744
0.858824 0.712993 0.849775
0 0.329564 0.853315
0 0.329564 0.853315
0 0.329564 0.853315
0 0.329564 0.853315
0 0.32958 0.853315
0 0.32961 0.853315
0 0.329763 0.853315
0.88513 0.313939 0.849744
0.858824 0.713039 0.849775
0 0.329534 0.853315
0 0.329534 0.853315
0 0.329534 0.853315
0 0.329564 0.853315
0 0.329564 0.853315
0 0.32961 0.853315
0 0.329732 0.853315
0.8851 0.314458 0.849744
0.858824 0.7131 0.849775
0 0.329519 0.853315
0 0.329519 0.853315
0 0.329519 0.853315
0 0.329519 0.853315
0 0.329534 0.853315
0 0.32958 0.853315
0 0.329702 0.853315
0.885008 0.316014 0.849744
0.858808 0.713298 0.849775
0 0.329397 0.85333
0 0.329397 0.85333
0 0.329397 0.85333
0 0.329397 0.85333
0 0.329412 0.85333
0 0.329458 0.853315
0.387625 0.307179 0.851255
0.884703 0.32079 0.84976
0.858763 0.713878 0.849775
0 0.329061 0.85333
0 0.329061 0.85333
0 0.329061 0.85333
0 0.329076 0.85333
0 0.329076 0.85333
0 0.329122 0.85333
0.758419 0.0937057 0.84918
0.883803 0.334936 0.84979
0.858701 0.714748 0.84976
0 0.328023 0.85333
0 0.328023 0.85333
0 0.328023 0.85333
0 0.328038 0.85333
0 0.328038 0.85333
0 0.328084 0.85333
0.902922 0 0.846021
0.882033 0.362371 0.849851
0.858595 0.716381 0.84976
0 0.977218 0.845548
0 0.977218 0.845548
0 0.977218 0.845548
0 0.977218 0.845548
0 0.977218 0.845548
0 0.977218 0.845548
0.77525 0.974365 0.848051
0.840406 0.972366 0.848386
0.840192 0.975662 0.848356
0.757809 0.984222 0.847883
0.75848 0.984237 0.847883
0.759548 0.984237 0.847898
0.762661 0.984283 0.847913
0.770947 0.98436 0.847959
0.788815 0.984558 0.848035
0.814328 0.984817 0.848157
0.834577 0.985031 0.848264
0.839506 0.985077 0.84828
