BBLuts/BB_103_0880_LUT.cube
TITLE "Generated by Resolve"
LUT_3D_SIZE 9
0.0240635 0.0148928 0.0181125
0.0290227 0.0149233 0.018143
0.242786 0.0173648 0.0201572
0.487709 0.0210574 0.0232547
1 0.0289769 0.0298772
1 0.035584 0.0354009
1 0.687205 0.0823224
1 1 0.331121
1 1 0.849973
0.0184634 0.0836042 0.0136721
0.0173648 0.0958572 0.0128023
0.243778 0.0747234 0.016083
0.496818 0.0211948 0.0233768
1 0.0290379 0.0299382
1 0.0355688 0.0354009
1 0.734401 0.060502
1 1 0.329595
1 1 0.84976
0.000350958 0.273213 0
0 0.277256 0
0.175479 0.277455 0
0.481621 0.257527 0.00337224
1 0.162387 0.0180362
1 0.315129 0.00866712
1 0.794873 0.0180056
1 1 0.327199
1 1 0.849409
0 0.558114 0
0 0.55938 0
0 0.560754 0
0.382132 0.559899 0
1 0.552453 0
1 0.628519 0
1 0.966155 0
1 1 0.322713
1 1 0.847715
0 1 0
0 1 0
0 1 0
0 1 0
0.816999 1 0
1 1 0
1 1 0
1 1 0.324468
1 1 0.841123
0 1 0
0 1 0
0 1 0
0 1 0
0.700908 1 0
1 1 0
1 1 0
1 1 0.361929
1 1 0.842191
0.529061 1 0.100038
0.529061 1 0.100038
0.529061 1 0.100038
0.529015 1 0.100038
0.862684 1 0.118029
1 1 0.164157
1 1 0.2654
1 1 0.524041
1 1 0.891814
1 1 0.661189
1 1 0.661219
1 1 0.661219
1 1 0.661219
1 1 0.661219
1 1 0.674891
1 1 0.714366
1 1 0.815015
1 1 0.99826
1 1 1
1 1 1
1 1 1
1 1 1
1 1 1
1 1 1
1 1 1
1 1 1
1 1 1
0.0243229 0.015198 0.0827344
0.0243229 0.015198 0.0832837
0.23978 0.0175479 0.0860151
0.486778 0.0212253 0.0903029
1 0.0290837 0.0968338
1 0.0356756 0.105882
1 0.682734 0.113436
1 1 0.331136
1 1 0.850004
0.021622 0.0490272 0.0721294
0.0607919 0.0657054 0.0700694
0.254505 0.0189822 0.077821
0.489708 0.0212253 0.0778973
1 0.0290074 0.0548562
1 0.035584 0.0645609
1 0.730724 0.0865797
1 1 0.32961
1 1 0.84976
0.00157168 0.261036 0.00677501
0.00120546 0.264698 0.00666819
0.195163 0.265568 0.00746166
0.479728 0.24506 0.010132
1 0.126238 0.0212711
1 0.300084 0.010132
1 0.791791 0.0415961
1 1 0.327199
1 1 0.849409
0 0.551644 0
0 0.552789 0
0 0.554009 0
0.392325 0.552819 0
1 0.546624 0
1 0.623621 0
1 0.964355 0
1 1 0.322713
1 1 0.847715
0 1 0
0 1 0
0 1 0
0 1 0
0.822049 1 0
1 1 0
1 1 0
1 1 0.324468
1 1 0.841123
0 1 0
0 1 0
0 1 0
0 1 0
0.704936 1 0
1 1 0
1 1 0
1 1 0.361929
1 1 0.842191
0.535668 1 0.0998703
0.535668 1 0.0998703
0.535653 1 0.0998703
0.535622 1 0.0998703
0.864561 1 0.117815
1 1 0.163973
1 1 0.265385
1 1 0.524041
1 1 0.891814
1 1 0.661173
1 1 0.661173
1 1 0.661173
1 1 0.661173
1 1 0.661173
1 1 0.674861
1 1 0.714321
1 1 0.815015
1 1 0.99826
1 1 1
1 1 1
1 1 1
1 1 1
1 1 1
1 1 1
1 1 1
1 1 1
1 1 1
0.0253605 0.0164034 0.242298
0.0253605 0.0164034 0.242603
0.207935 0.0181582 0.243687
0.498085 0.0222324 0.244175
1 0.0298161 0.254856
1 0.0364385 0.280995
1 0.663478 0.26743
1 1 0.364645
1 1 0.850004
0.0253452 0.0163729 0.239551
0.0253452 0.0163729 0.239994
0.232105 0.0184329 0.240894
0.496864 0.0221866 0.240589
1 0.0298161 0.250614
1 0.0363928 0.273045
1 0.711971 0.25565
1 1 0.362982
1 1 0.84976
0.00579843 0.226825 0.211841
0.00547799 0.229999 0.211582
0.180957 0.225483 0.208698
0.46511 0.208377 0.214527
1 0.0520638 0.236957
1 0.242054 0.239109
1 0.775204 0.238941
1 1 0.360143
1 1 0.849409
0 0.532616 0.104387
0 0.534295 0.104631
0 0.535378 0.106004
0.391897 0.534218 0.109483
1 0.529213 0.116869
1 0.605936 0.128389
1 0.953262 0.179843
1 1 0.349477
1 1 0.847715
0 1 0
0 1 0
0 1 0
0 1 0
0.826886 1 0
1 1 0
1 1 0
1 1 0.325948
1 1 0.841123
0 1 0
0 1 0
0 1 0
0 1 0
0.71194 1 0
1 1 0
1 1 0
1 1 0.361715
1 1 0.842191
0.544533 1 0.0996109
0.544533 1 0.0996109
0.544533 1 0.0996109
0.544503 1 0.0996109
0.867109 1 0.11751
1 1 0.16376
1 1 0.265187
1 1 0.523934
1 1 0.891814
1 1 0.661097
1 1 0.661097
1 1 0.661097
1 1 0.661097
1 1 0.661097
1 1 0.674769
1 1 0.714275
1 1 0.814984
1 1 0.99826
1 1 1
1 1 1
1 1 1
1 1 1
1 1 1
1 1 1
1 1 1
1 1 1
1 1 1
0.0274357 0.0187686 0.482582
0.0274357 0.0187686 0.482689
0.0274357 0.0187686 0.482963
0.456596 0.0235447 0.485588
1 0.0320287 0.495109
1 0.0380102 0.518334
1 0.601709 0.50956
1 1 0.593561
1 1 0.872496
0.0274205 0.0187533 0.480827
0.0274205 0.0187533 0.48098
0.052491 0.0188907 0.481254
0.471 0.0237278 0.483467
1 0.0319677 0.492866
1 0.037995 0.515129
1 0.649058 0.500847
1 1 0.591989
1 1 0.872297
0.0223697 0.0759289 0.472862
0.0220951 0.0788281 0.472786
0.0528878 0.0798352 0.472877
0.478248 0.0238041 0.479713
1 0.0317845 0.488579
1 0.0514534 0.508507
1 0.718379 0.488182
1 1 0.58941
1 1 0.871992
0 0.47567 0.41445
0 0.476524 0.414466
0 0.478462 0.414969
0.378058 0.478202 0.41767
0.976928 0.474861 0.426169
1 0.546838 0.438132
1 0.914717 0.449424
1 1 0.579965
1 1 0.870481
0 1 0.279881
0 1 0.279881
0 1 0.280537
0 1 0.283787
0.815305 1 0.295979
1 1 0.320134
1 1 0.370138
1 1 0.550378
1 1 0.864591
0 1 0
0 1 0
0 1 0
0 1 0
0.702937 1 0
1 1 0.130388
1 1 0.266056
1 1 0.481331
1 1 0.847883
0.571237 1 0.0981918
0.571237 1 0.0981918
0.571237 1 0.0981918
0.571237 1 0.0981918
0.874891 1 0.116533
1 1 0.163027
1 1 0.264897
1 1 0.523201
1 1 0.891676
1 1 0.660883
1 1 0.660883
1 1 0.660883
1 1 0.660883
1 1 0.660883
1 1 0.674525
1 1 0.714076
1 1 0.814771
1 1 0.998199
1 1 1
1 1 1
1 1 1
1 1 1
1 1 1
1 1 1
1 1 1
1 1 1
1 1 1
0.0319829 0.0239261 0.992203
0.0319829 0.0239261 0.992203
0.0319829 0.0239261 0.99237
0.144396 0.0245823 0.992508
1 0.0353857 0.995178
1 0.0419623 1
1 0.356634 0.993561
1 1 0.938308
1 1 1
0.0319829 0.0239261 0.99205
0.0319829 0.0239261 0.99205
0.0319829 0.0239261 0.992187
0.15198 0.0246433 0.99173
1 0.0354772 0.994461
1 0.0419623 1
1 0.436652 0.982712
1 1 0.937057
1 1 1
0.0319677 0.0238956 0.990173
0.0319677 0.0238956 0.990173
0.0319677 0.0238956 0.990295
0.251728 0.0255741 0.990204
1 0.0355993 0.992538
1 0.0419471 1
1 0.518746 0.970626
1 1 0.935103
1 1 1
0.010132 0.243992 0.962737
0.010132 0.243992 0.962737
0.00967422 0.248402 0.962356
0.235584 0.240589 0.961929
1 0.149645 0.973159
1 0.243473 0.971908
1 0.767391 0.933684
1 1 0.927871
1 1 1
0 1 0.835889
0 1 0.835889
0 1 0.83592
0 1 0.836698
0.775113 1 0.840742
1 1 0.848173
1 1 0.859602
1 1 0.907713
1 1 1
0 1 0.714183
0 1 0.714183
0 1 0.714061
0 1 0.71574
0.613245 1 0.722362
1 1 0.743191
1 1 0.786694
1 1 0.870787
1 1 1
0.532799 1 0.569345
0.532799 1 0.569345
0.532799 1 0.569345
0.532799 1 0.569345
0.844694 1 0.579324
1 1 0.605783
1 1 0.671702
1 1 0.802518
1 1 0.977203
1 1 0.659617
1 1 0.659617
1 1 0.659617
1 1 0.659617
1 1 0.659617
1 1 0.67364
1 1 0.713329
1 1 0.814389
1 1 0.997833
1 1 1
1 1 1
1 1 1
1 1 1
1 1 1
1 1 1
1 1 1
1 1 1
1 1 1
0.0352636 0.0276188 1
0.0352636 0.0276188 1
0.0352636 0.0276188 1
0.0352636 0.0276188 1
0.639033 0.0336767 1
1 0.04477 1
1 0.044892 1
1 1 1
1 1 1
0.0352636 0.0276188 1
0.0352636 0.0276188 1
0.0352636 0.0276188 1
0.0352636 0.0276188 1
0.63772 0.0336461 1
1 0.04477 1
1 0.044892 1
1 1 1
1 1 1
0.0352636 0.0276188 1
0.0352636 0.0276188 1
0.0352636 0.0276188 1
0.0352636 0.0276188 1
0.658015 0.0338903 1
1 0.04477 1
1 0.044892 1
1 1 1
1 1 1
0.0352483 0.0276188 1
0.0352483 0.0276188 1
0.0352483 0.0276188 1
0.0352483 0.0276188 1
0.768078 0.0351873 1
1 0.0447852 1
1 0.0468147 1
1 1 1
1 1 1
0 0.538354 1
0 0.538354 1
0 0.538354 1
0 0.543282 1
0.687343 0.538827 1
1 0.571023 1
1 0.920027 1
1 1 1
1 1 1
0 1 1
0 1 1
0 1 1
0 1 1
0.279911 1 1
1 1 1
1 1 1
1 1 1
1 1 1
0.276936 1 1
0.276936 1 1
0.277913 1 1
0.277913 1 1
0.68336 1 1
1 1 1
1 1 1
1 1 1
1 1 1
1 1 1
1 1 1
1 1 1
1 1 1
1 1 1
1 1 1
1 1 1
1 1 1
1 1 1
1 1 1
1 1 1
1 1 1
1 1 1
1 1 1
1 1 1
1 1 1
1 1 1
1 1 1
0.0361639 0.0286412 1
0.0361639 0.0286412 1
0.0361639 0.0286412 1
0.0361639 0.0286412 1
0.0361639 0.0286412 1
1 0.0434119 1
1 0.0459297 1
1 0.0459297 1
1 1 1
0.0361639 0.0286412 1
0.0361639 0.0286412 1
0.0361639 0.0286412 1
0.0361639 0.0286412 1
0.0361639 0.0286412 1
1 0.0434119 1
1 0.0459297 1
1 0.0459297 1
1 1 1
0.0361639 0.0286412 1
0.0361639 0.0286412 1
0.0361639 0.0286412 1
0.0361639 0.0286412 1
0.0361639 0.0286412 1
1 0.0434119 1
1 0.0459297 1
1 0.0459297 1
1 1 1
0.0361639 0.0286412 1
0.0361639 0.0286412 1
0.0361639 0.0286412 1
0.0361639 0.0286412 1
0.0361639 0.0286412 1
1 0.0435492 1
1 0.0459297 1
1 0.0459297 1
1 1 1
0.0361639 0.0286412 1
0.0361639 0.0286412 1
0.0361639 0.0286412 1
0.0361639 0.0286412 1
0.0361639 0.0286412 1
1 0.0445258 1
1 0.0459297 1
1 0.492271 1
1 1 1
0 1 1
0 1 1
0 1 1
0 1 1
0 1 1
1 1 1
1 1 1
1 1 1
1 1 1
0 1 1
0 1 1
0 1 1
0 1 1
0 1 1
0.997284 1 1
1 1 1
1 1 1
1 1 1
1 1 1
1 1 1
1 1 1
1 1 1
1 1 1
1 1 1
1 1 1
1 1 1
1 1 1
1 1 1
1 1 1
1 1 1
1 1 1
1 1 1
1 1 1
1 1 1
1 1 1
1 1 1
0.0271305 0.120989 1
0.0271305 0.120989 1
0.0271305 0.120989 1
0.0271305 0.120989 1
0.0271305 0.120989 1
0.0271153 0.121096 1
1 0.0459297 1
1 0.0740063 1
1 0.862318 1
0.0271305 0.120989 1
0.0271305 0.120989 1
0.0271305 0.120989 1
0.0271305 0.120989 1
0.0271305 0.120989 1
0.0271153 0.121096 1
1 0.0459297 1
1 0.0740063 1
1 0.862318 1
0.0271305 0.120989 1
0.0271305 0.120989 1
0.0271305 0.120989 1
0.0271305 0.120989 1
0.0271305 0.120989 1
0.0271153 0.121096 1
1 0.0459297 1
1 0.0740063 1
1 0.862226 1
0.0271305 0.120989 1
0.0271305 0.120989 1
0.0271305 0.120989 1
0.0271305 0.120989 1
0.0271305 0.120989 1
0.0271153 0.121096 1
1 0.0459297 1
1 0.0740063 1
1 0.861997 1
0.0271458 0.120867 1
0.0271458 0.120867 1
0.0271458 0.120867 1
0.0271458 0.120867 1
0.0271458 0.120867 1
0.0271305 0.120958 1
1 0.0459297 1
1 0.0762646 1
1 0.861326 1
0.0273289 0.119066 1
0.0273289 0.119066 1
0.0273289 0.119066 1
0.0273289 0.119066 1
0.0273289 0.119066 1
0.0273136 0.119142 1
1 0.0459297 1
1 0.118563 1
1 1 1
0 1 1
0 1 1
0 1 1
0 1 1
0 1 1
0 1 1
1 1 1
1 1 1
1 1 1
0.399756 1 1
0.399756 1 1
0.399756 1 1
0.399756 1 1
0.399756 1 1
0.399756 1 1
1 1 1
1 1 1
1 1 1
1 1 1
1 1 1
1 1 1
1 1 1
1 1 1
1 1 1
1 1 1
1 1 1
1 1 1
0.000610361 0.372519 1
0.000610361 0.372519 1
0.000610361 0.372519 1
0.000610361 0.372519 1
0.000610361 0.372519 1
0.000610361 0.372519 1
0.000595102 0.372595 1
1 0.184588 1
1 0.936736 1
0.000610361 0.372519 1
0.000610361 0.372519 1
0.000610361 0.372519 1
0.000610361 0.372519 1
0.000610361 0.372519 1
0.000610361 0.372519 1
0.000595102 0.372595 1
1 0.184588 1
1 0.936736 1
0.000610361 0.372519 1
0.000610361 0.372519 1
0.000610361 0.372519 1
0.000610361 0.372519 1
0.000610361 0.372519 1
0.000610361 0.372519 1
0.000595102 0.372595 1
1 0.184588 1
1 0.936736 1
0.000610361 0.372519 1
0.000610361 0.372519 1
0.000610361 0.372519 1
0.000610361 0.372519 1
0.000610361 0.372519 1
0.000610361 0.372519 1
0.000595102 0.372595 1
1 0.184588 1
1 0.936736 1
0.000610361 0.372519 1
0.000610361 0.372519 1
0.000610361 0.372519 1
0.000610361 0.372519 1
0.000610361 0.372519 1
0.000610361 0.372519 1
0.000595102 0.372595 1
1 0.184588 1
1 0.936736 1
0.000610361 0.372442 1
0.000610361 0.372442 1
0.000610361 0.372442 1
0.000610361 0.372442 1
0.000610361 0.372442 1
0.000610361 0.372442 1
0.000610361 0.372503 1
1 0.185611 1
1 0.939818 1
0.000747692 0.371237 1
0.000747692 0.371237 1
0.000747692 0.371237 1
0.000747692 0.371237 1
0.000747692 0.371237 1
0.000747692 0.371237 1
0.000747692 0.371298 1
1 0.317067 1
1 0.945388 1
0 1 1
0 1 1
0 1 1
0 1 1
0 1 1
0 1 1
0 1 1
1 1 1
1 1 1
1 1 1
1 1 1
1 1 1
1 1 1
1 1 1
1 1 1
1 1 1
1 1 1
1 1 1
