BBLuts/BB_106_0240_LUT.cube
TITLE "Generated by Resolve"
LUT_3D_SIZE 5
0.0123293 0.0218662 0.038529
0.207813 0.0240635 0.0394903
0.777874 0.296681 0.37232
0.98439 0.643122 0.669093
0.976364 0.931472 0.780713
0 0.20531 0.0243534
0.151843 0.209613 0.0271458
0.783719 0.338643 0.381796
0.9841 0.664881 0.666575
0.976257 0.932799 0.778881
0 0.774533 0.00399786
0 0.774121 0.00399786
0.717617 0.76495 0.00503548
0.981308 0.818601 0.598199
0.975509 0.941421 0.764782
0 0.98085 0.00564584
0 0.979675 0.00563058
0.598016 0.974105 0.00645457
0.9664 0.966537 0.007187
0.972427 0.972824 0.77026
0.937392 0.984848 0.890959
0.937911 0.984863 0.891051
0.941649 0.984894 0.891768
0.96173 0.985183 0.897475
0.973693 0.986038 0.930465
0.0351263 0.0366827 0.212604
0.204944 0.0387121 0.215412
0.7776 0.303349 0.420417
0.984436 0.639872 0.673198
0.976516 0.93135 0.802243
0.0101778 0.184482 0.18468
0.188617 0.182818 0.173526
0.7785 0.304295 0.41767
0.984161 0.660822 0.670787
0.976394 0.932692 0.800763
0 0.771099 0.00396735
0 0.770642 0.00396735
0.724163 0.761578 0.00502022
0.981323 0.817075 0.60322
0.975647 0.94136 0.789517
0 0.980621 0.00564584
0 0.979461 0.00563058
0.616083 0.973983 0.00648508
0.966522 0.966476 0.007187
0.972442 0.972808 0.770123
0.937453 0.984848 0.890959
0.937987 0.984863 0.891051
0.941726 0.984894 0.891737
0.961761 0.985183 0.897459
0.973693 0.986038 0.930465
0.571984 0.532341 0.779568
0.572229 0.532601 0.779767
0.787198 0.54963 0.77821
0.984726 0.652689 0.81474
0.977874 0.930632 0.890028
0.570031 0.530114 0.777874
0.570291 0.530419 0.778103
0.794797 0.549844 0.776699
0.984619 0.659251 0.811673
0.977752 0.932052 0.889387
0 0.730297 0.734722
0 0.730648 0.734997
0.724376 0.723644 0.726772
0.981964 0.799634 0.784298
0.976959 0.941054 0.88481
0 0.979446 0.00563058
0 0.978332 0.00563058
0.606958 0.973007 0.00645457
0.961898 0.965652 0.00717174
0.97322 0.972992 0.852659
0.938064 0.984863 0.890898
0.938582 0.984863 0.891005
0.942229 0.984894 0.891691
0.961944 0.985183 0.897414
0.973693 0.986038 0.930465
0.801587 0.776669 1
0.801587 0.776669 1
0.801587 0.776669 1
0.991348 0.788739 1
0.985229 0.910307 1
0.801587 0.776669 1
0.801587 0.776669 1
0.801587 0.776669 1
0.991348 0.788739 1
0.985061 0.912886 1
0.801587 0.776669 1
0.801587 0.776669 1
0.802762 0.776699 1
0.991348 0.788739 1
0.983871 0.928847 1
0 0.985306 0.990494
0 0.983673 0.990509
0.598672 0.973938 0.991135
0.953689 0.963668 0.993713
0.979202 0.974105 0.997253
0.939605 0.986999 0.969406
0.940078 0.986999 0.969436
0.94345 0.987045 0.96965
0.961929 0.987274 0.97145
0.976349 0.9879 0.982315
0.801465 0.777707 1
0.801465 0.777707 1
0.801465 0.777707 1
0.801465 0.777707 1
0.990814 0.811933 1
0.801465 0.777707 1
0.801465 0.777707 1
0.801465 0.777707 1
0.801465 0.777707 1
0.990799 0.811963 1
0.801465 0.777707 1
0.801465 0.777707 1
0.801465 0.777707 1
0.803037 0.7776 1
0.990799 0.812161 1
0.801465 0.777707 1
0.801465 0.777707 1
0.801465 0.777707 1
0.991348 0.788739 1
0.990784 0.812833 1
0.88481 0.989487 1
0.886839 0.989487 1
0.900099 0.989563 1
0.950469 0.989914 1
0.979644 0.99025 1
