BBLuts/BB_103_0740_LUT.cube
TITLE "Generated by Resolve"
LUT_3D_SIZE 9
0.005066 0 0.0301671
0.005066 0 0.0301671
0.119066 0.00907912 0.0401465
0.310765 0.00819409 0.0327153
0.656535 0 0.00587472
0.893996 0.00369268 0.016022
0.816175 0.506157 0.224399
0.762219 0.803052 0.57435
0.743267 0.893324 0.839826
0 0.0492714 0.0201724
0 0.0582284 0.0191806
0.113527 0.0496834 0.031754
0.320272 0.00791943 0.0318303
0.659327 0 0.00585946
0.893996 0.00369268 0.0160067
0.81146 0.541756 0.208988
0.761746 0.80679 0.57174
0.743206 0.893767 0.839765
0 0.18735 0.00543221
0 0.190372 0.00502022
0.0604105 0.200214 0.0171969
0.28864 0.184146 0.0172122
0.639445 0.087953 0
0.858976 0.207263 0.0430304
0.804929 0.588678 0.177188
0.761028 0.812528 0.56759
0.74313 0.894469 0.839628
0 0.431739 0
0 0.432898 0
0 0.433524 0
0.202228 0.459388 0.0133364
0.594797 0.455268 0.0276646
0.81709 0.518654 0.0531624
0.79234 0.682612 0.0495766
0.759274 0.827497 0.555367
0.742885 0.896483 0.839261
0 0.739101 0
0 0.739025 0
0 0.738689 0
0 0.736477 0
0.491936 0.759258 0.0334173
0.74583 0.766781 0.046479
0.774227 0.805982 0.0489204
0.755352 0.857328 0.56025
0.74226 0.901793 0.838117
0 0.89044 0.0503243
0 0.889815 0.0501259
0 0.888777 0.0497749
0 0.885618 0.0487068
0.456977 0.897139 0.0560769
0.686473 0.889601 0.0529793
0.76405 0.890822 0.0536355
0.749462 0.895186 0.611612
0.740887 0.913039 0.836927
0.320363 0.94818 0.321462
0.340459 0.947372 0.321401
0.369726 0.946166 0.321553
0.439536 0.94313 0.32343
0.552789 0.93814 0.33637
0.666072 0.932845 0.383749
0.740536 0.927962 0.509804
0.742535 0.925429 0.746914
0.738705 0.928252 0.847013
0.619944 0.938827 0.803677
0.621454 0.938827 0.803738
0.62388 0.938827 0.803815
0.630823 0.938811 0.804089
0.648554 0.938781 0.804868
0.68246 0.938704 0.807019
0.723369 0.938445 0.814069
0.73753 0.937926 0.833646
0.736873 0.937728 0.866056
0.70193 0.937911 0.876081
0.702098 0.937911 0.876097
0.702419 0.937911 0.876097
0.703349 0.937911 0.876127
0.705989 0.937911 0.876219
0.712642 0.937896 0.876493
0.72546 0.937881 0.877302
0.736797 0.937804 0.879561
0.736782 0.93785 0.885603
0.00265507 0 0.109483
0.00265507 0 0.109865
0.116625 0.00675975 0.121202
0.308278 0.00543221 0.12015
0.652171 0 0.11162
0.888991 0 0.163561
0.816281 0.499184 0.303624
0.761501 0.801831 0.615885
0.743221 0.893187 0.842084
0 0.0261387 0.0903639
0.0128939 0.040116 0.0899977
0.128985 0.00747692 0.109834
0.313649 0.00570687 0.103029
0.655024 0 0.0631266
0.889921 0.000381476 0.126314
0.811353 0.536126 0.289982
0.760998 0.8056 0.613642
0.743175 0.893629 0.842023
0 0.179675 0.00642405
0 0.182223 0.00610361
0.0736706 0.192981 0.0187228
0.288365 0.175509 0.0171359
0.642206 0.0584115 0
0.860639 0.190402 0.0403601
0.804486 0.584268 0.264775
0.760266 0.811353 0.61004
0.743084 0.894331 0.841901
0 0.427344 0
0 0.428428 0
0 0.428885 0
0.212421 0.454505 0.0136721
0.594888 0.450996 0.0277104
0.817548 0.515267 0.0531167
0.790921 0.679484 0.122972
0.758419 0.826429 0.599542
0.74284 0.896345 0.84155
0 0.737972 0
0 0.737881 0
0 0.73753 0
0 0.735302 0
0.495216 0.75819 0.0333562
0.746044 0.766049 0.046479
0.774273 0.805585 0.0489052
0.755154 0.857023 0.570382
0.742199 0.901686 0.840482
0 0.890227 0.050248
0 0.889586 0.0500496
0 0.888563 0.0496834
0 0.885405 0.0486305
0.459174 0.896956 0.0559701
0.686824 0.889494 0.0529793
0.764065 0.890745 0.0536355
0.749477 0.895155 0.611353
0.740887 0.913024 0.837156
0.323461 0.948043 0.321065
0.343297 0.94725 0.321035
0.372213 0.946044 0.321202
0.44126 0.943038 0.32314
0.553536 0.938094 0.336187
0.66627 0.932815 0.383597
0.740581 0.927947 0.509789
0.742535 0.925429 0.746853
0.738705 0.928252 0.846998
0.620172 0.938827 0.803662
0.621698 0.938827 0.803723
0.624109 0.938827 0.803815
0.631006 0.938811 0.804074
0.648707 0.938781 0.804868
0.682536 0.938704 0.807004
0.7234 0.938445 0.814054
0.73753 0.937926 0.833646
0.736873 0.937728 0.866056
0.701961 0.937911 0.876081
0.702129 0.937911 0.876097
0.702449 0.937911 0.876097
0.703365 0.937911 0.876127
0.706004 0.937911 0.876219
0.712657 0.937896 0.876493
0.725475 0.937881 0.877302
0.736797 0.937804 0.879561
0.736782 0.93785 0.885603
0 0 0.281788
0 0 0.282048
0.098497 0.00308232 0.290913
0.314473 0.00202945 0.286519
0.648096 0 0.284245
0.885893 0 0.324529
0.816938 0.485145 0.423697
0.760601 0.799985 0.674708
0.74316 0.892973 0.845457
0 0 0.277043
0 0 0.277485
0.11635 0.00393683 0.286778
0.313298 0.00215152 0.281865
0.650813 0 0.279011
0.886015 0 0.315953
0.811612 0.524529 0.415442
0.760067 0.8038 0.672679
0.743099 0.893416 0.845396
0 0.152255 0.240421
0 0.154208 0.239857
0.0653697 0.159731 0.246372
0.27306 0.146929 0.252033
0.649622 0 0.264683
0.861082 0.133684 0.295949
0.804334 0.575082 0.401266
0.759289 0.809628 0.669459
0.743023 0.894118 0.845289
0 0.411292 0.10956
0 0.412528 0.110857
0 0.413108 0.112688
0.211093 0.438911 0.151324
0.588037 0.436255 0.168933
0.816297 0.501686 0.22472
0.788281 0.672679 0.353811
0.757336 0.824887 0.660151
0.742763 0.896147 0.844984
0 0.735653 0
0 0.735561 0
0 0.735195 0
0 0.732937 0
0.498207 0.755993 0.0331273
0.746136 0.764309 0.0464332
0.771084 0.801907 0.177249
0.753811 0.855756 0.635966
0.742123 0.901503 0.844007
0 0.889876 0.0501411
0 0.889235 0.0499275
0 0.888197 0.0495766
0 0.885054 0.0485237
0.462669 0.896651 0.055787
0.687373 0.889311 0.0529793
0.76408 0.890623 0.0536202
0.749493 0.895079 0.610986
0.74078 0.912871 0.841001
0.32845 0.947829 0.320439
0.34786 0.947051 0.320439
0.376211 0.945861 0.320638
0.444022 0.942901 0.322683
0.554742 0.938018 0.335851
0.666606 0.932784 0.383352
0.740658 0.927916 0.509743
0.742535 0.925414 0.746731
0.738705 0.928237 0.846983
0.620539 0.938827 0.803647
0.622065 0.938827 0.803708
0.62446 0.938827 0.8038
0.631342 0.938811 0.804074
0.648951 0.938781 0.804852
0.682658 0.938704 0.807004
0.72343 0.938445 0.814038
0.73753 0.937926 0.833646
0.736873 0.937728 0.866041
0.701991 0.937911 0.876081
0.70219 0.937911 0.876081
0.702495 0.937911 0.876097
0.70341 0.937911 0.876127
0.70605 0.937911 0.876219
0.712688 0.937896 0.876478
0.72549 0.937881 0.877287
0.736797 0.937804 0.879561
0.736782 0.93785 0.885603
0 0 0.564095
0 0 0.564279
0 0 0.564477
0.289174 0 0.573175
0.664042 0 0.57052
0.881849 0 0.599451
0.821363 0.437736 0.665904
0.75906 0.794736 0.779889
0.743053 0.892378 0.853849
0 0 0.561456
0 0 0.5617
0.039826 0 0.567086
0.302815 0 0.570077
0.661875 0 0.567514
0.88188 0 0.596094
0.814618 0.484001 0.660975
0.75845 0.798749 0.77911
0.742992 0.892821 0.853803
0 0.0541695 0.543114
0 0.0589761 0.542687
0.0398566 0.062089 0.550256
0.308385 0 0.565209
0.655146 0 0.562615
0.881956 0 0.589761
0.806058 0.54464 0.653605
0.757549 0.804852 0.777859
0.742901 0.893538 0.853727
0 0.363012 0.485054
0 0.364767 0.485328
0 0.365988 0.486091
0.203113 0.391302 0.517739
0.571649 0.389471 0.53109
0.818708 0.458366 0.565774
0.787198 0.655634 0.629969
0.755322 0.820752 0.774182
0.742641 0.895613 0.853483
0 0.721462 0.3832
0 0.721431 0.384039
0 0.721157 0.385306
0 0.719036 0.388785
0.487327 0.741939 0.43299
0.736187 0.751202 0.475608
0.763729 0.792706 0.574258
0.751263 0.852735 0.763867
0.741985 0.90103 0.852766
0 0.888899 0.0498665
0 0.888258 0.0496529
0 0.887221 0.0493019
0 0.884123 0.0483711
0.462638 0.89575 0.0559243
0.68127 0.884367 0.268345
0.754009 0.882963 0.473014
0.746914 0.893172 0.7346
0.740597 0.912505 0.850553
0.343023 0.947204 0.318547
0.361242 0.946456 0.318624
0.387961 0.945312 0.318959
0.452171 0.942504 0.321324
0.558328 0.937819 0.33489
0.667597 0.932692 0.382635
0.740887 0.92784 0.509621
0.74255 0.925368 0.746349
0.738705 0.928222 0.846922
0.621668 0.938827 0.803601
0.623163 0.938827 0.803662
0.625528 0.938827 0.803754
0.632319 0.938811 0.804028
0.649714 0.938781 0.804822
0.683055 0.938704 0.806958
0.723552 0.938445 0.814008
0.73753 0.937926 0.833631
0.736873 0.937728 0.866026
0.702129 0.937911 0.876081
0.702327 0.937911 0.876081
0.702632 0.937911 0.876097
0.703548 0.937911 0.876127
0.706157 0.937911 0.876204
0.712779 0.937896 0.876478
0.725536 0.937881 0.877287
0.736797 0.937804 0.879545
0.736782 0.93785 0.885603
0 0 0.832883
0 0 0.832914
0 0 0.832959
0.156832 0 0.845533
0.646174 0 0.851774
0.880003 0 0.853452
0.852018 0.193301 0.841016
0.759625 0.779217 0.844831
0.743038 0.890761 0.869871
0 0 0.832654
0 0 0.832685
0 0 0.832731
0.178103 0 0.846082
0.652338 0 0.851545
0.879622 0 0.853208
0.840513 0.302815 0.838132
0.75877 0.784115 0.844633
0.742977 0.891234 0.869841
0 0 0.832273
0 0 0.832303
0 0 0.832364
0.20766 0 0.846632
0.656123 0 0.851133
0.879622 0 0.852781
0.824887 0.41294 0.835309
0.757534 0.791394 0.844358
0.742885 0.891981 0.86981
0 0.194446 0.803754
0 0.197101 0.803601
0 0.200504 0.803403
0.168811 0.212573 0.821103
0.627558 0.119066 0.831617
0.847272 0.2392 0.831647
0.796674 0.595575 0.831357
0.754574 0.809796 0.84361
0.742611 0.894163 0.869673
0 0.683497 0.783307
0 0.683787 0.783368
0 0.683864 0.783429
0 0.682399 0.78352
0.467933 0.705898 0.812757
0.726101 0.72105 0.817044
0.760983 0.774105 0.823804
0.749355 0.84593 0.841901
0.741909 0.89984 0.869276
0 0.879362 0.779171
0 0.878767 0.779187
0 0.87776 0.779217
0 0.874647 0.779309
0.414664 0.882856 0.802808
0.660044 0.87393 0.806149
0.746014 0.875502 0.816297
0.743832 0.889311 0.838071
0.740429 0.911696 0.868101
0.322911 0.941665 0.738949
0.341573 0.940887 0.738735
0.368872 0.939712 0.73846
0.434379 0.936797 0.738338
0.542748 0.932067 0.741588
0.65391 0.927337 0.756481
0.729397 0.923781 0.791714
0.73994 0.923262 0.827329
0.73846 0.927794 0.864561
0.62504 0.938827 0.803464
0.626474 0.938827 0.803525
0.628733 0.938827 0.803616
0.635233 0.938811 0.803891
0.651957 0.938781 0.8047
0.684245 0.938704 0.806851
0.723964 0.938445 0.813886
0.73753 0.937926 0.833616
0.736873 0.937728 0.865965
0.702571 0.937911 0.876066
0.702754 0.937911 0.876066
0.703059 0.937911 0.876081
0.70396 0.937911 0.876112
0.706538 0.937911 0.876188
0.713054 0.937896 0.876463
0.725689 0.937881 0.877272
0.736797 0.937804 0.87953
0.736782 0.93785 0.885603
0 0 0.895766
0 0 0.895766
0 0 0.895781
0 0 0.895796
0.520531 0 0.914092
0.880552 0 0.913451
0.881025 0 0.913741
0.773938 0.709331 0.886168
0.743572 0.88571 0.889128
0 0 0.895735
0 0 0.89575
0 0 0.89575
0 0 0.895766
0.529854 0 0.914092
0.880552 0 0.913436
0.88101 0 0.913725
0.77171 0.719524 0.885847
0.743511 0.886275 0.889113
0 0 0.895705
0 0 0.895705
0 0 0.895705
0 0 0.89572
0.544533 0 0.914076
0.880568 0 0.913375
0.881025 0 0.91368
0.768536 0.734371 0.88542
0.743389 0.887175 0.889097
0 0 0.895567
0 0 0.895582
0 0 0.895582
0 0 0.895476
0.576257 0 0.914
0.880568 0 0.913237
0.88101 0 0.912932
0.761471 0.769207 0.884474
0.743069 0.889738 0.889036
0 0.493477 0.856123
0 0.494926 0.856092
0 0.497246 0.856046
0 0.500832 0.855833
0.473152 0.523919 0.88365
0.801373 0.557382 0.887007
0.777844 0.691539 0.884001
0.751766 0.825986 0.883314
0.742229 0.896376 0.888899
0 0.868772 0.858259
0 0.868391 0.858213
0 0.867658 0.858152
0 0.864744 0.857893
0.326848 0.873289 0.879088
0.646616 0.861814 0.879133
0.741939 0.865827 0.879774
0.743893 0.883391 0.882246
0.740581 0.909667 0.888487
0.176684 0.941649 0.874998
0.209079 0.940856 0.875441
0.25243 0.939544 0.875837
0.350301 0.935653 0.876081
0.498848 0.929091 0.875868
0.632258 0.923705 0.876158
0.715785 0.920684 0.877363
0.739147 0.921462 0.880552
0.73843 0.927047 0.887404
0.613184 0.93785 0.86479
0.614649 0.93785 0.864805
0.616983 0.93785 0.864836
0.623682 0.93785 0.864927
0.640864 0.93785 0.865187
0.674022 0.937865 0.86598
0.715007 0.937865 0.868208
0.736812 0.937758 0.873869
0.736782 0.937835 0.884047
0.703868 0.937911 0.87602
0.704036 0.937911 0.87602
0.704326 0.937911 0.876036
0.70518 0.937911 0.876051
0.707652 0.937911 0.876143
0.713909 0.937896 0.876417
0.726146 0.937881 0.877241
0.736797 0.937804 0.879499
0.736782 0.93785 0.885603
0 0 0.913161
0 0 0.913161
0 0 0.913161
0 0 0.913161
0 0 0.913176
0.861357 0 0.933989
0.881575 0 0.933913
0.881575 0 0.933898
0.746441 0.863325 0.90399
0 0 0.913161
0 0 0.913161
0 0 0.913161
0 0 0.913161
0 0 0.913191
0.862852 0 0.933989
0.881575 0 0.933913
0.881575 0 0.933898
0.746303 0.864363 0.903975
0 0 0.913161
0 0 0.913161
0 0 0.913161
0 0 0.913161
0 0 0.913207
0.865232 0 0.933974
0.881575 0 0.933913
0.881575 0 0.933898
0.746075 0.865995 0.90396
0 0 0.913161
0 0 0.913161
0 0 0.913161
0 0 0.913161
0 0 0.913252
0.87219 0 0.933944
0.881575 0 0.933913
0.881453 0.00169375 0.933684
0.74548 0.870604 0.903929
0 0 0.913161
0 0 0.913161
0 0 0.913161
0 0 0.913161
0.220188 0 0.928283
0.880919 7.62951e-05 0.933913
0.881575 0 0.933913
0.798367 0.602838 0.909026
0.743999 0.882033 0.903853
0 0.778912 0.879622
0 0.779171 0.879637
0 0.779614 0.879652
0 0.780926 0.879698
0 0.77641 0.879164
0.661952 0.788785 0.9037
0.754101 0.809186 0.903181
0.74728 0.857084 0.902892
0.741451 0.902266 0.9037
0 0.928374 0.883314
0 0.92781 0.883268
0 0.926894 0.883207
0 0.924315 0.883085
0.380545 0.92932 0.902602
0.609476 0.919646 0.902174
0.710567 0.915846 0.902129
0.739574 0.917556 0.902327
0.738689 0.924926 0.90341
0.582345 0.938109 0.900664
0.584314 0.938109 0.900664
0.587427 0.938094 0.900664
0.596307 0.938079 0.900679
0.61854 0.938064 0.90071
0.659525 0.938094 0.900786
0.706386 0.938125 0.900923
0.736751 0.938003 0.90135
0.736751 0.938018 0.902663
0.699367 0.938079 0.896574
0.69955 0.938079 0.89659
0.69984 0.938079 0.89659
0.70071 0.938079 0.89659
0.703227 0.938079 0.89662
0.709606 0.938079 0.896712
0.722057 0.938064 0.896956
0.73637 0.938048 0.897749
0.736767 0.937987 0.899855
0 0.0382086 0.901106
0 0.0382086 0.901106
0 0.0382086 0.901106
0 0.0382239 0.901106
0 0.0382849 0.901091
0 0.0384375 0.901061
0.881575 0 0.934051
0.881575 0 0.934051
0.788739 0.647486 0.910109
0 0.0381781 0.901106
0 0.0381781 0.901106
0 0.0381933 0.901106
0 0.0382086 0.901106
0 0.0382696 0.901091
0 0.0384222 0.901076
0.881575 0 0.934051
0.881575 0 0.934051
0.788739 0.647471 0.910109
0 0.0381323 0.901106
0 0.0381323 0.901106
0 0.0381476 0.901106
0 0.0381628 0.901106
0 0.0382086 0.901106
0 0.0383764 0.901076
0.881575 0 0.934051
0.881575 0 0.934051
0.788754 0.64744 0.910109
0 0.0380102 0.901137
0 0.0379797 0.901137
0 0.0380102 0.901137
0 0.0380255 0.901122
0 0.0380865 0.901122
0 0.0116884 0.905684
0.881575 0 0.934051
0.881575 0 0.934051
0.788785 0.647303 0.910109
0 0.0375677 0.901198
0 0.0375677 0.901198
0 0.037583 0.901198
0 0.0375982 0.901198
0 0.037644 0.901183
0.248783 0 0.929229
0.881575 0 0.934051
0.881575 0 0.934051
0.788876 0.646906 0.910109
0 0.0362097 0.901396
0 0.0362097 0.901396
0 0.0362097 0.901396
0 0.0362249 0.901396
0 0.0363012 0.901381
0.665309 0 0.933944
0.881575 0 0.934051
0.867704 0.0618296 0.923476
0.751247 0.829023 0.90901
0 0.900328 0.890379
0 0.900374 0.890379
0 0.90042 0.890379
0 0.900557 0.890394
0 0.900999 0.89041
0.49041 0.894835 0.910338
0.716442 0.888411 0.910307
0.742184 0.895949 0.910414
0.739925 0.914137 0.910887
0.40296 0.94052 0.911238
0.412558 0.940322 0.911223
0.426993 0.940017 0.911192
0.463966 0.93933 0.911116
0.536965 0.938415 0.911009
0.625742 0.93814 0.911025
0.697169 0.938201 0.911025
0.735576 0.937133 0.91104
0.737118 0.937499 0.911101
0.688045 0.938201 0.910323
0.688289 0.938201 0.910323
0.68867 0.938201 0.910323
0.689845 0.938201 0.910323
0.693156 0.938201 0.910323
0.701411 0.938201 0.910323
0.716564 0.938201 0.910307
0.732998 0.93817 0.910323
0.736736 0.938094 0.910445
0 0.253864 0.884535
0 0.253864 0.884535
0 0.253864 0.884535
0 0.25388 0.884535
0 0.25388 0.884535
0 0.253925 0.884535
0 0.254032 0.884535
0.846098 0.288808 0.914961
0.779156 0.688807 0.909392
0 0.253864 0.884535
0 0.253864 0.884535
0 0.253864 0.884535
0 0.253864 0.884535
0 0.25388 0.884535
0 0.25391 0.884535
0 0.254032 0.884535
0.846052 0.289097 0.914961
0.779141 0.688853 0.909392
0 0.253834 0.884535
0 0.253834 0.884535
0 0.253834 0.884535
0 0.253864 0.884535
0 0.253864 0.884535
0 0.25391 0.884535
0 0.254017 0.884535
0.846006 0.289555 0.914946
0.779126 0.688899 0.909392
0 0.253819 0.884535
0 0.253819 0.884535
0 0.253819 0.884535
0 0.253819 0.884535
0 0.253834 0.884535
0 0.25388 0.884535
0 0.253971 0.884535
0.845838 0.290944 0.914916
0.77908 0.689113 0.909392
0 0.253727 0.88455
0 0.253727 0.88455
0 0.253727 0.88455
0 0.253727 0.88455
0 0.253742 0.884535
0 0.253773 0.884535
0.203204 0.259083 0.905379
0.845335 0.295186 0.914839
0.778943 0.689708 0.909392
0 0.253437 0.88455
0 0.253437 0.88455
0 0.253437 0.88455
0 0.253452 0.88455
0 0.253452 0.88455
0 0.253483 0.88455
0.671656 0.08159 0.919799
0.843809 0.307729 0.914595
0.778729 0.690593 0.909377
0 0.252537 0.884596
0 0.252537 0.884596
0 0.252537 0.884596
0 0.252552 0.884596
0 0.252552 0.884596
0 0.252583 0.884596
0.880262 0.000564584 0.934051
0.84065 0.332204 0.914122
0.778347 0.692271 0.909346
0 0.930175 0.8916
0 0.930175 0.8916
0 0.930175 0.8916
0 0.930175 0.8916
0 0.930175 0.8916
0 0.930175 0.8916
0.655512 0.92929 0.91133
0.738018 0.926894 0.911254
0.738048 0.929717 0.911299
0.633341 0.938125 0.911421
0.63418 0.938125 0.911437
0.635538 0.938125 0.911437
0.639445 0.938125 0.911437
0.649851 0.93814 0.911452
0.672236 0.93817 0.911482
0.704341 0.938186 0.911498
0.730068 0.938155 0.911482
0.737087 0.938399 0.911574
