BBLuts/BB_103_0860_LUT.cube
TITLE "Generated by Resolve"
LUT_3D_SIZE 33
0 0 0
0 0 0
0 0 0
0 0 0
0 0 0
0.00782788 0 0
0.0855573 0 0
0.138659 0 0
0.19028 0 0
0.248234 0 0
0.311147 0 0
0.375998 0 0
0.440574 0 0
0.514092 0 0
0.596933 0 0
0.684657 0 0
0.773236 0 0
0.860807 0 0
0.939071 0.00285344 0.0041352
1 0.00686656 0.00827039
1 0.00758373 0.00901808
1 0.00758373 0.00901808
0.965728 0.223606 0.0675364
0.939971 0.415061 0.130709
0.925063 0.532006 0.199237
0.913054 0.63357 0.27422
0.902449 0.726009 0.359609
0.893278 0.803235 0.46157
0.886015 0.861433 0.570459
0.880247 0.905791 0.677958
0.875639 0.939391 0.782635
0.871946 0.964889 0.883101
0.868971 0.985275 0.969253
0 0 0
0 0 0
0 0 0
0 0 0
0 0 0
0.0240482 0 0
0.0907607 0 0
0.142779 0 0
0.196551 0 0
0.255024 0 0
0.317571 0 0
0.381231 0 0
0.443442 0 0
0.51603 0 0
0.598566 0 0
0.685786 0 0
0.773922 0 0
0.861128 0 0
0.938979 0.00283818 0.0041352
1 0.00683604 0.00823987
1 0.00758373 0.00901808
1 0.00758373 0.00901808
0.960891 0.264302 0.0355688
0.938506 0.428534 0.121065
0.924254 0.540276 0.194568
0.912535 0.639139 0.271977
0.902129 0.729809 0.357351
0.893095 0.805478 0.460533
0.885908 0.862684 0.569909
0.880186 0.906523 0.677638
0.875608 0.939788 0.782452
0.871916 0.965148 0.882979
0.868955 0.985412 0.969177
0 0 0
0 0 0
0 0 0
0 0 0
0 0 0
0.0335241 0 0
0.092546 0 0
0.14667 0 0
0.203052 0 0
0.26128 0 0
0.322423 0 0
0.383948 0 0
0.445838 0 0
0.51809 0 0
0.600229 0 0
0.6869 0 0
0.774609 0 0
0.861433 0 0
0.938857 0.00283818 0.00411994
0.999283 0.00680552 0.00820935
1 0.00758373 0.00901808
1 0.00758373 0.00901808
0.958328 0.297566 0
0.937179 0.44126 0.110353
0.923476 0.548318 0.189731
0.912032 0.644587 0.269703
0.901823 0.733532 0.355169
0.892912 0.807675 0.459495
0.885817 0.86392 0.569375
0.880125 0.907271 0.677317
0.875578 0.9402 0.782238
0.8719 0.965393 0.882856
0.868955 0.985565 0.9691
0 0 0
0 0 0
0 0 0
0 0 0
0 0 0
0.0407263 0 0
0.09337 0 0
0.147021 0 0
0.204166 0 0
0.263813 0 0
0.325551 0 0
0.386267 0 0
0.448142 0 0
0.520195 0 0
0.601892 0 0
0.688045 0 0
0.775265 0 0
0.861692 0 0
0.938704 0.00282292 0.00410468
0.998825 0.00677501 0.00817884
1 0.00758373 0.00901808
1 0.00758373 0.00901808
0.954986 0.324315 0
0.935988 0.453376 0.098146
0.922728 0.556115 0.184741
0.911543 0.649943 0.26743
0.901488 0.737148 0.354223
0.892729 0.809842 0.458457
0.88571 0.865156 0.568826
0.880064 0.907988 0.676997
0.875547 0.940612 0.782055
0.871885 0.965637 0.882734
0.86894 0.985718 0.969039
0 0.0319677 0
0 0.0369726 0
0 0.0418097 0
0 0.0464637 0
0 0.048249 0
0.0161288 0.0461585 0
0.0728161 0.0439155 0
0.128664 0.0374151 0
0.189548 0.0207523 0
0.264927 0 0
0.327352 0 0
0.388281 0 0
0.45037 0 0
0.522316 0 0
0.603616 0 0
0.689189 0 0
0.775937 0 0
0.861952 0 0
0.938552 0.00282292 0.00410468
0.998367 0.00674449 0.00814832
1 0.00758373 0.00901808
0.991608 0.0811933 0
0.952163 0.347555 0
0.934951 0.464927 0.083711
0.922026 0.563684 0.179553
0.911055 0.655177 0.265126
0.901183 0.740673 0.353246
0.892546 0.811978 0.457435
0.885618 0.866346 0.568276
0.880003 0.908721 0.676661
0.875517 0.941009 0.781842
0.871855 0.965881 0.882597
0.868925 0.98587 0.968963
0 0.0850996 0
0 0.088777 0
0 0.0923781 0
0 0.0952163 0
0 0.0965591 0
0 0.0937057 0
0.0584878 0.0929274 0
0.117571 0.090837 0
0.178714 0.0856794 0
0.244266 0.0746319 0
0.310826 0.0511025 0
0.390066 0 0
0.452628 0 0
0.524559 0 0
0.605447 0 0
0.69041 0 0
0.776623 0 0
0.862211 0 0
0.938369 0.00280766 0.00408942
0.997864 0.00671397 0.0081178
1 0.00758373 0.00901808
0.973022 0.188876 0
0.949615 0.368933 0
0.934051 0.476539 0.0644846
0.921324 0.571374 0.173938
0.910582 0.660533 0.262684
0.900862 0.744289 0.35227
0.892378 0.81416 0.456352
0.885512 0.867613 0.567712
0.879942 0.909453 0.676341
0.875471 0.941421 0.781643
0.871839 0.96614 0.88246
0.86891 0.986023 0.968887
0 0.13727 0
0 0.140169 0
0 0.143053 0
0 0.144656 0
0 0.145693 0
0 0.146059 0
0.0339055 0.141466 0
0.102983 0.140505 0
0.167773 0.13817 0
0.235615 0.13312 0
0.301717 0.122759 0
0.368582 0.105089 0
0.43711 0.0690166 0
0.527459 0 0
0.607828 0 0
0.691997 0 0
0.777523 0 0
0.862531 0 0
0.938109 0.0027924 0.00407416
0.997177 0.00666819 0.00807202
1 0.00758373 0.00901808
0.964172 0.252338 0
0.946746 0.392294 0
0.933471 0.491157 0.0204471
0.92047 0.580957 0.166369
0.909972 0.667277 0.259525
0.90045 0.748837 0.351034
0.892149 0.816907 0.454994
0.885374 0.8692 0.566979
0.879866 0.910399 0.675914
0.875441 0.941955 0.781384
0.871809 0.966476 0.882292
0.868894 0.986206 0.96878
0 0.193713 0
0 0.196155 0
0 0.197955 0
0 0.199145 0
0 0.2 0
0 0.200473 0
0 0.196597 0
0.0782635 0.194202 0
0.151949 0.19295 0
0.223651 0.18967 0
0.292531 0.183078 0
0.361807 0.173388 0
0.429633 0.15845 0
0.504433 0.131792 0
0.59205 0.0703288 0
0.694133 0 0
0.778744 0 0
0.862974 0 0
0.937743 0.00276188 0.00404364
0.996231 0.00660716 0.00801099
0.981277 0.136278 0
0.957015 0.308034 0
0.943496 0.418235 0
0.93286 0.509422 0
0.919432 0.593149 0.155642
0.909209 0.675959 0.255299
0.899931 0.754665 0.349447
0.891859 0.820462 0.453178
0.885206 0.871244 0.566033
0.879774 0.911635 0.675334
0.87538 0.942657 0.781033
0.871778 0.966903 0.882078
0.868879 0.986481 0.968658
0 0.255177 0
0 0.256855 0
0 0.257786 0
0 0.258747 0
0 0.259403 0
0 0.259861 0
0 0.260136 0
0.0232395 0.253544 0
0.124575 0.250874 0
0.204532 0.24802 0
0.279362 0.243931 0
0.353185 0.237949 0
0.424643 0.229099 0
0.499428 0.215442 0
0.579904 0.195682 0
0.664424 0.165942 0
0.754009 0.11696 0
0.863539 0 0
0.937194 0.00273136 0.00401312
0.963607 0.143832 0
0.962936 0.261769 0
0.950423 0.362127 0
0.939849 0.448402 0
0.930556 0.530449 0
0.918181 0.608499 0.139742
0.908248 0.686992 0.249577
0.89929 0.762066 0.347417
0.891493 0.824994 0.450813
0.884993 0.873915 0.564752
0.879637 0.913237 0.674586
0.875303 0.943557 0.780575
0.871733 0.967468 0.881758
0.868849 0.986816 0.968475
0 0.31902 0
0 0.319509 0
0 0.319982 0
0 0.320363 0
0 0.320607 0
0 0.320668 0
0 0.320546 0
0 0.320119 0
0.0729992 0.310994 0
0.174762 0.308522 0
0.259724 0.305715 0
0.340124 0.301701 0
0.417456 0.29572 0
0.49543 0.286961 0
0.575723 0.276921 0
0.656672 0.264744 0
0.738827 0.251087 0
0.820676 0.239384 0
0.89102 0.245686 0
0.941955 0.283803 0
0.952544 0.344381 0
0.944121 0.413077 0
0.935821 0.48307 0
0.92784 0.55584 0
0.916823 0.627665 0.114076
0.907057 0.700923 0.24181
0.898466 0.771359 0.344869
0.891035 0.830701 0.4477
0.884718 0.877317 0.563088
0.879469 0.915297 0.673609
0.875212 0.944762 0.77995
0.871672 0.968215 0.881361
0.868803 0.987259 0.968231
0 0.382559 0
0 0.382986 0
0 0.383429 0
0 0.383719 0
0 0.383948 0
0 0.3841 0
0 0.384146 0
0 0.384039 0
0 0.383597 0
0.123873 0.372885 0
0.229236 0.37052 0
0.319753 0.367697 0
0.405463 0.363546 0
0.488838 0.357931 0
0.571542 0.351827 0
0.651926 0.345785 0
0.731441 0.34081 0
0.809735 0.33901 0
0.877272 0.34815 0
0.928084 0.375051 0
0.943938 0.414603 0
0.937972 0.464408 0
0.931426 0.522469 0
0.924681 0.585977 0
0.91577 0.651514 0.0588693
0.905623 0.718273 0.231128
0.897475 0.782818 0.341711
0.890471 0.837812 0.443641
0.884367 0.881651 0.560922
0.879255 0.917922 0.672328
0.875074 0.946288 0.779156
0.871595 0.969177 0.880842
0.868757 0.987839 0.967941
0 0.446937 0
0 0.447318 0
0 0.447669 0
0 0.447944 0
0 0.448157 0
0 0.448325 0
0 0.448463 0
0 0.448508 0
0 0.448371 0
0 0.442618 0
0.175189 0.436271 0
0.287114 0.434028 0
0.386175 0.43154 0
0.476005 0.428305 0
0.563058 0.424613 0
0.64596 0.421408 0
0.724987 0.419974 0
0.800687 0.42179 0
0.865339 0.430884 0
0.914992 0.450202 0
0.936217 0.479622 0
0.931823 0.518791 0
0.926696 0.566644 0
0.921096 0.621149 0
0.915236 0.680781 0
0.90396 0.739208 0.216541
0.896284 0.796689 0.337957
0.889708 0.846403 0.443244
0.883925 0.887098 0.558068
0.878981 0.921263 0.670634
0.874922 0.948257 0.778088
0.871489 0.970428 0.880156
0.868696 0.988586 0.967544
0 0.521172 0
0 0.521508 0
0 0.521813 0
0 0.522057 0
0 0.52224 0
0 0.522423 0
0 0.522576 0
0 0.522713 0
0 0.522835 0
0 0.522911 0
0.0385443 0.513329 0
0.230625 0.509102 0
0.352255 0.506981 0
0.453895 0.504433 0
0.54699 0.501625 0
0.634668 0.499184 0
0.716548 0.498161 0
0.791409 0.500084 0
0.853666 0.507591 0
0.901778 0.522622 0
0.928939 0.545464 0
0.925673 0.57644 0
0.921675 0.615457 0
0.917113 0.661357 0
0.912154 0.7131 0
0.902113 0.763546 0.196597
0.894881 0.813031 0.333745
0.888792 0.856626 0.443168
0.883391 0.893812 0.55433
0.878645 0.925414 0.668421
0.874723 0.950774 0.776684
0.871351 0.972015 0.87924
0.86862 0.989563 0.96701
0 0.603204 0
0 0.603464 0
0 0.603708 0
0 0.603891 0
0 0.604059 0
0 0.604212 0
0 0.604364 0
0 0.604532 0
0 0.604639 0
0 0.604669 0
0 0.604532 0
0.113527 0.591287 0
0.299092 0.587106 0
0.421973 0.584298 0
0.522881 0.581537 0
0.616815 0.578912 0
0.703746 0.577234 0
0.780529 0.577951 0
0.841337 0.583505 0
0.887724 0.595071 0
0.921935 0.612848 0
0.919493 0.637186 0
0.916411 0.668528 0
0.912779 0.706416 0
0.908721 0.749813 0
0.900206 0.790936 0.169421
0.893294 0.831678 0.329488
0.887709 0.868666 0.443534
0.88275 0.90193 0.550164
0.878248 0.930495 0.665537
0.874464 0.953933 0.774853
0.871199 0.974044 0.87805
0.868513 0.990799 0.966308
0 0.686702 0
0 0.686839 0
0 0.686976 0
0 0.687083 0
0 0.687175 0
0 0.687251 0
0 0.687327 0
0 0.687388 0
0 0.687404 0
0 0.687343 0
0 0.687129 0
0 0.68661 0
0.211994 0.669245 0
0.378897 0.665125 0
0.490974 0.662058 0
0.591852 0.659205 0
0.684794 0.656825 0
0.765103 0.656275 0
0.826795 0.659663 0
0.872297 0.66804 0
0.907912 0.681514 0
0.913359 0.700435 0
0.911009 0.725185 0
0.908232 0.755199 0
0.90518 0.788617 0
0.89839 0.820615 0.132372
0.891554 0.852094 0.326101
0.886458 0.882628 0.444648
0.88188 0.911376 0.552148
0.877775 0.936568 0.661799
0.874159 0.95787 0.772442
0.870985 0.976593 0.876463
0.868391 0.99237 0.965377
0 0.769467 0
0 0.769543 0
0 0.769589 0
0 0.769635 0
0 0.76965 0
0 0.769665 0
0 0.76968 0
0 0.76965 0
0 0.769589 0
0 0.769421 0
0 0.7691 0
0 0.76849 0
0 0.75877 0
0.313146 0.746059 0
0.451392 0.742138 0
0.560464 0.738872 0
0.659419 0.735973 0
0.74377 0.734417 0
0.807828 0.735866 0
0.854444 0.741283 0
0.889815 0.750881 0
0.907362 0.76466 0
0.905745 0.782254 0
0.903838 0.803449 0
0.901686 0.827588 0
0.897017 0.851362 0.0785992
0.889677 0.87364 0.325017
0.885039 0.898299 0.447105
0.880873 0.922164 0.555169
0.877211 0.943603 0.658122
0.873777 0.962661 0.769299
0.870741 0.979736 0.874372
0.868223 0.994339 0.964157
0 0.848951 0.00831617
0 0.848936 0.00831617
0 0.84892 0.00831617
0 0.84889 0.00830091
0 0.848859 0.00830091
0 0.848814 0.00830091
0 0.848753 0.00828565
0 0.848646 0.00827039
0 0.848463 0.00825513
0 0.848188 0.00822461
0 0.8477 0.00816358
0 0.846937 0.00808728
0 0.845747 0.00794995
0.216342 0.824903 0
0.405051 0.818967 0
0.525521 0.814878 0
0.630228 0.811231 0
0.717937 0.808545 0
0.784909 0.807919 0
0.834272 0.809995 0
0.87129 0.815 0
0.89781 0.823285 0
0.901076 0.834455 0
0.899855 0.84828 0
0.898436 0.864393 0
0.89688 0.882353 0
0.887663 0.896239 0.327703
0.883467 0.91516 0.451774
0.879759 0.934005 0.559731
0.876432 0.951644 0.662013
0.873335 0.968353 0.765179
0.870436 0.983536 0.871641
0.868025 0.99678 0.962554
0 0.915312 0.0159915
0 0.915236 0.0159915
0 0.91516 0.0159762
0 0.915068 0.0159609
0 0.914961 0.0159457
0 0.91487 0.0159457
0 0.914717 0.0159152
0 0.914519 0.0158999
0 0.914229 0.0158694
0 0.913787 0.0158083
0 0.91313 0.0157321
0 0.912154 0.0156252
0 0.910796 0.0154574
0.0932479 0.892912 0
0.363348 0.883024 0
0.496635 0.877913 0
0.60557 0.873487 0
0.694255 0.869917 0
0.7626 0.867765 0
0.814572 0.867353 0
0.853758 0.868955 0
0.881895 0.872892 0
0.897169 0.879026 0
0.896437 0.887434 0
0.895521 0.898039 0
0.893523 0.90985 0.0238499
0.885527 0.918883 0.336767
0.881804 0.932448 0.459831
0.878553 0.946456 0.566476
0.875547 0.960754 0.667384
0.872755 0.974914 0.765362
0.870085 0.988037 0.868055
0.867796 1 0.960449
0 0.965667 0.0218967
0 0.965545 0.0218814
0 0.965423 0.0218662
0 0.965286 0.0218509
0 0.965148 0.0218357
0 0.964996 0.0218204
0 0.964797 0.0217899
0 0.964508 0.0217594
0 0.964126 0.0217136
0 0.963577 0.0216526
0 0.962783 0.021561
0 0.961715 0.0214237
0 0.960266 0.0212558
0.0165408 0.945586 0.00801099
0.343328 0.931777 0
0.482094 0.926116 0
0.590661 0.921309 0
0.677409 0.917342 0
0.744488 0.914488 0
0.797299 0.91281 0
0.837934 0.912535 0
0.867674 0.91397 0
0.890593 0.917098 0
0.893462 0.922057 0
0.892897 0.928725 0
0.888594 0.933944 0.135805
0.883345 0.940215 0.35494
0.88011 0.949172 0.472587
0.877241 0.959503 0.576165
0.874556 0.970733 0.674815
0.872023 0.982208 0.771038
0.869673 0.993179 0.864958
0.867506 1 0.957641
0 1 0.0265202
0 1 0.0264897
0 1 0.0264744
0 1 0.0264439
0 1 0.0264286
0 1 0.0264134
0 1 0.0263828
0 1 0.0263371
0 1 0.026276
0 1 0.026215
0 1 0.0261234
0 1 0.0259861
0 0.998795 0.0258183
0.0997482 0.979568 0.00805676
0.354162 0.96936 0.000396735
0.483909 0.96376 0
0.585901 0.958999 0
0.667506 0.954986 0
0.731395 0.951873 0
0.783062 0.949569 0
0.823774 0.948241 0
0.854749 0.948074 0
0.879042 0.94905 0
0.89099 0.95137 0
0.890684 0.955001 0
0.884886 0.95555 0.220035
0.881132 0.959426 0.383642
0.878355 0.965438 0.49099
0.875853 0.972854 0.589609
0.873487 0.981216 0.684977
0.871214 0.990066 0.778714
0.869108 0.998825 0.870634
0.867201 1 0.953948
0 1 0.0299229
0 1 0.0298924
0 1 0.0298772
0 1 0.0298466
0 1 0.0298314
0 1 0.0298009
0 1 0.0297704
0 1 0.0297246
0 1 0.0296788
0 1 0.0296025
0 1 0.0294957
0 1 0.0293736
0 1 0.0292058
0.232227 1 0.00646983
0.39527 0.996445 0.00222782
0.503716 0.99147 0
0.592767 0.987137 0
0.665934 0.983352 0
0.724773 0.980255 0
0.7738 0.977722 0
0.812924 0.975906 0
0.844038 0.974884 0
0.869139 0.97467 0
0.888212 0.975448 0
0.888808 0.977295 0
0.881636 0.974792 0.297108
0.878859 0.977142 0.418936
0.876539 0.980957 0.515953
0.874403 0.985916 0.607935
0.872343 0.99176 0.698711
0.870359 0.998184 0.789014
0.868452 1 0.878111
0.866743 1 0.957732
0 1 0.0325017
0 1 0.0324865
0 1 0.0324559
0 1 0.0324407
0 1 0.0324102
0 1 0.0323949
0 1 0.0323491
0 1 0.0323186
0 1 0.0322576
0 1 0.0321813
0 1 0.0320897
0 1 0.0319677
0.205386 1 0.00968948
0.350805 1 0.00553903
0.451575 1 0.0031281
0.535698 1 0.00146487
0.608804 1 0.000259403
0.670985 1 0
0.723552 1 0
0.768597 1 0
0.805127 0.998459 0
0.835248 0.997086 0
0.860288 0.996246 0
0.879866 0.996109 0
0.881651 0.992294 0.22916
0.878676 0.99176 0.370459
0.876585 0.992859 0.463386
0.874723 0.994995 0.548272
0.872923 0.998016 0.63212
0.871168 1 0.71693
0.869429 1 0.80264
0.867735 1 0.887892
0.866224 1 0.963836
0 1 0.0344244
0 1 0.0344091
0 1 0.0343938
0 1 0.0343633
0 1 0.0343481
0 1 0.0343175
0 1 0.034287
0 1 0.0342565
0 1 0.0341955
0.0908675 1 0.0160525
0.212161 1 0.0113832
0.30312 1 0.00863661
0.382422 1 0.00656138
0.449821 1 0.00489815
0.514229 1 0.00354009
0.575326 1 0.00242618
0.631769 1 0.0015259
0.682033 1 0.000808728
0.727596 1 0.000228885
0.767498 1 0
0.800656 1 0
0.829129 1 0
0.853178 1 0
0.867521 1 0.210101
0.877928 1 0.346929
0.876051 1 0.436606
0.874434 1 0.513848
0.872938 1 0.587839
0.871443 1 0.662867
0.869947 1 0.740475
0.868452 1 0.820432
0.866972 1 0.90045
0.86566 1 0.97174
0.235004 1 0.0121614
0.252628 1 0.0115969
0.268803 1 0.0111086
0.283742 1 0.0106661
0.297658 1 0.0102541
0.311238 1 0.00987259
0.327504 1 0.00943008
0.347265 1 0.00889601
0.370825 1 0.00828565
0.396826 1 0.00759899
0.425666 1 0.00686656
0.458396 1 0.00608835
0.494774 1 0.00527962
0.534188 1 0.00448615
0.575677 1 0.0037232
0.617777 1 0.00300603
0.658717 1 0.00238041
0.698512 1 0.00181582
0.736202 1 0.00132753
0.770092 1 0.000915541
0.79585 1 0.139086
0.820127 1 0.227329
0.841306 1 0.29192
0.858442 1 0.366491
0.872435 1 0.435569
0.873686 1 0.501945
0.872419 1 0.56762
0.871199 1 0.63331
0.869978 1 0.700221
0.868727 1 0.770047
0.867445 1 0.843214
0.866209 1 0.91635
0.86508 1 0.981765
0.464073 1 0.332998
0.468971 1 0.333165
0.473747 1 0.333349
0.478431 1 0.333532
0.482979 1 0.33373
0.487617 1 0.333928
0.493446 1 0.334203
0.500862 1 0.334585
0.510246 1 0.335073
0.52195 1 0.335775
0.536339 1 0.336706
0.553658 1 0.338003
0.574029 1 0.339803
0.597314 1 0.34226
0.623011 1 0.345647
0.650629 1 0.35024
0.680095 1 0.35639
0.710277 1 0.364477
0.739712 1 0.375006
0.766827 1 0.387976
0.791897 1 0.403418
0.814847 1 0.422751
0.834867 1 0.446265
0.851804 1 0.474388
0.865766 1 0.517388
0.871534 1 0.568841
0.870573 1 0.624399
0.869566 1 0.682795
0.868544 1 0.743191
0.867506 1 0.805753
0.866453 1 0.871458
0.865431 1 0.935866
0.864485 1 0.994263
0.580285 1 0.49749
0.58262 1 0.497597
0.584909 1 0.497704
0.587152 1 0.497795
0.58938 1 0.497917
0.591669 1 0.498009
0.594537 1 0.498177
0.598245 1 0.49836
0.603021 1 0.498634
0.609033 1 0.498985
0.616587 1 0.499458
0.625956 1 0.500114
0.637491 1 0.500984
0.651392 1 0.502174
0.66772 1 0.503761
0.686427 1 0.505898
0.707042 1 0.508782
0.728832 1 0.512673
0.750729 1 0.517891
0.772259 1 0.524804
0.793454 1 0.533822
0.813413 1 0.54548
0.831235 1 0.560388
0.846937 1 0.579095
0.860441 1 0.602274
0.869596 1 0.639155
0.868864 1 0.684947
0.868055 1 0.735714
0.867216 1 0.78999
0.866331 1 0.846693
0.865476 1 0.904021
0.864652 1 0.958938
0.86389 1 1
0.656001 1 0.621485
0.657237 1 0.621561
0.658473 1 0.621653
0.659678 1 0.621729
0.660899 1 0.621805
0.662135 1 0.621897
0.663706 1 0.621988
0.665782 1 0.622126
0.668467 1 0.622309
0.671916 1 0.622568
0.676326 1 0.622919
0.68191 1 0.623346
0.688853 1 0.623972
0.697383 1 0.624781
0.707637 1 0.625864
0.7196 1 0.627314
0.73312 1 0.629282
0.747799 1 0.631922
0.763699 1 0.635447
0.780529 1 0.640116
0.797635 1 0.646265
0.814237 1 0.654276
0.829587 1 0.664668
0.843687 1 0.678004
0.856062 1 0.694926
0.866331 1 0.71603
0.867262 1 0.749981
0.866651 1 0.792493
0.865965 1 0.840055
0.865232 1 0.890288
0.864546 1 0.93904
0.863905 1 0.984817
0.86331 1 1
0.710399 1 0.733196
0.71107 1 0.733257
0.711757 1 0.733318
0.712413 1 0.733379
0.713085 1 0.733425
0.713771 1 0.733486
0.714656 1 0.733593
0.715801 1 0.733684
0.717296 1 0.733837
