BBLuts/BB_103_0370_LUT.cube
TITLE "Generated by Resolve"
LUT_3D_SIZE 9
0.0303502 0.0330358 0.0176394
0.0303502 0.0330358 0.0176394
0.257038 0.0317235 0.0153964
0.536965 0.0213169 0.00810254
0.765011 0.00259403 0
0.908751 0.0110323 0.00198367
0.881514 0.634104 0.154391
0.859617 0.876814 0.474723
0.849577 0.954498 0.707118
0.0246433 0.100435 0.0171817
0.0236515 0.112779 0.0171206
0.265217 0.0852369 0.0147707
0.546517 0.0205997 0.00766003
0.76672 0.00257877 0
0.908751 0.0110323 0.00198367
0.879622 0.657435 0.140841
0.859388 0.880064 0.472786
0.849561 0.954879 0.706935
0.00598154 0.293965 0.0148318
0.00543221 0.298161 0.0147097
0.20705 0.296788 0.0132906
0.538933 0.262943 0.00834669
0.762509 0.122484 0
0.899031 0.29514 0.0192111
0.876478 0.690288 0.113832
0.859022 0.885054 0.469657
0.849515 0.955489 0.706645
0 0.595224 0.00297551
0 0.596094 0.00296025
0 0.596567 0.00294499
0.466117 0.600412 0.00819409
0.740826 0.596033 0.0121462
0.878386 0.637964 0.0257572
0.867613 0.763897 0.0224308
0.858137 0.898085 0.460243
0.849393 0.957259 0.705745
0 0.83299 0.0103609
0 0.832914 0.0103609
0 0.832624 0.0103151
0 0.83061 0.0100252
0.685618 0.828428 0.0127718
0.841276 0.836515 0.019501
0.858869 0.870909 0.0203403
0.856214 0.924041 0.463386
0.849088 0.961913 0.703075
0 0.966079 0.0376135
0 0.96553 0.0375067
0 0.964614 0.0373083
0 0.961837 0.0367437
0.666438 0.94934 0.0228275
0.807492 0.943114 0.0209354
0.854261 0.944762 0.0213779
0.853361 0.957076 0.494072
0.848417 0.97174 0.699947
0.584176 1 0.238773
0.59762 1 0.238453
0.616983 0.998825 0.238239
0.661753 0.995789 0.239445
0.732647 0.991501 0.251423
0.802304 0.987884 0.29752
0.84799 0.985061 0.420935
0.849882 0.98291 0.572168
0.847181 0.984558 0.71989
0.775891 0.9935 0.627619
0.776822 0.9935 0.627741
0.778302 0.993515 0.627924
0.782528 0.99353 0.628504
0.793317 0.993591 0.630274
0.81384 0.993698 0.635706
0.838422 0.993698 0.651164
0.846723 0.993149 0.691615
0.846006 0.992554 0.758984
0.824903 0.992294 0.779858
0.82501 0.992294 0.779873
0.825193 0.992294 0.779904
0.825757 0.992294 0.779965
0.827344 0.992309 0.780163
0.831342 0.992355 0.780758
0.839033 0.992432 0.782544
0.845808 0.992416 0.787366
0.845716 0.99237 0.800168
0.0307622 0.0335699 0.0638437
0.0307622 0.0335699 0.0640879
0.258305 0.0328679 0.0629435
0.538598 0.0224918 0.0556649
0.766415 0.0043946 0.045655
0.91075 0.0140078 0.0827039
0.882612 0.630869 0.226749
0.859342 0.875776 0.497826
0.849531 0.954345 0.711803
0.027863 0.0720989 0.0554818
0.0784009 0.0862135 0.0532998
0.278782 0.0324559 0.0546731
0.543343 0.021912 0.0443732
0.766522 0.00357061 0.0180056
0.910292 0.0132448 0.0564431
0.880766 0.654902 0.213947
0.859083 0.879057 0.496574
0.8495 0.954726 0.711635
0.00730907 0.283299 0.0151064
0.00686656 0.286839 0.0150149
0.22945 0.285817 0.0134127
0.538064 0.25098 0.00822461
0.7626 0.0811017 0
0.899733 0.272602 0.0176394
0.87776 0.688716 0.190509
0.858717 0.884077 0.494591
0.849454 0.955337 0.711345
0 0.591546 0.00306706
0 0.592493 0.0030518
0 0.592874 0.00303655
0.477531 0.597223 0.00820935
0.74078 0.592447 0.012192
0.878538 0.635782 0.0257572
0.868925 0.76376 0.0705882
0.857786 0.8972 0.489326
0.849348 0.957107 0.710506
0 0.831998 0.0102235
0 0.831907 0.0102083
0 0.831601 0.0101625
0 0.829541 0.00987259
0.687663 0.827497 0.012726
0.841398 0.835874 0.019501
0.8589 0.870573 0.0203403
0.856138 0.923796 0.470893
0.849027 0.961776 0.707973
0 0.965881 0.0375677
0 0.965331 0.0374609
0 0.964416 0.0372625
0 0.961639 0.0366979
0.667811 0.949157 0.0227512
0.807706 0.943023 0.0209354
0.854261 0.944686 0.0213779
0.853361 0.957031 0.493935
0.848402 0.97171 0.700389
0.586252 1 0.238346
0.599496 1 0.238056
0.618616 0.998688 0.237873
0.662837 0.995712 0.239155
0.733104 0.99147 0.25124
0.802426 0.987869 0.297383
0.848005 0.985046 0.42092
0.849882 0.98291 0.572106
0.847196 0.984558 0.71986
0.776028 0.9935 0.627604
0.776959 0.993515 0.627726
0.778439 0.993515 0.627909
0.78265 0.99353 0.628489
0.793408 0.993591 0.630259
0.813886 0.993698 0.635676
0.838437 0.993698 0.651148
0.846723 0.993149 0.6916
0.846006 0.992554 0.758968
0.824918 0.992294 0.779858
0.825025 0.992294 0.779873
0.825208 0.992294 0.779904
0.825772 0.992294 0.779965
0.827359 0.992309 0.780163
0.831357 0.992355 0.780758
0.839048 0.992432 0.782544
0.845808 0.992416 0.787366
0.845716 0.99237 0.800168
0.0320592 0.0353399 0.204532
0.0320592 0.0353399 0.204776
0.233753 0.0345769 0.202625
0.54992 0.0233005 0.188907
0.767819 0.00662242 0.181201
0.912062 0.0165408 0.219974
0.883803 0.623178 0.342702
0.858961 0.874144 0.529046
0.849454 0.954116 0.718822
0.0320439 0.0353246 0.200214
0.0320439 0.0353246 0.20061
0.264927 0.034287 0.197772
0.548577 0.0233616 0.184756
0.769406 0.00657664 0.176516
0.912016 0.0164492 0.212024
0.881971 0.648356 0.3346
0.858686 0.87747 0.527932
0.849424 0.954498 0.718654
0.0130922 0.254704 0.185046
0.0128176 0.25742 0.184649
0.221393 0.249622 0.178927
0.529549 0.221576 0.175128
0.768383 0.00645457 0.163745
0.905318 0.202258 0.211383
0.879072 0.683589 0.320592
0.858305 0.882551 0.526162
0.849393 0.955123 0.718395
0 0.582773 0.084062
0 0.583963 0.0850538
0 0.584543 0.0864576
0.481147 0.589303 0.0972152
0.740444 0.584176 0.107073
0.881727 0.631357 0.155306
0.871382 0.762493 0.273671
0.857328 0.895857 0.521111
0.849271 0.956893 0.717632
0 0.829938 0.00993362
0 0.829862 0.00991836
0 0.829541 0.00987259
0 0.827466 0.00958267
0.689479 0.825574 0.0126345
0.841428 0.834363 0.019501
0.860517 0.871504 0.111482
0.855558 0.922713 0.507729
0.848951 0.961578 0.715297
0 0.965576 0.0375067
0 0.965011 0.0373999
0 0.964111 0.0372015
0 0.961334 0.0366369
0.669993 0.948867 0.0226291
0.808026 0.942855 0.0209201
0.854261 0.944579 0.0213779
0.853376 0.95697 0.493736
0.84831 0.971527 0.7084
0.589593 1 0.237675
0.602533 0.999771 0.23743
0.62121 0.998489 0.237293
0.66479 0.995575 0.238697
0.733837 0.991394 0.250935
0.802625 0.987839 0.297139
0.848051 0.985031 0.420874
0.849897 0.982895 0.572015
0.847196 0.984543 0.719829
0.776257 0.9935 0.627573
0.777188 0.993515 0.627695
0.778653 0.993515 0.627878
0.782849 0.99353 0.628458
0.793561 0.993591 0.630228
0.813962 0.993713 0.635645
0.838453 0.993698 0.651118
0.846723 0.993149 0.6916
0.846006 0.992554 0.758968
0.824933 0.992294 0.779858
0.825055 0.992294 0.779873
0.825238 0.992294 0.779904
0.825788 0.992294 0.779965
0.827375 0.992309 0.780163
0.831373 0.992355 0.780758
0.839048 0.992432 0.782528
0.845808 0.992416 0.787366
0.845716 0.99237 0.800168
0.0289921 0.0328069 0.469276
0.0289921 0.0327916 0.469413
0.0289921 0.0328069 0.46949
0.526955 0.0220035 0.459571
0.780209 0.00535592 0.452522
0.911727 0.0160372 0.476692
0.885924 0.591745 0.527199
0.858061 0.869261 0.603525
0.849302 0.95349 0.736324
0.0290379 0.0328527 0.467262
0.0290379 0.0328527 0.467445
0.126986 0.0321355 0.466117
0.54139 0.0211032 0.456764
0.778866 0.00535592 0.45008
0.911742 0.0160678 0.474235
0.883528 0.622965 0.524681
0.857755 0.872755 0.602655
0.849271 0.953872 0.736202
0.0216526 0.121202 0.462593
0.021088 0.127962 0.462699
0.157412 0.120958 0.460883
0.547021 0.0208133 0.452735
0.774716 0.00535592 0.446052
0.911772 0.0161135 0.469505
0.880507 0.662654 0.520745
0.857313 0.87808 0.601267
0.849226 0.954498 0.735988
0 0.53991 0.428885
0 0.541833 0.42916
0 0.54316 0.429847
0.47567 0.548455 0.436942
0.734005 0.542351 0.443793
0.884855 0.607752 0.471763
0.872099 0.749096 0.507393
0.856214 0.891951 0.597391
0.849104 0.956313 0.735378
0 0.826749 0.330419
0 0.826734 0.331228
0 0.826505 0.332479
0 0.824628 0.33579
0.690288 0.822065 0.35021
0.842786 0.831327 0.393637
0.860349 0.867964 0.47538
0.854231 0.919814 0.587472
0.848768 0.961059 0.733547
0 0.964706 0.0373236
0 0.964141 0.0372168
0 0.963226 0.0370336
0 0.960449 0.0364538
0.669932 0.948074 0.0225834
0.809476 0.944472 0.189395
0.855482 0.946029 0.388434
0.852125 0.955154 0.564034
0.848096 0.971084 0.728252
0.599298 0.999924 0.235676
0.611368 0.9991 0.235538
0.628855 0.997909 0.235584
0.669902 0.995178 0.237354
0.736034 0.991211 0.250004
0.80322 0.987747 0.296452
0.848188 0.984955 0.420768
0.849897 0.982864 0.57174
0.847196 0.984527 0.719707
0.776944 0.993515 0.627482
0.777859 0.993515 0.627588
0.779309 0.993515 0.627787
0.783444 0.993545 0.628367
0.794018 0.993591 0.630137
0.814206 0.993713 0.635554
0.838529 0.993698 0.651041
0.846723 0.993149 0.691585
0.846006 0.992554 0.758923
0.825025 0.992294 0.779858
0.825147 0.992294 0.779858
0.825315 0.992294 0.779873
0.825879 0.992294 0.77995
0.827451 0.992309 0.780148
0.831434 0.992355 0.780743
0.839094 0.992432 0.782528
0.845808 0.992416 0.787366
0.845716 0.99237 0.800168
0.0216678 0.0256199 0.693431
0.0216678 0.0256199 0.693492
0.0216678 0.0256199 0.693584
0.337545 0.0223087 0.689448
0.769345 0.00077821 0.678676
0.91043 0.0141756 0.686503
0.902892 0.285771 0.708736
0.857725 0.855116 0.723507
0.849104 0.951843 0.76994
0.0216831 0.0256352 0.692958
0.0216831 0.0256352 0.693019
0.0216831 0.0256352 0.693126
0.37145 0.0213626 0.688396
0.773144 0.000885023 0.678218
0.91043 0.0141756 0.685985
0.896315 0.434195 0.711147
0.857282 0.859373 0.722881
0.849073 0.95227 0.769848
0.0216983 0.0256504 0.69218
0.0216983 0.0256504 0.692241
0.0216983 0.0256504 0.692348
0.415869 0.0198062 0.686748
0.775448 0.000976577 0.677394
0.91043 0.0141756 0.685115
0.887312 0.567544 0.709224
0.856657 0.865721 0.721965
0.849027 0.952926 0.769726
0 0.318853 0.685634
0 0.322454 0.685634
0 0.327092 0.685588
0.409537 0.320241 0.683757
0.767163 0.181048 0.678431
0.900542 0.350561 0.69366
0.876219 0.698802 0.701488
0.855177 0.881758 0.719539
0.84889 0.954833 0.769314
0 0.794293 0.660136
0 0.794537 0.660243
0 0.794598 0.660365
0 0.793301 0.660578
0.678492 0.790875 0.661494
0.836927 0.804822 0.668391
0.858625 0.851102 0.6804
0.852598 0.913222 0.714153
0.848539 0.959777 0.768139
0 0.964126 0.641688
0 0.963607 0.641779
0 0.962722 0.641917
0 0.960006 0.642329
0.647547 0.945037 0.632746
0.799558 0.937407 0.638392
0.851423 0.939239 0.659693
0.849882 0.951049 0.703822
0.847807 0.970138 0.764935
0.588327 0.997009 0.567163
0.600793 0.996124 0.566812
0.618814 0.994873 0.566384
0.660792 0.991958 0.565881
0.728573 0.987686 0.567956
0.796567 0.983902 0.579385
0.841993 0.981155 0.612207
0.848051 0.980453 0.679683
0.84686 0.983917 0.756512
0.779004 0.99353 0.627176
0.779873 0.99353 0.627298
0.781262 0.993545 0.627482
0.785229 0.993561 0.628061
0.795392 0.993622 0.629862
0.814923 0.993729 0.635279
0.838773 0.993713 0.650813
0.846723 0.993149 0.691539
0.846006 0.992554 0.758816
0.825284 0.992294 0.779828
0.825406 0.992294 0.779828
0.825574 0.992294 0.779858
0.826123 0.992309 0.779919
0.82768 0.992325 0.780118
0.831601 0.992355 0.780728
0.83917 0.992432 0.782498
0.845808 0.992416 0.787335
0.845716 0.99237 0.800168
0.0206149 0.0249027 0.824323
0.0206149 0.0249027 0.824338
0.0206149 0.0249027 0.824353
0.0206149 0.0249027 0.824384
0.690822 0.00318914 0.809995
0.910704 0.0176089 0.812406
0.910719 0.0176394 0.813046
0.864607 0.79382 0.813046
0.849134 0.947158 0.81088
0.0206149 0.0249027 0.824277
0.0206149 0.0249027 0.824292
0.0206149 0.0249027 0.824292
0.0206149 0.0249027 0.824323
0.696651 0.00294499 0.809781
0.910704 0.0176089 0.81236
0.910719 0.0176394 0.812985
0.863462 0.802686 0.812024
0.849104 0.947646 0.810819
0.0206149 0.0249027 0.824186
0.0206149 0.0249027 0.824201
0.0206149 0.0249027 0.824216
0.0206149 0.0249027 0.824231
0.705791 0.00262455 0.809445
0.910704 0.0176089 0.812253
0.910719 0.0176394 0.812909
0.86183 0.815579 0.810529
0.849042 0.94844 0.810727
0.0206149 0.0249027 0.823926
0.0206149 0.0249027 0.823926
0.0206149 0.0249027 0.823941
0.0206149 0.0249027 0.823713
0.725505 0.00216678 0.808759
0.910704 0.0175937 0.811963
0.910704 0.0175784 0.811536
0.858213 0.845899 0.80705
0.848875 0.950683 0.810468
0 0.642039 0.811673
0 0.643 0.811643
0 0.644556 0.811582
0 0.646983 0.81117
0.676173 0.645701 0.811963
0.877424 0.670268 0.818296
0.866575 0.778592 0.809064
0.8533 0.895277 0.801892
0.848463 0.956466 0.809766
0 0.953948 0.806622
0 0.953628 0.806561
0 0.952987 0.80647
0 0.950439 0.806088
0.589059 0.936431 0.795483
0.790555 0.925887 0.790799
0.848035 0.930037 0.792233
0.849378 0.945281 0.796475
0.847639 0.968078 0.808087
0.48603 0.99826 0.790509
0.508629 0.996826 0.789364
0.539467 0.994873 0.787854
0.605753 0.99028 0.784543
0.700526 0.983902 0.781033
0.782605 0.979492 0.780941
0.833051 0.977356 0.78381
0.847013 0.97818 0.790585
0.846571 0.982925 0.804715
0.771176 0.991882 0.756298
0.772076 0.991897 0.756329
0.773495 0.991897 0.75639
0.7776 0.991928 0.756558
0.788067 0.992004 0.757076
0.808179 0.992203 0.75874
0.832868 0.992462 0.763516
0.845884 0.992462 0.775525
0.845747 0.992386 0.796918
0.826062 0.992309 0.779721
0.826169 0.992309 0.779736
0.826337 0.992309 0.779751
0.826856 0.992309 0.779828
0.828351 0.992325 0.780026
0.832105 0.99237 0.780621
0.83946 0.992432 0.782406
0.845808 0.992416 0.787259
0.845716 0.99237 0.800153
0.0205234 0.024918 0.861295
0.0205234 0.024918 0.861295
0.0205234 0.024918 0.861295
0.0205234 0.024918 0.861295
0.0205234 0.024918 0.861295
0.899046 0.0177768 0.856092
0.910918 0.0192874 0.856672
0.910918 0.0192874 0.856672
0.85037 0.927382 0.843809
0.0205234 0.024918 0.861295
0.0205234 0.024918 0.861295
0.0205234 0.024918 0.861295
0.0205234 0.024918 0.861295
0.0205234 0.024918 0.861295
0.899931 0.0178988 0.856138
0.910918 0.0192874 0.856672
0.910918 0.0192874 0.856672
0.850294 0.928298 0.843732
0.0205234 0.024918 0.861295
0.0205234 0.024918 0.861295
0.0205234 0.024918 0.861295
0.0205234 0.024918 0.861295
0.0205234 0.024918 0.861295
0.90135 0.0180972 0.856214
0.910918 0.0192874 0.856672
0.910918 0.0192874 0.856672
0.850187 0.929717 0.84361
0.0205234 0.024918 0.861295
0.0205234 0.024918 0.861295
0.0205234 0.024918 0.861295
0.0205234 0.024918 0.861295
0.0205234 0.024918 0.861295
0.905516 0.0186923 0.856443
0.910918 0.0192874 0.856672
0.910918 0.0192874 0.856672
0.849882 0.933745 0.84329
0.0205234 0.024918 0.861295
0.0205234 0.024918 0.861295
0.0205234 0.024918 0.861295
0.0205234 0.024918 0.861295
0.433997 0.0188754 0.856565
0.910918 0.0192874 0.856672
0.910918 0.0192874 0.856672
0.876554 0.7028 0.864683
0.849149 0.943709 0.842451
0 0.875929 0.857145
0 0.876158 0.85716
0 0.876524 0.857176
0 0.877668 0.857206
0 0.873549 0.855955
0.798413 0.862287 0.846586
0.854383 0.880537 0.844877
0.850797 0.922072 0.84184
0.847883 0.961379 0.840909
0 1 0.856275
0 1 0.856214
0 1 0.856123
0 1 0.855848
0.625193 0.984115 0.840253
0.768368 0.975448 0.836362
0.829541 0.973037 0.836545
0.846952 0.974746 0.837034
0.846494 0.980835 0.838865
0.751842 0.99147 0.832105
0.753048 0.99147 0.832105
0.754971 0.99147 0.83209
0.760433 0.991485 0.832059
0.774044 0.991562 0.832044
0.798993 0.991791 0.832151
0.827298 0.992126 0.832563
0.845518 0.992264 0.833661
0.845487 0.992248 0.836423
0.823102 0.992111 0.823316
0.823209 0.992111 0.823331
0.823392 0.992111 0.823331
0.823911 0.992111 0.823362
0.825437 0.992142 0.823423
0.829267 0.992187 0.823621
0.836759 0.992264 0.824231
0.845319 0.99234 0.826001
0.845533 0.992279 0.830457
0.0141909 0.0974136 0.860533
0.0141909 0.0974136 0.860533
0.0141909 0.0974136 0.860533
0.0141909 0.0974441 0.860533
0.0141756 0.0975204 0.860533
0.0141604 0.0977493 0.860533
0.910918 0.0192874 0.856672
0.910918 0.0192874 0.856672
0.87187 0.739773 0.865995
0.0141909 0.0973678 0.860533
0.0141909 0.0973678 0.860533
0.0141909 0.0973983 0.860533
0.0141909 0.0974136 0.860533
0.0141909 0.0975052 0.860533
0.0141604 0.0977188 0.860533
0.910918 0.0192874 0.856672
0.910918 0.0192874 0.856672
0.87187 0.739757 0.865995
0.0142061 0.0973068 0.860533
0.0142061 0.0973068 0.860533
0.0141909 0.0973373 0.860533
0.0142061 0.0973526 0.860533
0.0141909 0.0974136 0.860533
0.0141756 0.0976577 0.860533
0.910918 0.0192874 0.856672
0.910918 0.0192874 0.856672
0.87187 0.739727 0.865995
0.0142061 0.0971389 0.860533
0.0142214 0.0971237 0.860533
0.0142061 0.0971389 0.860533
0.0142061 0.0971695 0.860533
0.0142061 0.0972457 0.860533
0.0173648 0.0608988 0.860899
0.910918 0.0192874 0.856672
0.910918 0.0192874 0.856672
0.871885 0.739605 0.866011
0.0142672 0.0965438 0.860533
0.0142672 0.0965438 0.860533
0.0142672 0.0965591 0.860533
0.0142672 0.0965744 0.860533
0.0142519 0.0966354 0.860533
0.47805 0.0171817 0.855848
0.910918 0.0192874 0.856672
0.910918 0.0192874 0.856672
0.871931 0.739269 0.866026
0.0144045 0.0946822 0.860548
0.0144045 0.0946822 0.860548
0.0144045 0.0946822 0.860548
0.0144045 0.0946975 0.860548
0.0144045 0.094789 0.860548
0.781552 0.00433356 0.85098
0.910918 0.0192874 0.856672
0.908461 0.101335 0.859922
0.852689 0.897673 0.856397
0 0.980774 0.87306
0 0.980804 0.87306
0 0.980835 0.873075
0 0.980957 0.873075
0 0.981338 0.873091
0.694789 0.953979 0.856413
0.832609 0.949172 0.85568
0.848142 0.955856 0.855619
0.847013 0.971633 0.855528
0.639323 0.993606 0.857374
0.645457 0.993378 0.857084
0.654612 0.993042 0.856687
0.678218 0.992325 0.855787
0.723781 0.991485 0.854551
0.778347 0.991485 0.854047
0.821637 0.991958 0.854078
0.844663 0.991333 0.854383
0.845594 0.991653 0.854475
0.816098 0.991897 0.852537
0.816251 0.991913 0.852537
0.81648 0.991913 0.852537
0.817197 0.991913 0.852552
0.819196 0.991943 0.852552
0.824155 0.992004 0.852583
0.833295 0.992111 0.852628
0.843137 0.992218 0.85275
0.84538 0.992187 0.853056
0 0.396796 0.860029
0 0.396796 0.860029
0 0.396796 0.860029
0 0.396826 0.860029
0 0.396826 0.860029
0 0.396902 0.860029
0 0.39704 0.860029
0.898802 0.413077 0.871916
0.867018 0.775525 0.863249
0 0.396796 0.860029
0 0.396796 0.860029
0 0.396796 0.860029
0 0.396796 0.860029
0 0.396826 0.860029
0 0.396872 0.860029
0 0.39704 0.860029
0.898787 0.413458 0.871916
0.867002 0.77557 0.863249
0 0.39678 0.860029
0 0.39678 0.860029
0 0.39678 0.860029
0 0.396796 0.860029
0 0.396796 0.860029
0 0.396872 0.860029
0 0.397009 0.860029
0.898756 0.414038 0.871931
0.867002 0.775616 0.863249
0 0.39675 0.860029
0 0.39675 0.860029
0 0.39675 0.860029
0 0.39675 0.860029
0 0.39678 0.860029
0 0.396826 0.860029
0 0.396963 0.860029
0.89865 0.415854 0.871946
0.866972 0.775799 0.863233
0 0.396612 0.860029
0 0.396612 0.860029
0 0.396612 0.860029
0 0.396612 0.860029
0 0.396643 0.860029
0 0.396689 0.860029
0.466728 0.377997 0.86099
0.89836 0.421378 0.872023
0.866911 0.776303 0.863188
0 0.396216 0.860029
0 0.396216 0.860029
0 0.396216 0.860029
0 0.396246 0.860029
0 0.396246 0.860029
0 0.396292 0.860029
0.79379 0.125475 0.855177
0.897459 0.437781 0.872221
0.866804 0.777081 0.863127
0 0.394995 0.860044
0 0.394995 0.860044
0 0.394995 0.860044
0 0.39501 0.860044
0 0.39501 0.860044
0 0.395071 0.860044
0.910918 0.0192874 0.856672
0.895521 0.470069 0.872435
0.866606 0.778531 0.86302
0 1 0.87396
0 1 0.87396
0 1 0.87396
0 1 0.87396
0 1 0.87396
0 1 0.87396
0.796445 0.983902 0.855238
0.846006 0.982391 0.855512
0.846052 0.984863 0.855436
0.782925 0.991501 0.854887
0.783429 0.991501 0.854887
0.784253 0.991516 0.854887
0.786633 0.991531 0.854902
0.792966 0.991608 0.854932
0.806546 0.99176 0.855009
0.825925 0.991989 0.855131
0.841367 0.992172 0.855222
0.845579 0.992432 0.855467
