BBLuts/BB_103_0400_LUT.cube
TITLE "Generated by Resolve"
LUT_3D_SIZE 5
0 0 0
0.157595 0 0
0.78909 0 0
0.99588 0.55613 0.0707866
0.949172 1 0.741543
0 0.180819 0
0.112139 0.183185 0
0.793423 0.0208286 0
0.9879 0.647623 0.0379034
0.949065 1 0.74081
0 0.86128 0
0 0.860731 0
0.696178 0.857298 0
0.960983 0.921859 0
0.948425 1 0.735332
0.542245 1 0.14168
0.592126 1 0.141421
0.768231 1 0.153903
0.945937 1 0.312032
0.94551 1 0.761166
0.911284 1 0.854047
0.911742 1 0.854109
0.915038 1 0.85452
0.932982 1 0.858213
0.943206 1 0.885542
0 0 0.116899
0.137316 0 0.113283
0.792935 0 0.0878309
1 0.536828 0.23859
0.948974 1 0.759518
0 0.146365 0.0995956
0.127062 0.141192 0.0935988
0.793759 0 0.073228
0.992554 0.638056 0.218128
0.948882 1 0.758877
0 0.856672 0
0 0.856046 0
0.702052 0.852949 0
0.963882 0.923033 0.0356603
0.948211 1 0.754101
0.550469 1 0.140734
0.598566 1 0.140597
0.770047 1 0.15346
0.946044 1 0.311971
0.94551 1 0.761059
0.911345 1 0.854047
0.911818 1 0.854109
0.915099 1 0.854505
0.932998 1 0.858198
0.943206 1 0.885542
0 0 0.71545
0 0 0.715679
0.795026 0 0.687587
1 0.170855 0.738979
0.948409 1 0.838727
0 0 0.713542
0 0 0.713802
0.804273 0 0.685557
1 0.450278 0.743221
0.948287 1 0.838376
0 0.803754 0.665537
0 0.804242 0.665888
0.687434 0.801617 0.671687
0.962921 0.893446 0.700542
0.947555 1 0.835935
0.549981 1 0.528649
0.596338 1 0.527596
0.763394 1 0.530266
0.937453 1 0.597162
0.944991 1 0.817975
0.911894 1 0.853986
0.912337 1 0.854047
0.915557 1 0.854444
0.933181 1 0.858152
0.943206 1 0.885542
0 0 0.973739
0 0 0.973739
0 0 0.973739
1 0 0.960647
0.95024 1 0.953368
0 0 0.973739
0 0 0.973739
0 0 0.973739
1 0 0.960647
0.949966 1 0.953063
0 0 0.973739
0 0 0.973739
0.322728 0 0.965774
1 0 0.960647
0.948379 1 0.951263
0 1 0.967865
0 1 0.967636
0.606088 1 0.947372
0.918349 1 0.942061
0.944335 1 0.945693
0.908492 1 0.921477
0.908934 1 0.921492
0.912062 1 0.92163
0.929427 1 0.922911
0.942885 1 0.932616
0 0.276356 0.974899
0 0.276356 0.974899
0 0.276387 0.974899
0 0.276585 0.974899
0.97525 0.778149 0.983276
0 0.276341 0.974899
0 0.276341 0.974899
0 0.276356 0.974899
0 0.276555 0.974899
0.975235 0.778286 0.983261
0 0.276188 0.974899
0 0.276188 0.974899
0 0.276204 0.974899
0.361379 0.259083 0.978347
0.975082 0.779339 0.983185
0 0.274662 0.974914
0 0.274662 0.974914
0 0.274678 0.974914
1 0 0.960647
0.97464 0.782727 0.982925
0.846876 1 0.970581
0.84892 1 0.970596
0.862257 1 0.970657
0.912779 1 0.971038
0.942916 1 0.971557
