BBLuts/BB_104_0400_LUT.cube
TITLE "Generated by Resolve"
LUT_3D_SIZE 9
0.0180667 0.0278477 0.0386816
0.0180667 0.0278477 0.0386816
0.189868 0.0298161 0.0407263
0.445441 0.0301213 0.0435645
0.726558 0.28629 0.315541
0.875883 0.615335 0.611948
0.874098 0.640024 0.61117
0.86183 0.787701 0.566262
0.893263 0.850278 0.713619
0.0104524 0.0696269 0.0354925
0.0090486 0.0772412 0.0348974
0.200092 0.0617838 0.0397803
0.457511 0.0305638 0.0443275
0.728466 0.29102 0.319783
0.875883 0.615335 0.611948
0.873579 0.646799 0.610239
0.861646 0.790722 0.560739
0.893248 0.850629 0.713085
0 0.195407 0.0244907
0 0.19884 0.0241093
0.134813 0.200549 0.0271153
0.464164 0.185061 0.0375982
0.731716 0.331853 0.326635
0.875669 0.618692 0.611673
0.872572 0.658991 0.608362
0.861372 0.795392 0.550759
0.893217 0.851225 0.7122
0 0.467552 0
0 0.468864 0
0 0.469581 0
0.365332 0.479988 4.57771e-05
0.732509 0.512139 0.314031
0.87396 0.641794 0.60943
0.869032 0.69955 0.599603
0.860807 0.808072 0.509575
0.893126 0.852888 0.709514
0 0.737835 0
0 0.737774 0
0 0.737469 0
0 0.735485 0
0.667079 0.736751 0.00129702
0.844099 0.75172 0.519692
0.862333 0.784436 0.538659
0.860456 0.834195 0.0104982
0.892866 0.857313 0.701183
0 0.871656 0.0201114
0 0.871092 0.0199588
0 0.870161 0.0197299
0 0.867369 0.0190433
0 0.860304 0.017258
0.805676 0.853193 0.0101625
0.858793 0.855833 0.0108339
0.857801 0.867079 0.0110018
0.892287 0.866773 0.683452
0 0.91133 0.0289616
0 0.910948 0.0288853
0 0.910384 0.0287785
0 0.908888 0.0284886
0.567285 0.904173 0.0227665
0.790234 0.895384 0.0110781
0.849775 0.893553 0.0111391
0.854627 0.893996 0.0111238
0.889281 0.879622 0.704402
0.751904 0.905333 0.0115511
0.753643 0.905318 0.0115053
0.756359 0.905303 0.0114595
0.763882 0.905287 0.0113375
0.781445 0.905303 0.0111391
0.811124 0.905501 0.0110475
0.842557 0.905898 0.0110475
0.850523 0.903777 0.555932
0.881178 0.890089 0.76022
0.825574 0.902296 0.765225
0.825711 0.902312 0.76524
0.825925 0.902312 0.76527
0.826596 0.902312 0.765408
0.828489 0.902342 0.765743
0.833249 0.902403 0.766735
0.85391 0.8981 0.77763
0.885557 0.889189 0.801282
0.88835 0.888716 0.818418
0.0235447 0.0316625 0.0766766
0.0235904 0.0316777 0.0768597
0.19527 0.0336156 0.0793774
0.446845 0.0340887 0.0832837
0.726543 0.288472 0.330495
0.875883 0.615473 0.612985
0.874189 0.639002 0.6121
0.861784 0.787015 0.576165
0.893248 0.850172 0.720317
0.0182803 0.0547189 0.0682994
0.0543069 0.0640879 0.0670787
0.211398 0.0330053 0.0732128
0.452811 0.0334478 0.0749371
0.727352 0.289265 0.324315
0.875883 0.615427 0.612665
0.873655 0.645701 0.611185
0.861601 0.790051 0.571283
0.893233 0.850538 0.719844
0 0.186725 0.0253758
0 0.189578 0.0251011
0.15375 0.191989 0.0282139
0.46215 0.176287 0.0377203
0.729534 0.316716 0.321889
0.875685 0.618402 0.611688
0.872679 0.657847 0.609384
0.861326 0.794736 0.562554
0.893202 0.851118 0.719036
0 0.462593 0
0 0.463828 0
0 0.464332 0
0.38294 0.474479 0.000122072
0.732265 0.508919 0.314061
0.874022 0.641184 0.609491
0.869123 0.698573 0.600519
0.8607 0.807492 0.52781
0.893095 0.852796 0.716594
0 0.736858 0
0 0.736767 0
0 0.736461 0
0 0.734417 0
0.669871 0.735821 0.00125124
0.844205 0.751156 0.520867
0.862348 0.784131 0.5393
0.860471 0.834058 0.0104982
0.892821 0.857206 0.709087
0 0.871458 0.0200656
0 0.870909 0.019913
0 0.869978 0.0196841
0 0.86717 0.0189822
0 0.860151 0.0172122
0.805936 0.853101 0.0101625
0.858808 0.855756 0.0108339
0.857801 0.867033 0.0110018
0.892271 0.866743 0.684367
0 0.911254 0.0289464
0 0.910887 0.0288701
0 0.910323 0.0287633
0 0.908827 0.0284581
0.575326 0.903899 0.0222629
0.790402 0.895369 0.0110781
0.849821 0.893538 0.0111391
0.854627 0.89398 0.0111238
0.889296 0.879622 0.704356
0.752178 0.905318 0.0115511
0.753902 0.905318 0.0115053
0.756603 0.905318 0.0114595
0.76408 0.905287 0.0113375
0.781598 0.905303 0.0111391
0.811185 0.905501 0.0110475
0.842573 0.905898 0.0110475
0.850523 0.903777 0.555856
0.881178 0.890089 0.760204
0.825589 0.902296 0.765225
0.825727 0.902296 0.76524
0.825956 0.902312 0.765286
0.826627 0.902312 0.765393
0.828504 0.902342 0.765743
0.833249 0.902403 0.766735
0.853941 0.8981 0.777646
0.885557 0.889189 0.801282
0.88835 0.888716 0.818418
0.0380407 0.0416876 0.180209
0.0380713 0.0417029 0.180407
0.189029 0.0432898 0.181765
0.461112 0.0442054 0.182483
0.726558 0.293736 0.360784
0.875868 0.615702 0.614588
0.874311 0.637156 0.614572
0.861723 0.78587 0.590295
0.893248 0.850034 0.730053
0.0375677 0.0413672 0.176745
0.0375982 0.0413825 0.177066
0.211368 0.0429847 0.178302
0.459388 0.0438239 0.179355
0.728344 0.29778 0.362753
0.875868 0.615671 0.614466
0.873823 0.643626 0.613657
0.861524 0.788937 0.587259
0.893217 0.850401 0.729625
0.0108186 0.176562 0.155093
0.0104067 0.178378 0.154665
0.177157 0.171786 0.163226
0.447929 0.16733 0.165042
0.727291 0.294774 0.358297
0.875715 0.617823 0.614084
0.872862 0.655467 0.611887
0.861219 0.793667 0.581552
0.893187 0.85098 0.728923
0 0.449165 0.0181888
0 0.450568 0.0181888
0 0.45127 0.0188754
0.389685 0.46099 0.0468757
0.728893 0.498558 0.33431
0.874159 0.639307 0.611261
0.869322 0.695994 0.603937
0.860517 0.806516 0.555566
0.89308 0.852644 0.726802
0 0.734813 0
0 0.734722 0
0 0.734401 0
0 0.732341 0
0.672511 0.733898 0.00114443
0.844205 0.749813 0.522637
0.862364 0.78323 0.544488
0.860563 0.83386 0.260502
0.89279 0.857069 0.720348
0 0.871153 0.0199741
0 0.870588 0.0198367
0 0.869657 0.0196078
0 0.866865 0.0189059
0 0.859892 0.0171511
0.806332 0.852949 0.0101625
0.858808 0.85565 0.0108339
0.857816 0.866972 0.0110018
0.892149 0.866529 0.699825
0 0.911147 0.0289158
0 0.91078 0.0288548
0 0.910216 0.028748
0 0.908736 0.0284581
0.585626 0.903487 0.0215305
0.790707 0.895338 0.0110781
0.849882 0.893523 0.0111391
0.854627 0.89398 0.0111238
0.889311 0.879606 0.704295
0.75259 0.905318 0.0115358
0.754314 0.905318 0.01149
0.757 0.905303 0.0114443
0.764416 0.905287 0.0113375
0.781826 0.905303 0.0111391
0.811292 0.905501 0.0110475
0.842603 0.905898 0.0110475
0.850523 0.903777 0.555856
0.881178 0.890089 0.760189
0.82562 0.902296 0.765225
0.825757 0.902312 0.76524
0.825986 0.902312 0.765286
0.826642 0.902312 0.765393
0.828534 0.902342 0.765728
0.833265 0.902403 0.76672
0.853971 0.898085 0.777661
0.885557 0.889189 0.801282
0.88835 0.888716 0.818418
0.125566 0.100862 0.415167
0.125704 0.100938 0.415335
0.125765 0.100984 0.415427
0.445823 0.10341 0.40943
0.740856 0.352728 0.481865
0.875761 0.617243 0.625086
0.874617 0.633265 0.63064
0.861524 0.782513 0.633371
0.893309 0.849729 0.752956
0.123644 0.0995651 0.412863
0.123827 0.0996719 0.413077
0.195926 0.100313 0.412848
0.461112 0.102846 0.40676
0.739391 0.349096 0.479026
0.875761 0.617197 0.624811
0.874189 0.638773 0.629664
0.861295 0.785687 0.631327
0.893294 0.85008 0.752651
0.11043 0.152712 0.407828
0.109804 0.157153 0.40795
0.208667 0.154711 0.408087
0.467185 0.100938 0.402564
0.73489 0.338811 0.472511
0.875776 0.617121 0.624323
0.87335 0.649348 0.627817
0.860929 0.790539 0.627878
0.893248 0.85066 0.752148
0 0.413184 0.362081
0 0.414908 0.362203
0 0.416175 0.362829
0.427268 0.41619 0.396399
0.7178 0.465888 0.44213
0.874525 0.634379 0.621073
0.869963 0.68838 0.620172
0.860029 0.803693 0.616587
0.893126 0.852354 0.750652
0 0.725917 0
0 0.725902 0
0 0.725673 0
0 0.723781 0
0.670558 0.725719 0.000686656
0.842878 0.74374 0.547784
0.862364 0.779538 0.577478
0.858534 0.830488 0.570047
0.892805 0.856764 0.746181
0 0.870268 0.0197604
0 0.869703 0.0196231
0 0.868772 0.0193942
0 0.865965 0.0186923
0 0.859007 0.0169223
0.805936 0.852186 0.010132
0.858885 0.855039 0.0108339
0.857908 0.866545 0.0109865
0.892058 0.866178 0.732906
0 0.910796 0.0288548
0 0.91046 0.0287938
0 0.909911 0.028687
0 0.908461 0.028397
0.607202 0.902464 0.0197299
0.791562 0.895247 0.0110781
0.850034 0.893462 0.0111391
0.854627 0.893935 0.0111391
0.889311 0.879591 0.704067
0.753872 0.905318 0.0115053
0.75555 0.905303 0.0114748
0.758175 0.905303 0.011429
0.765423 0.905287 0.0113069
0.782528 0.905303 0.0111391
0.811612 0.905501 0.0110475
0.84268 0.905898 0.0110475
0.850523 0.903792 0.555673
0.881178 0.890089 0.760128
0.825727 0.902296 0.765209
0.825864 0.902312 0.76524
0.826078 0.902312 0.765255
0.826749 0.902312 0.765377
0.828626 0.902342 0.765728
0.833341 0.902403 0.76672
0.854109 0.898039 0.777722
0.885542 0.889189 0.801282
0.88835 0.888716 0.818418
0.541726 0.528054 0.691554
0.541817 0.528161 0.691615
0.541955 0.528313 0.691707
0.552789 0.527337 0.691005
0.732204 0.547601 0.691539
0.874342 0.64268 0.714321
0.87396 0.648646 0.722423
0.86894 0.772152 0.735439
0.893919 0.84918 0.793118
0.541009 0.52723 0.691081
0.541085 0.527321 0.691142
0.541253 0.527504 0.691249
0.554376 0.526329 0.69041
0.735912 0.548318 0.691264
0.874357 0.642512 0.713954
0.873808 0.650278 0.721492
0.875257 0.77322 0.739452
0.893889 0.849546 0.79295
0.539834 0.525841 0.690318
0.539925 0.525963 0.690379
0.540078 0.526162 0.690486
0.557183 0.524758 0.689464
0.738155 0.548074 0.690578
0.874372 0.642222 0.713314
0.873411 0.654292 0.719921
0.886137 0.77435 0.746349
0.893843 0.850156 0.792676
0.530816 0.532952 0.685725
0.530816 0.533227 0.68574
0.530755 0.533562 0.68574
0.551049 0.532052 0.684993
0.736996 0.549157 0.6869
0.874205 0.64361 0.709728
0.871183 0.677577 0.714336
0.896284 0.783917 0.750301
0.893721 0.851881 0.791852
0 0.702373 0.650797
0 0.702617 0.650889
0 0.702678 0.651011
0 0.701503 0.651392
0.699229 0.692927 0.681376
0.849363 0.721813 0.68835
0.897398 0.756039 0.71812
0.89514 0.811963 0.739605
0.893355 0.856413 0.789487
0 0.867628 0.0191043
0 0.867079 0.018967
0 0.866163 0.0187381
0 0.863355 0.0180362
0 0.856138 0.0161898
0.798352 0.847837 0.533196
0.85597 0.849836 0.637263
0.893492 0.846983 0.711437
0.892485 0.865904 0.783032
0 0.910216 0.028748
0 0.90985 0.0286717
0 0.909331 0.0285649
0 0.907881 0.028275
0.577173 0.903075 0.0221103
0.787442 0.894697 0.0110781
0.846708 0.892927 0.0111391
0.852186 0.89102 0.580514
0.891035 0.878614 0.766751
0.75761 0.905303 0.0114443
0.759182 0.905303 0.0114137
0.761624 0.905287 0.011368
0.768414 0.905287 0.0112764
0.784588 0.905318 0.0111238
0.812543 0.905516 0.0110475
0.842969 0.905913 0.0110475
0.850538 0.903792 0.5552
0.881148 0.890105 0.759945
0.826032 0.902312 0.765179
0.826169 0.902312 0.765194
0.826398 0.902312 0.765255
0.827039 0.902312 0.765362
0.828885 0.902342 0.765698
0.833539 0.902403 0.766705
0.85452 0.897917 0.77792
0.885542 0.889189 0.801236
0.88835 0.888716 0.818418
0.698131 0.705898 0.819684
0.698146 0.705913 0.819699
0.698161 0.705928 0.819715
0.698192 0.705974 0.819745
0.719036 0.702251 0.81651
0.870436 0.720943 0.818158
0.87042 0.721508 0.818692
0.866514 0.755474 0.811292
0.893965 0.848096 0.836698
0.69807 0.705837 0.819638
0.698085 0.705837 0.819654
0.6981 0.705852 0.819654
0.698131 0.705898 0.819684
0.720714 0.702174 0.816403
0.870436 0.720897 0.818112
0.87042 0.721462 0.818647
0.866117 0.759136 0.810651
0.894957 0.848142 0.8374
0.697993 0.70573 0.819562
0.697993 0.705745 0.819577
0.698009 0.705745 0.819577
0.698039 0.705791 0.819608
0.723598 0.702037 0.816251
0.870436 0.720806 0.818006
0.87042 0.721386 0.818586
0.865476 0.765057 0.809674
0.895689 0.848524 0.837842
0.697704 0.705394 0.819318
0.697704 0.705409 0.819318
0.697719 0.705409 0.819333
0.697475 0.70515 0.81912
0.730861 0.701732 0.815839
0.870451 0.720562 0.817777
0.870451 0.72018 0.817411
0.863752 0.78172 0.807019
0.895567 0.850462 0.837415
0.686915 0.705943 0.811154
0.686854 0.706035 0.811124
0.686763 0.706172 0.811078
0.686275 0.706081 0.810681
0.719127 0.703807 0.808957
0.867643 0.723644 0.811139
0.867079 0.747082 0.807172
0.86041 0.816892 0.801709
0.895155 0.855528 0.836194
0 0.863386 0.794202
0 0.863066 0.794186
0 0.862455 0.794141
0 0.860044 0.793988
0.543786 0.85182 0.791669
0.831479 0.8262 0.816556
0.889784 0.832151 0.81709
0.895186 0.844663 0.823133
0.89424 0.865797 0.833234
0 0.911101 0.775509
0 0.910719 0.775601
0 0.910109 0.775753
0 0.908507 0.776211
0.517006 0.901656 0.773251
0.774838 0.890196 0.76846
0.872343 0.874632 0.800229
0.892531 0.874174 0.812055
0.892699 0.879103 0.827451
0.749233 0.901762 0.729076
0.750744 0.901747 0.729168
0.753155 0.901732 0.72929
0.759854 0.901686 0.729686
0.77583 0.901656 0.730953
0.803693 0.901778 0.734737
0.834791 0.901915 0.744228
0.883436 0.889586 0.784619
0.887587 0.888838 0.814115
0.826963 0.902312 0.765103
0.827085 0.902312 0.765133
0.827283 0.902312 0.765164
0.827909 0.902327 0.76527
0.829679 0.902342 0.765621
0.834134 0.902403 0.766613
0.855863 0.897536 0.778546
0.885542 0.889189 0.801144
0.888365 0.888701 0.818418
0.736019 0.749584 0.853681
0.736019 0.749584 0.853681
0.736019 0.749584 0.853681
0.736019 0.749584 0.853681
0.736019 0.749584 0.853681
0.859663 0.759243 0.85568
0.870069 0.760952 0.855879
0.870069 0.760952 0.855879
0.860471 0.849683 0.840574
0.736019 0.749584 0.853681
0.736019 0.749584 0.853681
0.736019 0.749584 0.853681
0.736019 0.749584 0.853681
0.736019 0.749584 0.853681
0.860456 0.759365 0.855695
0.870069 0.760952 0.855879
0.870069 0.760952 0.855879
0.860395 0.850385 0.840467
0.736019 0.749584 0.853681
0.736019 0.749584 0.853681
0.736019 0.749584 0.853681
0.736019 0.749584 0.853681
0.736019 0.749584 0.853681
0.861723 0.759564 0.855726
0.870069 0.760952 0.855879
0.870069 0.760952 0.855879
0.860273 0.851514 0.840314
0.736019 0.749584 0.853681
0.736019 0.749584 0.853681
0.736019 0.749584 0.853681
0.736019 0.749584 0.853681
0.736019 0.749584 0.853681
0.865415 0.760159 0.855787
0.870069 0.760952 0.855879
0.870069 0.760952 0.855879
0.859937 0.854719 0.839872
0.736019 0.749584 0.853681
0.736019 0.749584 0.853681
0.736019 0.749584 0.853681
0.736019 0.749584 0.853681
0.736904 0.749615 0.853697
0.870069 0.760952 0.855879
0.870069 0.760952 0.855879
0.86923 0.765087 0.852399
0.859022 0.862821 0.838743
0.714122 0.808972 0.845685
0.714061 0.809094 0.84567
0.71397 0.809308 0.84564
0.713649 0.809934 0.845579
0.713359 0.807263 0.8448
0.812375 0.803082 0.843229
0.863569 0.8159 0.84213
0.860716 0.84509 0.838819
0.857191 0.877745 0.836423
0 0.915526 0.842741
0 0.915053 0.842725
0 0.91429 0.842695
0 0.912047 0.842603
0.565133 0.901183 0.836316
0.771969 0.88957 0.830213
0.877287 0.872084 0.862608
0.895705 0.873777 0.863416
0.895308 0.879286 0.864866
0.742977 0.904219 0.824689
0.744595 0.904204 0.824689
0.747127 0.904173 0.824659
0.754208 0.904128 0.824598
0.771252 0.904067 0.824537
0.801038 0.904158 0.824704
0.832868 0.904479 0.825437
0.89366 0.889067 0.858473
0.893904 0.889235 0.861463
0.827115 0.903899 0.81561
0.827237 0.903899 0.815625
0.82742 0.903899 0.815625
0.828031 0.903914 0.815671
0.82974 0.903929 0.815763
0.834058 0.90399 0.816052
0.84242 0.904128 0.816876
0.892989 0.888624 0.85005
0.893385 0.888869 0.854994
0.736004 0.749722 0.853681
0.736004 0.749722 0.853681
0.736004 0.749722 0.853681
0.736004 0.749722 0.853681
0.736004 0.749722 0.853681
0.736004 0.749722 0.853681
0.870069 0.760952 0.855879
0.870069 0.760952 0.855879
0.86891 0.772137 0.855222
0.736004 0.749722 0.853681
0.736004 0.749722 0.853681
0.736004 0.749722 0.853681
0.736004 0.749722 0.853681
0.736004 0.749722 0.853681
0.736004 0.749722 0.853681
0.870069 0.760952 0.855879
0.870069 0.760952 0.855879
0.86891 0.772122 0.855222
0.736004 0.749722 0.853681
0.736004 0.749722 0.853681
0.736004 0.749722 0.853681
0.736004 0.749722 0.853681
0.736004 0.749722 0.853681
0.736004 0.749722 0.853681
0.870069 0.760952 0.855879
0.870069 0.760952 0.855879
0.86891 0.772122 0.855222
0.736004 0.749722 0.853681
0.736004 0.749722 0.853681
0.736004 0.749722 0.853681
0.736004 0.749722 0.853681
0.736004 0.749722 0.853681
0.736004 0.749645 0.853681
0.870069 0.760952 0.855879
0.870069 0.760952 0.855879
0.86891 0.772107 0.855222
0.736004 0.749706 0.853681
0.736004 0.749706 0.853681
0.736004 0.749706 0.853681
0.736004 0.749706 0.853681
0.736004 0.749706 0.853681
0.737179 0.749615 0.853697
0.870069 0.760952 0.855879
0.870069 0.760952 0.855879
0.868925 0.772061 0.855238
0.736004 0.749706 0.853681
0.736004 0.749706 0.853681
0.736004 0.749706 0.853681
0.736004 0.749706 0.853681
0.736004 0.749706 0.853681
0.776196 0.751156 0.854093
0.870069 0.760952 0.855879
0.870054 0.761059 0.855879
0.863493 0.830671 0.852552
0.657008 0.886152 0.851743
0.656947 0.886183 0.851743
0.65687 0.886213 0.851743
0.656596 0.886336 0.851759
0.655741 0.886687 0.851759
0.732525 0.872404 0.85034
0.844221 0.869017 0.85069
0.859098 0.874876 0.850629
0.857404 0.888319 0.849836
0.637842 0.908782 0.850828
0.644251 0.908507 0.850538
0.653834 0.90811 0.850126
0.678462 0.907225 0.849165
0.726543 0.90602 0.847776
0.784161 0.905638 0.847135
0.829923 0.905974 0.847288
0.895003 0.889754 0.880232
0.895781 0.890105 0.880385
0.823835 0.905791 0.845716
0.823987 0.905791 0.845716
0.824231 0.905791 0.845716
0.824979 0.905806 0.845731
0.827085 0.905821 0.845747
0.832319 0.905882 0.845808
0.841917 0.906004 0.845945
0.89337 0.890349 0.87866
0.895598 0.890394 0.879072
0.735897 0.750408 0.853666
0.735897 0.750408 0.853666
0.735897 0.750408 0.853666
0.735897 0.750408 0.853666
0.735897 0.750408 0.853666
0.735897 0.750408 0.853666
0.735897 0.750408 0.853666
0.870008 0.761563 0.855848
0.868284 0.778408 0.854887
0.735897 0.750408 0.853666
0.735897 0.750408 0.853666
0.735897 0.750408 0.853666
0.735897 0.750408 0.853666
0.735897 0.750408 0.853666
0.735897 0.750408 0.853666
0.735897 0.750408 0.853666
0.869993 0.761578 0.855848
0.868284 0.778424 0.854887
0.735897 0.750408 0.853666
0.735897 0.750408 0.853666
0.735897 0.750408 0.853666
0.735897 0.750408 0.853666
0.735897 0.750408 0.853666
0.735897 0.750408 0.853666
0.735897 0.750408 0.853666
0.869993 0.761578 0.855848
0.868284 0.778439 0.854887
0.735897 0.750408 0.853666
0.735897 0.750408 0.853666
0.735897 0.750408 0.853666
0.735897 0.750408 0.853666
0.735897 0.750408 0.853666
0.735897 0.750408 0.853666
0.735897 0.750408 0.853666
0.869993 0.761578 0.855848
0.868269 0.77847 0.854871
0.735897 0.750408 0.853666
0.735897 0.750408 0.853666
0.735897 0.750408 0.853666
0.735897 0.750408 0.853666
0.735897 0.750408 0.853666
0.735897 0.750408 0.853666
0.737072 0.750317 0.853666
0.869993 0.761593 0.855848
0.868269 0.778592 0.854871
0.735897 0.750408 0.853666
0.735897 0.750408 0.853666
0.735897 0.750408 0.853666
0.735897 0.750408 0.853666
0.735897 0.750408 0.853666
0.735897 0.750408 0.853666
0.784695 0.751827 0.854215
0.869993 0.761654 0.855848
0.868254 0.778759 0.854856
0.735897 0.750408 0.853666
0.735897 0.750408 0.853666
0.735897 0.750408 0.853666
0.735897 0.750408 0.853666
0.735897 0.750408 0.853666
0.735897 0.750408 0.853666
0.870069 0.760952 0.855879
0.869978 0.761776 0.855817
0.868223 0.77908 0.854841
0 0.918318 0.860838
0 0.918318 0.860838
0 0.918318 0.860838
0 0.918318 0.860838
0 0.918318 0.860838
0 0.918318 0.860838
0.805158 0.898894 0.848386
0.860395 0.896025 0.852644
0.896391 0.884321 0.881407
0.789212 0.905699 0.847715
0.789761 0.905699 0.847715
0.790616 0.905699 0.84773
0.793118 0.905715 0.84773
0.800031 0.90576 0.847776
0.814282 0.905867 0.847883
0.834577 0.906096 0.848127
0.891768 0.890501 0.880949
0.895811 0.890547 0.881025
