BBLuts/BB_103_0730_LUT.cube
TITLE "Generated by Resolve"
LUT_3D_SIZE 33
0.00500496 0 0.0280156
0.00500496 0 0.0280156
0.00500496 0 0.0280156
0.00500496 0 0.0280156
0.00674449 0 0.0275883
0.0364843 0.00195315 0.0315709
0.0730297 0.00500496 0.0348058
0.102083 0.00677501 0.0365606
0.133211 0.00807202 0.0376287
0.172534 0.00889601 0.0377508
0.220951 0.00883497 0.0361181
0.277775 0.00766003 0.0318914
0.343404 0.00552377 0.0230716
0.418952 0.00268559 0.012726
0.521157 0 0.00358587
0.650919 0 0
0.781476 0 0
0.905425 0 0
1 0 0
1 0 0
1 0 0
1 0 0
1 0.2804 0.0424048
1 0.467979 0.117082
1 0.608499 0.193286
1 0.719768 0.269688
1 0.813718 0.35494
0.9888 0.883207 0.463462
0.978729 0.931563 0.595941
0.97084 0.96759 0.720409
0.964645 0.994415 0.808362
0.959792 1 0.855314
0.956329 1 0.894697
0.00500496 0 0.0280156
0.00500496 0 0.0280156
0.00500496 0 0.0280156
0.00500496 0 0.0280156
0.00700389 0 0.0276341
0.0429847 0.00257877 0.0322271
0.0754406 0.00517281 0.0349889
0.104143 0.00688182 0.0366674
0.136736 0.00819409 0.037705
0.176974 0.00894179 0.0376898
0.225849 0.00877394 0.0358434
0.28188 0.00753796 0.0315099
0.344747 0.00549325 0.0226596
0.420661 0.00260929 0.0125582
0.523033 0 0.00343328
0.652155 0 0
0.782483 0 0
0.905425 0 0
1 0 0
1 0 0
1 0 0
1 0.0142061 0
1 0.30985 0.0454261
1 0.483116 0.0893111
1 0.616129 0.18764
1 0.72433 0.267079
1 0.816052 0.354131
0.988647 0.884291 0.46334
0.978668 0.932113 0.595605
0.970794 0.96788 0.720241
0.96463 0.994537 0.808316
0.959792 1 0.855299
0.956313 1 0.894682
0.00500496 0 0.0280156
0.00500496 0 0.0280156
0.00500496 0 0.0280156
0.00500496 0 0.0280156
0.00701915 0 0.0279545
0.0465248 0.00289921 0.032578
0.0758068 0.00520333 0.0350042
0.105776 0.00695811 0.0367437
0.140139 0.00828565 0.0377508
0.180148 0.00895705 0.0376287
0.228016 0.00874342 0.0357214
0.282887 0.00750744 0.0314031
0.346517 0.00543221 0.0222782
0.422797 0.002533 0.0123445
0.524956 0 0.00329595
0.65391 0 0
0.783047 0 0
0.905882 0 0
1 0 0
1 0 0
1 0 0
1 0.0839094 0.00352483
1 0.339483 0.0476387
1 0.497337 0.0662547
1 0.623529 0.182376
1 0.72845 0.264729
1 0.818219 0.353368
0.988495 0.885328 0.463233
0.978607 0.932631 0.595285
0.970779 0.968154 0.720088
0.964614 0.99469 0.808255
0.959777 1 0.855268
0.956313 1 0.894682
0.00476081 0 0.027512
0.0047303 0 0.0274815
0.00459297 0 0.0273899
0.00209049 0.00578317 0.0254368
0.0119783 0.0129397 0.0261234
0.0468605 0.00527962 0.0328679
0.0737163 0.00720226 0.0351263
0.103517 0.00901808 0.0368505
0.138552 0.0100557 0.0380407
0.180987 0.00906386 0.0377966
0.230015 0.00872816 0.0356146
0.284642 0.00746166 0.03122
0.348699 0.00535592 0.0218357
0.424994 0.0024567 0.0121309
0.52694 0 0.00314336
0.655222 0 0
0.784085 0 0
0.906294 0 0
1 0 0
1 0 0
1 0 0
1 0.158877 0.0223392
1 0.36321 0.0487373
1 0.509209 0.0491035
1 0.629847 0.177829
1 0.732143 0.262592
1 0.820249 0.352651
0.988342 0.886336 0.463111
0.978546 0.93315 0.594965
0.970748 0.968414 0.719921
0.964599 0.994827 0.808194
0.959777 1 0.855253
0.956313 1 0.894667
0 0.0538033 0.0169223
0 0.0567025 0.0165713
0 0.059556 0.0162203
0 0.0623941 0.0158999
0 0.0636454 0.0158389
0.0222477 0.0678721 0.0209049
0.0522011 0.0683909 0.0237125
0.0842298 0.0654765 0.0261845
0.122881 0.0558328 0.028687
0.177615 0.0177005 0.0355383
0.229633 0.0133364 0.0351568
0.286656 0.00769055 0.0317082
0.350805 0.00529488 0.0214542
0.427237 0.00236515 0.0119173
0.529458 0 0.00296025
0.657053 0 0
0.785122 0 0
0.906691 0 0
1 0 0
1 0 0
1 0 0
1 0.203189 0.0310674
1 0.383688 0.0492409
1 0.520882 0.0491493
1 0.636362 0.171939
1 0.735958 0.260197
1 0.822171 0.351995
0.98819 0.887297 0.463004
0.978469 0.933669 0.594644
0.970718 0.968673 0.719768
0.964584 0.994965 0.808148
0.959762 1 0.855222
0.956313 1 0.894652
0 0.087068 0.0132296
0 0.0894026 0.0130007
0 0.0918288 0.0127413
0 0.0937514 0.0125582
0 0.094728 0.0124514
0.00320439 0.0984054 0.0162203
0.0385901 0.101213 0.0198367
0.0724956 0.10161 0.0223545
0.110964 0.0992599 0.0241703
0.157549 0.0918593 0.0249485
0.211643 0.0757 0.0244144
0.282139 0.0225528 0.0274357
0.35024 0.0138857 0.0206607
0.42974 0.00299077 0.0124514
0.531823 0 0.0027924
0.65864 0 0
0.786267 0 0
0.907134 0 0
1 0 0
1 0 0
1 0.0222019 0
1 0.240162 0.0372015
1 0.40148 0.0493782
1 0.5308 0.0492409
1 0.642283 0.166232
1 0.739864 0.257527
1 0.824323 0.351232
0.988067 0.888228 0.462898
0.978424 0.934173 0.594339
0.970687 0.968948 0.7196
0.964569 0.995117 0.808103
0.959747 1 0.855207
0.956298 1 0.894636
0 0.121553 0.00979629
0 0.123507 0.00959792
0 0.125444 0.00941482
0 0.126635 0.00929274
0 0.127489 0.00921645
0 0.12784 0.00932326
0.0183871 0.133745 0.0155642
0.0587778 0.136187 0.0190585
0.0992294 0.136263 0.0212711
0.146868 0.133227 0.0221408
0.200534 0.125261 0.0211643
0.261616 0.11075 0.0179446
0.332448 0.0838483 0.0120394
0.425925 0.0218051 0.00773632
0.532403 0.00874342 0.00167849
0.661204 0 0
0.787152 0 0
0.907195 0 0
1 0 0
1 0 0
1 0.088716 0.00549325
1 0.277333 0.042237
1 0.420584 0.0493629
1 0.542306 0.0493935
1 0.648722 0.159884
1 0.744274 0.25452
0.999863 0.826856 0.350317
0.987869 0.88954 0.462791
0.978347 0.934752 0.593973
0.970642 0.969238 0.719417
0.964553 0.995285 0.808026
0.959747 1 0.855177
0.956298 1 0.894621
0 0.160784 0.00576791
0 0.162493 0.00556954
0 0.16379 0.00543221
0 0.164782 0.0053254
0 0.165393 0.00526436
0 0.165911 0.00520333
0 0.168688 0.00810254
0.035996 0.17438 0.0146181
0.0835431 0.176379 0.0181735
0.133364 0.175601 0.0198672
0.189059 0.170703 0.0195315
0.252018 0.162036 0.0168002
0.322164 0.148287 0.0116884
0.4047 0.125689 0.00242618
0.51577 0.0798047 0
0.656123 0.0204318 0
0.784009 0.0110323 0
0.90779 0 0
1 0 0
1 0.0467689 0
1 0.175921 0.0257115
1 0.32079 0.04654
1 0.444633 0.0492561
1 0.557656 0.0497139
1 0.658076 0.146853
1 0.750072 0.250477
0.999313 0.830259 0.349142
0.98761 0.89131 0.462684
0.978225 0.935744 0.593408
0.970596 0.969696 0.719142
0.964523 0.995514 0.80795
0.959731 1 0.855131
0.956283 1 0.894606
0 0.207263 7.62951e-05
0 0.208591 0
0 0.209506 0
0 0.210239 0
0 0.210758 0
0 0.211322 0
0 0.211612 0
0.000900282 0.217853 0.00679026
0.0581216 0.222019 0.0133211
0.113573 0.222721 0.0168917
0.173205 0.220417 0.0179904
0.240101 0.214771 0.0165713
0.313649 0.205798 0.0131075
0.397726 0.192096 0.00846876
0.505043 0.173144 0.000854505
0.63386 0.147295 0
0.763272 0.110475 0
0.895186 0.038056 0
0.996338 0.0479286 0
1 0.149905 0.0180972
1 0.260182 0.0399023
1 0.368887 0.0491188
1 0.474311 0.0491035
1 0.577264 0.0500343
1 0.67071 0.125856
1 0.758358 0.244358
0.998596 0.83476 0.347555
0.987259 0.893706 0.462501
0.978058 0.937087 0.59263
0.970504 0.970428 0.71873
0.964492 0.99585 0.807813
0.959701 1 0.85507
0.956268 1 0.894575
0 0.260685 0
0 0.261311 0
0 0.261707 0
0 0.262028 0
0 0.262501 0
0 0.262577 0
0 0.262516 0
0 0.262318 0
0.0146334 0.271183 0.00370794
0.0841993 0.275578 0.0117342
0.150591 0.276127 0.0152743
0.222644 0.273304 0.0157473
0.301747 0.267292 0.0141146
0.39028 0.257862 0.0120394
0.500084 0.246586 0.00946059
0.627039 0.233631 0.00782788
0.752529 0.221302 0.00956741
0.872053 0.21326 0.0155947
0.974563 0.224491 0.0256809
1 0.268727 0.0386206
1 0.338415 0.0475929
1 0.422339 0.0495613
1 0.511666 0.0490883
1 0.60174 0.0502174
1 0.68748 0.0953231
1 0.769329 0.235904
0.99762 0.841062 0.345357
0.986786 0.896925 0.462287
0.977844 0.938933 0.591592
0.970397 0.971435 0.718166
0.964431 0.996429 0.807568
0.95967 1 0.854994
0.956252 1 0.89453
0 0.31957 0
0 0.320195 0
0 0.320607 0
0 0.320928 0
0 0.321172 0
0 0.32134 0
0 0.321431 0
0 0.321645 0
0 0.321401 0
0.03122 0.333989 0.000289921
0.116655 0.339208 0.00984207
0.196551 0.339483 0.0132753
0.283101 0.336233 0.0139467
0.377676 0.330404 0.0142672
0.492683 0.323827 0.0144808
0.621561 0.317143 0.0159152
0.745525 0.31281 0.0204013
0.86244 0.31397 0.0283207
0.962493 0.328374 0.0377356
1 0.36286 0.046067
1 0.415564 0.0493935
1 0.480125 0.0492866
1 0.554742 0.0496376
1 0.632471 0.0501411
1 0.708705 0.0520638
1 0.78349 0.225788
0.996338 0.849317 0.342504
0.986145 0.90135 0.462104
0.977554 0.941375 0.590204
0.970214 0.973236 0.717403
0.96434 0.997208 0.807233
0.959625 1 0.854841
0.956222 1 0.894469
0 0.390799 0
0 0.391089 0
0 0.391485 0
0 0.392126 0
0 0.392401 0
0 0.392599 0
0 0.392798 0
0 0.392889 0
0 0.392798 0
0 0.396597 0
0.0558175 0.410636 0
0.156695 0.415915 0.00854505
0.254276 0.416373 0.0120546
0.355337 0.414115 0.0142519
0.475807 0.410132 0.0161746
0.609979 0.406607 0.0189975
0.735134 0.406531 0.024445
0.849332 0.411414 0.0323339
0.945418 0.425528 0.0401923
1 0.452171 0.0460975
1 0.49189 0.0490272
1 0.543313 0.0496071
1 0.602914 0.0502174
1 0.667262 0.0496834
1 0.735119 0.048188
1 0.800824 0.214435
0.994766 0.859876 0.338933
0.985321 0.907256 0.461982
0.977111 0.944778 0.589853
0.970001 0.975036 0.716381
0.964218 0.998276 0.80679
0.959548 1 0.854627
0.956191 1 0.894362
0 0.474052 0
0 0.474235 0
0 0.474586 0
0 0.474891 0
0 0.475135 0
0 0.475715 0
0 0.475944 0
0 0.476127 0
0 0.476295 0
0 0.476463 0
0 0.486595 0
0.090013 0.500786 0.000961318
0.209918 0.505394 0.00987259
0.321309 0.505653 0.0133669
0.445701 0.503883 0.0158694
0.587411 0.50193 0.018616
0.71783 0.501884 0.0236362
0.832258 0.50663 0.0312505
0.925643 0.518975 0.0390784
0.999069 0.539971 0.0455634
1 0.570001 0.0498512
1 0.608774 0.0504311
1 0.655177 0.0498665
1 0.708003 0.0488136
1 0.7664 0.0474556
1 0.822171 0.197482
0.992874 0.872709 0.334722
0.984268 0.914763 0.462074
0.976486 0.949279 0.590829
0.969711 0.977584 0.715084
0.964065 0.99971 0.806149
0.959457 1 0.854353
0.95613 1 0.894209
0 0.567193 0
0 0.567269 0
0 0.567529 0
0 0.567773 0
0 0.567971 0
0 0.568154 0
0 0.568353 0
0 0.568582 0
0 0.5691 0
0 0.569177 0
0 0.569207 0
0 0.584619 0
0.142657 0.596735 0.00814832
0.277333 0.598764 0.0131533
0.404623 0.59823 0.0157168
0.553704 0.596689 0.0185245
0.693843 0.596597 0.0240635
0.812619 0.599817 0.0320745
0.905547 0.608774 0.0398566
0.976669 0.624689 0.0458228
1 0.646555 0.0497902
1 0.6748 0.0497292
1 0.711025 0.0489509
1 0.754086 0.0477302
1 0.801465 0.046891
0.999481 0.846555 0.175784
0.990723 0.888106 0.329534
0.983001 0.92401 0.462516
0.975708 0.954986 0.59234
0.969329 0.980911 0.713497
0.963836 1 0.80528
0.959319 1 0.853971
0.956054 1 0.894011
0 0.657511 0
0 0.657511 0
0 0.657618 0
0 0.657771 0
0 0.657877 0
0 0.657984 0
0 0.658076 0
0 0.658183 0
0 0.658259 0
0 0.658228 0
0 0.658381 0
0 0.65803 0
0.0403754 0.678447 0
0.216297 0.686641 0.0123293
0.354772 0.687373 0.0162509
0.508217 0.686625 0.0191501
0.659815 0.685908 0.024155
0.785138 0.687739 0.0316625
0.880568 0.693507 0.0389105
0.950179 0.704341 0.0441901
1 0.72076 0.0476997
1 0.742412 0.0481575
1 0.770153 0.0475624
1 0.802945 0.0468757
1 0.838758 0.0469215
0.996185 0.873152 0.145937
0.988388 0.905425 0.325154
0.98146 0.935332 0.46363
0.974746 0.961975 0.594476
0.96878 0.985138 0.713588
0.963531 1 0.804135
0.959152 1 0.853452
0.955947 1 0.893736
0 0.744884 0
0 0.744884 0
0 0.744884 0
0 0.744961 0
0 0.744991 0
0 0.745037 0
0 0.745052 0
0 0.745083 0
0 0.745052 0
0 0.74493 0
0 0.74464 0
0 0.744396 0
0 0.749294 0
0.118654 0.770321 0.0143435
0.297154 0.774197 0.021149
0.452247 0.773556 0.0232547
0.616175 0.772381 0.0262913
0.749523 0.77261 0.0319982
0.848814 0.776074 0.038117
0.920775 0.783062 0.042649
0.97528 0.794095 0.0456245
1 0.809415 0.0469215
1 0.828305 0.0470436
1 0.850828 0.0472877
0.998322 0.875837 0.0476387
0.993484 0.901045 0.101381
0.985946 0.9243 0.321584
0.979706 0.948318 0.466835
0.973587 0.970413 0.597681
0.968063 0.990311 0.716152
0.963119 1 0.80354
0.958907 1 0.85275
0.955795 1 0.893324
0 0.829389 0
0 0.829389 0
0 0.829389 0
0 0.829389 0
0 0.829374 0
0 0.829358 0
0 0.829313 0
0 0.829252 0
0 0.829099 0
0 0.828824 0
0 0.828382 0
0 0.827619 0
0 0.826734 0
0.0275731 0.847074 0.0196994
0.234394 0.855268 0.0328374
0.395789 0.854948 0.0336004
0.567987 0.852491 0.0334325
0.708995 0.85098 0.0359503
0.813397 0.851484 0.0399481
0.889128 0.854551 0.0433967
0.946487 0.860151 0.0458228
0.987259 0.868803 0.0473793
0.996475 0.880446 0.0479591
0.995331 0.894575 0.0484779
0.993744 0.910903 0.0489815
0.99144 0.928908 0.0542153
0.983383 0.944442 0.322087
0.977752 0.962615 0.47274
0.972198 0.980453 0.603098
0.967147 0.99675 0.719692
0.962585 1 0.803815
0.958587 1 0.852033
0.955596 1 0.892775
0 0.899184 0.00680552
0 0.899184 0.00680552
0 0.899184 0.00680552
0 0.899184 0.00680552
0 0.899184 0.00680552
0 0.899153 0.00680552
0 0.899046 0.00675975
0 0.898878 0.00671397
0 0.898589 0.00662242
0 0.898161 0.00645457
0 0.897536 0.00624094
0 0.896529 0.00590524
0 0.895109 0.00540169
0 0.906386 0.0254978
0.169085 0.920531 0.0471046
0.352621 0.91986 0.046128
0.528008 0.916259 0.0429389
0.673472 0.913161 0.0423438
0.780743 0.911681 0.0441291
0.860243 0.911772 0.0463111
0.919814 0.913725 0.0480049
0.963867 0.917632 0.0491188
0.988937 0.923659 0.0497749
0.990631 0.932128 0.050248
0.989425 0.942641 0.0508278
0.987442 0.954147 0.0883192
0.980697 0.964508 0.332784
0.975631 0.977951 0.482719
0.970672 0.990936 0.610986
0.966049 1 0.725048
0.961837 1 0.806302
0.958206 1 0.851331
0.955337 1 0.892088
0 0.951568 0.0250401
0 0.951568 0.0250401
0 0.951568 0.0250401
0 0.951568 0.0250401
0 0.951568 0.0250401
0 0.951568 0.0250401
0 0.951568 0.0250401
0 0.951385 0.024979
0 0.951034 0.0248569
0 0.950439 0.0246586
0 0.949615 0.0243534
0 0.948486 0.0239719
0 0.946944 0.0234379
0 0.951614 0.0332341
0.123568 0.968963 0.0590066
0.32781 0.968521 0.0567941
0.502327 0.964126 0.0515297
0.648051 0.959915 0.0487526
0.75491 0.957305 0.0487831
0.835523 0.955932 0.0498054
0.897093 0.955749 0.0507515
0.943191 0.957107 0.0513924
0.978149 0.95996 0.0518044
0.986282 0.964706 0.0521096
0.986114 0.97116 0.0525063
0.982696 0.977264 0.168307
0.977829 0.984176 0.356802
0.973434 0.99266 0.497719
0.968948 1 0.622248
0.964797 1 0.732265
0.960937 1 0.809918
0.957626 1 0.852995
0.955032 1 0.891264
0 0.992096 0.038529
0 0.992096 0.038529
0 0.992096 0.038529
0 0.992096 0.038529
0 0.992096 0.038529
0 0.992096 0.038529
0 0.992096 0.038529
0 0.992096 0.038529
0 0.991913 0.038468
0 0.991272 0.0382696
0 0.99025 0.0379339
0 0.988968 0.0375067
0 0.987411 0.0370031
0 0.991867 0.0460975
0.129931 1 0.0688182
0.323491 1 0.0643931
0.491844 1 0.057847
0.632181 0.996841 0.0537728
0.735851 0.993515 0.0526131
0.815198 0.991348 0.0527962
0.876844 0.990082 0.0532387
0.923934 0.989776 0.0535439
0.961456 0.99057 0.0536965
0.981613 0.992615 0.0538033
0.983276 0.996094 0.0539864
0.978943 0.997528 0.230625
0.97499 1 0.389227
0.971054 1 0.520394
0.967102 1 0.63743
0.963378 1 0.741909
0.95993 1 0.813993
0.956924 1 0.855634
0.954574 1 0.892302
0 1 0.0474556
0 1 0.0474556
0 1 0.0474556
0 1 0.0474556
0 1 0.0474556
0 1 0.0474556
0 1 0.0474556
0 1 0.0474556
0 1 0.0474556
0 1 0.0474403
0 1 0.0471351
0 1 0.0467079
0 1 0.0462043
0 1 0.0489357
0.176074 1 0.0748608
0.342061 1 0.0684215
0.499413 1 0.0613718
0.628244 1 0.0569619
0.725414 1 0.0552834
0.801541 1 0.0549935
0.86128 1 0.0551003
0.90837 1 0.0551919
0.947021 1 0.0551919
0.976242 1 0.0551156
0.980438 1 0.0645151
0.974975 1 0.292332
0.972 1 0.432044
0.968521 1 0.550652
0.965072 1 0.658885
0.961837 1 0.754131
0.958785 1 0.81857
0.9561 1 0.859083
0.95404 1 0.89427
0 1 0.0534981
0 1 0.0534981
0 1 0.0534981
0 1 0.0534981
0 1 0.0534981
0 1 0.0534981
0 1 0.0534981
0 1 0.0534981
0 1 0.0534981
0 1 0.0534981
0 1 0.0534981
0 1 0.0531319
0 1 0.0533608
0.00784314 1 0.0739147
0.239002 1 0.0766461
0.380621 1 0.0695048
0.520836 1 0.0628824
0.633783 1 0.0588388
0.72195 1 0.0570687
0.79324 1 0.0565499
0.849821 1 0.0564584
0.895567 1 0.0564431
0.934005 1 0.0563516
0.963867 1 0.0616159
0.972992 1 0.233265
0.971252 1 0.37348
0.968872 1 0.48542
0.965896 1 0.589532
0.962966 1 0.687266
0.960189 1 0.770001
0.957549 1 0.824262
0.9552 1 0.863584
0.953429 1 0.896971
0 1 0.05832
0 1 0.05832
0 1 0.05832
0 1 0.05832
0 1 0.05832
0 1 0.05832
0 1 0.05832
0 1 0.05832
0 1 0.05832
0 1 0.05832
0 1 0.05832
0 1 0.05832
0 1 0.0581674
0.166232 1 0.0821546
0.308354 1 0.0754406
0.435569 1 0.0684672
0.55375 1 0.062974
0.648615 1 0.0597086
0.72604 1 0.0581521
0.790311 1 0.0575723
0.842573 1 0.0588846
0.886213 1 0.0612345
0.922652 1 0.0640421
0.949248 1 0.21413
0.967453 1 0.346807
0.967666 1 0.451865
0.965225 1 0.546517
0.963226 1 0.634897
0.96083 1 0.720302
0.958465 1 0.788693
0.956207 1 0.832776
0.954238 1 0.869184
0.952773 1 0.90045
0.135363 1 0.0902419
0.135363 1 0.0902419
0.135363 1 0.0902419
0.135363 1 0.0902419
0.135348 1 0.0902419
0.135348 1 0.0902419
0.135348 1 0.0902419
0.135348 1 0.0902419
0.135332 1 0.0902419
0.135317 1 0.0902419
0.135317 1 0.0902419
0.135286 1 0.0902419
0.135271 1 0.0902419
0.264607 1 0.0848402
0.387396 1 0.0779126
0.499138 1 0.072343
0.593057 1 0.0684977
0.670085 1 0.0663767
0.736324 1 0.0654459
0.792691 1 0.0652934
0.837446 1 0.147402
0.875929 1 0.235004
0.909377 1 0.298314
0.937133 1 0.370855
0.958984 1 0.450309
0.963684 1 0.531151
0.962127 1 0.610391
0.960586 1 0.687541
0.958633 1 0.755291
0.95668 1 0.809598
0.954833 1 0.843397
0.953231 1 0.876432
0.952087 1 0.904692
0.367605 1 0.355306
0.367605 1 0.355306
0.367605 1 0.355306
0.367605 1 0.355306
0.367605 1 0.355306
0.367605 1 0.355306
0.367605 1 0.355306
0.367605 1 0.355306
0.367605 1 0.355306
0.36759 1 0.355306
0.36759 1 0.355306
0.36759 1 0.355306
0.367559 1 0.355306
0.368154 1 0.355291
0.458274 1 0.355871
0.553552 1 0.358846
0.626932 1 0.364355
0.689113 1 0.372183
0.744274 1 0.383413
0.791592 1 0.397772
0.832731 1 0.416251
0.868925 1 0.4392
0.900221 1 0.46772
0.927214 1 0.50132
0.948867 1 0.551293
0.959381 1 0.611521
0.959228 1 0.676158
0.958114 1 0.738766
0.956497 1 0.790265
0.95494 1 0.825956
0.953475 1 0.856352
0.95227 1 0.8851
0.951385 1 0.910124
0.541161 1 0.53698
0.541161 1 0.53698
0.541161 1 0.53698
0.541161 1 0.53698
0.541161 1 0.53698
0.541161 1 0.53698
0.541161 1 0.53698
0.541161 1 0.53698
0.541161 1 0.53698
0.541161 1 0.53698
0.541161 1 0.53698
0.541161 1 0.53698
0.541131 1 0.53698
0.541131 1 0.53698
0.541466 1 0.53698
0.599664 1 0.538674
0.662394 1 0.54226
0.713756 1 0.547189
0.75845 1 0.553628
0.797909 1 0.562463
0.833326 1 0.573632
0.865736 1 0.587854
0.894133 1 0.604868
0.918715 1 0.626703
0.940352 1 0.653086
0.955306 1 0.694377
0.956573 1 0.74052
0.95581 1 0.784237
0.954513 1 0.819196
0.953292 1 0.844877
0.952193 1 0.871
0.951339 1 0.895171
0.950713 1 0.916457
0.652888 1 0.680461
0.652888 1 0.680461
0.652888 1 0.680461
0.652888 1 0.680461
0.652888 1 0.680461
0.652888 1 0.680461
0.652888 1 0.680461
0.652888 1 0.680461
0.652857 1 0.680461
0.652857 1 0.680461
0.652857 1 0.680461
0.652857 1 0.680461
0.652857 1 0.680461
0.652857 1 0.680461
0.652842 1 0.680461
0.653056 1 0.680476
0.693751 1 0.683024
0.738399 1 0.686763
0.774639 1 0.691325
0.806943 1 0.69691
0.8374 1 0.704143
0.865492 1 0.712871
0.890715 1 0.7234
0.913222 1 0.736309
0.93341 1 0.752102
0.949645 1 0.770138
0.953735 1 0.795575
0.953689 1 0.820264
0.952728 1 0.841733
0.951812 1 0.864729
0.951064 1 0.886442
0.9505 1 0.906218
0.950103 1 0.923705
0.730953 1 0.787549
0.730953 1 0.787549
0.730953 1 0.787549
0.730953 1 0.787549
0.730953 1 0.787549
0.730953 1 0.787549
0.730953 1 0.787549
0.730953 1 0.787549
0.730953 1 0.787549
