BBLuts/BB_103_0635_LUT.cube
TITLE "Generated by Resolve"
LUT_3D_SIZE 5
0 0 0
0.183093 0 0
0.815625 0 0
0.84979 0.546044 0.024033
0.824262 0.899687 0.594354
0 0.216159 0
0.113878 0.210468 0
0.795926 0.150958 0
0.843931 0.618387 0
0.824094 0.902129 0.593286
0 0.831617 0
0 0.829358 0
0.680095 0.810727 0
0.825956 0.836545 0
0.822858 0.919692 0.58349
0.533578 0.961532 0.178393
0.566323 0.961517 0.18056
0.702068 0.957382 0.201694
0.820264 0.951843 0.319463
0.82005 0.955016 0.626047
0.784298 0.963729 0.705562
0.785031 0.963729 0.705638
0.791196 0.96379 0.706432
0.811795 0.963973 0.711482
0.818753 0.963958 0.739391
0 0 0.117494
0.163561 0 0.110521
0.820325 0 0.120546
0.852384 0.529015 0.238148
0.824186 0.899016 0.619242
0 0.167666 0.0926528
0.122484 0.161364 0.0869917
0.804211 0.0329595 0.0991073
0.846571 0.608362 0.219944
0.824018 0.901488 0.618372
0 0.829343 0
0 0.827024 0
0.682414 0.808637 0
0.828763 0.838499 0.07776
0.822751 0.919234 0.610559
0.53901 0.961517 0.177966
0.570535 0.961501 0.180148
0.703166 0.95729 0.201343
0.820279 0.951797 0.319387
0.82005 0.955001 0.625925
0.784405 0.963729 0.705547
0.785138 0.963729 0.705623
0.791272 0.96379 0.706416
0.811826 0.963989 0.711467
0.818753 0.963958 0.739391
0 0 0.704555
0 0 0.704662
0.822507 0 0.692775
0.875303 0.154971 0.69839
0.824002 0.892973 0.725536
0 0 0.703609
0 0 0.703685
0.827344 0 0.691783
0.8598 0.40853 0.692485
0.823804 0.895796 0.725124
0 0.799893 0.658427
0 0.798672 0.658442
0.666728 0.779889 0.653635
0.829801 0.81915 0.664698
0.8224 0.915114 0.721859
0.518975 0.961639 0.58761
0.552728 0.961593 0.588022
0.691203 0.95584 0.592721
0.812573 0.950011 0.620813
0.819654 0.953979 0.707424
0.785458 0.963729 0.705425
0.786175 0.963745 0.705501
0.792081 0.963806 0.706294
0.8121 0.963989 0.71136
0.818753 0.963958 0.739376
0 0 0.840986
0 0 0.840986
0.376867 0 0.836179
0.890776 0 0.8374
0.82884 0.81799 0.822339
0 0 0.840986
0 0 0.840986
0.427085 0 0.836042
0.890776 0 0.8374
0.828016 0.82916 0.821561
0 0 0.840986
0 0 0.840986
0.654002 0 0.836042
0.887984 0 0.837339
0.823987 0.884443 0.817395
0 0.963851 0.816297
0 0.963531 0.81593
0.617517 0.950088 0.809125
0.801129 0.942351 0.809323
0.819257 0.94966 0.811429
0.778576 0.963317 0.797284
0.779324 0.963333 0.797299
0.785534 0.963394 0.797421
0.806424 0.963592 0.79826
0.818326 0.963699 0.803357
0 0.204547 0.838605
0 0.204547 0.838605
0 0.204593 0.838621
0.820813 0 0.837217
0.843656 0.620981 0.832685
0 0.204517 0.838605
0 0.204517 0.838605
0 0.204562 0.838605
0.82089 0 0.837217
0.843641 0.621134 0.832685
0 0.204242 0.838621
0 0.204242 0.838621
0 0.204288 0.838621
0.860212 0 0.837537
0.843534 0.622614 0.832654
0 0.202274 0.838621
0 0.202274 0.838621
0 0.202319 0.838621
0.890776 0 0.8374
0.839811 0.671168 0.83209
0.701762 0.962448 0.828977
0.706691 0.962493 0.828992
0.73727 0.962783 0.829114
0.794217 0.963333 0.829343
0.818143 0.963577 0.829465
