BBLuts/BB_103_0900_LUT.cube
TITLE "Generated by Resolve"
LUT_3D_SIZE 5
0.0157626 0.00544747 0.00973526
0.196368 0.0075227 0.0114748
0.788022 0.0152438 0.0180209
1 0.506828 0.0986343
0.955703 1 0.657252
0 0.218875 0
0.153277 0.221912 0
0.787243 0.107774 0.0103914
1 0.596887 0.0532998
0.955459 1 0.65626
0 0.846403 0
0 0.845869 0
0.644572 0.834852 0
0.973205 0.90576 0
0.953857 1 0.64918
0.442023 1 0.0955062
0.497948 1 0.0980392
0.703044 1 0.116228
0.938598 1 0.25301
0.948425 1 0.67274
0.90483 1 0.774594
0.90544 1 0.774655
0.909804 1 0.775143
0.933684 1 0.779431
0.94725 1 0.811078
0.0168002 0.00662242 0.186648
0.176806 0.00817884 0.187854
0.788312 0.0158694 0.196094
1 0.486915 0.251408
0.955871 1 0.676768
0.000732433 0.185367 0.159014
0.163928 0.182437 0.156085
0.78941 0.017319 0.181399
1 0.582712 0.226001
0.955627 1 0.675868
0 0.841382 0
0 0.840772 0
0.651682 0.829862 0
0.973526 0.903288 0.0278935
0.954025 1 0.669459
0.451301 1 0.09514
0.50515 1 0.097673
0.705348 1 0.115892
0.93875 1 0.252964
0.948425 1 0.672633
0.904921 1 0.774594
0.905547 1 0.774655
0.909895 1 0.775128
0.933715 1 0.779431
0.94725 1 0.811063
0.02121 0.0116121 0.717952
0.02121 0.0116121 0.718196
0.798428 0.0197452 0.719905
1 0.212848 0.727977
0.956863 1 0.76463
0.0211948 0.0115969 0.715938
0.0211948 0.0115969 0.716197
0.809689 0.0198825 0.717861
1 0.418082 0.704295
0.956588 1 0.764019
0 0.776989 0.606744
0 0.777554 0.607019
0.637034 0.768063 0.612436
0.98027 0.872236 0.631144
0.95491 1 0.759899
0.455756 1 0.42298
0.50811 1 0.424338
0.703395 1 0.433677
0.934371 1 0.502968
0.948882 1 0.734707
0.905638 1 0.774533
0.906233 1 0.774594
0.910491 1 0.775051
0.933959 1 0.77937
0.94725 1 0.811063
0.0238956 0.0146334 1
0.0238956 0.0146334 1
0.0271 0.0146181 1
1 0.025742 1
0.96376 1 0.901457
0.0238956 0.0146334 1
0.0238956 0.0146334 1
0.0311131 0.0146181 1
1 0.025742 1
0.963165 1 0.900649
0.0238956 0.0146334 1
0.0238956 0.0146334 1
0.329046 0.0169833 1
1 0.025742 1
0.95964 1 0.895796
0 1 0.873899
0 1 0.87396
0.524605 1 0.87599
0.917159 1 0.879286
0.950454 1 0.882094
0.902235 1 0.852338
0.902815 1 0.852354
0.906966 1 0.852522
0.930068 1 0.854017
0.947601 1 0.865309
0 0.303914 0.986481
0 0.303914 0.986481
0 0.303929 0.986481
0.0327306 0.296101 0.987121
0.998306 0.738567 0.951598
0 0.303883 0.986481
0 0.303899 0.986481
0 0.303914 0.986481
0.0328679 0.296086 0.987121
0.998291 0.73872 0.951583
0 0.303761 0.986496
0 0.303761 0.986496
0 0.303777 0.986496
0.357519 0.27895 0.99028
0.998154 0.739895 0.951461
0 0.302571 0.986603
0 0.302571 0.986603
0 0.302586 0.986603
1 0.03093 1
0.997681 0.743877 0.951064
0.817121 1 0.907713
0.820188 1 0.907729
0.839399 1 0.907851
0.908827 1 0.908293
0.947875 1 0.908537
