BBLuts/BB_106_0090_LUT.cube
TITLE "Generated by Resolve"
LUT_3D_SIZE 9
0.0137179 0.0137179 0.0137179
0.0137179 0.0137179 0.0137179
0.186297 0.0133822 0.0138399
0.407553 0.0129244 0.0140078
0.735119 0.0121767 0.0142672
0.953033 0.0116274 0.0144503
0.968902 0.481956 0.161257
0.980392 0.771603 0.475151
0.984634 0.874418 0.787396
0.0157626 0.0634012 0.0139467
0.0161288 0.0724041 0.0139925
0.197894 0.055787 0.0140536
0.41796 0.0129091 0.0140078
0.737591 0.0121614 0.0142672
0.953033 0.0116274 0.0144503
0.969879 0.508873 0.151492
0.980545 0.775113 0.473594
0.984649 0.874815 0.787213
0.0212711 0.198215 0.0145724
0.0213931 0.201465 0.0145876
0.172137 0.200381 0.0146944
0.433463 0.180224 0.014786
0.743542 0.0777447 0.0145724
0.959533 0.208423 0.0153506
0.971206 0.54432 0.13492
0.980743 0.780194 0.471229
0.984665 0.875425 0.786954
0.0305943 0.420798 0.0156252
0.0306401 0.421805 0.0156252
0.0306706 0.422324 0.0156405
0.396277 0.419776 0.0158846
0.760662 0.408148 0.0161135
0.968017 0.457053 0.0165408
0.974456 0.627466 0.0174258
0.981323 0.794217 0.464042
0.984741 0.877241 0.786114
0.0445716 0.714931 0.0171969
0.0445716 0.714839 0.0171969
0.0445411 0.714473 0.0171969
0.044419 0.712062 0.0171817
0.715129 0.702327 0.0176394
0.952209 0.706157 0.0178531
0.979583 0.752697 0.018143
0.982559 0.824537 0.463203
0.984955 0.882399 0.783459
0.0526589 0.874815 0.0180972
0.0526131 0.874067 0.0180972
0.0525521 0.872953 0.0180972
0.0523842 0.869444 0.0180819
0.702678 0.859251 0.0185092
0.913024 0.850294 0.0186465
0.983642 0.851789 0.13962
0.984344 0.868284 0.501152
0.985428 0.894041 0.777188
0.634485 0.920439 0.278416
0.648341 0.920409 0.279103
0.66746 0.919936 0.28014
0.715694 0.918135 0.283497
0.805875 0.914168 0.294331
0.909682 0.908751 0.327214
0.982712 0.904814 0.418036
0.985855 0.904997 0.608637
0.986099 0.910262 0.799847
0.885573 0.919432 0.68423
0.886778 0.919432 0.684352
0.888563 0.919432 0.68455
0.893889 0.919417 0.685145
0.908324 0.919387 0.687068
0.938094 0.919326 0.693141
0.975326 0.919219 0.711269
0.98645 0.919127 0.761227
0.986465 0.919005 0.850614
0.959808 0.91902 0.87921
0.959945 0.91902 0.879225
0.960143 0.91902 0.87924
0.960784 0.91902 0.879301
0.962676 0.91902 0.879515
0.967834 0.919005 0.880201
0.978271 0.918975 0.882338
0.986465 0.918959 0.888747
0.986465 0.918929 0.906538
0.0137331 0.0136568 0.0653544
0.0137331 0.0136568 0.0656138
0.186053 0.0133059 0.0664073
0.408408 0.0128481 0.0678416
0.735012 0.0120851 0.0720989
0.953033 0.0115053 0.10779
0.968734 0.476753 0.22446
0.980362 0.770794 0.50367
0.984619 0.874311 0.792081
0.0149081 0.0425116 0.0567788
0.0558633 0.0526436 0.0554055
0.203372 0.0132906 0.0580758
0.413581 0.0128634 0.0562905
0.736065 0.0121309 0.042649
0.953033 0.0115358 0.0823682
0.969726 0.504479 0.214588
0.980514 0.774334 0.502281
0.984649 0.874723 0.791913
0.0209354 0.190173 0.0145418
0.0210574 0.19295 0.0145571
0.18883 0.19202 0.0146639
0.431174 0.171664 0.0147402
0.738476 0.0121614 0.0142672
0.959091 0.195239 0.0152895
0.971069 0.54078 0.198352
0.980713 0.779461 0.500206
0.984665 0.875319 0.791669
0.0304417 0.416938 0.01561
0.0304723 0.417899 0.01561
0.0304875 0.418265 0.01561
0.406149 0.415335 0.0158694
0.759838 0.404547 0.0160983
0.96791 0.454093 0.0165255
0.974395 0.625544 0.12961
0.981292 0.793591 0.493843
0.984741 0.877134 0.79086
0.0445106 0.713802 0.0171817
0.0445106 0.71368 0.0171817
0.04448 0.713298 0.0171817
0.044358 0.710842 0.0171664
0.71783 0.701152 0.0176242
0.95227 0.705364 0.0178531
0.979568 0.75227 0.018143
0.982544 0.824308 0.475181
0.984955 0.882307 0.788342
0.0526436 0.874571 0.0180972
0.0525978 0.873838 0.0180972
0.0525521 0.872709 0.0180972
0.052369 0.8692 0.0180667
0.704463 0.859052 0.0185092
0.913314 0.850156 0.0186465
0.983642 0.851698 0.13901
0.984344 0.868223 0.500999
0.985428 0.89398 0.780453
0.636606 0.920439 0.278279
0.650309 0.920409 0.278965
0.6692 0.91986 0.280018
0.716945 0.918059 0.28336
0.8065 0.914122 0.294224
0.90985 0.908721 0.327108
0.982757 0.904799 0.418021
0.985855 0.904982 0.608576
0.986099 0.910262 0.799817
0.885756 0.919432 0.684215
0.886946 0.919432 0.684337
0.888731 0.919432 0.68452
0.894041 0.919417 0.68513
0.908431 0.919387 0.687053
0.938155 0.919326 0.693126
0.975341 0.919219 0.711254
0.98645 0.919127 0.761227
0.986465 0.919005 0.850614
0.959838 0.91902 0.87921
0.959976 0.91902 0.87921
0.960174 0.91902 0.87924
0.9608 0.91902 0.879301
0.962707 0.91902 0.879515
0.967849 0.919005 0.880201
0.978286 0.918975 0.882338
0.986465 0.918959 0.888731
0.986465 0.918929 0.906538
0.0137331 0.0134737 0.194186
0.0137331 0.0134737 0.1944
0.166293 0.0131685 0.194217
0.41854 0.012665 0.191348
0.734905 0.0119173 0.197253
0.953033 0.0113375 0.227512
0.968399 0.467292 0.312856
0.980316 0.769543 0.541299
0.984619 0.874159 0.79881
0.0137331 0.013489 0.190188
0.0137331 0.013489 0.190555
0.19173 0.0131228 0.190082
0.417197 0.0126802 0.187427
0.737255 0.0119173 0.192859
0.953033 0.0113527 0.220325
0.969436 0.496239 0.306859
0.980468 0.773144 0.540108
0.984634 0.874556 0.798642
0.0200504 0.168124 0.179385
0.0201419 0.170169 0.179065
0.177157 0.164691 0.175402
0.416846 0.148745 0.178164
0.735744 0.0119478 0.181659
0.957824 0.156252 0.207675
0.970825 0.533852 0.29752
0.980682 0.778332 0.538308
0.984665 0.875151 0.798413
0.0299687 0.406088 0.0973678
0.0300145 0.407172 0.0984512
0.030045 0.40766 0.0998856
0.4056 0.404334 0.103197
0.754452 0.394308 0.108766
0.967575 0.444221 0.14374
0.974227 0.621057 0.266377
0.981262 0.79266 0.532845
0.984741 0.876982 0.79765
0.0444038 0.71165 0.0171817
0.0444038 0.711513 0.0171817
0.0443732 0.711116 0.0171817
0.0442512 0.708644 0.0171664
0.720165 0.699001 0.0176242
0.952056 0.70367 0.0178378
0.979522 0.750988 0.15404
0.982528 0.823713 0.517067
0.984955 0.88217 0.79527
0.0526284 0.87422 0.0180972
0.0525826 0.873472 0.0180972
0.0525368 0.872343 0.0180972
0.168719 0.868666 0.0181582
0.707164 0.858747 0.0185092
0.913756 0.849958 0.0186465
0.983627 0.85156 0.138033
0.984344 0.868162 0.50074
0.985428 0.893889 0.787945
0.639811 0.920424 0.278065
0.653254 0.920394 0.278752
0.671824 0.919753 0.279805
0.718837 0.917967 0.283162
0.807431 0.914061 0.294041
0.910124 0.90869 0.32697
0.982803 0.904784 0.41799
0.985855 0.904967 0.608469
0.986099 0.910246 0.799771
0.88603 0.919432 0.684169
0.887221 0.919432 0.684306
0.888991 0.919432 0.684489
0.894286 0.919417 0.6851
0.908629 0.919387 0.687022
0.938262 0.919326 0.693095
0.975372 0.919219 0.711238
0.98645 0.919127 0.761227
0.986465 0.919005 0.850599
0.959869 0.91902 0.879194
0.960006 0.91902 0.87921
0.960204 0.91902 0.87924
0.96083 0.91902 0.879301
0.962722 0.91902 0.879515
0.96788 0.919005 0.880186
0.978286 0.918975 0.882338
0.986465 0.918959 0.888731
0.986465 0.918929 0.906538
0.0137484 0.0131685 0.413855
0.0137484 0.0131685 0.413993
0.0137484 0.0131685 0.414069
0.397345 0.0124056 0.412924
0.752743 0.0115663 0.416037
0.953048 0.0110475 0.435996
0.967269 0.434623 0.495338
0.980163 0.765545 0.630274
0.984604 0.873655 0.817426
0.0137484 0.0131685 0.41178
0.0137484 0.0131685 0.411963
0.0828565 0.0130312 0.411948
0.411734 0.0123751 0.410712
0.750607 0.0115816 0.413718
0.953048 0.0110475 0.43331
0.968429 0.467613 0.492348
0.980316 0.769299 0.629435
0.984619 0.874052 0.817288
0.016144 0.0720378 0.408392
0.0163729 0.0773785 0.408591
0.116533 0.0725109 0.408499
0.417334 0.0123598 0.407248
0.744717 0.0115969 0.410208
0.953048 0.0110628 0.428565
0.969955 0.510231 0.487785
0.980545 0.774731 0.628168
0.984649 0.874662 0.817075
0.0283055 0.366781 0.387411
0.0283665 0.368338 0.387717
0.0284123 0.369345 0.388296
0.393729 0.365805 0.389899
0.736996 0.356313 0.393545
0.966384 0.40972 0.411093
0.973632 0.60647 0.473411
0.981155 0.789654 0.624353
0.984726 0.876524 0.816434
0.0439155 0.701335 0.304509
0.0439155 0.701274 0.305196
0.0439002 0.700969 0.306188
0.0437781 0.698695 0.309102
0.715724 0.689128 0.318776
0.949371 0.695338 0.349523
0.979339 0.745907 0.435584
0.982467 0.821897 0.613779
0.984939 0.881758 0.814389
0.0525673 0.873182 0.0180972
0.0525368 0.87245 0.0180972
0.0524758 0.871321 0.0180819
0.194919 0.867597 0.0181582
0.707912 0.857755 0.0185092
0.913191 0.848859 0.16733
0.983612 0.850523 0.357382
0.984329 0.867414 0.585061
0.985412 0.893599 0.808225
0.649531 0.920409 0.277409
0.662226 0.920012 0.278111
0.67985 0.919387 0.279164
0.72462 0.917662 0.282551
0.810346 0.913848 0.293477
0.910964 0.908568 0.326513
0.982971 0.904707 0.417914
0.985855 0.904921 0.608148
0.986099 0.910231 0.799649
0.886885 0.919432 0.684077
0.88806 0.919432 0.684199
0.889815 0.919432 0.684398
0.895048 0.919417 0.684993
0.909209 0.919387 0.686915
0.938582 0.919326 0.693004
0.975464 0.919219 0.711147
0.98645 0.919127 0.761196
0.986465 0.919005 0.850553
0.95996 0.91902 0.879194
0.960098 0.91902 0.87921
0.960296 0.91902 0.879225
0.960922 0.91902 0.879286
0.962814 0.91902 0.879499
0.967941 0.919005 0.880186
0.978332 0.918975 0.882322
0.986465 0.918959 0.888731
0.986465 0.918929 0.906523
0.0137636 0.0126802 0.725856
0.0137636 0.0126802 0.725933
0.0137636 0.0126802 0.726055
0.24567 0.0122072 0.725231
0.74078 0.0111086 0.721859
0.953063 0.0105898 0.726131
0.962127 0.284184 0.742977
0.979614 0.751888 0.78114
0.984543 0.872099 0.858427
0.0137636 0.0126802 0.7252
0.0137636 0.0126802 0.725277
0.0137636 0.0126802 0.725399
0.273045 0.0121614 0.724422
0.746395 0.0111086 0.721172
0.953063 0.0105898 0.725444
0.964141 0.343664 0.741726
0.979797 0.756237 0.780636
0.984558 0.872526 0.858335
0.0137636 0.0126802 0.724193
0.0137636 0.0126802 0.724269
0.0137636 0.0126802 0.724407
0.308186 0.0120851 0.723171
0.749615 0.0110933 0.720073
0.953063 0.0105898 0.7243
0.966461 0.411032 0.739742
0.980056 0.762493 0.779873
0.984588 0.873167 0.858198
0.0217899 0.209155 0.719066
0.0218967 0.211795 0.719081
0.022034 0.215091 0.719097
0.324102 0.206332 0.718135
0.751431 0.088304 0.71548
0.960067 0.222812 0.718685
0.971389 0.547723 0.733486
0.980758 0.779629 0.777661
0.984665 0.87509 0.857755
0.0420233 0.662943 0.689586
0.0420386 0.663218 0.689723
0.0420386 0.663279 0.689876
0.0419623 0.661768 0.690196
0.697841 0.652613 0.691524
0.940139 0.664927 0.696742
0.978637 0.728099 0.717113
0.982238 0.816083 0.771878
0.984894 0.880537 0.856397
0.05243 0.869032 0.646265
0.0523995 0.868315 0.646418
0.0523384 0.867185 0.646677
0.0521553 0.863645 0.647471
0.67985 0.853254 0.650645
0.903365 0.844068 0.661646
0.983474 0.846555 0.692424
0.984237 0.864897 0.758801
0.985382 0.892744 0.852445
0.645029 0.919295 0.551278
0.657725 0.918868 0.551629
0.675319 0.918242 0.552163
0.720027 0.916533 0.553887
0.805753 0.912764 0.559472
0.906416 0.907515 0.577111
0.978393 0.903685 0.62562
0.98584 0.904112 0.725582
0.986084 0.909804 0.84126
0.88957 0.919432 0.683757
0.890684 0.919432 0.683879
0.892378 0.919417 0.684077
0.897398 0.919417 0.684672
0.911055 0.919387 0.68661
0.93959 0.91931 0.692699
0.975784 0.919219 0.710887
0.98645 0.919127 0.761151
0.986465 0.919005 0.850416
0.960266 0.91902 0.879149
0.960403 0.91902 0.879164
0.960601 0.91902 0.879194
0.961212 0.91902 0.879255
0.963088 0.91902 0.879469
0.968154 0.919005 0.88014
0.978439 0.918975 0.882292
0.986465 0.918959 0.888701
0.986465 0.918929 0.906523
0.0137789 0.0123445 0.921965
0.0137789 0.0123445 0.921965
0.0137789 0.0123445 0.921981
0.0137789 0.0123445 0.922026
0.625742 0.0110628 0.916609
0.953063 0.0102693 0.911788
0.953063 0.0102693 0.912718
0.977127 0.690501 0.904601
0.984344 0.867201 0.914015
0.0137789 0.0123445 0.921889
0.0137789 0.0123445 0.921904
0.0137789 0.0123445 0.921904
0.0137789 0.0123445 0.92195
0.633738 0.0110475 0.916411
0.953063 0.0102693 0.911696
0.953063 0.0102693 0.912642
0.977462 0.698634 0.904112
0.984375 0.867689 0.913954
0.0137789 0.0123445 0.921767
0.0137789 0.0123445 0.921782
0.0137789 0.0123445 0.921798
0.0137789 0.0123445 0.921843
0.645548 0.011017 0.916121
0.953063 0.0102693 0.911574
0.953063 0.0102693 0.91252
0.97792 0.709957 0.90341
0.984405 0.868421 0.913878
0.0137789 0.0123445 0.921416
0.0137789 0.0123445 0.921416
0.0137789 0.0123445 0.921431
0.0137789 0.0123445 0.921233
0.674464 0.010956 0.915328
0.953063 0.0102693 0.911177
0.953063 0.0102693 0.910292
0.979095 0.73875 0.901518
0.984482 0.870634 0.913603
0.032517 0.462486 0.910567
0.032578 0.463813 0.910521
0.0326696 0.465827 0.91046
0.0328222 0.469566 0.90988
0.671412 0.457115 0.906661
0.968933 0.480491 0.902586
0.974884 0.635706 0.898207
0.981369 0.794385 0.897337
0.984741 0.876814 0.912825
0.0518349 0.856657 0.882597
0.0518196 0.856168 0.882551
0.0517739 0.855314 0.882475
0.0515908 0.851911 0.88217
0.601846 0.840665 0.881636
0.889906 0.83003 0.881529
0.982834 0.835172 0.883482
0.983978 0.85803 0.890959
0.98529 0.890425 0.910765
0.538567 0.918471 0.866361
0.560876 0.917937 0.866361
0.590295 0.917174 0.866361
0.656611 0.915084 0.866361
0.769085 0.910674 0.866499
0.887831 0.904875 0.867521
0.966934 0.901061 0.871656
0.985779 0.902144 0.882628
0.986053 0.908782 0.906203
0.882689 0.919249 0.827802
0.883818 0.919249 0.827848
0.885512 0.919234 0.827924
0.890562 0.919234 0.828168
0.904295 0.919203 0.828946
0.932616 0.919142 0.831449
0.969772 0.919051 0.839094
0.986465 0.91899 0.859205
0.986465 0.918944 0.894759
0.961227 0.91902 0.879042
0.961364 0.91902 0.879057
0.961547 0.91902 0.879072
0.962142 0.91902 0.879133
0.963943 0.91902 0.879347
0.968826 0.919005 0.880034
0.97879 0.918975 0.882185
0.986465 0.918959 0.888609
0.986465 0.918929 0.906508
0.0137789 0.012253 0.972732
0.0137789 0.012253 0.972732
0.0137789 0.012253 0.972732
0.0137789 0.012253 0.972732
0.0137789 0.012253 0.972732
0.943053 0.010193 0.973312
0.953079 0.0101625 0.973312
0.953079 0.0101625 0.973312
0.983474 0.845655 0.961257
0.0137789 0.012253 0.972732
0.0137789 0.012253 0.972732
0.0137789 0.012253 0.972732
0.0137789 0.012253 0.972732
0.0137789 0.012253 0.972732
0.944396 0.010193 0.973312
0.953079 0.0101625 0.973312
0.953079 0.0101625 0.973312
0.983505 0.84654 0.961196
0.0137789 0.012253 0.972732
0.0137789 0.012253 0.972732
0.0137789 0.012253 0.972732
0.0137789 0.012253 0.972732
0.0137789 0.012253 0.972732
0.94641 0.0101778 0.973312
0.953079 0.0101625 0.973312
0.953079 0.0101625 0.973312
0.983566 0.847868 0.961089
0.0137789 0.012253 0.972732
0.0137789 0.012253 0.972732
0.0137789 0.012253 0.972732
0.0137789 0.012253 0.972732
0.0137789 0.012253 0.972732
0.952483 0.0101778 0.973312
0.953079 0.0101625 0.973312
0.953079 0.0101625 0.973312
0.983719 0.851759 0.9608
0.0137789 0.012253 0.972732
0.0137789 0.012253 0.972732
0.0137789 0.012253 0.972732
0.0137789 0.012253 0.972732
0.224094 0.011841 0.972839
0.953079 0.0101625 0.973312
0.953079 0.0101625 0.973312
0.971832 0.558968 0.973129
0.984146 0.862058 0.960006
0.046479 0.750301 0.969253
0.046479 0.750591 0.969238
0.0465095 0.751034 0.969207
0.0465858 0.752422 0.969116
0.0463722 0.748287 0.967803
0.893172 0.735348 0.96492
0.980087 0.76289 0.962234
0.982666 0.825971 0.958953
0.98497 0.8822 0.958328
0.0550851 0.920562 0.953536
0.0550851 0.920562 0.953475
0.0550698 0.920256 0.953368
0.054902 0.917098 0.953063
0.665797 0.908537 0.952712
0.864698 0.899901 0.952163
0.961227 0.895521 0.952102
0.985611 0.897795 0.952895
0.985946 0.906233 0.955856
0.855955 0.919142 0.946456
0.85745 0.919142 0.946456
0.859678 0.919127 0.946456
0.866316 0.919112 0.946441
0.884047 0.919081 0.946441
0.918944 0.91902 0.946487
0.961639 0.918929 0.946868
0.986465 0.918868 0.948501
0.986465 0.918868 0.952819
0.958236 0.918959 0.931365
0.958358 0.918959 0.93138
0.958556 0.918959 0.93138
0.959152 0.918959 0.931411
0.960937 0.918944 0.931502
0.96582 0.918944 0.931777
0.97583 0.918914 0.932692
0.986465 0.918898 0.9355
0.986465 0.918883 0.94342
0.01738 0.100191 0.973053
0.01738 0.100191 0.973053
0.01738 0.100191 0.973053
0.01738 0.100191 0.973053
0.01738 0.100237 0.973053
0.01738 0.100328 0.973053
0.953079 0.0101625 0.973312
0.960403 0.2318 0.974136
0.974548 0.627161 0.975738
0.0173648 0.100175 0.973053
0.0173648 0.100175 0.973053
0.0173648 0.100175 0.973053
0.01738 0.100191 0.973053
0.01738 0.100221 0.973053
0.01738 0.100313 0.973053
0.953079 0.0101625 0.973312
0.960403 0.23209 0.974136
0.974548 0.627131 0.975738
0.0173648 0.100145 0.973053
0.0173648 0.100145 0.973053
0.0173648 0.10016 0.973053
0.0173648 0.100175 0.973053
0.01738 0.100191 0.973053
0.01738 0.100282 0.973053
0.953079 0.0101625 0.973312
0.960418 0.232547 0.974136
0.974548 0.6271 0.975738
0.0173648 0.100069 0.973053
0.0173648 0.100069 0.973053
0.0173648 0.100084 0.973053
0.0173648 0.100099 0.973053
0.0173648 0.10013 0.973053
0.01738 0.100221 0.973053
0.953079 0.0101625 0.973312
0.960464 0.233951 0.974151
0.974533 0.627008 0.975723
0.0173648 0.0998398 0.973053
0.0173648 0.0998398 0.973053
0.0173648 0.099855 0.973053
0.0173648 0.099855 0.973053
0.0173648 0.0998856 0.973053
0.0173648 0.0999924 0.973053
0.953079 0.0101625 0.973312
0.960555 0.2365 0.974151
0.974517 0.626673 0.975723
0.0173342 0.0990921 0.973053
0.0173342 0.0991073 0.973053
0.0173342 0.0990921 0.973053
0.0173342 0.0991073 0.973053
0.0173342 0.0991379 0.973053
0.698451 0.0107881 0.973144
0.953079 0.0101625 0.973312
0.960693 0.24065 0.974166
0.981613 0.800137 0.976532
0.0534524 0.888334 0.976333
0.0534524 0.888365 0.976333
0.0534524 0.888411 0.976333
0.0534676 0.888563 0.976333
0.0534829 0.889052 0.976349
0.730632 0.867979 0.976669
0.963043 0.860212 0.976791
0.984497 0.870741 0.976852
0.985458 0.894301 0.976959
0.715602 0.919371 0.976883
0.721828 0.919356 0.976883
0.730785 0.919341 0.976898
0.755535 0.919295 0.976913
0.81001 0.919188 0.976944
0.886748 0.919036 0.977005
0.95317 0.918898 0.97705
0.986465 0.918837 0.977066
0.986465 0.918837 0.977066
0.948882 0.918914 0.97554
0.94905 0.918914 0.97554
0.949294 0.918914 0.97554
0.950072 0.918914 0.97554
0.952407 0.918898 0.975525
0.958648 0.918898 0.975525
0.970962 0.918868 0.975525
0.985031 0.918837 0.975631
0.986465 0.918837 0.976089
0.0259098 0.308034 0.973831
0.0259098 0.308034 0.973831
0.0259098 0.308034 0.973831
0.0259098 0.308034 0.973831
0.0259098 0.308049 0.973831
0.0259098 0.30808 0.973831
0.0259251 0.308171 0.973831
0.96405 0.340673 0.974548
0.976226 0.668498 0.975921
0.0259098 0.308034 0.973831
0.0259098 0.308034 0.973831
0.0259098 0.308034 0.973831
0.0259098 0.308034 0.973831
0.0259098 0.308049 0.973831
0.0259098 0.30808 0.973831
0.0259098 0.308171 0.973831
0.964065 0.340825 0.974548
0.976242 0.668544 0.975921
0.0259098 0.308019 0.973831
0.0259098 0.308019 0.973831
0.0259098 0.308019 0.973831
0.0259098 0.308034 0.973831
0.0259098 0.308034 0.973831
0.0259098 0.308064 0.973831
0.0259098 0.308171 0.973831
0.964065 0.34107 0.974548
0.976242 0.668589 0.975921
0.0259098 0.307988 0.973831
0.0259098 0.307988 0.973831
0.0259098 0.307988 0.973831
0.0259098 0.308003 0.973831
0.0259098 0.308019 0.973831
0.0259098 0.308049 0.973831
0.0259098 0.308141 0.973831
0.964096 0.341848 0.974563
0.976242 0.668742 0.975921
0.0259098 0.307912 0.973831
0.0259098 0.307912 0.973831
0.0259098 0.307927 0.973831
0.0259098 0.307927 0.973831
0.0259098 0.307927 0.973831
0.0259098 0.307958 0.973831
0.0259098 0.308064 0.973831
0.964187 0.344305 0.974563
0.976257 0.66923 0.975921
0.0258946 0.307668 0.973831
0.0258946 0.307668 0.973831
0.0258946 0.307668 0.973831
0.0258946 0.307668 0.973831
0.0258946 0.307683 0.973831
0.0258946 0.307713 0.973831
0.0258183 0.30576 0.973831
0.964446 0.352026 0.974594
0.976303 0.670085 0.975921
0.025864 0.306859 0.973831
0.025864 0.306859 0.973831
0.025864 0.306859 0.973831
0.025864 0.306874 0.973831
0.025864 0.306874 0.973831
0.025864 0.306905 0.973831
0.953079 0.0101625 0.973312
0.965057 0.36997 0.97467
0.976364 0.67155 0.975937
0.0550851 0.920531 0.976486
0.0550851 0.920531 0.976486
0.0550851 0.920531 0.976486
0.0550851 0.920531 0.976486
0.0550851 0.920531 0.976486
0.0550851 0.920531 0.976486
0.904921 0.910246 0.976974
0.985992 0.907088 0.97702
0.986145 0.910826 0.977035
0.90193 0.919005 0.97702
0.902525 0.919005 0.97702
0.90341 0.919005 0.97702
0.906111 0.91899 0.97702
0.913878 0.918975 0.97702
0.932067 0.918944 0.977035
0.959838 0.918883 0.97705
0.982132 0.918853 0.977066
0.986465 0.918837 0.977066
