BBLuts/BB_102_0620_LUT.cube
TITLE "Generated by Resolve"
LUT_3D_SIZE 33
0 0 0
0 0 0
0 0 0
0 0 0
0 0 0
0 0 0
0.0467231 0 0
0.0838483 0 0
0.121569 0 0
0.167559 0 0
0.223377 0 0
0.285863 0 0
0.357275 0 0
0.435737 0 0
0.524132 0 0
0.614969 0 0
0.701671 0 0
0.782956 0 0
0.853559 0 0
0.909026 0 0
0.919676 0 0
0.919676 0 0
0.926055 0.102586 0
0.924422 0.313664 0.0210574
0.915373 0.459892 0.0489204
0.906844 0.583551 0.0837262
0.897444 0.690471 0.130327
0.889708 0.775174 0.206165
0.883833 0.835492 0.30013
0.879179 0.879454 0.393256
0.875227 0.911727 0.487404
0.871946 0.935836 0.576226
0.869032 0.955276 0.649958
0 0 0
0 0 0
0 0 0
0 0 0
0 0 0
0.00538643 0 0
0.0502937 0 0
0.0867781 0 0
0.126299 0 0
0.173281 0 0
0.229343 0 0
0.291112 0 0
0.360479 0 0
0.437781 0 0
0.525872 0 0
0.616098 0 0
0.702327 0 0
0.783246 0 0
0.853483 0 0
0.90866 0 0
0.919676 0 0
0.919676 0 0
0.926818 0.140932 0
0.923125 0.330159 0.0174716
0.914641 0.469688 0.0468147
0.906218 0.590005 0.0822919
0.897017 0.694591 0.128603
0.889494 0.777508 0.205173
0.883726 0.836759 0.299565
0.879133 0.880186 0.392935
0.875196 0.912139 0.487205
0.871931 0.936095 0.576104
0.869017 0.955413 0.649897
0 0 0
0 0 0
0 0 0
0 0 0
0 0 0
0.0117189 0 0
0.0515297 0 0
0.0895857 0 0
0.131228 0 0
0.178637 0 0
0.23389 0 0
0.293919 0 0
0.363134 0 0
0.439979 0 0
0.527611 0 0
0.617197 0 0
0.702968 0 0
0.78352 0 0
0.853361 0 0
0.908278 0 0
0.919676 0 0
0.919676 0 0
0.926085 0.172168 0
0.921828 0.345708 0.0135653
0.913909 0.47921 0.0446326
0.905608 0.596307 0.0808423
0.89659 0.698619 0.126955
0.889296 0.779797 0.204166
0.883635 0.83801 0.299031
0.879088 0.880919 0.392615
0.875181 0.912535 0.487007
0.871916 0.936324 0.575982
0.869017 0.955566 0.649821
0 0 0
0 0 0
0 0 0
0 0 0
0 0 0
0.0165103 0 0
0.0520943 0 0
0.0898451 0 0
0.132082 0 0
0.180804 0 0
0.236835 0 0
0.296468 0 0
0.365698 0 0
0.442222 0 0
0.529381 0 0
0.618341 0 0
0.703609 0 0
0.78378 0 0
0.853239 0 0
0.907866 0 0
0.919676 0 0
0.919676 0 0
0.925887 0.200687 0
0.920516 0.360403 0.00926223
0.913146 0.488457 0.0423896
0.904997 0.602457 0.079408
0.896193 0.702556 0.126116
0.889097 0.78204 0.203174
0.883543 0.839231 0.298466
0.879026 0.881636 0.392294
0.875151 0.912932 0.486809
0.871885 0.936584 0.575875
0.869001 0.955718 0.64976
0 0 0
0 0 0
0 0.00215152 0
0 0.00468452 0
0 0.00567636 0
0.00444038 0.00418097 0
0.0437781 0.00144961 0
0.0836652 0 0
0.128527 0 0
0.181765 0 0
0.238544 0 0
0.298787 0 0
0.368185 0 0
0.44448 0 0
0.531197 0 0
0.619501 0 0
0.70425 0 0
0.783993 0 0
0.853086 0 0
0.907439 0 0
0.919676 0 0
0.920958 0 0
0.925368 0.226291 0
0.919173 0.374289 0.00447089
0.912398 0.497398 0.0400702
0.904402 0.608469 0.0779583
0.895811 0.706401 0.125277
0.888899 0.784268 0.202197
0.883452 0.840436 0.297902
0.878981 0.882353 0.391959
0.87512 0.913314 0.48661
0.87187 0.936828 0.575753
0.868986 0.955856 0.649699
0 0.0269017 0
0 0.0290837 0
0 0.03122 0
0 0.032929 0
0 0.0337224 0
0 0.033402 0
0.0345769 0.0316167 0
0.0771191 0.0290532 0
0.123308 0.0239872 0
0.176593 0.0142061 0
0.235828 0 0
0.300847 0 0
0.370703 0 0
0.446891 0 0
0.533135 0 0
0.620722 0 0
0.70489 0 0
0.784222 0 0
0.852934 0 0
0.906966 0 0
0.919676 0 0
0.923613 0.0672313 0
0.924605 0.250156 0
0.917678 0.387915 0
0.91162 0.506447 0.0375677
0.903777 0.614618 0.0764172
0.895415 0.710307 0.124437
0.888701 0.786511 0.20116
0.88336 0.841703 0.297337
0.878935 0.883085 0.391638
0.87509 0.913741 0.486397
0.871855 0.937072 0.575616
0.868971 0.956008 0.649622
0 0.058793 0
0 0.0606394 0
0 0.0624552 0
0 0.0634775 0
0 0.0641337 0
0 0.0643778 0
0.0175937 0.0631266 0
0.0672313 0.0616159 0
0.116457 0.0587015 0
0.171984 0.0530098 0
0.232334 0.042649 0
0.297414 0.026154 0
0.370367 0 0
0.449973 0 0
0.535637 0 0
0.622309 0 0
0.705745 0 0
0.784527 0 0
0.852689 0 0
0.90634 0 0
0.919676 0 0
0.925216 0.12636 0
0.923339 0.277806 0
0.915511 0.403632 0
0.910613 0.517647 0.034226
0.903014 0.622324 0.0744793
0.894926 0.715221 0.123384
0.888457 0.789364 0.199863
0.883238 0.84329 0.296605
0.878874 0.884016 0.391196
0.875059 0.91426 0.486152
0.871839 0.937407 0.575448
0.868971 0.956207 0.649516
0 0.0954147 0
0 0.0970321 0
0 0.0982528 0
0 0.0990616 0
0 0.0996262 0
0 0.0999466 0
0 0.100008 0
0.0493172 0.0985733 0
0.105028 0.0969406 0
0.163546 0.0929274 0
0.22678 0.0854505 0
0.29543 0.0745098 0
0.37023 0.0587167 0
0.449134 0.0336004 0
0.536751 0 0
0.624445 0 0
0.706905 0 0
0.784924 0 0
0.852369 0 0
0.90547 0 0
0.922103 0.0218509 0
0.926055 0.183185 0
0.921355 0.310246 0
0.913237 0.423056 0
0.909285 0.531792 0.0295415
0.902007 0.63209 0.07187
0.894301 0.721508 0.122042
0.888136 0.793027 0.198154
0.883085 0.84535 0.295644
0.878782 0.885237 0.390646
0.875013 0.914946 0.485801
0.871809 0.937819 0.575235
0.868955 0.956466 0.649409
0 0.139116 0
0 0.140383 0
0 0.141085 0
0 0.141802 0
0 0.142306 0
0 0.142641 0
0 0.14287 0
0.00863661 0.142473 0
0.0837568 0.140826 0
0.148241 0.137819 0
0.21651 0.132601 0
0.290211 0.124544 0
0.369528 0.113237 0
0.451209 0.0976272 0
0.538323 0.0767071 0
0.624521 0.0484169 0
0.707439 0.00656138 0
0.785443 0 0
0.851865 0 0
0.906615 0.0281071 0
0.925383 0.135668 0
0.92488 0.242527 0
0.918715 0.348043 0
0.911498 0.448203 0
0.907515 0.549401 0.0228275
0.90074 0.644266 0.0684215
0.893523 0.729442 0.120317
0.887739 0.797681 0.195926
0.882887 0.84802 0.294362
0.878676 0.886809 0.389899
0.874952 0.915846 0.485344
0.871778 0.938384 0.574945
0.868925 0.956802 0.649241
0 0.190127 0
0 0.190539 0
0 0.190936 0
0 0.191257 0
0 0.19147 0
0 0.191516 0
0 0.191409 0
0 0.191058 0
0.0430304 0.190814 0
0.123232 0.189624 0
0.198917 0.186389 0
0.279133 0.18056 0
0.36495 0.171939 0
0.451972 0.160479 0
0.541207 0.147601 0
0.627115 0.133425 0
0.709621 0.119554 0
0.787533 0.109483 0
0.854597 0.117494 0
0.907851 0.157351 0
0.92546 0.222766 0
0.921798 0.303822 0
0.915526 0.391592 0
0.909453 0.478767 0
0.905135 0.570962 0.0126802
0.899123 0.659541 0.063859
0.892576 0.739376 0.118212
0.887236 0.80354 0.193042
0.882643 0.851423 0.292699
0.878538 0.888853 0.388922
0.874876 0.917021 0.484733
0.871733 0.939116 0.574563
0.868894 0.957229 0.649027
0 0.247227 0
0 0.247639 0
0 0.248066 0
0 0.248371 0
0 0.248585 0
0 0.248737 0
0 0.248783 0
0 0.248676 0
0 0.248234 0
0.0797894 0.249928 0
0.169757 0.248997 0
0.259113 0.245518 0
0.353491 0.239475 0
0.448096 0.231662 0
0.54165 0.223117 0
0.628611 0.215381 0
0.710567 0.210407 0
0.787427 0.210651 0
0.85272 0.223667 0
0.90338 0.256245 0
0.92166 0.30573 0
0.91725 0.368154 0
0.912154 0.438651 0
0.906767 0.515068 0
0.901518 0.596384 0
0.897108 0.678492 0.0577707
0.891432 0.751553 0.115648
0.886625 0.810803 0.189303
0.882322 0.855756 0.290532
0.878355 0.891447 0.387655
0.874784 0.918517 0.48394
0.871672 0.940063 0.574075
0.868864 0.957794 0.648753
0 0.316075 0
0 0.316487 0
0 0.316869 0
0 0.317174 0
0 0.317418 0
0 0.317601 0
0 0.317739 0
0 0.3178 0
0 0.317647 0
0 0.318975 0
0.119738 0.321935 0
0.225422 0.321141 0
0.331197 0.317968 0
0.435279 0.31339 0
0.535027 0.307973 0
0.625818 0.303761 0
0.708156 0.303227 0
0.783185 0.308217 0
0.84564 0.322637 0
0.893782 0.349248 0
0.915846 0.387259 0
0.912459 0.434256 0
0.908522 0.491814 0
0.903395 0.556909 0
0.897261 0.626642 0
0.894682 0.701091 0.049897
0.890089 0.766171 0.112627
0.885908 0.819577 0.188586
0.881941 0.861189 0.287709
0.878141 0.894728 0.385977
0.874662 0.920455 0.482872
0.87158 0.941283 0.573419
0.868803 0.958541 0.648386
0 0.398993 0
0 0.399359 0
0 0.39968 0
0 0.399939 0
0 0.400137 0
0 0.40032 0
0 0.400504 0
0 0.400641 0
0 0.400763 0
0 0.400854 0
0.00550851 0.404913 0
0.168841 0.40856 0
0.294316 0.407935 0
0.410544 0.405447 0
0.518151 0.402136 0
0.615 0.399512 0
0.700679 0.399802 0
0.775143 0.404852 0
0.835508 0.416846 0
0.882368 0.437385 0
0.910307 0.466239 0
0.907652 0.503624 0
0.903944 0.550179 0
0.89929 0.60415 0
0.893935 0.662928 0
0.891981 0.726955 0.0399481
0.888579 0.783246 0.109285
0.885069 0.829969 0.188067
0.881468 0.867857 0.284047
0.877867 0.898833 0.38381
0.87451 0.922942 0.481498
0.871489 0.942855 0.572549
0.868742 0.959503 0.647898
0 0.490211 0
0 0.490517 0
0 0.490791 0
0 0.491005 0
0 0.491188 0
0 0.491371 0
0 0.491554 0
0 0.491722 0
0 0.491844 0
0 0.49189 0
0 0.491722 0
0.0646982 0.498375 0
0.238605 0.500267 0
0.374441 0.498238 0
0.491554 0.495491 0
0.596674 0.49308 0
0.68867 0.493217 0
0.765637 0.497505 0
0.824842 0.507561 0
0.869886 0.524086 0
0.904204 0.547082 0
0.901778 0.57583 0
0.898543 0.612497 0
0.894621 0.655421 0
0.890227 0.703624 0
0.889052 0.755489 0.0275883
0.886946 0.802533 0.105913
0.884138 0.84213 0.187884
0.880919 0.875898 0.279927
0.877546 0.903822 0.381003
0.874311 0.92604 0.479713
0.871351 0.944839 0.57142
0.868666 0.960723 0.647257
0 0.585046 0
0 0.585214 0
0 0.585367 0
0 0.585489 0
0 0.585595 0
0 0.585687 0
0 0.585763 0
0 0.58584 0
0 0.585855 0
0 0.585779 0
0 0.585534 0
0 0.584939 0
0.151171 0.592615 0
0.32517 0.591791 0
0.45539 0.589853 0
0.570047 0.587701 0
0.669581 0.587259 0
0.750683 0.590143 0
0.810788 0.597436 0
0.854749 0.609781 0
0.889326 0.627237 0
0.895247 0.648722 0
0.892683 0.676387 0
0.889708 0.709514 0
0.886625 0.745769 0
0.885985 0.78555 0.0124514
0.885267 0.823407 0.10309
0.88307 0.856138 0.188266
0.880217 0.885237 0.281361
0.877165 0.909804 0.377401
0.874067 0.9299 0.477333
0.871199 0.947356 0.56994
0.868559 0.962264 0.646418
0 0.67715 0
0 0.677226 0
0 0.677272 0
0 0.677317 0
0 0.677333 0
0 0.677363 0
0 0.677378 0
0 0.677333 0
0 0.677272 0
0 0.677089 0
0 0.676722 0
0 0.676051 0
0 0.678996 0
0.256397 0.683116 0
0.411383 0.681361 0
0.537133 0.679026 0
0.644068 0.677714 0
0.7299 0.679026 0
0.792279 0.683665 0
0.837064 0.691951 0
0.871107 0.704143 0
0.888808 0.719844 0
0.88719 0.738918 0
0.885359 0.761624 0
0.883391 0.787137 0
0.882658 0.815335 0
0.883635 0.845212 0.101701
0.881926 0.871778 0.189715
0.879423 0.895872 0.283665
0.876722 0.916716 0.3738
0.873777 0.93463 0.474281
0.871 0.950454 0.567956
0.868437 0.964202 0.645304
0 0.765789 0
0 0.765774 0
0 0.765759 0
0 0.765728 0
0 0.765698 0
0 0.765637 0
0 0.76556 0
0 0.765454 0
0 0.76524 0
0 0.764935 0
0 0.764385 0
0 0.763531 0
0 0.762203 0
0.16437 0.769375 0
0.362264 0.767315 0
0.501442 0.76408 0
0.615915 0.761135 0
0.705791 0.760403 0
0.770947 0.762127 0
0.818036 0.766278 0
0.853361 0.772976 0
0.879316 0.782589 0
0.882872 0.794308 0
0.881849 0.808698 0
0.880705 0.825299 0
0.879515 0.843595 0
0.882033 0.867903 0.102602
0.88072 0.888518 0.193011
0.878538 0.907515 0.287343
0.876112 0.924575 0.376989
0.873442 0.940246 0.470268
0.870771 0.954192 0.565393
0.868269 0.966613 0.643854
0 0.839582 0
0 0.839506 0
0 0.839414 0
0 0.839323 0
0 0.8392 0
0 0.839094 0
0 0.838941 0
0 0.838712 0
0 0.838376 0
0 0.837903 0
0 0.837186 0
0 0.836103 0
0 0.834592 0
0.0629587 0.838895 0
0.322423 0.837324 0
0.473243 0.8327 0
0.593072 0.828046 0
0.684489 0.825452 0
0.751095 0.824979 0
0.800427 0.826154 0
0.837491 0.828962 0
0.864271 0.833722 0
0.879728 0.840223 0
0.879179 0.848737 0
0.878492 0.859434 0
0.878035 0.87245 0
0.880507 0.890532 0.107424
0.879484 0.905623 0.199176
0.877607 0.919722 0.292988
0.875395 0.933471 0.381491
0.872969 0.946654 0.470192
0.870497 0.958633 0.562051
0.868086 0.969558 0.641932
0 0.894987 0
0 0.89485 0
0 0.894713 0
0 0.894575 0
0 0.894423 0
0 0.89424 0
0 0.894026 0
0 0.893721 0
0 0.893309 0
0 0.892699 0
0 0.891829 0
0 0.890669 0
0 0.889082 0
0.0102541 0.891279 0
0.307347 0.889509 0
0.460792 0.883772 0
0.580209 0.878096 0
0.669871 0.874403 0
0.735409 0.872679 0
0.785397 0.872221 0
0.823545 0.872923 0
0.851575 0.874998 0
0.873838 0.878553 0
0.876997 0.883452 0
0.876585 0.890074 0
0.877989 0.900374 0.0112306
0.879133 0.911894 0.118181
0.878279 0.922148 0.20943
0.8766 0.932494 0.301244
0.874601 0.943191 0.387823
0.872374 0.95375 0.47509
0.870176 0.963714 0.559075
0.867857 0.973083 0.639414
0 0.937438 0
0 0.937255 0
0 0.937087 0
0 0.936889 0
0 0.936706 0
0 0.936507 0
0 0.936233 0
0 0.935866 0
0 0.935363 0
0 0.934707 0
0 0.933822 0
0 0.932631 0
0 0.93106 0
0.0812848 0.933608 0
0.32192 0.929091 0
0.465843 0.922774 0
0.577371 0.916732 0
0.661616 0.912566 0
0.724117 0.910155 0
0.773007 0.908812 0
0.811093 0.908339 0
0.840101 0.908766 0
0.863035 0.910124 0
0.875181 0.91249 0
0.874952 0.916075 0
0.877409 0.92401 0.0446174
0.877882 0.931182 0.136751
0.877028 0.93817 0.224704
0.875517 0.945541 0.312291
0.873716 0.953414 0.396612
0.871687 0.961395 0.481773
0.869688 0.969223 0.563897
0.867597 0.977172 0.636103
0 0.968231 0
0 0.968017 0
0 0.967819 0
0 0.967605 0
0 0.967391 0
0 0.967178 0
0 0.966888 0
0 0.966491 0
0 0.966003 0
0 0.965331 0
0 0.964446 0
0 0.963272 0
0 0.961761 0
0.202579 0.963149 0
0.367605 0.957061 0
0.489937 0.950729 0
0.586023 0.945022 0
0.661082 0.940948 0
0.718578 0.938338 0
0.764965 0.936614 0
0.801526 0.935531 0
0.830549 0.935073 0
0.854139 0.935271 0
0.872633 0.936263 0
0.873549 0.938003 0
0.876631 0.944671 0.0826886
0.876631 0.94902 0.163851
0.875761 0.953445 0.246067
0.874388 0.958282 0.327718
0.872786 0.963653 0.408637
0.870954 0.969284 0.490867
0.869139 0.975265 0.57026
0.867231 0.981659 0.639155
0 0.991287 0
0 0.991073 0
0 0.990875 0
0 0.990662 0
0 0.990448 0
0 0.990234 0
0 0.989944 0
0 0.989563 0
0 0.989075 0
0 0.988449 0
0 0.987594 0
0 0.986496 0
0.179751 0.987732 0
0.322744 0.982635 0
0.432776 0.977172 0
0.526131 0.971572 0
0.603632 0.966766 0
0.666758 0.963241 0
0.717906 0.960754 0
0.760494 0.958923 0
0.794598 0.957641 0
0.82266 0.956786 0
0.846098 0.956344 0
0.864576 0.956466 0
0.875029 0.960204 0.0477913
0.875669 0.962631 0.126604
0.875334 0.964828 0.199863
0.874449 0.967254 0.274464
0.873228 0.970092 0.34844
0.871778 0.97348 0.424796
0.870146 0.97731 0.502983
0.868528 0.981628 0.578607
0.866789 0.986526 0.64416
0 1 0
0 1 0
0 1 0
0 1 0
0 1 0
0 1 0
0 1 0
0 1 0
0 1 0
0.0822919 1 0
0.187533 1 0
0.27628 1 0
0.355673 0.999725 0
0.431662 0.995666 0
0.503502 0.991272 0
0.569024 0.987015 0
0.627695 0.983413 0
0.678004 0.980606 0
0.722011 0.978378 0
0.75967 0.976623 0
0.790616 0.97528 0
0.817121 0.974227 0
0.839597 0.973449 0
0.860456 0.975952 0.0387274
0.874571 0.976928 0.110826
0.87454 0.977508 0.176974
0.873976 0.97821 0.243091
0.873106 0.979278 0.3093
0.872038 0.980819 0.375372
0.870726 0.982788 0.445869
0.869276 0.985168 0.518593
0.867887 0.988052 0.589364
0.866346 0.991547 0.65066
0.210025 1 0
0.226978 1 0
0.242802 1 0
0.257633 1 0
0.27158 1 0
0.285328 1 0
0.301625 1 0
0.320974 1 0
0.344533 1 0
0.372488 1 0
0.405005 1 0
0.441749 1 0
0.482322 1 0
0.52549 1 0
0.569726 1 0
0.613626 0.998489 0
0.655085 0.996048 0
0.694224 0.993896 0
0.730297 0.992081 0
0.762173 0.990539 0
0.791287 0.991257 0.00973526
0.816587 0.991226 0.045594
0.838071 0.99089 0.0780652
0.855863 0.990646 0.122805
0.870848 0.990311 0.175616
0.873213 0.989822 0.232029
0.872572 0.989624 0.290959
0.871748 0.989776 0.348592
0.870787 0.990341 0.408804
0.869627 0.991241 0.472526
0.868376 0.992493 0.538506
0.867216 0.994232 0.602975
0.865858 0.996551 0.65893
0.460288 1 0.104692
0.465766 1 0.104631
0.471092 1 0.104585
0.476295 1 0.10454
0.481361 1 0.104509
0.486519 1 0.104479
0.492973 1 0.104463
0.501198 1 0.104448
0.511543 1 0.104448
0.524163 1 0.104494
0.539544 1 0.104631
0.558068 1 0.104921
0.579675 1 0.105486
0.604044 1 0.106477
0.630503 1 0.108125
0.658473 1 0.110674
0.687663 1 0.114397
0.716945 1 0.119631
0.745068 1 0.126772
0.770748 1 0.136248
0.79443 1 0.148547
0.816159 1 0.164157
0.835218 1 0.183566
0.851514 1 0.207462
0.865156 1 0.245182
0.871778 0.99971 0.291554
0.871153 0.998993 0.340291
0.870405 0.99855 0.392569
0.869505 0.998367 0.447608
0.868498 0.998505 0.504829
0.86746 0.998962 0.563333
0.866117 0.999878 0.619638
0.865385 1 0.669245
0.58909 1 0.226398
0.591531 1 0.226429
0.593927 1 0.226459
0.596262 1 0.226505
0.598566 1 0.226551
0.600946 1 0.226581
0.603937 1 0.226673
0.607767 1 0.226749
0.61268 1 0.226902
0.61886 1 0.2271
0.626581 1 0.22739
0.636103 1 0.227817
0.647745 1 0.228428
0.661631 1 0.229328
0.678065 1 0.230915
0.69633 1 0.232776
0.716152 1 0.235386
0.736889 1 0.238972
0.757534 1 0.243809
0.777737 1 0.250233
0.797559 1 0.258579
0.816236 1 0.269352
0.83299 1 0.283085
0.847852 1 0.300298
0.860716 1 0.320485
0.870329 1 0.35288
0.86978 1 0.394125
0.869078 1 0.440421
0.868254 1 0.49012
0.867399 1 0.541054
0.86659 1 0.59176
0.865461 1 0.639216
0.864912 1 0.68159
0.667155 1 0.335241
0.668376 1 0.335302
0.669581 1 0.335378
0.670787 1 0.335439
0.671977 1 0.3355
0.673198 1 0.335561
0.674754 1 0.335653
0.676783 1 0.33576
0.679408 1 0.335912
0.68278 1 0.336126
0.687083 1 0.336416
0.692515 1 0.336782
0.699229 1 0.337316
0.707439 1 0.338033
0.717235 1 0.33901
0.728618 1 0.340337
0.741375 1 0.342153
0.755169 1 0.344579
0.770062 1 0.347814
0.785779 1 0.352102
0.802014 1 0.358053
0.817517 1 0.365438
0.831891 1 0.375006
0.845197 1 0.387289
0.856916 1 0.402808
0.867124 1 0.422156
0.868345 1 0.453132
0.86775 1 0.492103
0.867063 1 0.534874
0.866377 1 0.579477
0.865354 1 0.621958
0.864851 1 0.66096
0.864469 1 0.695811
0.720119 1 0.435874
0.72076 1 0.435935
0.721416 1 0.435996
0.722042 1 0.436057
0.722683 1 0.436103
0.723339 1 0.436149
0.724163 1 0.43624
0.725246 1 0.436347
0.726665 1 0.436484
