BBLuts/BB_104_0220_LUT.cube
TITLE "Generated by Resolve"
LUT_3D_SIZE 9
0 0 0
0.00306706 0 0
0.292073 0 0
0.653101 0 0
0.949645 0 0
1 0 0
1 0.634379 0.012314
1 0.866606 0.480339
1 0.951003 0.773159
0 0.0726787 0
0 0.0880446 0
0.27921 0.0577859 0
0.661128 0 0
0.951904 0 0
1 0 0
1 0.650813 0
1 0.868391 0.478752
1 0.951156 0.773053
0 0.312337 0
0 0.317662 0
0.174533 0.317006 0
0.507195 0.309514 0
0.918379 0.124132 0
0.925582 0.37731 0
1 0.674754 0
1 0.87126 0.476188
1 0.9514 0.772854
0 0.62414 0
0 0.624796 0
0 0.625513 0
0.492088 0.612757 0
0.853025 0.587732 0
1 0.609552 0
1 0.741985 0
1 0.88159 0.47306
1 0.952468 0.771954
0 0.859449 0
0 0.859449 0
0 0.859236 0
0 0.857481 0
0.75697 0.825513 0
1 0.814496 0
1 0.852201 0
1 0.90782 0.480537
1 0.956298 0.768688
0 0.999603 0
0 0.999603 0
0 0.999603 0
0 0.996307 0
0.703059 0.96556 0
0.944579 0.944396 0
1 0.940581 0
1 0.946761 0.513573
1 0.966659 0.769284
0.614557 1 0.181384
0.614557 1 0.181384
0.614557 1 0.181384
0.614527 1 0.181399
0.77818 1 0.198352
0.919783 0.993088 0.26128
1 0.982345 0.420233
1 0.979248 0.605493
1 0.981567 0.79556
0.883803 1 0.683085
0.883803 1 0.683101
0.883803 1 0.683101
0.883803 1 0.683101
0.883803 1 0.683101
0.932708 0.997482 0.687282
0.983658 0.994171 0.704662
1 0.992187 0.755627
0.998734 0.990677 0.851164
0.963165 0.992309 0.885817
0.963165 0.992309 0.885817
0.963165 0.992309 0.885817
0.963165 0.992309 0.885817
0.963165 0.992309 0.885817
0.963149 0.992309 0.885817
0.98146 0.991104 0.887449
0.997681 0.989944 0.893919
0.997208 0.989609 0.913008
0 0 0.090074
0 0 0.0909285
0.286442 0 0.0927138
0.652873 0 0.0836805
0.950591 0 0.0713054
1 0 0.0650339
1 0.636515 0.0499886
1 0.86659 0.480354
1 0.950988 0.773175
0 0.0280156 0.0675059
0.0307927 0.0506905 0.0637522
0.309316 0 0.0804913
0.656107 0 0.0650187
0.952789 0 0.010544
1 0 0.00521859
1 0.649577 0.025864
1 0.868376 0.478782
1 0.951156 0.773053
0 0.296971 0
0 0.301381 0
0.203265 0.301045 0
0.48864 0.300908 0
0.925353 0.0762493 0
0.95697 0.347234 0
1 0.673228 0
1 0.87126 0.476188
1 0.951385 0.772854
0 0.621027 0
0 0.621607 0
0 0.622187 0
0.505348 0.608515 0
0.852415 0.585092 0
1 0.607309 0
1 0.741253 0
1 0.88159 0.47306
1 0.952468 0.771954
0 0.858122 0
0 0.858122 0
0 0.857893 0
0 0.856168 0
0.759289 0.824369 0
1 0.813764 0
1 0.851957 0
1 0.90782 0.480537
1 0.956298 0.768688
0 0.999283 0
0 0.999359 0
0 0.999359 0
0 0.996094 0
0.705089 0.96527 0
0.944778 0.944274 0
1 0.940536 0
1 0.946761 0.513573
1 0.966659 0.769284
0.61767 1 0.180941
0.61767 1 0.180941
0.617655 1 0.180941
0.617655 1 0.180941
0.779141 1 0.197894
0.919982 0.993042 0.26096
1 0.98233 0.420203
1 0.979248 0.605493
1 0.981567 0.79556
0.884031 1 0.683055
0.884031 1 0.683055
0.884031 1 0.683055
0.884031 1 0.683055
0.884016 1 0.68307
0.932784 0.997482 0.687266
0.983688 0.994171 0.704646
1 0.992187 0.755627
0.998734 0.990677 0.851164
0.96318 0.992309 0.885817
0.96318 0.992309 0.885817
0.96318 0.992309 0.885817
0.96318 0.992309 0.885817
0.96318 0.992309 0.885817
0.96318 0.992309 0.885817
0.981476 0.991104 0.887449
0.997681 0.989944 0.893919
0.997208 0.989609 0.913008
0 0 0.339925
0 0 0.340429
0.233249 0 0.341207
0.656611 0 0.323873
0.944305 0 0.318822
1 0 0.341497
0.921553 0.673411 0.187594
1 0.865629 0.511345
1 0.950988 0.773175
0 0 0.335576
0 0 0.336156
0.268727 0 0.335485
0.655787 0 0.318181
0.945754 0 0.311681
1 0 0.328496
0.925246 0.689632 0.185412
1 0.867277 0.510246
1 0.951156 0.773053
0 0.248234 0.265034
0 0.252216 0.264714
0.178256 0.245853 0.261311
0.598611 0.203143 0.255955
0.939193 0 0.287755
1 0.200015 0.254108
0.964782 0.698039 0.200702
1 0.870268 0.508644
1 0.951385 0.772854
0 0.610117 0.085893
0 0.610941 0.0863813
0 0.611429 0.0886702
0.499718 0.59794 0.0838788
0.844648 0.574411 0.0717784
1 0.622003 0.0276799
1 0.733181 0.196704
1 0.880766 0.501106
1 0.952468 0.771954
0 0.855665 0
0 0.855665 0
0 0.855436 0
0 0.853666 0
0.7617 0.821546 0
1 0.811627 0
1 0.849638 0
1 0.907668 0.482155
1 0.956298 0.768688
0 0.998886 0
0 0.998886 0
0 0.998886 0
0 0.995712 0
0.708476 0.964797 0
0.945342 0.943999 0
1 0.940368 0
1 0.946731 0.513436
1 0.966659 0.769284
0.62208 1 0.180117
0.62208 1 0.180117
0.62208 1 0.180117
0.62208 1 0.180133
0.780468 1 0.197284
0.920394 0.992981 0.260548
1 0.9823 0.419898
1 0.979232 0.605432
1 0.981567 0.79556
0.884352 1 0.683009
0.884352 1 0.683009
0.884352 1 0.683009
0.884352 1 0.683009
0.884352 1 0.683009
0.932906 0.997467 0.687205
0.983734 0.994171 0.704341
1 0.992187 0.755611
0.998734 0.990677 0.851164
0.963211 0.992309 0.885817
0.963211 0.992309 0.885817
0.963211 0.992309 0.885817
0.963211 0.992309 0.885817
0.963211 0.992309 0.885817
0.963211 0.992309 0.885817
0.981491 0.991104 0.887434
0.997681 0.989944 0.893919
0.997208 0.989609 0.913008
0 0 0.698009
0 0 0.698085
0 0 0.698253
0.602548 0 0.687236
0.954925 0 0.673396
1 0 0.674174
1 0.585916 0.594461
1 0.860349 0.63682
1 0.950668 0.784833
0 0 0.696925
0 0 0.697017
0.0143587 0 0.698878
0.620233 0 0.685023
0.953277 0 0.672114
1 0 0.672023
1 0.608454 0.586633
1 0.861799 0.636591
1 0.95082 0.78471
0 0.048249 0.677012
0 0.052079 0.67631
0.00665293 0.0547646 0.678065
0.628031 0 0.682231
0.947814 0 0.669764
1 0 0.665476
1 0.636286 0.579583
1 0.8645 0.636286
1 0.951049 0.784558
0 0.555749 0.572808
0 0.55668 0.572778
0 0.558495 0.572976
0.466255 0.545724 0.567498
0.824887 0.51783 0.556954
1 0.560754 0.547066
0.986694 0.736049 0.495109
1 0.87538 0.632136
1 0.95198 0.783597
0 0.838026 0.432349
0 0.838026 0.432349
0 0.838163 0.433646
0 0.836439 0.438468
0.744274 0.805112 0.431052
0.994705 0.795911 0.449973
1 0.836912 0.513436
1 0.903517 0.617533
1 0.955962 0.78088
0 0.996094 0.00953689
0 0.996094 0.00953689
0 0.996094 0.00953689
0 0.993057 0.0120546
0.70106 0.962066 0.00277714
0.937224 0.938888 0.187076
1 0.932357 0.405905
1 0.945037 0.583383
1 0.966552 0.772335
0.634974 1 0.176547
0.634974 1 0.176547
0.634974 1 0.176547
0.634974 1 0.176547
0.784314 1 0.195422
0.921508 0.992798 0.259174
1 0.982193 0.419425
1 0.979171 0.605051
1 0.981552 0.795468
0.885496 1 0.682841
0.885496 1 0.682841
0.885496 1 0.682841
0.885496 1 0.682841
0.885496 1 0.682841
0.933349 0.997452 0.687068
0.983902 0.994156 0.704234
1 0.992203 0.755489
0.998734 0.990677 0.851133
0.963302 0.992309 0.885801
0.963302 0.992309 0.885801
0.963302 0.992309 0.885801
0.963302 0.992309 0.885801
0.963302 0.992309 0.885801
0.963302 0.992309 0.885801
0.981537 0.991104 0.887419
0.997681 0.989944 0.893904
0.997208 0.989609 0.913008
0 0 0.970336
0 0 0.970336
0 0 0.970428
0.121157 0 0.973175
0.916487 0 0.941924
1 0 0.932219
1 0.334676 0.867308
1 0.84271 0.816663
1 0.94757 0.863554
0 0 0.97026
0 0 0.97026
0 0 0.970321
0.131273 0 0.97258
0.920363 0 0.941329
1 0 0.931853
1 0.441703 0.850599
1 0.845029 0.816205
1 0.947707 0.863523
0 0 0.969238
0 0 0.969238
0 0 0.969299
0.274754 0 0.968765
0.92607 0 0.940169
1 0 0.930755
1 0.534127 0.835737
1 0.848722 0.815305
1 0.947951 0.863462
0 0.251972 0.908965
0 0.251972 0.908965
0 0.257664 0.908186
0.235676 0.245029 0.909865
0.894667 0.0857252 0.904128
1 0.186419 0.873564
1 0.650065 0.813855
1 0.86511 0.801068
1 0.949081 0.863035
0 0.794308 0.801083
0 0.794308 0.801083
0 0.794354 0.801099
0 0.794171 0.801511
0.714122 0.764675 0.78436
0.983719 0.759777 0.773083
1 0.813886 0.775311
0.977844 0.90753 0.773465
1 0.95317 0.861006
0 0.981933 0.738872
0 0.981933 0.738872
0 0.981994 0.738781
0 0.979538 0.739681
0.640467 0.950729 0.727672
0.914366 0.927337 0.7234
1 0.92372 0.739773
1 0.939345 0.783734
1 0.964111 0.855222
0.605402 1 0.651606
0.605402 1 0.651606
0.605402 1 0.651606
0.605402 1 0.651606
0.758465 1 0.648646
0.904768 0.986725 0.653666
0.989303 0.977661 0.682185
1 0.976226 0.748989
1 0.980346 0.840101
0.889128 0.999969 0.681941
0.889128 0.999969 0.681941
0.889128 0.999969 0.681941
0.889128 0.999969 0.681941
0.889128 0.999969 0.681941
0.934722 0.997375 0.686595
0.984329 0.994141 0.703807
1 0.992203 0.755306
0.998734 0.990677 0.850935
0.963745 0.992279 0.885725
0.963745 0.992279 0.885725
0.963745 0.992279 0.885725
0.963745 0.992279 0.885725
0.963745 0.992279 0.885725
0.963729 0.992279 0.885725
0.981704 0.991104 0.887358
0.997681 0.989944 0.893874
0.997208 0.989609 0.912993
0 0 1
0 0 1
0 0 1
0 0 1
0.713863 0 1
1 0 1
1 0 1
1 0.773877 0.954787
1 0.941283 0.935714
0 0 1
0 0 1
0 0 1
0 0 1
0.713237 0 1
1 0 1
1 0 1
1 0.779126 0.953887
1 0.941482 0.935637
0 0 1
0 0 1
0 0 1
0 0 1
0.722896 0 1
1 0 1
1 0 1
1 0.78703 0.952255
1 0.941817 0.935454
0 0 1
0 0 1
0 0 1
0 0 1
0.777005 0 1
1 0 1
1 0 1
1 0.812909 0.947066
1 0.943404 0.934325
0 0.594095 1
0 0.594095 1
0 0.594095 1
0 0.596567 1
0.662608 0.572137 1
1 0.562936 0.985748
1 0.706096 0.960601
1 0.867506 0.935531
0.994614 0.95111 0.925093
0 0.964843 0.950591
0 0.964843 0.950591
0 0.964843 0.950591
0 0.964843 0.950591
0.420127 0.945724 0.944747
0.893751 0.910719 0.923735
1 0.909163 0.91873
1 0.929839 0.920378
0.997101 0.961807 0.927428
0.438743 1 0.920684
0.438743 1 0.920684
0.44004 1 0.920623
0.44004 1 0.920623
0.670817 1 0.910948
0.876692 0.981903 0.902358
0.972946 0.972641 0.900938
0.999924 0.971756 0.907561
0.998856 0.978027 0.92369
0.871946 0.997803 0.871733
0.871946 0.997803 0.871733
0.871946 0.997803 0.871733
0.871946 0.997803 0.871733
0.871946 0.997803 0.871733
0.918166 0.995071 0.870848
0.971466 0.992004 0.873518
0.99762 0.99025 0.886168
0.997253 0.989639 0.911284
0.965194 0.992203 0.885481
0.965194 0.992203 0.885481
0.965194 0.992203 0.885481
0.965194 0.992203 0.885481
0.965194 0.992203 0.885481
0.965194 0.992203 0.885481
0.982238 0.991073 0.887144
0.997681 0.989944 0.893767
0.997208 0.989609 0.912932
0 0 1
0 0 1
0 0 1
0 0 1
0 0 1
1 0 1
1 0 1
1 0 1
1 0.916442 0.989319
0 0 1
0 0 1
0 0 1
0 0 1
0 0 1
1 0 1
1 0 1
1 0 1
1 0.916823 0.989319
0 0 1
0 0 1
0 0 1
0 0 1
0 0 1
1 0 1
1 0 1
1 0 1
1 0.917556 0.989181
0 0 1
0 0 1
0 0 1
0 0 1
0 0 1
1 0 1
1 0 1
1 0 1
1 0.920394 0.988571
0 0 1
0 0 1
0 0 1
0 0 1
0 0 1
1 0 1
1 0 1
1 0.501366 1
1 0.929793 0.986603
0 0.815335 1
0 0.815335 1
0 0.815335 1
0 0.815335 1
0 0.818143 1
0.893233 0.776806 1
1 0.811124 1
1 0.890654 0.991653
1 0.950057 0.981949
0 1 1
0 1 1
0 1 1
0 1 1
0 1 1
0.824323 0.979065 0.983673
0.964538 0.966003 0.976959
0.998993 0.965866 0.975204
0.994842 0.975418 0.972992
0.836789 0.997909 0.974975
0.836789 0.997909 0.974975
0.836789 0.997909 0.974975
0.836789 0.997909 0.974975
0.836789 0.997909 0.974975
0.888487 0.995041 0.972244
0.959518 0.991012 0.96875
0.99472 0.988968 0.968139
0.995956 0.988785 0.971298
0.957839 0.991272 0.957748
0.957839 0.991272 0.957748
0.957839 0.991272 0.957748
0.957839 0.991272 0.957748
0.957839 0.991272 0.957748
0.957839 0.991272 0.957748
0.97496 0.990204 0.957305
0.994034 0.989151 0.95845
0.996124 0.988891 0.963592
0 0.0851606 1
0 0.0851606 1
0 0.0851606 1
0 0.0851606 1
0 0.0851606 1
0 0.0852674 1
1 0 1
1 0 1
1 0.682109 1
0 0.0851606 1
0 0.0851606 1
0 0.0851606 1
0 0.0851606 1
0 0.0851606 1
0 0.0852674 1
1 0 1
1 0 1
1 0.682109 1
0 0.0851606 1
0 0.0851606 1
0 0.0851606 1
0 0.0851606 1
0 0.0851606 1
0 0.0852674 1
1 0 1
1 0 1
1 0.682078 1
0 0.0851606 1
0 0.0851606 1
0 0.0851606 1
0 0.0851606 1
0 0.0851606 1
0 0.0852674 1
1 0 1
1 0 1
1 0.681987 1
0 0.0850233 1
0 0.0850233 1
0 0.0850233 1
0 0.0850233 1
0 0.0850233 1
0 0.0851148 1
1 0 1
1 0 1
1 0.681758 1
0 0.0828107 1
0 0.0828107 1
0 0.0828107 1
0 0.0828107 1
0 0.0828107 1
0 0.0829175 1
1 0 1
1 0.0130617 1
1 0.80882 1
0 0.959884 1
0 0.959884 1
0 0.959884 1
0 0.959884 1
0 0.959884 1
0 0.96141 1
0.968032 0.902647 1
1 0.928496 1
0.999222 0.958984 1
0.52781 1 1
0.52781 1 1
0.52781 1 1
0.52781 1 1
0.52781 1 1
0.52781 1 1
0.939315 0.991501 0.999313
0.992233 0.987289 0.996567
0.995621 0.98735 0.996368
0.944793 0.991348 0.997086
0.944793 0.991348 0.997086
0.944793 0.991348 0.997086
0.944793 0.991348 0.997086
0.944793 0.991348 0.997086
0.944793 0.991348 0.997086
0.964019 0.990173 0.995956
0.989532 0.98883 0.994781
0.995254 0.988266 0.994583
0 0.40763 1
0 0.40763 1
0 0.40763 1
0 0.40763 1
0 0.40763 1
0 0.40763 1
0 0.407736 1
1 0.100526 1
1 0.711101 1
0 0.40763 1
0 0.40763 1
0 0.40763 1
0 0.40763 1
0 0.40763 1
0 0.40763 1
0 0.407736 1
1 0.100526 1
1 0.711101 1
0 0.40763 1
0 0.40763 1
0 0.40763 1
0 0.40763 1
0 0.40763 1
0 0.40763 1
0 0.407736 1
1 0.100526 1
1 0.711101 1
0 0.40763 1
0 0.40763 1
0 0.40763 1
0 0.40763 1
0 0.40763 1
0 0.40763 1
0 0.407736 1
1 0.100526 1
1 0.711101 1
0 0.40763 1
0 0.40763 1
0 0.40763 1
0 0.40763 1
0 0.40763 1
0 0.40763 1
0 0.407736 1
1 0.100526 1
1 0.711101 1
0 0.407538 1
0 0.407538 1
0 0.407538 1
0 0.407538 1
0 0.407538 1
0 0.407538 1
0 0.407599 1
1 0.101946 1
1 0.712337 1
0 0.405951 1
0 0.405951 1
0 0.405951 1
0 0.405951 1
0 0.405951 1
0 0.405951 1
0 0.406043 1
1 0.274479 1
1 0.714519 1
0 1 1
0 1 1
0 1 1
0 1 1
0 1 1
0 1 1
0 1 1
0.990662 0.973526 0.99942
0.996872 0.977737 0.998596
0.889006 0.994461 1
0.889006 0.994461 1
0.889006 0.994461 1
0.889006 0.994461 1
0.889006 0.994461 1
0.889006 0.994461 1
0.889006 0.994461 1
0.983795 0.989075 0.997757
0.995483 0.988571 0.997223
