BBLuts/BB_106_0240_LUT.cube
TITLE "Generated by Resolve"
LUT_3D_SIZE 9
0.0123293 0.0218662 0.038529
0.0123293 0.0218662 0.038529
0.207813 0.0240635 0.0394903
0.475593 0.0348363 0.0578012
0.777874 0.296681 0.37232
0.984756 0.615183 0.668986
0.98439 0.643122 0.669093
0.98114 0.823194 0.623636
0.976364 0.931472 0.780713
0.00531014 0.0677653 0.0349889
0.00402838 0.0761578 0.0343328
0.214878 0.0608072 0.0368505
0.487846 0.0360113 0.059556
0.780163 0.300954 0.376532
0.984756 0.615183 0.668986
0.984298 0.650874 0.668269
0.981033 0.827451 0.618479
0.976318 0.931975 0.780026
0 0.20531 0.0243534
0 0.208957 0.024033
0.151843 0.209613 0.0271458
0.495247 0.200092 0.0488594
0.783719 0.338643 0.381796
0.98471 0.618982 0.668772
0.9841 0.664881 0.666575
0.98085 0.833555 0.609308
0.976257 0.932799 0.778881
0 0.490455 0.00190738
0 0.491691 0.00192264
0 0.492378 0.00192264
0.403326 0.491295 0.0024567
0.7879 0.515206 0.367819
0.98436 0.645151 0.666987
0.983398 0.712535 0.658076
0.980392 0.849821 0.572778
0.976059 0.93518 0.775433
0 0.774533 0.00399786
0 0.774456 0.00399786
0 0.774121 0.00399786
0 0.771847 0.0039826
0.717617 0.76495 0.00503548
0.952605 0.776867 0.581201
0.981308 0.818601 0.598199
0.979812 0.884062 0.00656138
0.975509 0.941421 0.764782
0 0.931563 0.0052491
0 0.930877 0.0052491
0 0.929747 0.00523384
0 0.926329 0.00520333
0 0.917739 0.00514229
0.901122 0.910796 0.00660716
0.978088 0.913771 0.00679026
0.977005 0.929397 0.00691234
0.974243 0.954757 0.742458
0 0.98085 0.00564584
0 0.980377 0.00564584
0 0.979675 0.00563058
0 0.977783 0.00561532
0.598016 0.974105 0.00645457
0.880369 0.96936 0.00701915
0.9664 0.966537 0.007187
0.973434 0.967132 0.00721752
0.972427 0.972824 0.77026
0.826505 0.983108 0.00701915
0.828916 0.983124 0.00701915
0.832715 0.983124 0.00703441
0.843229 0.983169 0.00704967
0.868162 0.983261 0.0071107
0.910643 0.98349 0.00720226
0.956466 0.983917 0.00730907
0.970871 0.983902 0.615763
0.97174 0.984634 0.85185
0.937392 0.984848 0.890959
0.937591 0.984863 0.89099
0.937911 0.984863 0.891051
0.938888 0.984863 0.891234
0.941649 0.984894 0.891768
0.948592 0.984985 0.893294
0.96173 0.985183 0.897475
0.972915 0.985473 0.907332
0.973693 0.986038 0.930465
0.0185092 0.0258793 0.085832
0.0185397 0.0258946 0.0860609
0.213031 0.0282444 0.0870527
0.476997 0.0390936 0.107317
0.777752 0.298634 0.388266
0.984756 0.615351 0.670298
0.984421 0.641962 0.670207
0.98114 0.8224 0.63331
0.976425 0.931426 0.789441
0.0134737 0.0512551 0.0756542
0.0547189 0.0615396 0.0743725
0.23125 0.0278172 0.0783856
0.483131 0.0387732 0.0973373
0.778775 0.299351 0.381552
0.984756 0.61529 0.669902
0.984314 0.649622 0.669398
0.981048 0.826673 0.628611
0.976379 0.93193 0.788815
0 0.196048 0.0251011
0 0.1991 0.0248569
0.175341 0.20029 0.0262303
0.493339 0.191135 0.0491646
0.781125 0.324727 0.377447
0.98471 0.618647 0.668788
0.984115 0.663569 0.667781
0.98088 0.832807 0.620325
0.976318 0.932754 0.787778
0 0.485725 0.00189212
0 0.486915 0.00189212
0 0.487404 0.00189212
0.420218 0.48603 0.0024567
0.787488 0.511955 0.367819
0.98439 0.644465 0.667048
0.983429 0.71136 0.659175
0.980377 0.84921 0.589929
0.976104 0.935134 0.784604
0 0.773419 0.0039826
0 0.773312 0.0039826
0 0.772961 0.0039826
0 0.770657 0.00396735
0.720989 0.763836 0.00503548
0.952728 0.776165 0.58233
0.981308 0.818189 0.598718
0.979828 0.883864 0.00656138
0.975555 0.941405 0.774899
0 0.931319 0.0052491
0 0.930632 0.0052491
0 0.929519 0.00523384
0 0.926085 0.00520333
0 0.91754 0.00514229
0.901503 0.910658 0.00660716
0.978088 0.91368 0.00679026
0.977005 0.929351 0.00691234
0.974243 0.954742 0.743603
0 0.980758 0.00564584
0 0.980301 0.00564584
0 0.979599 0.00563058
0 0.977707 0.00561532
0.605249 0.97406 0.00646983
0.880613 0.969329 0.00701915
0.966445 0.966506 0.007187
0.973449 0.967117 0.00721752
0.972427 0.972824 0.770214
0.826886 0.983108 0.00701915
0.829282 0.983124 0.00701915
0.833051 0.983139 0.00703441
0.843503 0.983169 0.00704967
0.86836 0.983261 0.0071107
0.910719 0.98349 0.00720226
0.956497 0.983917 0.00730907
0.970871 0.983902 0.615686
0.97174 0.984634 0.85185
0.937423 0.984848 0.890959
0.937606 0.984863 0.89099
0.937926 0.984863 0.891051
0.938918 0.984863 0.891218
0.94168 0.984894 0.891768
0.948608 0.984985 0.893294
0.961746 0.985183 0.897475
0.972915 0.985473 0.907332
0.973693 0.986038 0.930465
0.0351263 0.0366827 0.212604
0.0351568 0.0367132 0.212833
0.204944 0.0387121 0.215412
0.491218 0.0506752 0.228458
0.7776 0.303349 0.420417
0.984756 0.615595 0.672312
0.984436 0.639872 0.673198
0.98117 0.821088 0.650294
0.976516 0.93135 0.802243
0.0345617 0.0363317 0.208484
0.0346075 0.036347 0.208865
0.228901 0.0386969 0.211719
0.48954 0.0501717 0.224704
0.779751 0.307012 0.422217
0.984756 0.615579 0.67216
0.984344 0.647242 0.672389
0.981064 0.825406 0.646265
0.976471 0.931868 0.801678
0.0101778 0.184482 0.18468
0.00982681 0.186435 0.184237
0.188617 0.182818 0.173526
0.478416 0.18027 0.20441
0.7785 0.304295 0.41767
0.98471 0.61799 0.671763
0.984161 0.660822 0.670787
0.98088 0.831632 0.639261
0.976394 0.932692 0.800763
0 0.471901 0.0370642
0 0.473335 0.0371862
0 0.474022 0.038056
0.425193 0.472221 0.0594034
0.782834 0.50161 0.38967
0.984405 0.642329 0.669154
0.983459 0.708309 0.663279
0.980377 0.848219 0.614054
0.976196 0.935073 0.797971
0 0.771099 0.00396735
0 0.771008 0.00396735
0 0.770642 0.00396735
0 0.768307 0.00395209
0.724163 0.761578 0.00502022
0.952636 0.774502 0.583917
0.981323 0.817075 0.60322
0.979431 0.883085 0.307927
0.975647 0.94136 0.789517
0 0.930938 0.0052491
0 0.930251 0.00523384
0 0.929122 0.00523384
0 0.925704 0.00520333
0 0.917235 0.00514229
0.902068 0.910445 0.00660716
0.978088 0.913527 0.00679026
0.97702 0.929259 0.00691234
0.974319 0.954711 0.763104
0 0.980621 0.00564584
0 0.980163 0.00564584
0 0.979461 0.00563058
0 0.9776 0.00561532
0.616083 0.973983 0.00648508
0.881025 0.969299 0.00701915
0.966522 0.966476 0.007187
0.973449 0.967102 0.00721752
0.972442 0.972808 0.770123
0.827451 0.983108 0.00701915
0.829847 0.983124 0.00701915
0.833585 0.983139 0.00703441
0.843976 0.983169 0.00706493
0.868696 0.983261 0.0071107
0.910872 0.98349 0.00720226
0.956527 0.983917 0.00730907
0.970871 0.983902 0.615686
0.97174 0.984634 0.85182
0.937453 0.984848 0.890959
0.937652 0.984863 0.890974
0.937987 0.984863 0.891051
0.938949 0.984863 0.891218
0.941726 0.984894 0.891737
0.948623 0.984985 0.893278
0.961761 0.985183 0.897459
0.972915 0.985473 0.907332
0.973693 0.986038 0.930465
0.13904 0.104021 0.478019
0.139193 0.104128 0.478202
0.139269 0.104158 0.478309
0.477363 0.114977 0.479622
0.794858 0.356924 0.543389
0.984726 0.617334 0.685512
0.984497 0.635447 0.693217
0.981277 0.817258 0.705287
0.976837 0.931167 0.833387
0.136797 0.102571 0.47541
0.137011 0.102693 0.475639
0.216251 0.103639 0.475868
0.492454 0.115023 0.477256
0.792996 0.353643 0.540887
0.984726 0.617273 0.685161
0.984405 0.641703 0.692241
0.98117 0.821424 0.7028
0.976791 0.93167 0.832975
0.123507 0.160006 0.469841
0.122957 0.164752 0.470008
0.230747 0.161944 0.470344
0.498222 0.113222 0.472816
0.78732 0.344366 0.535302
0.984726 0.617182 0.68455
0.984253 0.653819 0.690455
0.980987 0.828153 0.698589
0.976715 0.932509 0.832288
0.00422675 0.430289 0.429511
0.00306706 0.432135 0.42977
0.00260929 0.433463 0.430518
0.443214 0.431891 0.411582
0.767712 0.469383 0.506752
0.984482 0.636713 0.681239
0.983612 0.699321 0.683207
0.980438 0.845304 0.684627
0.976501 0.93492 0.830259
0 0.761044 0.00389105
0 0.761013 0.00389105
0 0.760754 0.00389105
0 0.758618 0.00386053
0.721798 0.752087 0.00494392
0.950423 0.767086 0.605158
0.981414 0.812558 0.634348
0.97908 0.881178 0.628321
0.975952 0.941253 0.823911
0 0.92987 0.00523384
0 0.929168 0.00523384
0 0.928038 0.00521859
0 0.92462 0.00518807
0 0.916152 0.00512703
0.901488 0.909407 0.0065919
0.97818 0.912673 0.00679026
0.977142 0.928649 0.00691234
0.974594 0.954696 0.806134
0 0.980194 0.00564584
0 0.979767 0.00563058
0 0.97908 0.00563058
0 0.977264 0.00561532
0.642496 0.97377 0.00654612
0.882261 0.969162 0.00703441
0.966751 0.966384 0.007187
0.973449 0.967041 0.00721752
0.972442 0.972778 0.769833
0.829236 0.983124 0.00701915
0.831571 0.983124 0.00703441
0.835233 0.983139 0.00703441
0.845411 0.983169 0.00706493
0.869688 0.983261 0.0071107
0.91133 0.98349 0.00720226
0.956649 0.983917 0.00730907
0.970871 0.983902 0.615503
0.97174 0.984634 0.851728
0.937606 0.984848 0.890944
0.937819 0.984863 0.890974
0.938125 0.984863 0.89102
0.939101 0.984878 0.891218
0.941848 0.984894 0.891737
0.94873 0.984985 0.893263
0.961807 0.985183 0.897459
0.972915 0.985473 0.907317
0.973693 0.986038 0.930465
0.571984 0.532341 0.779568
0.572076 0.532433 0.779644
0.572229 0.532601 0.779767
0.58291 0.531609 0.778851
0.787198 0.54963 0.77821
0.984726 0.645899 0.803143
0.984726 0.652689 0.81474
0.982208 0.80766 0.835798
0.977874 0.930632 0.890028
0.571252 0.531502 0.778927
0.571328 0.531594 0.779004
0.571496 0.531777 0.779141
0.584344 0.530602 0.778058
0.791928 0.550195 0.777722
0.984726 0.645701 0.802625
0.984695 0.654582 0.813565
0.982071 0.812299 0.834806
0.977829 0.931167 0.889784
0.570031 0.530114 0.777874
0.570138 0.530221 0.777966
0.570291 0.530419 0.778103
0.586801 0.529015 0.776776
0.794797 0.549844 0.776699
0.984726 0.645365 0.801724
0.984619 0.659251 0.811673
0.981857 0.819318 0.833249
0.977752 0.932052 0.889387
0.56144 0.537408 0.771801
0.56144 0.537697 0.771817
0.561395 0.538048 0.771817
0.581476 0.536492 0.770886
0.793362 0.551049 0.771847
0.984665 0.646998 0.796902
0.984176 0.686549 0.805661
0.981277 0.838117 0.82855
0.977539 0.934524 0.888212
0 0.730297 0.734722
0 0.730571 0.734829
0 0.730648 0.734997
0 0.729335 0.735515
0.724376 0.723644 0.726772
0.943236 0.745876 0.764233
0.981964 0.799634 0.784298
0.979706 0.876966 0.814542
0.976959 0.941054 0.88481
0 0.926635 0.00521859
0 0.925978 0.00520333
0 0.924865 0.00520333
0 0.921447 0.00517281
0 0.912688 0.00509651
0.892134 0.905226 0.59498
0.9776 0.909346 0.711971
0.976699 0.926696 0.777874
0.975555 0.954742 0.875593
0 0.979446 0.00563058
0 0.979004 0.00563058
0 0.978332 0.00563058
0 0.976516 0.00561532
0.606958 0.973007 0.00645457
0.876326 0.968414 0.00700389
0.961898 0.965652 0.00717174
0.972992 0.966262 0.639658
0.97322 0.972992 0.852659
0.834455 0.983139 0.00703441
0.836637 0.983139 0.00703441
0.840055 0.983154 0.00704967
0.849638 0.983185 0.00706493
0.872663 0.983276 0.00712596
0.912703 0.983505 0.00721752
0.957076 0.983932 0.00730907
0.970871 0.983902 0.615076
0.97174 0.984634 0.851499
0.938064 0.984863 0.890898
0.938262 0.984863 0.890929
0.938582 0.984863 0.891005
0.939529 0.984878 0.891173
0.942229 0.984894 0.891691
0.94902 0.984985 0.893233
0.961944 0.985183 0.897414
0.972915 0.985473 0.907256
0.973693 0.986038 0.930465
0.7505 0.724361 0.970718
0.750515 0.724376 0.970733
0.750546 0.724392 0.970748
0.750591 0.724437 0.97081
0.77673 0.71989 0.965393
0.98735 0.738003 0.964416
0.987381 0.738705 0.965331
0.986099 0.782071 0.956832
0.980499 0.92813 0.956436
0.750439 0.724285 0.970642
0.750454 0.7243 0.970657
0.750454 0.724315 0.970657
0.7505 0.724361 0.970718
0.778881 0.719783 0.965209
0.98735 0.737942 0.96434
0.987381 0.738643 0.965255
0.985962 0.786862 0.956146
0.980453 0.928756 0.956298
0.750317 0.724163 0.970504
0.750332 0.724178 0.97052
0.750347 0.724193 0.970535
0.750378 0.724224 0.970581
0.782589 0.719585 0.964904
0.987335 0.737835 0.964187
0.987366 0.738537 0.965133
0.985733 0.794614 0.955093
0.980362 0.929717 0.956069
0.749935 0.723781 0.970092
0.74995 0.723781 0.970108
0.749966 0.723796 0.970123
0.74966 0.723491 0.969787
0.791959 0.719112 0.964141
0.98732 0.73753 0.963775
0.987289 0.737072 0.96318
0.985046 0.81677 0.952163
0.980133 0.93254 0.955428
0.736782 0.724651 0.957336
0.736721 0.724758 0.95729
0.736614 0.724926 0.957229
0.736004 0.724819 0.956603
0.777111 0.721889 0.953628
0.983856 0.741527 0.953719
0.985977 0.771252 0.949615
0.98323 0.864652 0.945602
0.979492 0.939834 0.953613
0 0.918456 0.920165
0 0.918059 0.92018
0 0.917281 0.920195
0 0.914244 0.920256
0.579767 0.905425 0.921019
0.889265 0.897704 0.923842
0.977218 0.90425 0.92871
0.979721 0.924178 0.933883
0.978012 0.954681 0.949203
0 0.98027 0.886412
0 0.979751 0.886595
0 0.978973 0.88687
0 0.976852 0.887694
0.553216 0.972763 0.890227
0.863554 0.967773 0.895415
0.952743 0.965072 0.90454
0.975509 0.966766 0.917586
0.975647 0.973877 0.940597
0.827771 0.983688 0.836637
0.829892 0.983688 0.836774
0.833265 0.983703 0.837003
0.84268 0.983734 0.83769
0.865415 0.983825 0.839734
0.905318 0.984054 0.845411
0.950027 0.984497 0.858946
0.972351 0.985077 0.884993
0.97348 0.985885 0.924681
0.939406 0.984863 0.890791
0.93959 0.984863 0.890837
0.939895 0.984878 0.890883
0.940795 0.984878 0.891051
0.943374 0.984909 0.891569
0.949889 0.984985 0.893095
0.962402 0.985183 0.897276
0.972915 0.985473 0.907118
0.973693 0.986023 0.930449
0.801587 0.776669 1
0.801587 0.776669 1
0.801587 0.776669 1
0.801587 0.776669 1
0.801587 0.776669 1
0.976287 0.786664 1
0.991348 0.788739 1
0.991348 0.788739 1
0.985229 0.910307 1
0.801587 0.776669 1
0.801587 0.776669 1
0.801587 0.776669 1
0.801587 0.776669 1
0.801587 0.776669 1
0.977432 0.786816 1
0.991348 0.788739 1
0.991348 0.788739 1
0.985153 0.911299 1
0.801587 0.776669 1
0.801587 0.776669 1
0.801587 0.776669 1
0.801587 0.776669 1
0.801587 0.776669 1
0.979263 0.787045 1
0.991348 0.788739 1
0.991348 0.788739 1
0.985061 0.912886 1
0.801587 0.776669 1
0.801587 0.776669 1
0.801587 0.776669 1
0.801587 0.776669 1
0.801587 0.776669 1
0.984619 0.787778 1
0.991348 0.788739 1
0.991348 0.788739 1
0.984741 0.917403 1
0.801587 0.776669 1
0.801587 0.776669 1
0.801587 0.776669 1
0.801587 0.776669 1
0.802762 0.776699 1
0.991348 0.788739 1
0.991348 0.788739 1
0.990692 0.794232 1
0.983871 0.928847 1
0.776013 0.853819 1
0.775952 0.853986 1
0.77583 0.854261 1
0.775448 0.8551 1
0.77496 0.851514 1
0.912337 0.845869 1
0.987503 0.86305 1
0.985321 0.903868 1
0.981964 0.94995 1
0 0.985306 0.990494
0 0.98468 0.990494
0 0.983673 0.990509
0 0.980713 0.990524
0.598672 0.973938 0.991135
0.859251 0.966735 0.992111
0.953689 0.963668 0.993713
0.979858 0.966171 0.995026
0.979202 0.974105 0.997253
0.818921 0.987091 0.983063
0.821164 0.987106 0.983078
0.824979 0.987106 0.983093
0.834882 0.987137 0.983139
0.859007 0.987213 0.983322
0.901579 0.987411 0.983825
0.947997 0.987762 0.985077
0.976715 0.988159 0.987594
0.97705 0.988403 0.992142
0.939605 0.986999 0.969406
0.939788 0.986999 0.969436
0.940078 0.986999 0.969436
0.940948 0.987015 0.969497
0.94345 0.987045 0.96965
0.949737 0.987121 0.970138
0.961929 0.987274 0.97145
0.97583 0.987564 0.974807
0.976349 0.9879 0.982315
0.801572 0.776852 1
0.801572 0.776852 1
0.801572 0.776852 1
0.801572 0.776852 1
0.801572 0.776852 1
0.801572 0.776852 1
0.991348 0.788739 1
0.991348 0.788739 1
0.991012 0.80354 1
0.801572 0.776852 1
0.801572 0.776852 1
0.801572 0.776852 1
0.801572 0.776852 1
0.801572 0.776852 1
0.801572 0.776852 1
0.991348 0.788739 1
0.991348 0.788739 1
0.991012 0.80354 1
0.801572 0.776852 1
0.801572 0.776852 1
0.801572 0.776852 1
0.801572 0.776852 1
0.801572 0.776852 1
0.801572 0.776852 1
0.991348 0.788739 1
0.991348 0.788739 1
0.991012 0.80354 1
0.801572 0.776852 1
0.801572 0.776852 1
0.801572 0.776852 1
0.801572 0.776852 1
0.801572 0.776852 1
0.801572 0.776761 1
0.991348 0.788739 1
0.991348 0.788739 1
0.991012 0.80351 1
0.801572 0.776837 1
0.801572 0.776837 1
0.801572 0.776837 1
0.801572 0.776837 1
0.801572 0.776837 1
0.803113 0.776699 1
0.991348 0.788739 1
0.991348 0.788739 1
0.991012 0.803449 1
0.801572 0.776837 1
0.801572 0.776837 1
0.801572 0.776837 1
0.801572 0.776837 1
0.801572 0.776837 1
0.856764 0.778088 1
0.991348 0.788739 1
0.991348 0.788891 1
0.988373 0.883558 1
0.705547 0.958282 1
0.70547 0.958312 1
0.705364 0.958358 1
0.705028 0.958511 1
0.70399 0.958953 1
0.802991 0.941848 1
0.962646 0.937575 1
0.984512 0.94583 1
0.982727 0.964843 1
0.682811 0.989059 1
0.690654 0.989059 1
0.702464 0.989075 1
0.733333 0.98909 1
0.796429 0.989181 1
0.877531 0.989395 1
0.943679 0.989776 1
0.978531 0.989105 1
0.979614 0.989624 1
0.934783 0.989548 1
0.935012 0.989548 1
0.935378 0.989548 1
0.936461 0.989548 1
0.939544 0.989578 1
0.947188 0.989639 1
0.961166 0.989776 1
0.976196 0.98996 1
0.979355 0.990036 1
0.801465 0.777707 1
0.801465 0.777707 1
0.801465 0.777707 1
0.801465 0.777707 1
0.801465 0.777707 1
0.801465 0.777707 1
0.801465 0.777707 1
0.991333 0.789548 1
0.990814 0.811933 1
0.801465 0.777707 1
0.801465 0.777707 1
0.801465 0.777707 1
0.801465 0.777707 1
0.801465 0.777707 1
0.801465 0.777707 1
0.801465 0.777707 1
0.991333 0.789563 1
0.990799 0.811948 1
0.801465 0.777707 1
0.801465 0.777707 1
0.801465 0.777707 1
0.801465 0.777707 1
0.801465 0.777707 1
0.801465 0.777707 1
0.801465 0.777707 1
0.991333 0.789563 1
0.990799 0.811963 1
0.801465 0.777707 1
0.801465 0.777707 1
0.801465 0.777707 1
0.801465 0.777707 1
0.801465 0.777707 1
0.801465 0.777707 1
0.801465 0.777707 1
0.991333 0.789563 1
0.990799 0.812009 1
0.801465 0.777707 1
0.801465 0.777707 1
0.801465 0.777707 1
0.801465 0.777707 1
0.801465 0.777707 1
0.801465 0.777707 1
0.803037 0.7776 1
0.991333 0.789593 1
0.990799 0.812161 1
0.801465 0.777707 1
0.801465 0.777707 1
0.801465 0.777707 1
0.801465 0.777707 1
0.801465 0.777707 1
0.801465 0.777707 1
0.868711 0.778759 1
0.991333 0.78967 1
0.990784 0.81239 1
0.801465 0.777707 1
0.801465 0.777707 1
0.801465 0.777707 1
0.801465 0.777707 1
0.801465 0.777707 1
0.801465 0.777707 1
0.991348 0.788739 1
0.991333 0.789837 1
0.990784 0.812833 1
0 0.988785 1
0 0.988785 1
0 0.988785 1
0 0.988785 1
0 0.988785 1
0 0.988785 1
0.907179 0.979873 1
0.981201 0.978058 1
0.98085 0.981216 1
0.88481 0.989487 1
0.885588 0.989487 1
0.886839 0.989487 1
0.890455 0.989517 1
0.900099 0.989563 1
0.920851 0.989685 1
0.950469 0.989914 1
0.973938 0.990173 1
0.979644 0.99025 1
