BBLuts/BB_101_0240_LUT.cube
TITLE "Generated by Resolve"
LUT_3D_SIZE 33
0.0136568 0.0245823 0.028275
0.0136568 0.0245823 0.028275
0.0136568 0.0245823 0.028275
0.0136568 0.0245823 0.028275
0.0136568 0.0245823 0.028275
0.0242924 0.0261997 0.0301366
0.0459907 0.0280461 0.03122
0.0687114 0.0285954 0.0325628
0.0962081 0.0301213 0.0341802
0.135042 0.0306096 0.0360876
0.185855 0.0273442 0.0381933
0.247379 0.0213626 0.036286
0.324956 0.00775158 0.0346532
0.429786 0.000289921 0.0275883
0.558236 0 0.0192874
0.691707 0 0.00972
0.825742 0 0.00358587
0.962966 0 0.000167849
0.998688 0 0
0.998688 0 0
0.998688 0 0
0.998688 0 0
0.991791 0.00114443 0.00262455
0.949783 0.248157 0.000244144
0.922774 0.393057 0.000869764
0.904784 0.513085 0.059678
0.899535 0.631373 0.192523
0.908492 0.736522 0.361486
0.920638 0.818402 0.528206
0.932311 0.880842 0.670314
0.94844 0.927901 0.780835
0.950149 0.933074 0.827024
0.952575 0.932631 0.854795
0.0136568 0.0245823 0.028275
0.0136568 0.0245823 0.028275
0.0136568 0.0245823 0.028275
0.0136568 0.0245823 0.028275
0.0136568 0.0245823 0.028275
0.0277256 0.026627 0.0304417
0.0480201 0.0280613 0.0313725
0.0707408 0.0287022 0.032639
0.099794 0.0303502 0.0344854
0.140185 0.0305333 0.0362402
0.191546 0.0269474 0.0382544
0.252811 0.0204623 0.0360571
0.328389 0.00724804 0.0346227
0.432731 0.000274662 0.0273747
0.560876 0 0.0190585
0.693385 0 0.00962844
0.826856 0 0.00354009
0.963333 0 0.00015259
0.998688 0 0
0.998688 0 0
0.998688 0 0
0.998688 0 0
0.976394 0.0345617 0.000381476
0.943374 0.267933 0
0.919966 0.403403 0.000396735
0.903181 0.520058 0.0627909
0.89926 0.63621 0.197086
0.908812 0.739498 0.365667
0.920897 0.820005 0.530358
0.932601 0.88188 0.671504
0.948653 0.928435 0.781399
0.950149 0.933074 0.826978
0.952575 0.932631 0.854765
0.0136568 0.0245823 0.028275
0.0136568 0.0245823 0.028275
0.0136568 0.0245823 0.028275
0.0136568 0.0245823 0.028275
0.0136568 0.0245823 0.028275
0.0302129 0.0269169 0.0305028
0.0486915 0.0280613 0.0314336
0.0726787 0.0287938 0.0327153
0.103593 0.0305791 0.0348058
0.144976 0.0302892 0.0364538
0.19585 0.0266423 0.0383154
0.255833 0.019852 0.0359808
0.331502 0.00677501 0.0345922
0.436027 0.000274662 0.0271458
0.5635 0 0.0188296
0.695064 0 0.00955215
0.82797 0 0.00349432
0.963699 0 0.00015259
0.998688 0 0
0.998688 0 0
0.998688 0 0
0.998688 0 0
0.956527 0.10544 0
0.937148 0.285679 0
0.917266 0.413443 0.000213626
0.901961 0.526802 0.066804
0.899016 0.640925 0.201587
0.909148 0.742473 0.369833
0.921187 0.821744 0.532784
0.932845 0.882795 0.672435
0.948867 0.928954 0.781888
0.950149 0.933074 0.826932
0.952575 0.932631 0.854765
0.0136568 0.0245823 0.028275
0.0136568 0.0245823 0.028275
0.0136568 0.0245823 0.028275
0.0139773 0.0265202 0.0296788
0.0183108 0.0291905 0.0318456
0.0320897 0.0271305 0.0305486
0.049073 0.0280613 0.0314641
0.0728618 0.0287938 0.0327153
0.104234 0.0306249 0.0348516
0.14696 0.0301518 0.0365606
0.198627 0.0264591 0.0383459
0.258534 0.0193179 0.0359045
0.334462 0.00645457 0.0343786
0.439155 0.000259403 0.0269322
0.56614 0 0.0186007
0.696757 0 0.00947585
0.829068 0 0.00344854
0.964065 0 0.00015259
0.998688 0 0
0.998688 0 0
0.998688 0 0
0.998688 0 0
0.949874 0.147112 0
0.930861 0.302434 0
0.914885 0.423163 0.000137331
0.900771 0.53341 0.0707408
0.898863 0.645518 0.206348
0.909453 0.745327 0.373785
0.921462 0.823346 0.53492
0.933135 0.883833 0.673609
0.949081 0.929488 0.782391
0.950149 0.933074 0.826841
0.95259 0.932631 0.854734
0.0129549 0.0503548 0.0417334
0.0127718 0.0522011 0.0424506
0.0124971 0.0542306 0.0429694
0.012253 0.0561685 0.0434577
0.0121462 0.0568704 0.0436408
0.0327153 0.0595254 0.0449989
0.0541085 0.0605783 0.0418708
0.0819257 0.0603952 0.0357977
0.118303 0.0547951 0.0332799
0.147875 0.0300755 0.0366064
0.20029 0.0263371 0.0383612
0.261082 0.0187991 0.0358434
0.337514 0.00616464 0.0341039
0.442451 0.000244144 0.0267033
0.568765 0 0.0183719
0.698436 0 0.0093843
0.83003 0 0.00341802
0.964309 0 0.00015259
0.998688 0 0
0.998688 0 0
0.998688 0 0
0.995819 0 0
0.944533 0.177539 0
0.925322 0.317678 0
0.912718 0.43238 0.000106813
0.899626 0.540032 0.074815
0.898695 0.650095 0.211063
0.909773 0.748165 0.377737
0.921721 0.824964 0.537057
0.933379 0.884749 0.67454
0.949294 0.930007 0.782879
0.950149 0.933074 0.82681
0.95259 0.932631 0.854734
0.0100099 0.0729229 0.0476997
0.00979629 0.0745556 0.0481117
0.00958267 0.0761883 0.0485237
0.00939956 0.0775006 0.0488594
0.00926223 0.0781872 0.0489815
0.0239719 0.0803845 0.0505379
0.0511025 0.0823529 0.0511025
0.0782025 0.0847791 0.050248
0.113725 0.0866407 0.0409705
0.163012 0.0832532 0.0316167
0.22118 0.0662394 0.0279698
0.26331 0.0183566 0.0357824
0.340734 0.00585946 0.033814
0.44593 0.000244144 0.0264591
0.57174 0 0.0181125
0.700267 0 0.00929274
0.831128 0 0.00337224
0.964675 0 0.00015259
0.998688 0 0
0.998688 0 0
0.998688 0 0
0.981292 0.00189212 0
0.938598 0.203479 0
0.919829 0.333089 0
0.910475 0.441718 7.62951e-05
0.898512 0.546654 0.0790417
0.898802 0.654704 0.216449
0.910094 0.751019 0.381659
0.921996 0.826551 0.539178
0.933639 0.885649 0.675547
0.949508 0.930541 0.783444
0.950149 0.933074 0.826764
0.95259 0.932631 0.854704
0.0047303 0.0999619 0.0526131
0.00440986 0.101488 0.0528725
0.00408942 0.103014 0.0531319
0.00389105 0.103944 0.0532845
0.00376898 0.104524 0.0533761
0.0037232 0.104768 0.0534218
0.0408789 0.108812 0.0557565
0.0786297 0.110674 0.0599374
0.112718 0.112444 0.0565499
0.154971 0.115267 0.0449683
0.205692 0.110613 0.0321508
0.265156 0.0974594 0.0221103
0.341314 0.0622873 0.0207065
0.450523 0.000228885 0.0261387
0.575525 0 0.0177768
0.702571 0 0.00918593
0.832563 0 0.00331121
0.965057 0 0.00015259
0.998688 0 0
0.998688 0 0
0.998688 0 0
0.967849 0.038117 0
0.931655 0.232456 0
0.911254 0.352255 0
0.907591 0.453117 6.10361e-05
0.897414 0.55491 0.0849622
0.899092 0.660487 0.223606
0.910536 0.754803 0.386908
0.922362 0.828687 0.541924
0.933989 0.886961 0.676905
0.949828 0.931319 0.784192
0.950149 0.933074 0.826719
0.95259 0.932631 0.854673
0.000762951 0.134478 0.0573434
0.000640879 0.135927 0.0575265
0.000534066 0.137133 0.0576791
0.00047303 0.137926 0.0577707
0.000411994 0.138445 0.057847
0.000396735 0.13872 0.0578775
0.00622568 0.140078 0.0581064
0.0664836 0.142306 0.0606088
0.111666 0.140429 0.0681315
0.150896 0.142687 0.0584421
0.194583 0.142824 0.0465705
0.247333 0.138186 0.0311894
0.31249 0.126619 0.0166934
0.408652 0.097322 0.0100404
0.549767 0.016083 0.00895705
0.705776 0 0.00901808
0.834455 0 0.00323491
0.965667 0 0.00015259
0.998688 0 0
0.998688 0 0
0.990097 0 0
0.953719 0.124178 0
0.925246 0.265995 0
0.901915 0.372305 0
0.902068 0.466911 0.000335698
0.89633 0.565545 0.0934462
0.899489 0.667964 0.232837
0.911192 0.759487 0.393225
0.922881 0.831449 0.54522
0.934417 0.888518 0.678599
0.95021 0.93225 0.785107
0.950149 0.933074 0.826627
0.95259 0.932631 0.854643
0 0.172976 0.0605173
0 0.173922 0.0605325
0 0.174441 0.0605325
0 0.174975 0.0605478
0 0.175296 0.0605478
0 0.175601 0.0605478
0 0.175708 0.0605631
0.0259098 0.176028 0.0597848
0.0996262 0.173983 0.0688487
0.145846 0.172229 0.0723735
0.188357 0.173785 0.0580148
0.237461 0.172442 0.047425
0.2972 0.16849 0.0296483
0.381323 0.157015 0.0104067
0.498116 0.131853 0.00273136
0.6365 0.0774243 0.000366217
0.793515 0.00175479 4.57771e-05
0.966278 0 0.00015259
0.998688 0 0
0.988739 0 0
0.965682 0.0482948 0
0.940566 0.195438 0
0.916716 0.303822 0
0.897108 0.396338 0
0.89456 0.484718 0.000244144
0.895064 0.579049 0.104494
0.900008 0.677531 0.244694
0.912139 0.765454 0.401114
0.923552 0.835004 0.549355
0.935012 0.89073 0.680964
0.950362 0.932616 0.785306
0.950149 0.933089 0.826505
0.95259 0.932631 0.854597
0 0.210452 0.0611124
0 0.210681 0.0611124
0 0.211002 0.0611276
0 0.211231 0.0611276
0 0.211444 0.0611276
0 0.211444 0.0611276
0 0.211337 0.0611276
0 0.211124 0.0611276
0.0553902 0.211139 0.0610819
0.137316 0.205051 0.0800336
0.181598 0.207721 0.0712291
0.230854 0.207843 0.0570535
0.289281 0.205097 0.0469825
0.36733 0.200504 0.0234684
0.474388 0.191623 0.00285344
0.599741 0.172595 0
0.739528 0.134722 0
0.901076 0.0584268 0
0.968688 0.0341192 0
0.959991 0.0823682 0
0.945251 0.173449 0
0.926513 0.259419 0
0.908125 0.34316 0
0.892164 0.42562 0
0.890166 0.507454 0.00267033
0.893797 0.596384 0.120378
0.900877 0.689509 0.259968
0.913314 0.772824 0.410651
0.924407 0.839475 0.554574
0.935729 0.893324 0.683757
0.950378 0.932555 0.78497
0.950149 0.933089 0.826322
0.95259 0.932631 0.854536
0 0.251026 0.0605478
0 0.251331 0.0605325
0 0.251545 0.0605325
0 0.251759 0.0605325
0 0.251972 0.0605173
0 0.252079 0.0605173
0 0.252079 0.0605173
0 0.251972 0.0605173
0 0.251759 0.0605325
0.0976272 0.247425 0.069276
0.175753 0.242115 0.0876936
0.221469 0.245274 0.0670024
0.283558 0.245197 0.0549477
0.363424 0.241749 0.041474
0.461189 0.240436 0.0120851
0.575219 0.234974 1.5259e-05
0.706935 0.221469 0
0.865476 0.191272 0
0.943847 0.181415 0
0.936675 0.211322 0
0.926146 0.261326 0
0.912413 0.322881 0
0.898711 0.387243 0
0.887282 0.45919 0
0.885359 0.533532 0.00794995
0.892592 0.617761 0.141421
0.902358 0.704417 0.279759
0.914794 0.782193 0.422553
0.92549 0.845151 0.561074
0.936675 0.896834 0.68748
0.950378 0.932494 0.784512
0.950149 0.933089 0.826154
0.952605 0.932631 0.854444
0 0.298543 0.0598001
0 0.298756 0.0598001
0 0.299077 0.0598001
0 0.29929 0.0598001
0 0.299397 0.0597848
0 0.299504 0.0597848
0 0.299611 0.0597848
0 0.299718 0.0597848
0 0.299611 0.0597848
0 0.299123 0.0594492
0.144564 0.28957 0.0849165
0.215351 0.286915 0.0950637
0.273045 0.293004 0.0639048
0.357168 0.291463 0.0538796
0.455039 0.291569 0.0360266
0.559518 0.294621 0.00328069
0.679545 0.29514 0
0.835279 0.284642 0
0.92134 0.284108 0
0.916014 0.306767 0
0.908919 0.339391 0
0.899626 0.383017 0
0.89041 0.437568 0
0.883741 0.496864 0.000137331
0.884108 0.563622 0.0233921
0.893507 0.642786 0.169741
0.904326 0.722637 0.303624
0.916701 0.793637 0.437995
0.926879 0.85243 0.56936
0.938094 0.901198 0.691966
0.950393 0.932403 0.783902
0.950149 0.933089 0.825849
0.952605 0.932631 0.854353
0 0.358267 0.0591592
0 0.358618 0.0591592
0 0.358846 0.059144
0 0.359091 0.059144
0 0.359319 0.059144
0 0.359442 0.059144
0 0.359564 0.059144
0 0.359686 0.059144
0 0.359792 0.059144
0 0.359915 0.059144
0.00677501 0.358358 0.0597086
0.194507 0.344533 0.104982
0.265461 0.34728 0.103059
0.344564 0.355779 0.0618143
0.44889 0.356085 0.0575875
0.553445 0.360739 0.0343786
0.664912 0.368795 0.00202945
0.810239 0.37084 0
0.902022 0.37174 0
0.898558 0.387961 0
0.894163 0.413672 0
0.888808 0.448478 0
0.884215 0.490974 3.0518e-05
0.882506 0.541741 0.0059205
0.88748 0.601144 0.0726635
0.89688 0.67245 0.203296
0.907591 0.744198 0.331075
0.919341 0.807874 0.454902
0.928573 0.861326 0.579248
0.939895 0.906584 0.697795
0.950393 0.93228 0.783108
0.950134 0.933089 0.825422
0.952621 0.932647 0.8542
0 0.436576 0.0626535
0 0.436942 0.0627146
0 0.437049 0.0627451
0 0.437293 0.0627909
0 0.437415 0.0628061
0 0.437644 0.0628519
0 0.437766 0.0628824
0 0.437888 0.0628977
0 0.437995 0.0629282
0 0.437995 0.0629282
0 0.437888 0.0628977
0.0529183 0.431601 0.0760052
0.263661 0.418112 0.132509
0.342367 0.427649 0.113771
0.437293 0.435676 0.074052
0.547021 0.437903 0.0756542
0.658839 0.443946 0.0511482
0.791699 0.452079 6.10361e-05
0.887449 0.457679 0
0.88629 0.469398 0
0.884459 0.488228 0
0.882338 0.514076 0.000488289
0.882704 0.549874 0.00784314
0.886839 0.593271 0.0612345
0.89305 0.646448 0.134203
0.902525 0.707942 0.240085
0.911925 0.769055 0.360723
0.922408 0.82446 0.474693
0.931365 0.872236 0.590906
0.942077 0.913146 0.705455
0.950408 0.932113 0.782025
0.950134 0.933089 0.824826
0.952636 0.932647 0.854017
0 0.522866 0.083711
0 0.522988 0.0837568
0 0.52311 0.0838026
0 0.523217 0.0838483
0 0.523339 0.0838941
0 0.523461 0.0839399
0 0.523461 0.0839399
0 0.523583 0.0839857
0 0.523583 0.0839857
0 0.523461 0.0839399
0 0.523339 0.0838941
0 0.522744 0.0836652
0.224994 0.511589 0.13164
0.361563 0.502937 0.175128
0.439094 0.513863 0.138552
0.541207 0.522454 0.108782
0.654978 0.523781 0.113588
0.783658 0.530327 0.077821
0.882475 0.54078 0.00569161
0.882704 0.549874 0.00784314
0.884199 0.564553 0.024445
0.886259 0.586114 0.0508736
0.888899 0.615702 0.0932937
0.894255 0.653239 0.142397
0.901808 0.697215 0.193347
0.909392 0.747463 0.275822
0.917052 0.796567 0.39147
0.92575 0.844068 0.497215
0.934676 0.885313 0.608408
0.944671 0.921004 0.715572
0.950423 0.931899 0.780621
0.950118 0.933089 0.824125
0.952651 0.932647 0.853788
0.0389105 0.614725 0.129046
0.0390478 0.614847 0.129122
0.0390478 0.614847 0.129122
0.0390478 0.614847 0.129122
0.0391852 0.614969 0.129183
0.0391852 0.614969 0.129183
0.0391852 0.614969 0.129183
0.0391852 0.614969 0.129183
0.0390478 0.614847 0.129122
0.0387732 0.614603 0.128985
0.0383612 0.614237 0.128786
0.0376745 0.613626 0.12845
0.1084 0.611643 0.130282
0.374151 0.59295 0.209613
0.465827 0.592798 0.228214
0.543572 0.607111 0.181933
0.652644 0.613108 0.162097
0.778943 0.617075 0.167483
0.885801 0.629068 0.11632
0.891585 0.636194 0.12079
0.893309 0.647883 0.135927
0.896422 0.6654 0.157046
0.900389 0.688502 0.183734
0.905196 0.71754 0.21561
0.911101 0.751568 0.251774
0.917174 0.788708 0.302693
0.922484 0.826261 0.421881
0.929595 0.865751 0.522362
0.938689 0.900343 0.631113
0.947707 0.930282 0.728969
0.950454 0.931624 0.77882
0.950103 0.933089 0.823102
0.952667 0.932662 0.853452
0.216373 0.719982 0.190387
0.216373 0.719982 0.190387
0.216373 0.719982 0.190387
0.216373 0.719982 0.190387
0.216373 0.719982 0.190387
0.21619 0.719829 0.190295
0.21619 0.719829 0.190295
0.215991 0.719676 0.190188
0.21561 0.719371 0.18999
0.215015 0.718914 0.1897
0.214252 0.718303 0.189303
0.212696 0.717098 0.188495
0.210559 0.715419 0.187396
0.353765 0.706081 0.218265
0.496132 0.693172 0.291295
0.578531 0.696086 0.305562
0.664149 0.708736 0.251179
0.776226 0.715373 0.234379
0.875715 0.720821 0.235065
0.906844 0.727108 0.225818
0.908064 0.734096 0.233295
0.910063 0.745647 0.24564
0.912779 0.760983 0.261097
0.916182 0.780087 0.280003
0.920027 0.802594 0.298421
0.924483 0.827955 0.313771
0.928939 0.858656 0.451545
0.934508 0.887633 0.54789
0.943847 0.916594 0.663569
0.947829 0.930495 0.729274
0.950484 0.931258 0.776486
0.950072 0.933089 0.821866
0.952697 0.932662 0.85304
0.336431 0.817487 0.257679
0.336233 0.817334 0.257572
0.336034 0.817166 0.257465
0.335836 0.817014 0.257359
0.335637 0.816861 0.257252
0.335439 0.816693 0.257145
0.335241 0.816541 0.257053
0.334829 0.81622 0.25684
0.334234 0.815747 0.256519
0.33344 0.815122 0.256107
0.33225 0.814176 0.255482
0.330251 0.812604 0.254444
0.327657 0.810559 0.253086
0.370993 0.804746 0.255482
0.51487 0.795102 0.308782
0.626566 0.787594 0.375998
0.70605 0.789502 0.388281
0.784741 0.799939 0.322988
0.86952 0.804242 0.304921
0.920729 0.80679 0.301686
0.921111 0.809033 0.303426
0.922026 0.814496 0.307652
0.923552 0.823102 0.312825
0.925872 0.835096 0.315175
0.928817 0.85037 0.318151
0.932219 0.867842 0.312825
0.935317 0.889754 0.463386
0.942184 0.91046 0.589837
0.948531 0.931243 0.694362
0.94786 0.930434 0.729168
0.950484 0.931258 0.77641
0.950042 0.933089 0.820203
0.952728 0.932677 0.852461
0.458808 0.889464 0.303426
0.458427 0.889342 0.303258
0.457679 0.889097 0.302922
0.457298 0.88896 0.30277
0.456931 0.888838 0.302602
0.456168 0.888594 0.302266
0.455421 0.888334 0.301946
0.454658 0.88809 0.30161
0.453162 0.887587 0.300954
0.45127 0.886961 0.300145
0.448264 0.885954 0.298833
0.444114 0.884565 0.297032
0.438834 0.882811 0.294728
0.451514 0.879072 0.294179
0.564508 0.873365 0.319554
0.671763 0.86244 0.389273
0.754177 0.857877 0.4486
0.812711 0.861723 0.42948
0.873411 0.867704 0.360708
0.933181 0.870512 0.304265
0.93312 0.870237 0.30457
0.933577 0.872251 0.302281
0.934569 0.876554 0.297414
0.936095 0.883268 0.289815
0.938277 0.892226 0.281804
0.941741 0.902434 0.32079
0.945647 0.918349 0.502892
0.948806 0.928206 0.632273
0.948486 0.931304 0.69958
0.947906 0.930343 0.729
0.950439 0.931716 0.779416
0.950027 0.933074 0.818753
0.952773 0.932692 0.851713
0.527382 0.912337 0.333242
0.527382 0.912337 0.333242
0.527382 0.912337 0.333242
0.527382 0.912337 0.333242
0.527382 0.912337 0.333242
0.527382 0.912337 0.333242
0.527382 0.912337 0.333242
0.527382 0.912337 0.333242
0.527382 0.912337 0.333242
0.527382 0.912337 0.333242
0.527382 0.912337 0.333242
0.527382 0.912337 0.333242
0.527382 0.912337 0.333242
0.546242 0.917525 0.454963
0.631266 0.913634 0.453696
0.716152 0.910857 0.486748
0.791501 0.910674 0.524468
0.846952 0.913634 0.515099
0.892851 0.916365 0.444038
0.939101 0.91931 0.425605
0.947982 0.917586 0.32314
0.947982 0.917586 0.32314
0.94847 0.918883 0.325246
0.94966 0.921996 0.330312
0.950652 0.924575 0.334539
0.949874 0.924163 0.318547
0.949157 0.927993 0.542931
0.948837 0.928283 0.646342
0.948302 0.931167 0.70486
0.947967 0.930205 0.728786
0.950393 0.932326 0.783429
0.950057 0.933089 0.821164
0.952834 0.932723 0.850767
0.527382 0.912337 0.333242
0.527382 0.912337 0.333242
0.527382 0.912337 0.333242
0.527382 0.912337 0.333242
0.527382 0.912337 0.333242
0.527382 0.912337 0.333242
0.527382 0.912337 0.333242
0.527382 0.912337 0.333242
0.527382 0.912337 0.333242
0.527382 0.912337 0.333242
0.527382 0.912337 0.333242
0.527382 0.912337 0.333242
0.527382 0.912337 0.333242
0.581613 0.915526 0.448554
0.654261 0.913329 0.459907
0.733303 0.910597 0.496208
0.798169 0.911177 0.526574
0.84741 0.913695 0.514717
0.891218 0.91873 0.440879
0.934508 0.925109 0.527871
0.950652 0.924575 0.334539
0.950652 0.924575 0.334539
0.950652 0.924575 0.334539
0.950652 0.924575 0.334539
0.950652 0.924575 0.334539
0.949462 0.925841 0.419028
0.949004 0.927977 0.580896
0.94876 0.92958 0.663157
0.948043 0.930953 0.712276
0.948684 0.93022 0.736385
0.950332 0.933074 0.788678
0.950118 0.933089 0.824399
0.952773 0.932708 0.851652
0.527382 0.912337 0.333242
0.527382 0.912337 0.333242
0.527382 0.912337 0.333242
0.527382 0.912337 0.333242
0.527382 0.912337 0.333242
0.527382 0.912337 0.333242
0.527382 0.912337 0.333242
0.527382 0.912337 0.333242
0.527382 0.912337 0.333242
0.527382 0.912337 0.333242
0.527382 0.912337 0.333242
0.527382 0.912337 0.333242
0.574319 0.915938 0.449104
0.631769 0.913634 0.453819
0.694774 0.911345 0.475654
0.758526 0.909789 0.510643
0.810468 0.911131 0.52871
0.852232 0.914275 0.506767
0.891676 0.918791 0.44213
0.931151 0.925216 0.568093
0.950652 0.924575 0.334539
0.950652 0.924575 0.334539
0.950652 0.924575 0.334539
0.950652 0.924575 0.334539
0.949859 0.924392 0.324804
0.949203 0.927947 0.52781
0.948791 0.928145 0.623636
0.948623 0.931105 0.683146
0.947845 0.930755 0.721538
0.949981 0.930343 0.750774
0.950256 0.93315 0.793805
0.950164 0.933059 0.828153
0.952682 0.932662 0.853147
0.527382 0.912337 0.333242
0.527382 0.912337 0.333242
0.527382 0.912337 0.333242
0.527382 0.912337 0.333242
0.527382 0.912337 0.333242
0.527382 0.912337 0.333242
0.527382 0.912337 0.333242
0.527382 0.912337 0.333242
0.527382 0.912337 0.333242
0.545907 0.91754 0.455024
0.576745 0.915785 0.44889
0.611399 0.914427 0.451331
0.64831 0.913512 0.458015
0.69453 0.91136 0.475532
0.743893 0.910414 0.502083
0.787686 0.910399 0.523262
0.82678 0.911482 0.528313
0.861189 0.915282 0.489036
0.896071 0.919402 0.454215
0.931517 0.9252 0.563638
0.950652 0.924575 0.334539
0.950652 0.924575 0.334539
0.950652 0.924575 0.334539
0.94992 0.923934 0.313863
0.949203 0.926848 0.499168
0.948898 0.928038 0.597421
0.948775 0.929381 0.661067
0.948348 0.931197 0.703578
0.947814 0.93051 0.72932
0.950515 0.930419 0.763592
0.950164 0.933272 0.800595
0.950195 0.932998 0.832609
0.95256 0.932616 0.8551
0.584497 0.915404 0.448631
0.591028 0.915129 0.448814
0.59733 0.914885 0.44921
0.603632 0.914672 0.450156
0.609552 0.914488 0.451057
0.615427 0.914244 0.451743
0.622522 0.913909 0.45243
0.631388 0.913634 0.453727
0.642756 0.913634 0.456397
0.657816 0.913222 0.461036
0.677638 0.912123 0.468086
0.701701 0.911101 0.478996
0.729595 0.910658 0.494148
0.759243 0.909758 0.51107
0.788769 0.910475 0.523613
0.818357 0.911177 0.529335
0.845472 0.913436 0.516365
0.874311 0.916716 0.456001
0.903807 0.92047 0.475486
0.935164 0.925078 0.520043
0.95021 0.923903 0.318334
0.949859 0.924254 0.321279
0.949538 0.925856 0.402472
0.949203 0.927703 0.52137
0.948913 0.928038 0.595789
0.948837 0.928542 0.652842
0.948531 0.931228 0.693401
0.947845 0.930755 0.721706
0.948714 0.93022 0.736706
0.950454 0.931502 0.778012
0.949981 0.93312 0.80914
0.950484 0.932921 0.838254
0.952697 0.933379 0.858335
0.705776 0.910689 0.417151
0.70901 0.910872 0.422766
0.712276 0.91104 0.428229
0.715526 0.911208 0.433722
0.718563 0.911467 0.441962
0.721691 0.911803 0.451942
0.725628 0.9122 0.464302
0.730663 0.912673 0.479667
0.737667 0.912902 0.493309
0.746975 0.91281 0.504097
0.758419 0.912963 0.521172
0.772091 0.913664 0.549004
0.789548 0.913863 0.566842
0.809369 0.913527 0.587976
0.829496 0.913283 0.60882
0.850523 0.914748 0.626734
0.871427 0.916915 0.640711
0.894011 0.920134 0.63859
0.916594 0.923858 0.609094
0.940627 0.926879 0.563882
0.949096 0.927977 0.560723
0.949004 0.927977 0.58204
0.948852 0.928069 0.60592
0.948806 0.928191 0.630869
0.948775 0.929549 0.662745
0.948531 0.931228 0.693843
0.94789 0.9308 0.718196
0.947951 0.930266 0.728878
0.950515 0.930419 0.764523
0.95024 0.933165 0.794705
0.950057 0.933089 0.821012
0.952239 0.93283 0.845121
0.953002 0.934752 0.862791
0.792721 0.916259 0.573846
0.794858 0.916152 0.576013
0.796902 0.91606 0.578103
0.798962 0.915953 0.580118
0.801007 0.915862 0.582223
0.803128 0.91577 0.584421
0.805722 0.915648 0.587076
0.809186 0.915496 0.590738
0.813581 0.915282 0.595285
0.819303 0.915007 0.601083
0.826627 0.914641 0.608423
0.83566 0.914199 0.6177
0.845029 0.914244 0.630335
0.856184 0.91429 0.644633
0.86807 0.915846 0.675227
0.882002 0.917601 0.697337
0.896788 0.919676 0.70782
0.911528 0.922393 0.705104
0.928923 0.925475 0.686976
0.948394 0.9299 0.667323
0.948699 0.930587 0.672938
0.948638 0.93106 0.680323
0.948577 0.931167 0.688716
0.948486 0.931304 0.699306
0.948165 0.931044 0.708995
0.947829 0.930724 0.723598
0.947951 0.930236 0.728832
0.9505 0.930404 0.761059
0.950332 0.933059 0.788495
0.94995 0.933104 0.8103
0.950195 0.932982 0.833661
0.952773 0.932692 0.851743
0.953643 0.936004 0.868147
0.858137 0.91902 0.697566
0.859281 0.919005 0.699138
0.860334 0.91899 0.700557
0.861479 0.918975 0.702144
0.862623 0.918959 0.703716
0.863767 0.918929 0.705257
0.865171 0.918914 0.707179
0.867109 0.918883 0.709819
0.869581 0.918837 0.713207
0.872755 0.918776 0.71754
0.876341 0.918975 0.721416
0.880598 0.919417 0.725109
0.885878 0.919966 0.729809
0.892393 0.920653 0.735668
0.899779 0.921279 0.737453
0.908461 0.922072 0.739406
0.917937 0.924697 0.73846
0.928588 0.927657 0.73521
0.942336 0.929839 0.725795
0.947829 0.930724 0.723537
0.947799 0.930694 0.725902
0.947753 0.930632 0.72903
0.947814 0.93051 0.729305
0.947906 0.930327 0.729
0.948272 0.93019 0.731731
0.949798 0.930327 0.748714
0.95053 0.930434 0.76733
0.950317 0.933074 0.789395
0.950011 0.93315 0.80766
0.950164 0.933059 0.828641
0.952483 0.932815 0.846113
0.952758 0.933669 0.859281
0.955322 0.936065 0.874449
0.903227 0.923003 0.778195
0.903761 0.923064 0.778622
0.904295 0.92311 0.779004
0.904845 0.923156 0.779431
0.905379 0.923217 0.779828
0.905989 0.923278 0.780316
0.906676 0.923339 0.78085
0.907591 0.92343 0.781537
0.908827 0.923537 0.782513
