BBLuts/BB_101_0210_LUT.cube
TITLE "Generated by Resolve"
LUT_3D_SIZE 5
0.0221561 0.0221408 0.0221561
0.235096 0.0233463 0.0233463
0.783597 0.030457 0.030457
0.989273 0.533272 0.174548
0.987671 0.934554 0.781491
0.0730602 0.235401 0.0730602
0.213748 0.248493 0.085008
0.787869 0.130846 0.0275731
0.98912 0.603601 0.13135
0.987671 0.935927 0.78088
0.0289464 0.786831 0.0289464
0.0289464 0.786419 0.0289464
0.738933 0.773022 0.0241093
0.989273 0.819471 0.0246433
0.987671 0.944778 0.776303
0.614755 0.987671 0.258289
0.655482 0.986358 0.260639
0.808255 0.980163 0.280201
0.981933 0.970977 0.428992
0.987671 0.976364 0.798642
0.956298 0.987594 0.881483
0.956756 0.987594 0.881544
0.960006 0.987594 0.881895
0.977722 0.987594 0.885527
0.987625 0.987594 0.910491
0.0227054 0.0226902 0.237812
0.211902 0.0233768 0.238407
0.783139 0.0301213 0.24741
0.989044 0.515511 0.354116
0.987671 0.934188 0.796872
0.0702373 0.206989 0.207523
0.21471 0.214694 0.214725
0.78407 0.0301366 0.229892
0.988739 0.593011 0.335058
0.987671 0.935576 0.796338
0.0289006 0.783398 0.0289006
0.0288853 0.78294 0.0289006
0.743786 0.769589 0.024094
0.9888 0.817319 0.135973
0.987671 0.944503 0.792294
0.621439 0.987411 0.257694
0.660761 0.98613 0.260075
0.809949 0.980041 0.279759
0.98204 0.970932 0.428946
0.987671 0.976333 0.798566
0.956359 0.987594 0.881483
0.956832 0.987594 0.881544
0.960067 0.987594 0.88188
0.977752 0.987594 0.885512
0.987625 0.987594 0.910491
0.0261082 0.0261082 0.75996
0.0261082 0.0261082 0.760143
0.789487 0.0314183 0.75964
0.99147 0.237568 0.774731
0.98764 0.931548 0.866743
0.0260929 0.0260929 0.758358
0.0260929 0.0260929 0.758572
0.797909 0.0315251 0.758007
0.989364 0.44918 0.769116
0.98764 0.933043 0.866438
0.0269932 0.73547 0.725444
0.0269932 0.735821 0.725704
0.723644 0.723613 0.723659
0.987793 0.792981 0.744884
0.98764 0.94255 0.864302
0.623026 0.985534 0.606378
0.661006 0.984298 0.606943
0.806455 0.978378 0.612314
0.977218 0.969604 0.664515
0.98764 0.975845 0.848386
0.956893 0.987594 0.881437
0.957336 0.987594 0.881483
0.960525 0.987594 0.881819
0.97792 0.987594 0.885466
0.987625 0.987594 0.910491
0.0282597 0.0282597 0.991745
0.0282597 0.0282597 0.991745
0.0282597 0.0282597 0.991745
0.996551 0.035462 0.996597
0.987655 0.898054 0.971206
0.0282597 0.0282597 0.991745
0.0282597 0.0282597 0.991745
0.0282597 0.0282597 0.991745
0.996551 0.035462 0.996597
0.98764 0.901289 0.970977
0.0282597 0.0282597 0.991745
0.0282597 0.0282597 0.991745
0.39855 0.0287175 0.99205
0.996551 0.035462 0.996597
0.98764 0.920714 0.969512
0.0295872 0.990784 0.968231
0.029572 0.989059 0.968063
0.672541 0.97406 0.962615
0.961471 0.96144 0.961501
0.98761 0.972045 0.964828
0.953994 0.987594 0.943404
0.954421 0.987594 0.94342
0.957534 0.987579 0.943526
0.974655 0.987579 0.944579
0.98761 0.987579 0.953399
0.025803 0.340566 0.990097
0.025803 0.340566 0.990097
0.025803 0.340581 0.990097
0.025803 0.340749 0.990097
0.988113 0.698344 0.988144
0.025803 0.340551 0.990097
0.025803 0.340551 0.990097
0.025803 0.340566 0.990097
0.025803 0.340734 0.990097
0.988113 0.698451 0.988144
0.025803 0.340429 0.990097
0.025803 0.340429 0.990097
0.025803 0.340444 0.990097
0.429206 0.317357 0.988815
0.988113 0.699306 0.988144
0.025803 0.339193 0.990097
0.025803 0.339193 0.990097
0.025803 0.339208 0.990097
0.996551 0.035462 0.996597
0.988098 0.702007 0.988128
0.893324 0.987625 0.987686
0.895338 0.98761 0.987686
0.908553 0.98761 0.987671
0.958633 0.987579 0.987655
0.98761 0.987579 0.98764
