BBLuts/BB_106_0260_LUT.cube
TITLE "Generated by Resolve"
LUT_3D_SIZE 5
0.00764477 0.0238346 0.0493172
0.211902 0.0301823 0.0542
0.768368 0.331609 0.41529
0.960357 0.668223 0.68423
0.943206 0.954437 0.781903
0 0.228077 0.0251469
0.145968 0.234226 0.0300298
0.772992 0.375296 0.423194
0.959289 0.689937 0.681025
0.943069 0.955749 0.780118
0 0.799527 0
0 0.799115 0
0.698177 0.790814 0
0.951385 0.843015 0.609171
0.942061 0.964218 0.7664
0 1 0
0 1 0
0.574548 0.998169 0
0.934462 0.990967 0
0.938125 0.995163 0.770687
0.903975 1 0.884627
0.904479 1 0.884718
0.90811 1 0.88539
0.927626 1 0.890761
0.9393 1 0.921706
0.0305638 0.0408331 0.249302
0.207355 0.0459602 0.255085
0.767895 0.338537 0.464103
0.96051 0.664973 0.688334
0.943404 0.954345 0.802396
0 0.204379 0.212421
0.183871 0.204425 0.201877
0.76875 0.339529 0.461234
0.959487 0.685893 0.685252
0.943252 0.955673 0.800946
0 0.796094 0
0 0.795621 0
0.704677 0.787472 0
0.951461 0.841505 0.614267
0.942229 0.964187 0.78999
0 1 0
0 1 0
0.593759 0.998047 0
0.934585 0.990921 0
0.93814 0.995132 0.77055
0.904036 1 0.884627
0.904555 1 0.884733
0.908186 1 0.885359
0.927642 1 0.890745
0.9393 1 0.921706
0.558831 0.563027 0.792462
0.55906 0.563272 0.792645
0.771511 0.580255 0.791577
0.960632 0.678065 0.823468
0.94493 0.953841 0.88542
0.556909 0.560922 0.79089
0.557168 0.561227 0.791104
0.778927 0.580484 0.790173
0.960266 0.684611 0.820325
0.944778 0.95523 0.884779
0 0.753796 0.743023
0 0.754131 0.743267
0.704356 0.747967 0.736431
0.952834 0.824125 0.789487
0.943709 0.964096 0.880201
0 1 0
0 1 0
0.585031 0.997086 0
0.930114 0.990097 0
0.93904 0.995468 0.84889
0.904631 1 0.884581
0.905135 1 0.884672
0.908675 1 0.885313
0.927825 1 0.8907
0.9393 1 0.921706
0.77879 0.80177 1
0.77879 0.80177 1
0.77879 0.80177 1
0.963027 0.814054 1
0.953063 0.934142 0.996841
0.77879 0.80177 1
0.77879 0.80177 1
0.77879 0.80177 1
0.963027 0.814054 1
0.952819 0.93669 0.996429
0.77879 0.80177 1
0.77879 0.80177 1
0.779934 0.801801 1
0.963027 0.814054 1
0.951156 0.952407 0.99379
0 1 0.978195
0 1 0.978256
0.573785 0.996689 0.978668
0.920729 0.986664 0.981476
0.945205 0.996963 0.984451
0.906279 1 0.958083
0.906737 1 0.958114
0.910002 1 0.958312
0.927947 1 0.959991
0.94197 1 0.970108
0.778653 0.802792 1
0.778653 0.802792 1
0.778653 0.802792 1
0.778653 0.802792 1
0.96173 0.837308 1
0.778653 0.802792 1
0.778653 0.802792 1
0.778653 0.802792 1
0.778653 0.802792 1
0.961715 0.837354 1
0.778653 0.802792 1
0.778653 0.802792 1
0.778653 0.802792 1
0.780179 0.802686 1
0.9617 0.837537 1
0.778653 0.802792 1
0.778653 0.802792 1
0.778653 0.802792 1
0.963027 0.814054 1
0.961669 0.838193 1
0.853147 1 1
0.855116 1 1
0.867994 1 1
0.916899 1 1
0.94522 1 1
