BBLuts/BB_103_0635_LUT.cube
TITLE "Generated by Resolve"
LUT_3D_SIZE 9
0 0 0
0 0 0
0.183093 0 0
0.500023 0 0
0.815625 0 0
0.882246 0 0
0.84979 0.546044 0.024033
0.832746 0.794568 0.315511
0.824262 0.899687 0.594354
0 0 0
0 0 0
0.188006 0 0
0.507073 0 0
0.815076 0 0
0.87274 0.128328 0
0.847807 0.570993 0.0112306
0.832425 0.799084 0.313481
0.824216 0.900435 0.594034
0 0.216159 0
0 0.217411 0
0.113878 0.210468 0
0.500847 0.17995 0
0.795926 0.150958 0
0.858961 0.358404 0
0.843931 0.618387 0
0.831693 0.808927 0.308766
0.824094 0.902129 0.593286
0 0.560784 0
0 0.561273 0
0 0.561288 0
0.42179 0.554421 0
0.755703 0.553857 0
0.841672 0.60853 0
0.834775 0.719768 0
0.829801 0.834607 0.294362
0.823743 0.907195 0.590829
0 0.831617 0
0 0.831052 0
0 0.829358 0
0.22092 0.820752 0
0.680095 0.810727 0
0.811749 0.813642 0
0.825956 0.836545 0
0.826612 0.87837 0.305898
0.822858 0.919692 0.58349
0 0.929412 0
0 0.928588 0
0 0.926406 0
0.41059 0.918486 0
0.662333 0.910277 0
0.778698 0.905257 0
0.823651 0.910658 0.0992752
0.823438 0.921202 0.363119
0.82153 0.937179 0.591577
0.533578 0.961532 0.178393
0.544228 0.961517 0.179019
0.566323 0.961517 0.18056
0.619211 0.961364 0.185702
0.702068 0.957382 0.201694
0.773129 0.953933 0.237919
0.820264 0.951843 0.319463
0.820935 0.951904 0.471763
0.82005 0.955016 0.626047
0.717952 0.963516 0.522988
0.719326 0.963531 0.52314
0.722438 0.963546 0.523507
0.731731 0.963638 0.524681
0.753292 0.963836 0.528313
0.783459 0.964111 0.537148
0.813123 0.964385 0.557778
0.819501 0.964355 0.605737
0.819089 0.964141 0.682399
0.784298 0.963729 0.705562
0.784512 0.963729 0.705577
0.785031 0.963729 0.705638
0.786694 0.963745 0.705837
0.791196 0.96379 0.706432
0.799588 0.963867 0.707881
0.811795 0.963973 0.711482
0.818875 0.964019 0.719982
0.818753 0.963958 0.739391
0 0 0
0 0 0
0.188373 0 0
0.501915 0 0
0.817639 0 0
0.885863 0 0
0.850889 0.541619 0.103105
0.832807 0.793637 0.349432
0.824247 0.899489 0.602487
0 0 0
0 0 0
0.189425 0 0
0.504524 0 0
0.816052 0 0
0.87776 0.0898756 0
0.848966 0.5673 0.0941787
0.832471 0.798199 0.347646
0.824186 0.900236 0.602182
0 0.205463 0
0 0.206928 0
0.128252 0.199298 0
0.497551 0.168765 0
0.79585 0.132647 0
0.86038 0.350393 0
0.845182 0.616251 0.0721294
0.831739 0.808148 0.343526
0.824063 0.90193 0.60148
0 0.557778 0
0 0.558221 0
0 0.55816 0
0.428702 0.551202 0
0.755718 0.551247 0
0.84181 0.606607 0
0.836332 0.720104 0
0.829847 0.834073 0.33077
0.823713 0.907027 0.599191
0 0.831022 0
0 0.830442 0
0 0.828733 0
0.236545 0.820111 0
0.681208 0.810208 0
0.811902 0.81326 0
0.825925 0.836255 0
0.826612 0.878248 0.306966
0.822828 0.919554 0.592309
0 0.929213 0
0 0.928374 0
0 0.926131 0
0.414664 0.918318 0
0.663081 0.909728 0
0.778881 0.905165 0
0.823667 0.910597 0.0990616
0.823438 0.921172 0.362936
0.821546 0.937163 0.591531
0.53521 0.961517 0.178271
0.545739 0.961517 0.178897
0.56759 0.961501 0.180438
0.62002 0.961334 0.18558
0.702388 0.957351 0.201587
0.773236 0.953918 0.237842
0.820264 0.951827 0.319432
0.820935 0.951904 0.471717
0.82005 0.955016 0.626017
0.718166 0.963516 0.522972
0.719524 0.963531 0.523125
0.722637 0.963546 0.523491
0.731899 0.963638 0.524666
0.753399 0.963836 0.528298
0.78352 0.964111 0.537118
0.813138 0.964385 0.557763
0.819501 0.964355 0.605722
0.819089 0.964141 0.682399
0.784329 0.963729 0.705547
0.784543 0.963729 0.705577
0.785061 0.963729 0.705638
0.786725 0.963745 0.705837
0.791211 0.96379 0.706416
0.799603 0.963867 0.707881
0.81181 0.963989 0.711482
0.818875 0.964019 0.719966
0.818753 0.963958 0.739391
0 0 0.117494
0 0 0.117464
0.163561 0 0.110521
0.51754 0 0.107134
0.820325 0 0.120546
0.891783 0 0.157748
0.852384 0.529015 0.238148
0.832883 0.791287 0.412833
0.824186 0.899016 0.619242
0 0 0.113878
0 0 0.113924
0.185153 0 0.107027
0.514183 0 0.103548
0.819608 0 0.115801
0.88481 0 0.150454
0.850416 0.556237 0.232959
0.832547 0.795972 0.411475
0.82414 0.899763 0.618982
0 0.167666 0.0926528
0 0.169924 0.0927749
0.122484 0.161364 0.0869917
0.489311 0.130388 0.0876936
0.804211 0.0329595 0.0991073
0.865766 0.323156 0.130602
0.846571 0.608362 0.219944
0.8318 0.806165 0.408362
0.824018 0.901488 0.618372
0 0.547967 0
0 0.548501 0
0 0.548592 0
0.430716 0.541894 0
0.756588 0.543496 0.00158694
0.846098 0.601984 0.0553902
0.838239 0.717433 0.179416
0.829862 0.83267 0.398947
0.823651 0.906615 0.616403
0 0.829343 0
0 0.828748 0
0 0.827024 0
0.250324 0.818418 0
0.682414 0.808637 0
0.811841 0.811978 0
0.828763 0.838499 0.07776
0.826612 0.877668 0.373999
0.822751 0.919234 0.610559
0 0.928725 0
0 0.927901 0
0 0.92546 0
0.424018 0.917922 0
0.664759 0.909468 0
0.779293 0.904967 0
0.823667 0.910445 0.0985275
0.823438 0.92108 0.362493
0.821515 0.937057 0.598001
0.53901 0.961517 0.177966
0.549249 0.961501 0.178607
0.570535 0.961501 0.180148
0.621897 0.961242 0.185321
0.703166 0.95729 0.201343
0.773495 0.953872 0.237644
0.820279 0.951797 0.319387
0.820935 0.951888 0.471595
0.82005 0.955001 0.625925
0.718639 0.963516 0.522911
0.719997 0.963531 0.523064
0.723079 0.963561 0.523415
0.732296 0.963638 0.524605
0.753658 0.963836 0.528237
0.783642 0.964126 0.537072
0.813169 0.964385 0.557717
0.819501 0.964355 0.605707
0.819089 0.964141 0.682368
0.784405 0.963729 0.705547
0.784619 0.963729 0.705562
0.785138 0.963729 0.705623
0.786801 0.963745 0.705821
0.791272 0.96379 0.706416
0.799649 0.963867 0.707881
0.811826 0.963989 0.711467
0.818875 0.964019 0.719966
0.818753 0.963958 0.739391
0 0 0.424903
0 0 0.425086
0 0 0.423651
0.506294 0 0.417304
0.832746 0 0.421775
0.892622 0 0.438651
0.856001 0.477012 0.470481
0.833082 0.782895 0.545419
0.824063 0.89749 0.660304
0 0 0.423453
0 0 0.423651
0 0 0.421057
0.515358 0 0.415732
0.831678 0 0.420218
0.892546 0 0.436606
0.853605 0.511269 0.467964
0.832715 0.787991 0.544549
0.824018 0.898283 0.660105
0 0 0.418311
0 0 0.418418
0.0121157 0 0.415396
0.519341 0 0.411933
0.82414 0 0.415778
0.877546 0.132662 0.430182
0.848966 0.575509 0.462196
0.831907 0.799023 0.542535
0.823896 0.900038 0.659648
0 0.503746 0.386297
0 0.504784 0.386572
0 0.505409 0.387137
0.421363 0.498116 0.384085
0.750011 0.502235 0.389609
0.849485 0.570001 0.405463
0.839536 0.701015 0.445365
0.829831 0.827573 0.536614
0.823514 0.905333 0.658183
0 0.827756 0.31165
0 0.827253 0.312169
0 0.825666 0.313375
0.171237 0.81706 0.312444
0.681514 0.806867 0.324178
0.812665 0.811215 0.354757
0.829648 0.835264 0.413275
0.826383 0.875181 0.522148
0.822583 0.918242 0.653986
0 0.932723 0.173678
0 0.931899 0.174502
0 0.929442 0.174777
0.420645 0.921843 0.181353
0.666041 0.913451 0.2103
0.780758 0.909117 0.264454
0.824231 0.910399 0.360357
0.823194 0.92015 0.493599
0.821317 0.9364 0.644511
0.550805 0.961486 0.177005
0.560159 0.961471 0.177661
0.579797 0.961471 0.179217
0.627878 0.960937 0.184436
0.705638 0.957061 0.200549
0.774334 0.953735 0.237003
0.820325 0.95169 0.320424
0.820951 0.951797 0.472984
0.82005 0.95494 0.627298
0.720226 0.963531 0.522728
0.721538 0.963546 0.522866
0.724559 0.963577 0.523232
0.733547 0.963653 0.524422
0.754513 0.963851 0.528054
0.784054 0.964126 0.536889
0.813321 0.964385 0.557565
0.819516 0.964355 0.605676
0.819089 0.964141 0.682292
0.784649 0.963729 0.705516
0.784894 0.963729 0.705531
0.785397 0.963729 0.705592
0.78703 0.963745 0.705791
0.791485 0.96379 0.706386
0.799771 0.963867 0.707851
0.811902 0.963989 0.711452
0.818875 0.964019 0.719936
0.818753 0.963958 0.739391
0 0 0.704555
0 0 0.704585
0 0 0.704662
0.351217 0 0.697246
0.822507 0 0.692775
0.89163 0 0.695018
0.875303 0.154971 0.69839
0.834638 0.751415 0.697505
0.824002 0.892973 0.725536
0 0 0.70428
0 0 0.704311
0 0 0.704387
0.372717 0 0.696712
0.824994 0 0.692485
0.89163 0 0.694728
0.869627 0.252811 0.696574
0.834119 0.758511 0.69688
0.823941 0.893828 0.725399
0 0 0.703609
0 0 0.703655
0 0 0.703685
0.41178 0 0.695552
0.827344 0 0.691783
0.891646 0 0.693828
0.8598 0.40853 0.692485
0.833005 0.773495 0.695537
0.823804 0.895796 0.725124
0 0.264805 0.69308
0 0.267887 0.693019
0 0.273289 0.692775
0.389212 0.246571 0.686671
0.796094 0.202838 0.68452
0.861479 0.384817 0.682948
0.843839 0.631327 0.681498
0.83032 0.809979 0.691966
0.823377 0.90161 0.724239
0 0.799893 0.658427
0 0.79968 0.658427
0 0.798672 0.658442
0 0.792203 0.656855
0.666728 0.779889 0.653635
0.802747 0.788525 0.656687
0.829801 0.81915 0.664698
0.826139 0.867338 0.684886
0.8224 0.915114 0.721859
0 0.930083 0.63447
0 0.929244 0.634501
0 0.927291 0.634577
0.305959 0.918517 0.629816
0.64268 0.90901 0.631022
0.768414 0.904311 0.636957
0.822736 0.906126 0.64976
0.822599 0.916503 0.674891
0.820996 0.934752 0.717113
0.518975 0.961639 0.58761
0.529992 0.961624 0.587732
0.552728 0.961593 0.588022
0.607462 0.959503 0.589105
0.691203 0.95584 0.592721
0.763073 0.95227 0.601511
0.812573 0.950011 0.620813
0.820233 0.950271 0.656794
0.819654 0.953979 0.707424
0.724743 0.963577 0.522118
0.725978 0.963592 0.522271
0.728786 0.963607 0.522622
0.737209 0.963684 0.523827
0.75697 0.963867 0.527459
0.78529 0.964141 0.536324
0.813733 0.964385 0.557061
0.819471 0.96434 0.613321
0.819059 0.964126 0.689052
0.785458 0.963729 0.705425
0.785672 0.963729 0.70544
0.786175 0.963745 0.705501
0.787762 0.96376 0.705699
0.792081 0.963806 0.706294
0.800198 0.963882 0.707759
0.8121 0.963989 0.71136
0.818875 0.964019 0.719875
0.818753 0.963958 0.739376
0 0 0.81828
0 0 0.81828
0 0 0.818296
0 0 0.818067
0.75465 0 0.805127
0.891005 0 0.803082
0.891005 0 0.80322
0.846006 0.594491 0.789776
0.824567 0.880232 0.780713
0 0 0.818235
0 0 0.818235
0 0 0.81825
0 0 0.817945
0.758679 0 0.805035
0.891005 0 0.803037
0.891005 0 0.803174
0.84448 0.61442 0.788754
0.824475 0.881361 0.780606
0 0 0.818112
0 0 0.818128
0 0 0.818143
0 0 0.817639
0.767865 0 0.804822
0.891005 0 0.802915
0.891005 0 0.803052
0.841428 0.6542 0.786572
0.824292 0.88394 0.780377
0 0 0.817746
0 0 0.817761
0 0 0.817777
0.0148318 0 0.813855
0.786297 0 0.804257
0.891005 0 0.802518
0.880308 0.0548562 0.799771
0.834867 0.741054 0.780728
0.823743 0.891508 0.779644
0 0.664729 0.789715
0 0.665431 0.78967
0 0.667002 0.789578
0 0.666438 0.788235
0.673152 0.65481 0.780941
0.832929 0.680598 0.778805
0.833875 0.754879 0.775082
0.827283 0.843854 0.772946
0.822522 0.908431 0.77789
0 0.921752 0.768383
0 0.921065 0.768322
0 0.91928 0.768185
0 0.912428 0.767269
0.608591 0.89778 0.761135
0.760128 0.892683 0.761578
0.820096 0.896361 0.762905
0.822507 0.909651 0.7664
0.820859 0.931319 0.775067
0.404486 0.960845 0.751507
0.429221 0.960815 0.7514
0.474067 0.960693 0.751247
0.55816 0.957839 0.751064
0.668025 0.953475 0.751247
0.750805 0.949584 0.752194
0.804807 0.947356 0.754665
0.81973 0.94815 0.760174
0.819333 0.952544 0.770932
0.706035 0.962875 0.734356
0.707439 0.96289 0.734371
0.710628 0.962921 0.734432
0.720104 0.963012 0.734615
0.742092 0.963211 0.735164
0.772564 0.9635 0.736553
0.803616 0.963806 0.739971
0.818692 0.963928 0.748028
0.818586 0.963867 0.763302
0.786847 0.963729 0.709606
0.787045 0.963745 0.709636
0.787518 0.963745 0.709682
0.789014 0.96376 0.709865
0.793103 0.96379 0.710445
0.800839 0.963867 0.711864
0.812299 0.963973 0.715328
0.818845 0.964004 0.723857
0.818708 0.963928 0.744961
0 0 0.840986
0 0 0.840986
0 0 0.840986
0 0 0.840986
0.376867 0 0.836179
0.890776 0 0.8374
0.890776 0 0.8374
0.885756 0 0.837491
0.82884 0.81799 0.822339
0 0 0.840986
0 0 0.840986
0 0 0.840986
0 0 0.840986
0.392981 0 0.836133
0.890776 0 0.8374
0.890776 0 0.8374
0.885771 0 0.837491
0.82858 0.82153 0.822095
0 0 0.840986
0 0 0.840986
0 0 0.840986
0 0 0.840986
0.427085 0 0.836042
0.890776 0 0.8374
0.890776 0 0.8374
0.885481 0 0.837461
0.828016 0.82916 0.821561
0 0 0.840986
0 0 0.840986
0 0 0.840986
0 0 0.840986
0.514015 0 0.835904
0.890776 0 0.8374
0.890776 0 0.8374
0.884581 0 0.837171
0.826581 0.848753 0.820157
0 0 0.840986
0 0 0.840986
0 0 0.840986
0 0 0.840986
0.654002 0 0.836042
0.890776 0 0.8374
0.887984 0 0.837339
0.842527 0.63592 0.829664
0.823987 0.884443 0.817395
0 0.866072 0.8271
0 0.866209 0.8271
0 0.866514 0.82707
0 0.866575 0.826917
0.491997 0.8477 0.819455
0.765194 0.842069 0.818235
0.825742 0.854353 0.817075
0.824002 0.884306 0.815335
0.821302 0.92134 0.814298
0 0.963851 0.816297
0 0.96376 0.816175
0 0.963531 0.81593
0.330343 0.957687 0.810254
0.617517 0.950088 0.809125
0.737545 0.944778 0.809079
0.801129 0.942351 0.809323
0.819684 0.944045 0.809888
0.819257 0.94966 0.811429
0.677806 0.962356 0.80473
0.679774 0.962371 0.80473
0.684199 0.962402 0.80473
0.697017 0.962524 0.80473
0.725673 0.962783 0.804776
0.762722 0.963134 0.804913
0.797925 0.963485 0.805325
0.818189 0.963684 0.806424
0.81828 0.963668 0.808804
0.778576 0.963317 0.797284
0.77879 0.963333 0.797284
0.779324 0.963333 0.797299
0.780987 0.963348 0.79733
0.785534 0.963394 0.797421
0.794003 0.96347 0.797665
0.806424 0.963592 0.79826
0.81767 0.963714 0.799802
0.818326 0.963699 0.803357
0 0 0.840482
0 0 0.840482
0 0 0.840482
0 0 0.840482
0 0 0.840482
0.644388 0 0.836286
0.890776 0 0.8374
0.881468 0.0288853 0.837247
0.846647 0.581689 0.833158
0 0 0.840482
0 0 0.840482
0 0 0.840482
0 0 0.840482
0 0 0.840482
0.647257 0 0.836301
0.890776 0 0.8374
0.881453 0.0292515 0.837247
0.846647 0.581659 0.833158
0 0 0.840482
0 0 0.840482
0 0 0.840482
0 0 0.840482
0 0 0.840482
0.653132 0 0.836316
0.890776 0 0.8374
0.881407 0.0300908 0.837247
0.846647 0.581613 0.833158
0 0 0.840482
0 0 0.840482
0 0 0.840482
0 0 0.840482
0 0 0.840482
0.670298 0 0.836423
0.890776 0 0.8374
0.881254 0.0327459 0.837232
0.846662 0.58146 0.833158
0 0 0.840497
0 0 0.840497
0 0 0.840497
0 0 0.840497
0 0 0.840497
0.793973 0 0.836728
0.890776 0 0.8374
0.880354 0.0492714 0.837201
0.846693 0.580972 0.833158
0 0 0.840528
0 0 0.840528
0 0 0.840528
0 0 0.840528
0 0 0.840528
0.867353 0 0.837232
0.886748 0 0.837583
0.864271 0.326238 0.835645
0.828672 0.819272 0.83061
0 0.949493 0.834775
0 0.949508 0.834775
0 0.949569 0.834775
0 0.949752 0.834775
0 0.941497 0.832486
0.696269 0.921675 0.829267
0.803525 0.919158 0.829725
0.820935 0.924895 0.829755
0.819944 0.938369 0.829648
0.428962 0.960967 0.828611
0.434684 0.960983 0.82858
0.507988 0.961196 0.828397
0.583398 0.961563 0.828275
0.671366 0.962188 0.82826
0.742214 0.962829 0.828321
0.792065 0.963043 0.828412
0.817151 0.962463 0.82855
0.818189 0.962875 0.828702
0.766232 0.963073 0.827024
0.766552 0.963073 0.827024
0.767285 0.963073 0.827024
0.769604 0.963104 0.827024
0.776181 0.963165 0.827039
0.787228 0.963272 0.827085
0.802365 0.963424 0.827146
0.815961 0.963561 0.827298
0.818143 0.963592 0.827604
0 0.204547 0.838605
0 0.204547 0.838605
0 0.204547 0.838605
0 0.204578 0.838621
0 0.204593 0.838621
0 0.204654 0.838605
0.820813 0 0.837217
0.869078 0.247959 0.83624
0.843656 0.620981 0.832685
0 0.204547 0.838605
0 0.204547 0.838605
0 0.204547 0.838605
0 0.204547 0.838605
0 0.204593 0.838621
0 0.204654 0.838605
0.820829 0 0.837217
0.869047 0.24828 0.83624
0.843656 0.621027 0.832685
0 0.204517 0.838605
0 0.204517 0.838605
0 0.204517 0.838605
0 0.204532 0.838621
0 0.204562 0.838605
0 0.204623 0.838605
0.82089 0 0.837217
0.869001 0.249058 0.83624
0.843641 0.621134 0.832685
0 0.204471 0.838621
0 0.204471 0.838621
0 0.204471 0.838621
0 0.204471 0.838621
0 0.204486 0.838621
0 0.204562 0.838605
0.820935 0 0.837232
0.868849 0.251575 0.836225
0.84361 0.62153 0.83267
0 0.204242 0.838621
0 0.204242 0.838621
0 0.204242 0.838621
0 0.204257 0.838621
0 0.204288 0.838621
0 0.204349 0.838605
0.860212 0 0.837537
0.868391 0.259174 0.836164
0.843534 0.622614 0.832654
0 0.203708 0.838621
0 0.203708 0.838621
0 0.203708 0.838621
0 0.203723 0.838621
0 0.203738 0.838621
0 0.203525 0.838621
0.884932 0 0.837369
0.867338 0.276555 0.836027
0.843427 0.623865 0.832639
0 0.202274 0.838621
0 0.202274 0.838621
0 0.202274 0.838621
0 0.202289 0.838621
0 0.202319 0.838621
0 0.176974 0.83801
0.890776 0 0.8374
0.861357 0.372366 0.835279
0.839811 0.671168 0.83209
0 0.963836 0.834714
0 0.963836 0.834714
0 0.963836 0.834714
0 0.963836 0.834714
0 0.963897 0.834562
0.405005 0.960479 0.829007
0.773968 0.954528 0.829328
0.817777 0.95349 0.829526
0.818677 0.955673 0.829511
0.701762 0.962448 0.828977
0.703288 0.962463 0.828992
0.706691 0.962493 0.828992
0.716442 0.962585 0.829038
0.73727 0.962783 0.829114
0.765408 0.963058 0.829221
0.794217 0.963333 0.829343
0.813901 0.963531 0.829435
0.818143 0.963577 0.829465
