BBLuts/BB_104_0310_LUT.cube
TITLE "Generated by Resolve"
LUT_3D_SIZE 5
0.0476081 0.0559548 0.0666514
0.208667 0.0570687 0.0696574
0.732967 0.291112 0.329122
0.885481 0.636652 0.619394
0.869383 0.858946 0.699229
0.0320134 0.207813 0.053727
0.158145 0.212345 0.0562295
0.738567 0.334844 0.340185
0.884291 0.655406 0.616571
0.869307 0.859892 0.697856
0.00169375 0.734142 0.023331
0.00164797 0.733776 0.0232853
0.679149 0.732677 0.033875
0.87628 0.779446 0.550317
0.868788 0.866041 0.68716
0.0310979 0.905592 0.0601358
0.0309758 0.904662 0.059968
0.584726 0.898238 0.0545357
0.865675 0.887495 0.0438087
0.866255 0.887968 0.691142
0.841474 0.895827 0.776562
0.841825 0.895842 0.776623
0.844404 0.895872 0.777096
0.858244 0.896071 0.78088
0.866529 0.896681 0.802747
0.0662394 0.0683909 0.198672
0.205463 0.0697185 0.200168
0.733043 0.298192 0.374075
0.885649 0.633814 0.622843
0.869368 0.858717 0.715145
0.0433967 0.190723 0.175509
0.188357 0.189425 0.176638
0.733776 0.299184 0.371603
0.88452 0.651911 0.620157
0.869276 0.859663 0.714046
0.00141909 0.731151 0.0229343
0.00138857 0.730739 0.0228885
0.684565 0.729854 0.0337377
0.876295 0.778256 0.555749
0.868727 0.865812 0.70573
0.0310674 0.905409 0.0601053
0.0309453 0.904494 0.0599374
0.599557 0.897551 0.0533761
0.865766 0.887449 0.0438087
0.86627 0.887953 0.691035
0.84152 0.895827 0.776562
0.841886 0.895842 0.776638
0.84445 0.895872 0.777081
0.858259 0.896071 0.780865
0.866529 0.896681 0.802747
0.553674 0.527443 0.700816
0.553887 0.527687 0.700969
0.741283 0.545739 0.700877
0.885481 0.645106 0.732525
0.870069 0.857908 0.776211
0.551873 0.525353 0.69955
0.552117 0.525643 0.699718
0.74728 0.546181 0.699901
0.885054 0.65069 0.730007
0.869963 0.8589 0.775769
0.0043183 0.698833 0.659617
0.00433356 0.699123 0.659831
0.682719 0.699718 0.668589
0.876066 0.76376 0.703883
0.869307 0.865202 0.772656
0.0309453 0.904479 0.0599374
0.030808 0.903609 0.0597543
0.592004 0.897139 0.0539101
0.862562 0.88687 0.0438087
0.866392 0.887602 0.750576
0.841932 0.895842 0.776532
0.842283 0.895842 0.776608
0.8448 0.895872 0.77705
0.858396 0.896071 0.780835
0.866529 0.896681 0.802747
0.748669 0.744915 0.866148
0.748669 0.744915 0.866148
0.748669 0.744915 0.866148
0.883619 0.756024 0.868452
0.875578 0.843748 0.853071
0.748669 0.744915 0.866148
0.748669 0.744915 0.866148
0.748669 0.744915 0.866148
0.883619 0.756024 0.868452
0.875425 0.845548 0.852811
0.748669 0.744915 0.866148
0.748669 0.744915 0.866148
0.749554 0.74493 0.866163
0.883619 0.756024 0.868452
0.874372 0.856733 0.85124
0.0301671 0.909377 0.855222
0.0300908 0.908156 0.855177
0.582971 0.894926 0.848768
0.853071 0.881086 0.843427
0.870604 0.888395 0.845579
0.84303 0.897383 0.827817
0.843351 0.897383 0.827832
0.845685 0.897414 0.82797
0.858442 0.897597 0.829099
0.868437 0.89807 0.835996
0.748547 0.745724 0.866133
0.748547 0.745724 0.866133
0.748547 0.745724 0.866133
0.748547 0.745724 0.866133
0.882139 0.773281 0.867475
0.748547 0.745724 0.866133
0.748547 0.745724 0.866133
0.748547 0.745724 0.866133
0.748547 0.745724 0.866133
0.882139 0.773312 0.867475
0.748547 0.745724 0.866133
0.748547 0.745724 0.866133
0.748547 0.745724 0.866133
0.749737 0.745647 0.866148
0.882124 0.773449 0.86746
0.748547 0.745724 0.866133
0.748547 0.745724 0.866133
0.748547 0.745724 0.866133
0.883619 0.756024 0.868452
0.882094 0.773953 0.867445
0.805249 0.899184 0.860441
0.806653 0.899168 0.860441
0.815854 0.899214 0.860502
0.850584 0.899519 0.860868
0.870787 0.899779 0.861204
