BBLuts/BB_102_0100_LUT.cube
TITLE "Generated by Resolve"
LUT_3D_SIZE 9
0 0 0
0.0242771 0 0
0.196796 0 0
0.511452 0 0
0.81146 0 0
0.893599 0.0168765 0
0.870756 0.619593 0.0401617
0.860716 0.843702 0.312016
0.854749 0.94107 0.606424
0 0.0327764 0
0 0.0384527 0
0.205325 0.013077 0
0.519051 0 0
0.81091 0 0
0.888838 0.190936 0
0.869627 0.633707 0.0343175
0.860563 0.845609 0.310994
0.854734 0.941299 0.606302
0 0.220615 0
0 0.221973 0
0.130999 0.225696 0
0.529122 0.194751 0
0.809079 0.159442 0
0.880079 0.370886 0
0.866865 0.66482 0.0187228
0.860166 0.850813 0.308385
0.854688 0.941909 0.605982
0 0.576974 0
0 0.577508 0
0 0.57789 0
0.430274 0.587549 0
0.769268 0.583368 0
0.863722 0.635966 0
0.858793 0.748012 0
0.858763 0.869749 0.308202
0.854475 0.944884 0.604318
0 0.829267 0
0 0.829252 0
0 0.827878 0
0.123781 0.833646 0
0.68838 0.831434 0
0.830976 0.833402 0
0.850568 0.859113 0
0.855985 0.909224 0.327993
0.853773 0.95436 0.600031
0 0.924697 0
0 0.924697 0
0 0.924697 0
0.293919 0.935775 0
0.6645 0.931884 0
0.79472 0.926848 0
0.850492 0.937377 0.122515
0.853208 0.95169 0.392218
0.852552 0.970596 0.613779
0.55964 0.988754 0.201236
0.55964 0.988754 0.201236
0.559625 0.988754 0.201236
0.564248 0.988708 0.201633
0.705196 0.987732 0.220645
0.793378 0.984222 0.257588
0.847761 0.982742 0.342718
0.851301 0.984253 0.503731
0.851179 0.988571 0.648295
0.745205 0.996017 0.552865
0.745205 0.996017 0.552865
0.745205 0.996017 0.552865
0.745205 0.996017 0.552865
0.753964 0.996124 0.553857
0.803738 0.996765 0.563226
0.840925 0.997238 0.582757
0.850523 0.997497 0.627894
0.850355 0.997589 0.705608
0.813993 0.997192 0.731319
0.813993 0.997192 0.731319
0.813993 0.997192 0.731319
0.813993 0.997192 0.731319
0.813993 0.997192 0.731319
0.818143 0.997238 0.731853
0.839139 0.997452 0.736156
0.850202 0.997559 0.745144
0.850095 0.997513 0.764965
0 0 0.0208743
0 0 0.0198672
0.198901 0 0.0109255
0.512581 0 0
0.813169 0 0
0.897002 0.00415045 0.00425727
0.8719 0.618769 0.0718395
0.860716 0.843687 0.312032
0.854749 0.94107 0.606424
0 0.0149844 0.016083
0.00204471 0.018265 0.0155184
0.201984 0 0.00996414
0.514794 0 0
0.811444 0 0
0.892515 0.173556 0
0.870787 0.63299 0.0637827
0.860563 0.845609 0.310994
0.854734 0.941299 0.606302
0 0.21001 0
0 0.211551 0
0.144778 0.214694 0
0.525032 0.183688 0
0.808347 0.142596 0
0.8813 0.362737 0
0.868009 0.664546 0.042649
0.860166 0.850813 0.308385
0.854688 0.941909 0.605982
0 0.573022 0
0 0.573495 0
0 0.57377 0
0.438102 0.583459 0
0.769207 0.579919 0
0.863844 0.634028 0
0.858961 0.747524 0
0.858778 0.869673 0.307988
0.854475 0.944884 0.604318
0 0.828443 0
0 0.828443 0
0 0.827131 0
0.144228 0.833417 0
0.689433 0.830823 0
0.831159 0.833005 0
0.850507 0.858839 0
0.855985 0.909224 0.327993
0.853773 0.95436 0.600031
0 0.924422 0
0 0.924468 0
0 0.924468 0
0.300847 0.935729 0
0.665293 0.931762 0
0.794873 0.926757 0
0.850507 0.937331 0.122362
0.853208 0.95169 0.392218
0.852552 0.970596 0.613779
0.561379 0.988785 0.201129
0.561364 0.988785 0.201129
0.561364 0.988785 0.201129
0.565866 0.988724 0.201526
0.705623 0.987686 0.220508
0.79353 0.984192 0.257481
0.847776 0.982727 0.342687
0.851301 0.984253 0.503731
0.851179 0.988571 0.648295
0.745388 0.996017 0.55285
0.745388 0.996017 0.55285
0.745388 0.996017 0.55285
0.745388 0.996017 0.55285
0.754101 0.996124 0.553826
0.8038 0.996765 0.563195
0.84094 0.997238 0.582742
0.850523 0.997497 0.627878
0.850355 0.997589 0.705608
0.814023 0.997192 0.731319
0.814023 0.997192 0.731319
0.814023 0.997192 0.731319
0.814023 0.997192 0.731319
0.814023 0.997192 0.731319
0.818158 0.997238 0.731853
0.839139 0.997452 0.736156
0.850202 0.997559 0.745144
0.850095 0.997513 0.764965
0 0 0.159518
0 0 0.159625
0.16199 0 0.149416
0.529183 0 0.128557
0.816785 0 0.112871
0.899687 0 0.1467
0.875196 0.611475 0.229984
0.861326 0.842756 0.392447
0.854749 0.941054 0.606424
0 0 0.157427
0 0 0.157809
0.179889 0 0.146136
0.525704 0 0.125948
0.815747 0 0.108873
0.899031 0.0886091 0.151995
0.874311 0.626444 0.226001
0.861173 0.844724 0.391531
0.854734 0.941299 0.606302
0 0.173938 0.139223
0 0.176379 0.139437
0.131304 0.178698 0.141436
0.51635 0.146395 0.135256
0.814649 0.0564584 0.120668
0.889647 0.334798 0.149554
0.872175 0.66009 0.216159
0.860777 0.850065 0.388968
0.854688 0.941894 0.605982
0 0.564172 0.0330205
0 0.564889 0.0332189
0 0.565362 0.0341344
0.440208 0.575738 0.0518196
0.772213 0.573922 0.0656748
0.87126 0.632731 0.0932021
0.865736 0.750515 0.180179
0.859312 0.869307 0.37821
0.854475 0.944884 0.604318
0 0.826642 0
0 0.826642 0
0 0.825345 0
0.149935 0.831769 0
0.690196 0.828992 0
0.831861 0.832349 0
0.855177 0.863233 0.0799268
0.856184 0.909072 0.351171
0.853773 0.95436 0.600031
0 0.923842 0
0 0.923842 0
0 0.923842 0
0.322515 0.93579 0
0.667124 0.931472 0
0.795316 0.926513 0
0.850507 0.937148 0.121843
0.853208 0.951614 0.391745
0.852552 0.970596 0.613779
0.564752 0.988815 0.200656
0.564752 0.988815 0.200656
0.564828 0.988815 0.200793
0.569131 0.988769 0.201312
0.706523 0.98761 0.220249
0.79379 0.984146 0.257221
0.847776 0.982681 0.342473
0.851301 0.984222 0.503639
0.851179 0.988571 0.648295
0.74583 0.996017 0.552804
0.74583 0.996017 0.552804
0.74583 0.996017 0.552804
0.74583 0.996017 0.552804
0.754421 0.996139 0.55378
0.803937 0.996765 0.563149
0.841001 0.997238 0.582696
0.850523 0.997497 0.627863
0.850355 0.997589 0.705608
0.814084 0.997192 0.731319
0.814084 0.997192 0.731319
0.814084 0.997192 0.731319
0.814084 0.997192 0.731319
0.814084 0.997192 0.731319
0.818204 0.997238 0.731838
0.839155 0.997452 0.736141
0.850202 0.997559 0.745144
0.850095 0.997513 0.764965
0 0 0.472938
0 0 0.473045
0 0 0.473899
0.490593 0 0.453132
0.828977 0 0.433143
0.893462 0 0.443275
0.879118 0.558846 0.50573
0.862272 0.836194 0.560067
0.854749 0.939879 0.662898
0 0 0.471901
0 0 0.471992
0 0 0.472358
0.502495 0 0.451102
0.828016 0 0.431891
0.895445 0 0.445121
0.877745 0.583902 0.504601
0.862119 0.838392 0.559686
0.854734 0.940108 0.662821
0 0 0.471214
0 0 0.471321
0 0.002533 0.472236
0.511879 0 0.450629
0.821622 0 0.428428
0.898283 0.130526 0.464607
0.875303 0.628565 0.501839
0.861723 0.844251 0.558572
0.854688 0.940749 0.662593
0 0.507927 0.433387
0 0.508247 0.433417
0 0.510384 0.434028
0.414069 0.521813 0.445914
0.767224 0.521691 0.446235
0.876341 0.600595 0.457954
0.868955 0.735119 0.491188
0.860243 0.865248 0.554177
0.854459 0.943816 0.661524
0 0.830869 0.340383
0 0.8309 0.340368
0 0.830167 0.341207
0.0148013 0.832761 0.358602
0.692912 0.83415 0.386679
0.837949 0.838132 0.413169
0.860075 0.864271 0.462181
0.85716 0.907866 0.541497
0.853758 0.953536 0.657313
0 0.934585 0.215122
0 0.934585 0.215122
0 0.934585 0.215122
0.277378 0.945586 0.24535
0.671733 0.943023 0.279438
0.802899 0.938689 0.325643
0.853925 0.940597 0.409857
0.853819 0.951675 0.514977
0.852552 0.970245 0.646815
0.575952 0.989075 0.206149
0.575952 0.989075 0.206149
0.575952 0.989075 0.206149
0.579248 0.989029 0.206439
0.70927 0.987472 0.225299
0.794675 0.984039 0.261936
0.847868 0.98262 0.349813
0.851316 0.984115 0.504402
0.851179 0.988525 0.648219
0.747448 0.996033 0.552499
0.747448 0.996033 0.552499
0.747448 0.996033 0.552499
0.747448 0.996033 0.552499
0.755535 0.996155 0.553552
0.804395 0.99678 0.562951
0.841154 0.997238 0.582528
0.850523 0.997497 0.627741
0.850355 0.997589 0.705531
0.814328 0.997192 0.731273
0.814328 0.997192 0.731273
0.814328 0.997192 0.731273
0.814328 0.997192 0.731273
0.814328 0.997192 0.731273
0.818387 0.997238 0.731807
0.839231 0.997452 0.73611
0.850202 0.997559 0.745113
0.850095 0.997513 0.76495
0 0 0.724346
0 0 0.724376
0 0 0.724544
0.159167 0 0.718837
0.80061 0 0.689982
0.88986 0 0.686625
0.894179 0.184176 0.714046
0.863661 0.807233 0.724605
0.854704 0.935744 0.74757
0 0 0.724392
0 0 0.724392
0 0 0.724437
0.167224 0 0.718441
0.80238 0 0.689723
0.889876 0 0.686381
0.891646 0.259937 0.715633
0.863447 0.810452 0.724346
0.854688 0.936019 0.747524
0 0 0.723751
0 0 0.723751
0 0 0.723781
0.24155 0 0.715526
0.807218 0 0.688792
0.889906 0 0.685634
0.88539 0.40734 0.716899
0.862928 0.818479 0.723659
0.854627 0.936721 0.747417
0 0.18883 0.722026
0 0.18883 0.722026
0 0.190829 0.722011
0.255512 0.193668 0.721828
0.804013 0.0983902 0.704234
0.889769 0.310979 0.707713
0.87277 0.656397 0.712596
0.861097 0.846265 0.72108
0.854398 0.940108 0.746853
0 0.799039 0.674342
0 0.799039 0.674342
0 0.799039 0.674342
0 0.795605 0.675196
0.67071 0.80383 0.690944
0.82945 0.812421 0.692882
0.861219 0.846082 0.699016
0.857466 0.899367 0.714931
0.853635 0.950744 0.744823
0 0.932998 0.64683
0 0.932998 0.64683
0 0.933028 0.646815
0 0.934752 0.653208
0.64126 0.940444 0.669032
0.790738 0.935531 0.674678
0.852766 0.937392 0.685298
0.853956 0.948867 0.705592
0.852354 0.968566 0.740032
0.542184 0.99202 0.631647
0.542184 0.99202 0.631647
0.542184 0.99202 0.631647
0.542367 0.99202 0.631647
0.690013 0.989609 0.636408
0.783276 0.98555 0.644114
0.840253 0.983047 0.659831
0.851469 0.983474 0.688762
0.850996 0.987762 0.729656
0.750301 0.996185 0.575006
0.750301 0.996185 0.575006
0.750301 0.996185 0.575006
0.750301 0.996185 0.575006
0.756649 0.996277 0.575708
0.804425 0.996872 0.584497
0.84062 0.997314 0.602228
0.850492 0.997543 0.646998
0.850324 0.997589 0.712154
0.815198 0.997208 0.731151
0.815198 0.997208 0.731151
0.815198 0.997208 0.731151
0.815198 0.997208 0.731151
0.815198 0.997208 0.731151
0.818998 0.997238 0.731685
0.83946 0.997452 0.735988
0.850202 0.997559 0.745037
0.850095 0.997513 0.764904
0 0 0.831952
0 0 0.831952
0 0 0.831952
0 0 0.831968
0.670542 0 0.805463
0.887877 0 0.790295
0.887877 0 0.790173
0.872923 0.633707 0.816327
0.855177 0.9234 0.810254
0 0 0.831952
0 0 0.831952
0 0 0.831952
0 0 0.831968
0.670314 0 0.805493
0.887877 0 0.790295
0.887877 0 0.790158
0.872114 0.64976 0.816129
0.855161 0.923796 0.810224
0 0 0.831907
0 0 0.831907
0 0 0.831907
0 0 0.831922
0.676387 0 0.805035
0.887877 0 0.790204
0.887877 0 0.790036
0.870466 0.681056 0.815381
0.855085 0.924819 0.810132
0 0 0.83154
0 0 0.83154
0 0 0.83154
0 0 0.831556
0.715145 0 0.802106
0.887877 0 0.789837
0.894804 0 0.802991
0.865858 0.761486 0.812055
0.854765 0.929397 0.809689
0 0.622797 0.8094
0 0.622797 0.8094
0 0.622766 0.809415
0 0.625223 0.80911
0.643565 0.633829 0.816464
0.861708 0.661387 0.81149
0.86598 0.760082 0.808164
0.858869 0.870619 0.805173
0.853803 0.94316 0.80827
0 0.922347 0.77435
0 0.922347 0.77435
0 0.922347 0.77435
0 0.921691 0.77435
0.563088 0.927367 0.793149
0.779675 0.921721 0.79501
0.849821 0.925658 0.795972
0.854032 0.94078 0.798733
0.852277 0.964569 0.805661
0.411521 0.988327 0.779828
0.411841 0.988327 0.779828
0.411841 0.988327 0.779828
0.411841 0.988327 0.779828
0.643992 0.987839 0.783978
0.768048 0.983032 0.785718
0.832273 0.980423 0.787991
0.851148 0.981262 0.792706
0.850721 0.98616 0.801648
0.730938 0.996033 0.770291
0.730938 0.996033 0.770291
0.730938 0.996033 0.770291
0.730938 0.996033 0.770291
0.732296 0.996048 0.770306
0.790234 0.996841 0.771893
0.830396 0.997284 0.774929
0.849805 0.997482 0.781704
0.849943 0.997436 0.7944
0.815808 0.997192 0.744579
0.815808 0.997192 0.744579
0.815808 0.997192 0.744579
0.815808 0.997192 0.744579
0.815808 0.997192 0.744579
0.819043 0.997223 0.744945
0.839048 0.997436 0.74873
0.85005 0.997528 0.756756
0.85005 0.997497 0.77586
0 0 0.850782
0 0 0.850782
0 0 0.850782
0 0 0.850782
0 0 0.851209
0.867048 0 0.821683
0.887251 0 0.820661
0.893324 0 0.832746
0.859648 0.853086 0.852415
0 0 0.850782
0 0 0.850782
0 0 0.850782
0 0 0.850782
0 0 0.851209
0.867033 0 0.821683
0.887251 0 0.820661
0.893385 0 0.832929
0.859541 0.854765 0.852354
0 0 0.850782
0 0 0.850782
0 0 0.850782
0 0 0.850782
0 0 0.851209
0.867033 0 0.821683
0.887251 0 0.820661
0.893477 0 0.833204
0.85922 0.859495 0.852171
0 0 0.850782
0 0 0.850782
0 0 0.850782
0 0 0.850782
0 0 0.851331
0.870893 0 0.821485
0.887251 0 0.820661
0.89366 0 0.833692
0.858106 0.876158 0.851377
0 0 0.850782
0 0 0.850782
0 0 0.850782
0 0 0.850782
0 0 0.851423
0.881865 0 0.820935
0.890425 0 0.825803
0.879072 0.500908 0.854459
0.855589 0.913329 0.849134
0 0.825437 0.835233
0 0.825437 0.835233
0 0.825437 0.835233
0 0.825437 0.835233
0 0.827558 0.836576
0.776364 0.833982 0.85156
0.857771 0.860151 0.850004
0.856062 0.906554 0.847837
0.852857 0.952346 0.846006
0 0.967575 0.820264
0 0.967575 0.820264
0 0.967575 0.820264
0 0.967575 0.820264
0.14612 0.979324 0.831128
0.739666 0.977752 0.840986
0.827268 0.974426 0.841428
0.851087 0.976257 0.84184
0.85069 0.982727 0.843046
0.698558 0.995285 0.836469
0.698558 0.995285 0.836469
0.698558 0.995285 0.836469
0.698558 0.995285 0.836469
0.698558 0.995285 0.836469
0.771939 0.996384 0.836957
0.823392 0.997009 0.837446
0.848676 0.997269 0.838437
0.849653 0.997284 0.840497
0.806943 0.996841 0.830564
0.806943 0.996841 0.830564
0.806943 0.996841 0.830564
0.806943 0.996841 0.830564
0.806943 0.996841 0.830564
0.808713 0.996872 0.830579
0.832212 0.997131 0.831189
0.847745 0.997284 0.832563
0.849683 0.997299 0.835569
0 0.0108949 0.856153
0 0.0108949 0.856153
0 0.0108949 0.856153
0 0.0108949 0.856153
0 0.0108949 0.856153
0.0484627 0.00570687 0.856367
0.886824 0 0.820691
0.894438 0.015671 0.838361
0.873701 0.607172 0.858412
0 0.0108949 0.856153
0 0.0108949 0.856153
0 0.0108949 0.856153
0 0.0108949 0.856153
0 0.0108949 0.856153
0.0484627 0.00570687 0.856367
0.886824 0 0.820691
0.894438 0.015671 0.838361
0.873701 0.607172 0.858412
0 0.0108949 0.856153
0 0.0108949 0.856153
0 0.0108949 0.856153
0 0.0108949 0.856153
0 0.0108949 0.856153
0.0484627 0.00570687 0.856367
0.886824 0 0.820691
0.894438 0.015671 0.838361
0.873701 0.607141 0.858412
0 0.0108949 0.856153
0 0.0108949 0.856153
0 0.0108949 0.856153
0 0.0108949 0.856153
0 0.0108949 0.856153
0.0472572 0.00578317 0.856382
0.886824 0 0.820691
0.894438 0.015671 0.838361
0.873701 0.607019 0.858396
0 0.0104067 0.856138
0 0.0104067 0.856138
0 0.0104067 0.856138
0 0.0104067 0.856138
0 0.0104067 0.856138
0.112291 0 0.855207
0.887068 0 0.820676
0.894469 0.022797 0.838895
0.873732 0.606485 0.858396
0 0.00888075 0.856107
0 0.00888075 0.856107
0 0.00888075 0.856107
0 0.00888075 0.856107
0 0.00886549 0.856107
0.315038 0 0.850324
0.889815 0 0.824842
0.891829 0.193881 0.848386
0.863294 0.795377 0.860609
0 0.92285 0.837201
0 0.92285 0.837201
0 0.92285 0.837201
0 0.92285 0.837201
0 0.92285 0.837201
0.233097 0.928527 0.851637
0.82681 0.921096 0.860487
0.853346 0.943908 0.860456
0.851698 0.96701 0.860319
0.360372 0.987045 0.852552
0.360372 0.987045 0.852552
0.360372 0.987045 0.852552
0.360372 0.987045 0.852552
0.360372 0.987045 0.852552
0.586221 0.992935 0.856901
0.810605 0.996399 0.859205
0.846998 0.995712 0.859403
0.849592 0.996185 0.859525
0.793149 0.996551 0.858137
0.793149 0.996551 0.858137
0.793149 0.996551 0.858137
0.793149 0.996551 0.858137
0.793149 0.996551 0.858137
0.793286 0.996551 0.858137
0.824506 0.996933 0.858305
0.84535 0.997162 0.858473
0.849515 0.997192 0.858701
0 0.19881 0.856687
0 0.19881 0.856687
0 0.19881 0.856687
0 0.19881 0.856687
0 0.19881 0.856687
0 0.19881 0.856687
0.0145266 0.180972 0.859174
0.894041 0.0937819 0.843565
0.872404 0.634287 0.858946
0 0.19881 0.856687
0 0.19881 0.856687
0 0.19881 0.856687
0 0.19881 0.856687
0 0.19881 0.856687
0 0.19881 0.856687
0.0145266 0.180972 0.859174
0.894041 0.0937819 0.843565
0.872404 0.634287 0.858946
0 0.19881 0.856687
0 0.19881 0.856687
0 0.19881 0.856687
0 0.19881 0.856687
0 0.19881 0.856687
0 0.19881 0.856687
0.0145266 0.180972 0.859174
0.894041 0.0937819 0.843565
0.872404 0.634287 0.858946
0 0.19881 0.856687
0 0.19881 0.856687
0 0.19881 0.856687
0 0.19881 0.856687
0 0.19881 0.856687
0 0.19881 0.856687
0.0140841 0.181064 0.859174
0.894041 0.0935225 0.843549
0.872404 0.634287 0.858946
0 0.19881 0.856687
0 0.19881 0.856687
0 0.19881 0.856687
0 0.19881 0.856687
0 0.19881 0.856687
0 0.19881 0.856687
0.0129244 0.181308 0.859174
0.894041 0.0934462 0.843549
0.872404 0.634272 0.858946
0 0.198352 0.856687
0 0.198352 0.856687
0 0.198352 0.856687
0 0.198352 0.856687
0 0.198352 0.856687
0 0.198352 0.856687
0.0732433 0.165866 0.85922
0.893156 0.141909 0.846098
0.872267 0.636881 0.858991
0 0.197009 0.856687
0 0.197009 0.856687
0 0.197009 0.856687
0 0.197009 0.856687
0 0.197009 0.856687
0 0.197009 0.856687
0.585428 0.0196536 0.848707
0.890517 0.235416 0.849943
0.870726 0.667185 0.859495
0 0.964752 0.835416
0 0.964752 0.835416
0 0.964752 0.835416
0 0.964752 0.835416
0 0.964752 0.835416
0 0.964752 0.835416
0.599878 0.988067 0.857664
0.845319 0.984421 0.860182
0.850202 0.987778 0.860182
0.723659 0.995575 0.859205
0.723659 0.995575 0.859205
0.723659 0.995575 0.859205
0.723659 0.995575 0.859205
0.723659 0.995575 0.859205
0.723659 0.995575 0.859205
0.780026 0.996384 0.859693
0.841031 0.997101 0.860059
0.849515 0.997192 0.860105
