BBLuts/BB_106_0240_LUT.cube
TITLE "Generated by Resolve"
LUT_3D_SIZE 33
0.0123293 0.0218662 0.038529
0.0123293 0.0218662 0.038529
0.0123293 0.0218662 0.038529
0.0123293 0.0218662 0.038529
0.0123293 0.0218662 0.038529
0.0621805 0.0224308 0.0389868
0.121553 0.0230869 0.038117
0.164065 0.0235752 0.0387884
0.207813 0.0240635 0.0394903
0.25948 0.0250248 0.0433204
0.323033 0.026566 0.0456092
0.393698 0.0293278 0.0496834
0.475593 0.0348363 0.0578012
0.558801 0.0472114 0.0760052
0.630518 0.0776837 0.120684
0.703349 0.154208 0.230671
0.777874 0.296681 0.37232
0.853178 0.431449 0.507362
0.921202 0.541054 0.599756
0.974853 0.604974 0.658213
0.984756 0.615183 0.668986
0.984756 0.615183 0.668986
0.98471 0.618418 0.66949
0.984619 0.626062 0.669642
0.98439 0.643122 0.669093
0.983948 0.675441 0.666728
0.983215 0.723934 0.66006
0.982238 0.77731 0.645731
0.98114 0.823194 0.623636
0.979934 0.860777 0.604105
0.978653 0.890059 0.627817
0.977386 0.912856 0.704082
0.976364 0.931472 0.780713
0.0123293 0.0218662 0.038529
0.0123293 0.0218662 0.038529
0.0123293 0.0218662 0.038529
0.0123293 0.0218662 0.038529
0.0123293 0.0218662 0.038529
0.0745251 0.0225681 0.0378119
0.125658 0.0231327 0.0381781
0.167437 0.0236057 0.0388342
0.213458 0.024155 0.0395819
0.266117 0.0251621 0.0435187
0.329778 0.0267643 0.0459144
0.399634 0.029633 0.0501259
0.47924 0.0351568 0.0583047
0.560784 0.0476997 0.0766766
0.631861 0.078584 0.121981
0.704295 0.155718 0.232532
0.778454 0.297765 0.373388
0.853437 0.431922 0.50779
0.921126 0.540948 0.599664
0.974502 0.604593 0.657832
0.984756 0.615183 0.668986
0.984756 0.615183 0.668986
0.98471 0.61912 0.669215
0.984604 0.627253 0.66949
0.984375 0.644984 0.668894
0.983917 0.677791 0.666423
0.983185 0.726253 0.659464
0.982193 0.778958 0.644816
0.981109 0.824201 0.62237
0.979919 0.861402 0.602548
0.978637 0.890394 0.626749
0.977386 0.913069 0.703639
0.976349 0.931609 0.780545
0.0123293 0.0218662 0.038529
0.0123293 0.0218662 0.038529
0.0123293 0.0218662 0.038529
0.0123293 0.0218662 0.038529
0.0123293 0.0218662 0.038529
0.0816968 0.0226444 0.037583
0.127062 0.0231479 0.0381933
0.170626 0.0236515 0.0388952
0.219348 0.0242313 0.0396887
0.272267 0.0252842 0.0437018
0.334936 0.0269474 0.0461585
0.402808 0.0297856 0.0503853
0.482246 0.035462 0.058732
0.562905 0.048188 0.0774243
0.633234 0.0794995 0.123339
0.705211 0.157198 0.234333
0.779034 0.298848 0.374456
0.853697 0.43238 0.508232
0.921019 0.540795 0.599557
0.974136 0.604227 0.65742
0.984756 0.615183 0.668986
0.984756 0.615183 0.668986
0.98471 0.619837 0.668727
0.984573 0.628519 0.669306
0.984344 0.646906 0.668696
0.983886 0.680156 0.666102
0.983139 0.728573 0.658839
0.982162 0.780575 0.643854
0.981079 0.825498 0.621088
0.979904 0.862013 0.600946
0.978622 0.890745 0.62565
0.977371 0.913268 0.703212
0.976349 0.931731 0.780377
0.0123293 0.0218662 0.038529
0.0123293 0.0218662 0.038529
0.0123293 0.0218662 0.038529
0.0115663 0.0268254 0.0381476
0.0342565 0.0316014 0.0382239
0.087129 0.0227054 0.037583
0.127718 0.0231479 0.0382239
0.170901 0.0236515 0.0388952
0.220356 0.0242466 0.039704
0.274769 0.0253452 0.0437781
0.338277 0.027039 0.0463111
0.405707 0.0299535 0.0506142
0.485115 0.0357366 0.0591287
0.565026 0.0487068 0.0782025
0.634623 0.0804456 0.124712
0.706172 0.158755 0.236194
0.779599 0.299886 0.375509
0.853941 0.432792 0.508598
0.920882 0.540612 0.59942
0.973739 0.6038 0.656992
0.984756 0.615183 0.668986
0.984756 0.615183 0.668986
0.98468 0.620676 0.668666
0.984573 0.629847 0.669123
0.984314 0.648875 0.668498
0.983856 0.682536 0.665766
0.983093 0.730831 0.658259
0.982132 0.782193 0.642908
0.981048 0.826474 0.619776
0.979889 0.862623 0.599374
0.978607 0.891096 0.624552
0.977356 0.913512 0.702754
0.976333 0.931853 0.780209
0.00531014 0.0677653 0.0349889
0.00491341 0.0703441 0.0347906
0.00453193 0.0728161 0.0345922
0.00418097 0.075227 0.0344091
0.00402838 0.0761578 0.0343328
0.0709544 0.0763256 0.0335241
0.115618 0.074876 0.0341192
0.161334 0.0708019 0.0351873
0.214878 0.0608072 0.0368505
0.275883 0.0253605 0.0438239
0.340185 0.0271 0.0464179
0.408331 0.0300908 0.0508278
0.487846 0.0360113 0.059556
0.567178 0.0492409 0.0789807
0.636042 0.0814221 0.126162
0.707134 0.160311 0.238071
0.780163 0.300954 0.376532
0.854154 0.433173 0.508934
0.920745 0.540429 0.599268
0.973327 0.603403 0.65655
0.984756 0.615183 0.668986
0.984741 0.61619 0.668925
0.98468 0.621576 0.66862
0.984558 0.631235 0.668894
0.984298 0.650874 0.668269
0.98381 0.684947 0.665431
0.983063 0.733074 0.657649
0.982101 0.78378 0.641947
0.981033 0.827451 0.618479
0.979858 0.863218 0.597803
0.978592 0.891432 0.623453
0.97734 0.91371 0.702312
0.976318 0.931975 0.780026
0.000976577 0.0961624 0.0327916
0.000656138 0.0982071 0.032639
0.000366217 0.100237 0.0324865
0.000106813 0.101808 0.0323644
0 0.102586 0.0323033
0.0458991 0.103166 0.0331273
0.104021 0.102998 0.0317998
0.15256 0.101671 0.0327153
0.207614 0.0983139 0.033875
0.273259 0.0915084 0.0359197
0.338094 0.0780041 0.0425422
0.410651 0.0302281 0.0510262
0.490578 0.0363012 0.0599832
0.569436 0.049836 0.0798352
0.637552 0.0824903 0.127749
0.708156 0.162036 0.240085
0.780743 0.302037 0.3776
0.854383 0.43357 0.5093
0.920592 0.540215 0.599115
0.972885 0.60293 0.656062
0.984756 0.615183 0.668986
0.984726 0.617777 0.668833
0.984665 0.622568 0.668559
0.984527 0.632761 0.668635
0.984253 0.65301 0.668025
0.98378 0.687449 0.665064
0.983032 0.735393 0.657008
0.982055 0.785397 0.640909
0.981003 0.828458 0.61706
0.979843 0.863844 0.59617
0.978576 0.891798 0.622278
0.977325 0.913924 0.701839
0.976303 0.932128 0.779843
0 0.12607 0.0305028
0 0.127779 0.0303655
0 0.129473 0.0302129
0 0.130434 0.0301366
0 0.131044 0.0301061
0 0.131273 0.0300755
0.0814984 0.132097 0.031632
0.140093 0.131701 0.0302281
0.19794 0.130282 0.0312963
0.268101 0.127245 0.0330816
0.335134 0.121645 0.0391699
0.409537 0.112337 0.044892
0.492348 0.0944381 0.0560464
0.572335 0.0506142 0.0809796
0.639506 0.0839094 0.129824
0.709484 0.164279 0.242664
0.781506 0.303456 0.379034
0.854658 0.434058 0.509743
0.920363 0.539895 0.598886
0.972274 0.602304 0.655406
0.984756 0.615183 0.668986
0.98471 0.618784 0.668788
0.984649 0.623941 0.668482
0.984497 0.634791 0.668147
0.984222 0.655818 0.667704
0.983734 0.6907 0.664546
0.982971 0.738354 0.656153
0.98201 0.787472 0.639567
0.980972 0.829725 0.615213
0.979812 0.864637 0.594018
0.978546 0.892241 0.620768
0.977295 0.914229 0.701213
0.976287 0.93228 0.779614
0 0.15996 0.0278935
0 0.161456 0.0277714
0 0.16257 0.0276646
0 0.163302 0.0276341
0 0.163821 0.0275883
0 0.164111 0.0275425
0.0230106 0.164569 0.0281376
0.115755 0.165316 0.0298161
0.182254 0.164736 0.0284428
0.258152 0.163043 0.0301061
0.329503 0.160037 0.0360571
0.408667 0.155917 0.0415961
0.494301 0.151324 0.0522316
0.574578 0.146593 0.0751049
0.641581 0.139147 0.128496
0.711269 0.16733 0.246128
0.782544 0.305394 0.380941
0.855039 0.434714 0.510369
0.920043 0.539452 0.59855
0.971435 0.601434 0.65449
0.984741 0.616999 0.668879
0.984695 0.620142 0.668711
0.984619 0.625956 0.66836
0.984466 0.637659 0.667567
0.984176 0.659663 0.667247
0.983673 0.695003 0.663859
0.98291 0.742184 0.654978
0.981949 0.790143 0.637736
0.980926 0.831388 0.612726
0.979782 0.865675 0.591073
0.978531 0.892851 0.618708
0.977279 0.914595 0.70042
0.976272 0.932509 0.779309
0 0.20531 0.0243534
0 0.20676 0.0242313
0 0.207584 0.024155
0 0.208392 0.024094
0 0.208957 0.024033
0 0.209354 0.0240177
0 0.209598 0.0239872
0.0687266 0.210361 0.0255131
0.151843 0.209613 0.0271458
0.238865 0.207385 0.0262455
0.318242 0.205112 0.0321508
0.404059 0.202121 0.0377813
0.495247 0.200092 0.0488594
0.577707 0.202869 0.0724804
0.644114 0.220478 0.125841
0.712917 0.26363 0.244221
0.783719 0.338643 0.381796
0.855528 0.435584 0.511147
0.919554 0.538781 0.598047
0.970214 0.602472 0.653056
0.98471 0.618982 0.668772
0.984665 0.622232 0.668589
0.984573 0.628901 0.668177
0.984405 0.641779 0.667262
0.9841 0.664881 0.666575
0.983581 0.700725 0.662867
0.982818 0.747127 0.653376
0.981888 0.793576 0.635248
0.98085 0.833555 0.609308
0.979736 0.867018 0.586831
0.978485 0.893629 0.61593
0.977249 0.915084 0.699321
0.976257 0.932799 0.778881
0 0.262989 0.0182956
0 0.263447 0.0182345
0 0.26389 0.0181735
0 0.264256 0.018143
0 0.264485 0.0180972
0 0.264546 0.0180972
0 0.264424 0.0181125
0 0.264027 0.0181582
0.101946 0.264012 0.0205844
0.19794 0.262943 0.0224613
0.297093 0.261097 0.0256199
0.39263 0.258701 0.031342
0.492058 0.256611 0.0429084
0.579812 0.257954 0.0682078
0.647257 0.271412 0.124468
0.715587 0.306432 0.245701
0.785351 0.371267 0.383093
0.855955 0.462623 0.510796
0.918715 0.547936 0.596872
0.968444 0.603616 0.651011
0.98468 0.621439 0.668635
0.984634 0.625513 0.668391
0.984512 0.633356 0.667872
0.984329 0.6477 0.666789
0.984009 0.672038 0.665553
0.983459 0.708293 0.661433
0.982712 0.75346 0.651133
0.981781 0.797925 0.631846
0.980774 0.836301 0.604608
0.979675 0.868757 0.58024
0.978454 0.894636 0.612131
0.977203 0.915724 0.697887
0.976226 0.933196 0.778347
0 0.325917 0.00796521
0 0.326345 0.0078584
0 0.326818 0.00776684
0 0.327138 0.00769055
0 0.327398 0.00764477
0 0.327565 0.00761425
0 0.327611 0.00761425
0 0.327504 0.00762951
0 0.327016 0.00773632
0.130602 0.326787 0.0110781
0.256641 0.325628 0.0140688
0.369772 0.323751 0.0196231
0.481239 0.321569 0.0313268
0.57847 0.321706 0.0580453
0.649287 0.330159 0.117739
0.718303 0.355016 0.24477
0.787289 0.404868 0.384298
0.856443 0.481392 0.510719
0.917449 0.554604 0.595315
0.965866 0.605386 0.648005
0.984634 0.625635 0.668376
0.984558 0.630793 0.66804
0.984436 0.640146 0.667384
0.984222 0.656168 0.666041
0.983871 0.681758 0.663859
0.983307 0.718242 0.659312
0.982559 0.761456 0.647959
0.981659 0.803403 0.627131
0.980682 0.839841 0.598108
0.979599 0.87097 0.569879
0.978393 0.895964 0.606928
0.977157 0.916548 0.695979
0.976181 0.9337 0.777646
0 0.400854 0.00146487
0 0.401312 0.00148013
0 0.401709 0.00148013
0 0.402045 0.00148013
0 0.402289 0.00148013
0 0.402502 0.00148013
0 0.402655 0.00148013
0 0.402716 0.00148013
0 0.402548 0.00148013
0 0.402182 0.00148013
0.158663 0.401694 0.00169375
0.323415 0.400412 0.00190738
0.456336 0.39884 0.00808728
0.569772 0.398169 0.0347601
0.647181 0.40209 0.0962692
0.719326 0.417426 0.232486
0.788754 0.45243 0.38204
0.856489 0.508843 0.508965
0.915343 0.566812 0.592554
0.962203 0.609995 0.64358
0.984527 0.632837 0.667903
0.984436 0.639414 0.667445
0.984298 0.650538 0.666545
0.984054 0.66833 0.664805
0.983673 0.694942 0.66125
0.983108 0.730999 0.656123
0.982361 0.771374 0.643412
0.981491 0.810132 0.620874
0.980545 0.844297 0.58909
0.979492 0.873777 0.554253
0.978302 0.897642 0.599649
0.977081 0.917632 0.693385
0.97612 0.93434 0.776699
0 0.490455 0.00190738
0 0.490837 0.00190738
0 0.491188 0.00190738
0 0.491478 0.00192264
0 0.491691 0.00192264
0 0.49189 0.00192264
0 0.492073 0.00192264
0 0.492226 0.00192264
0 0.492378 0.00192264
0 0.49247 0.00192264
0 0.49247 0.00192264
0.191562 0.49218 0.00218204
0.403326 0.491295 0.0024567
0.547906 0.490043 0.00265507
0.637797 0.490578 0.0426642
0.715267 0.497017 0.182177
0.7879 0.515206 0.367819
0.855406 0.547997 0.502861
0.912261 0.587564 0.587854
0.957382 0.620432 0.6374
0.98436 0.645151 0.666987
0.984268 0.6533 0.6663
0.984085 0.666178 0.665034
0.98381 0.68542 0.662669
0.983398 0.712535 0.658076
0.982834 0.746746 0.651225
0.982101 0.783413 0.636744
0.981292 0.818235 0.611948
0.980392 0.849821 0.572778
0.979385 0.877317 0.528847
0.97821 0.899825 0.5897
0.976989 0.919005 0.689906
0.976059 0.93518 0.775433
0 0.575601 0.00241093
0 0.57586 0.00241093
0 0.576074 0.00241093
0 0.576257 0.00241093
0 0.576425 0.00241093
0 0.576577 0.00241093
0 0.576715 0.00241093
0 0.576867 0.00242618
0 0.576959 0.00242618
0 0.576989 0.00242618
0 0.576867 0.00242618
0 0.576486 0.00241093
0.249989 0.575692 0.00274662
0.500465 0.57438 0.00308232
0.618769 0.573312 0.00329595
0.704341 0.574289 0.0616922
0.782361 0.580865 0.31928
0.852033 0.594766 0.485695
0.907729 0.615747 0.578225
0.951125 0.64065 0.628305
0.9841 0.665232 0.665125
0.983963 0.674723 0.664057
0.983764 0.688838 0.662181
0.983459 0.708721 0.658839
0.983032 0.734997 0.652644
0.982483 0.76556 0.643565
0.981796 0.797528 0.626764
0.981033 0.828214 0.598703
0.980194 0.85655 0.543923
0.979263 0.881636 0.481224
0.978088 0.902541 0.57174
0.976867 0.92076 0.685191
0.975967 0.936248 0.773785
0 0.64213 0.00292973
0 0.642237 0.00294499
0 0.642359 0.00294499
0 0.642435 0.00294499
0 0.642512 0.00294499
0 0.642573 0.00294499
0 0.642634 0.00294499
0 0.64268 0.00294499
0 0.642695 0.00294499
0 0.642649 0.00294499
0 0.642466 0.00294499
0 0.642054 0.00292973
0 0.641245 0.00292973
0.350484 0.640116 0.00340276
0.584756 0.638788 0.0037232
0.684276 0.637919 0.00393683
0.770321 0.639078 0.105684
0.843763 0.645029 0.430991
0.900496 0.657176 0.555779
0.942977 0.67364 0.613519
0.976959 0.692744 0.653254
0.983505 0.705379 0.659464
0.983291 0.719631 0.65655
0.982971 0.738506 0.651606
0.982559 0.761303 0.643366
0.98204 0.786938 0.631235
0.981414 0.813458 0.611353
0.980728 0.839582 0.576501
0.979965 0.864515 0.491585
0.979171 0.88687 0.362371
0.977935 0.905943 0.538811
0.97673 0.922972 0.678691
0.975845 0.937606 0.771572
0 0.708949 0.0034638
0 0.70901 0.0034638
0 0.709041 0.0034638
0 0.709087 0.00347906
0 0.709102 0.00347906
0 0.709102 0.00347906
0 0.709117 0.00347906
0 0.709102 0.00347906
0 0.709041 0.0034638
0 0.708919 0.0034638
0 0.708644 0.0034638
0 0.708156 0.0034638
0 0.707271 0.0034638
0 0.706004 0.00344854
0.463493 0.704585 0.00407416
0.649912 0.703044 0.0043946
0.749569 0.702174 0.00460822
0.82919 0.703746 0.125841
0.888365 0.7093 0.487922
0.93193 0.718975 0.584451
0.965499 0.731777 0.629191
0.982864 0.744762 0.649638
0.982651 0.756832 0.645243
0.982345 0.771969 0.638315
0.981964 0.789914 0.627237
0.981506 0.809873 0.610529
0.980972 0.831006 0.586679
0.980362 0.852567 0.525567
0.979797 0.873732 0.338994
0.979385 0.893111 0.00663767
0.977798 0.910109 0.465934
0.976547 0.925689 0.669612
0.975692 0.939315 0.768658
0 0.774533 0.00399786
0 0.774517 0.00399786
0 0.774502 0.00399786
0 0.774472 0.00399786
0 0.774456 0.00399786
0 0.774426 0.00399786
0 0.774365 0.00399786
0 0.774273 0.00399786
0 0.774121 0.00399786
0 0.773892 0.00399786
0 0.77348 0.0039826
0 0.772839 0.0039826
0 0.771847 0.0039826
0 0.770474 0.00396735
0 0.768719 0.00395209
0.574166 0.766873 0.00474556
0.717617 0.76495 0.00503548
0.807004 0.764126 0.00521859
0.871534 0.765728 0.00537118
0.917617 0.769863 0.466758
0.952605 0.776867 0.581201
0.978042 0.78616 0.622766
0.981857 0.795163 0.623209
0.981613 0.805875 0.613428
0.981308 0.818601 0.598199
0.980926 0.833371 0.570626
0.980468 0.849592 0.521859
0.980072 0.866819 0.352956
0.979812 0.884062 0.00656138
0.979019 0.900053 0.00668345
0.977966 0.915251 0.130968
0.976303 0.929 0.656641
0.975509 0.941421 0.764782
0 0.830518 0.00444038
0 0.830457 0.00444038
0 0.830381 0.00444038
0 0.83032 0.00444038
0 0.830228 0.00444038
0 0.830152 0.00444038
0 0.83003 0.00444038
0 0.829847 0.00444038
0 0.829602 0.00444038
0 0.829236 0.00444038
0 0.828672 0.00442512
0 0.827848 0.00442512
0 0.826703 0.00440986
0 0.825193 0.0043946
0 0.822934 0.00437934
0 0.820539 0.00436408
0.671473 0.818158 0.00535592
0.781292 0.816129 0.0055848
0.851606 0.815473 0.00573739
0.902251 0.816617 0.00584421
0.939574 0.819532 0.246387
0.966186 0.824277 0.529534
0.980987 0.830671 0.577691
0.980804 0.837507 0.557992
0.980591 0.846235 0.520333
0.980346 0.856733 0.427222
0.980346 0.868864 0.101884
0.979919 0.881758 0.00654612
0.979263 0.894774 0.00663767
0.978546 0.907973 0.00674449
0.977752 0.92105 0.0068513
0.976028 0.932921 0.637293
0.975265 0.944015 0.759564
0 0.87335 0.00479133
0 0.873243 0.00479133
0 0.873121 0.00479133
0 0.873014 0.00477607
0 0.872892 0.00477607
0 0.87277 0.00477607
0 0.872602 0.00477607
0 0.872358 0.00477607
0 0.872023 0.00477607
0 0.87155 0.00477607
0 0.870878 0.00476081
0 0.869963 0.00476081
0 0.868727 0.00474556
0 0.867124 0.0047303
0 0.86508 0.00471504
0 0.862547 0.00469978
0.588922 0.859907 0.00550851
0.754391 0.857435 0.00585946
0.831998 0.855833 0.00601205
0.886259 0.855329 0.00611887
0.92636 0.856184 0.00622568
0.955322 0.858488 0.00630198
0.977386 0.862135 0.13695
0.980514 0.866529 0.0571145
0.980346 0.87216 0.00646983
0.980026 0.879103 0.0065156
0.979644 0.887221 0.00657664
0.979171 0.896208 0.00665293
0.978607 0.906111 0.00672923
0.977981 0.916701 0.00682078
0.977295 0.927459 0.00689708
0.975723 0.937423 0.610468
0.97496 0.947112 0.752529
0 0.906828 0.00505074
0 0.906691 0.00505074
0 0.906554 0.00505074
0 0.906401 0.00505074
0 0.906249 0.00505074
0 0.906096 0.00505074
0 0.905882 0.00505074
0 0.905592 0.00505074
0 0.90518 0.00503548
0 0.904646 0.00503548
0 0.903944 0.00503548
0 0.902998 0.00502022
0 0.901762 0.00502022
0 0.90013 0.00500496
0 0.8981 0.0049897
0 0.895582 0.00495918
0 0.89276 0.00494392
0.72462 0.89041 0.00605783
0.813046 0.888411 0.00622568
0.870878 0.887114 0.00634775
0.91284 0.886732 0.00643931
0.94374 0.887358 0.00650034
0.967651 0.888975 0.00657664
0.979416 0.891417 0.00662242
0.979248 0.89453 0.00663767
0.979019 0.898711 0.00666819
0.978714 0.904036 0.00671397
0.978317 0.910445 0.00677501
0.977859 0.91783 0.00682078
0.977325 0.925933 0.00689708
0.976761 0.934417 0.00695811
0.975311 0.942443 0.599802
0.974609 0.950698 0.742885
0 0.931563 0.0052491
0 0.93138 0.0052491
0 0.931228 0.0052491
0 0.931044 0.0052491
0 0.930877 0.0052491
0 0.930694 0.0052491
0 0.930465 0.0052491
0 0.930159 0.00523384
0 0.929747 0.00523384
0 0.929213 0.00523384
0 0.928496 0.00523384
0 0.92755 0.00521859
0 0.926329 0.00520333
0 0.924758 0.00520333
0 0.922759 0.00518807
0 0.920348 0.00515755
0 0.917739 0.00514229
0.696727 0.915465 0.00619516
0.798108 0.91342 0.00639353
0.858549 0.911788 0.0065156
0.901122 0.910796 0.00660716
0.933242 0.910491 0.00666819
0.958511 0.910918 0.00672923
0.977447 0.912139 0.00677501
0.978088 0.913771 0.00679026
0.97792 0.916335 0.00682078
0.977676 0.919829 0.00683604
0.977371 0.924208 0.00688182
0.977005 0.929397 0.00691234
0.976577 0.935286 0.00695811
0.97615 0.941649 0.00701915
0.974853 0.947982 0.590524
0.974243 0.954757 0.742458
0 0.950317 0.00540169
0 0.950134 0.00540169
0 0.949981 0.00540169
0 0.949798 0.00540169
0 0.949615 0.00540169
0 0.949447 0.00540169
0 0.949218 0.00538643
0 0.948898 0.00538643
0 0.948501 0.00538643
0 0.947982 0.00538643
0 0.94728 0.00537118
0 0.946395 0.00537118
0 0.945235 0.00535592
0 0.943755 0.00535592
0 0.941894 0.00534066
0 0.939742 0.00531014
0 0.937453 0.00529488
0.675074 0.93547 0.00630198
0.787579 0.933516 0.00653086
0.849073 0.931838 0.00665293
0.89134 0.930617 0.00674449
0.923751 0.9299 0.00680552
0.94966 0.929641 0.0068513
0.969497 0.929976 0.00691234
0.976852 0.930724 0.0069276
0.976761 0.932036 0.00694286
0.976593 0.934081 0.00695811
0.976379 0.936843 0.00697337
0.97612 0.940261 0.00700389
0.975799 0.94435 0.00703441
0.975494 0.949065 0.00706493
0.974319 0.953841 0.586557
0.973816 0.959182 0.744839
0 0.964263 0.00550851
0 0.964096 0.00550851
0 0.963928 0.00550851
0 0.963775 0.00550851
0 0.963607 0.00550851
0 0.963439 0.00550851
0 0.963211 0.00550851
0 0.962936 0.00550851
0 0.962554 0.00549325
0 0.962066 0.00549325
0 0.96144 0.00549325
0 0.960601 0.00547799
0 0.959518 0.00547799
0 0.958175 0.00546273
0 0.956588 0.00544747
0 0.954787 0.00543221
0 0.952865 0.00541695
0.673823 0.951232 0.00642405
0.784329 0.949462 0.00665293
0.843595 0.94786 0.00677501
0.884337 0.946578 0.0068513
0.916289 0.945617 0.00691234
0.94197 0.944991 0.00695811
0.962158 0.944793 0.00700389
0.975647 0.944961 0.00703441
0.975601 0.945388 0.00703441
0.975525 0.94641 0.00704967
0.975387 0.948043 0.00706493
0.975204 0.950271 0.00708019
0.97499 0.953063 0.00709544
0.974777 0.95639 0.00712596
0.973724 0.959777 0.594995
0.973358 0.96379 0.749722
0 0.97409 0.0055848
0 0.973953 0.0055848
0 0.9738 0.0055848
0 0.973648 0.0055848
0 0.973495 0.0055848
0 0.973358 0.0055848
0 0.973144 0.0055848
0 0.9729 0.0055848
0 0.972564 0.0055848
0 0.972107 0.00556954
0 0.971557 0.00556954
0 0.970855 0.00556954
0 0.96997 0.00555428
0 0.968902 0.00555428
0 0.967636 0.00553903
0 0.966232 0.00552377
0 0.964736 0.00552377
0.700938 0.963409 0.0065919
0.790158 0.961913 0.00677501
0.842893 0.960479 0.00686656
0.880613 0.959274 0.00694286
0.911192 0.958251 0.00700389
0.935988 0.957473 0.00704967
0.955779 0.956985 0.00709544
0.971847 0.956802 0.00712596
0.974472 0.956802 0.00712596
0.974456 0.957153 0.00712596
0.974395 0.957992 0.00714122
0.974289 0.959319 0.00715648
0.974182 0.961105 0.00717174
0.974075 0.963317 0.007187
0.973098 0.965499 0.620432
0.972885 0.968368 0.758007
0 0.98085 0.00564584
0 0.980728 0.00564584
0 0.980621 0.00564584
0 0.980499 0.00564584
0 0.980377 0.00564584
0 0.98027 0.00564584
0 0.980117 0.00564584
0 0.979934 0.00563058
0 0.979675 0.00563058
0 0.979355 0.00563058
0 0.978927 0.00563058
0 0.978424 0.00563058
0 0.977783 0.00561532
0 0.977005 0.00561532
0 0.976089 0.00560006
0 0.975067 0.00560006
0.598016 0.974105 0.00645457
0.741115 0.972915 0.00674449
0.803723 0.971664 0.00688182
0.846662 0.970474 0.00695811
0.880369 0.96936 0.00701915
0.908476 0.968353 0.00708019
0.931655 0.967544 0.00712596
0.950713 0.966918 0.00715648
0.9664 0.966537 0.007187
0.973419 0.966262 0.00720226
0.973465 0.966201 0.00720226
0.973465 0.966491 0.00720226
0.973434 0.967132 0.00721752
0.973434 0.96817 0.00721752
0.973449 0.969558 0.00723278
0.972473 0.97081 0.658793
0.972427 0.972824 0.77026
0 0.982315 0.0056611
0 0.982315 0.0056611
0 0.982315 0.0056611
0 0.982315 0.0056611
0 0.982315 0.0056611
0 0.982315 0.0056611
0 0.982315 0.0056611
0 0.98233 0.0056611
0 0.98233 0.0056611
0 0.98233 0.0056611
0 0.982345 0.0056611
0 0.982345 0.0056611
0 0.982361 0.0056611
0 0.982376 0.0056611
0 0.982208 0.0056611
0.623209 0.981674 0.00656138
0.725978 0.98085 0.00677501
0.781674 0.979919 0.00689708
0.822141 0.978958 0.00697337
0.855268 0.977996 0.00703441
0.883772 0.977035 0.00709544
0.908446 0.976104 0.00714122
0.929335 0.975311 0.007187
0.947143 0.97467 0.00721752
0.962127 0.974151 0.00724804
0.972519 0.973785 0.00726329
0.972595 0.973495 0.00726329
0.972641 0.973434 0.00726329
0.972702 0.973678 0.00726329
0.972778 0.974197 0.00726329
0.9729 0.975021 0.00727855
0.971908 0.975647 0.701564
0.972015 0.977005 0.786389
0 0.982406 0.0056611
0 0.982406 0.0056611
0 0.982406 0.0056611
0 0.982406 0.0056611
0 0.982406 0.0056611
0 0.982406 0.0056611
0 0.982422 0.0056611
0 0.982422 0.0056611
0 0.982422 0.0056611
0 0.982437 0.0056611
0.432868 0.982574 0.0062562
0.594034 0.982651 0.00650034
0.651835 0.982681 0.00663767
0.694942 0.982727 0.00672923
0.730999 0.982757 0.00680552
0.762905 0.982803 0.00688182
0.791867 0.982864 0.00694286
0.818387 0.982925 0.00700389
0.843824 0.982986 0.00704967
0.867735 0.983078 0.0071107
0.890227 0.982803 0.00715648
0.910796 0.982025 0.007187
0.928923 0.981308 0.00723278
0.945037 0.980652 0.00726329
0.958877 0.980117 0.00727855
0.970275 0.979721 0.00730907
0.971878 0.979355 0.00730907
0.971984 0.97911 0.00730907
0.972107 0.979095 0.00730907
0.972259 0.979309 0.00730907
0.971481 0.979309 0.622293
0.971466 0.979873 0.743679
0.971695 0.980758 0.805722
0.745068 0.982834 0.00683604
0.746883 0.982834 0.00683604
0.748669 0.982834 0.0068513
0.750408 0.982834 0.0068513
0.752102 0.982834 0.0068513
0.753857 0.982849 0.0068513
0.756054 0.982849 0.00686656
0.758862 0.982849 0.00686656
0.762463 0.982849 0.00688182
