BBLuts/BB_102_0500_LUT.cube
TITLE "Generated by Resolve"
LUT_3D_SIZE 9
0 0 0
0 0 0
0.170977 0 0
0.407492 0 0
0.714931 0 0
0.928283 0 0
0.905776 0.494179 0.069276
0.885908 0.832044 0.340749
0.876539 0.961471 0.654765
0 0.038529 0
0 0.0481422 0
0.179278 0.0245975 0
0.417792 0 0
0.717266 0 0
0.928283 0 0
0.903197 0.530419 0.0593576
0.885542 0.836896 0.338674
0.876493 0.962081 0.654505
0 0.196628 0
0 0.200198 0
0.131167 0.199298 0
0.417975 0.174182 0
0.71812 0.0599527 0
0.92079 0.175189 0
0.899519 0.577981 0.0401617
0.884993 0.844373 0.335332
0.876417 0.963058 0.654078
0 0.460349 0
0 0.461524 0
0 0.462165 0
0.345815 0.463722 0
0.700374 0.449943 0
0.901564 0.500725 0
0.890059 0.672267 0
0.883513 0.864057 0.325567
0.876219 0.965896 0.652827
0 0.768078 0
0 0.768002 0
0 0.767636 0
0 0.765164 0
0.62327 0.764736 0
0.852201 0.769635 0
0.879499 0.817929 0
0.880552 0.904677 0.328634
0.875685 0.973373 0.649058
0 0.941543 0
0 0.94078 0
0 0.939513 0
0 0.935744 0
0.587518 0.936614 0
0.796353 0.929183 0
0.870924 0.931441 0
0.876707 0.958816 0.369207
0.87454 0.989212 0.644724
0.480308 1 0.129412
0.499321 1 0.130465
0.523445 1 0.132143
0.581521 1 0.13698
0.681163 1 0.15079
0.790524 1 0.188571
0.866377 1 0.287617
0.87364 1 0.482841
0.872877 1 0.672969
0.756802 1 0.550546
0.758267 1 0.550698
0.760616 1 0.550942
0.767361 1 0.55169
0.784985 1 0.553964
0.818173 1 0.560784
0.858198 1 0.580392
0.872023 1 0.633738
0.871641 1 0.731624
0.838087 1 0.764019
0.838254 1 0.76405
0.83856 1 0.76408
0.83946 1 0.764187
0.842023 1 0.764508
0.848493 1 0.765438
0.860899 1 0.768261
0.871412 1 0.776013
0.87129 1 0.796796
0 0 0.0225528
0 0 0.0227359
0.172549 0 0.0188449
0.409583 0 0.0147707
0.716426 0 0.00927749
0.930663 0 0.024918
0.90721 0.488518 0.125505
0.886091 0.831235 0.375006
0.876524 0.961303 0.661372
0 0.0173342 0.0164645
0.025452 0.0276799 0.0144198
0.189654 0 0.0129854
0.414572 0 0.00720226
0.716503 0 0
0.930022 0 0.00698863
0.904631 0.526299 0.11574
0.885725 0.836133 0.373098
0.876478 0.961913 0.661128
0 0.187579 0
0 0.190585 0
0.150027 0.189975 0
0.416739 0.164355 0
0.716716 0.0272221 0
0.92166 0.157671 0
0.901106 0.57557 0.0982834
0.885176 0.843656 0.369985
0.876417 0.962905 0.660731
0 0.455909 0
0 0.456992 0
0 0.45745 0
0.35671 0.458549 0
0.700221 0.445624 0
0.901793 0.497246 0
0.892027 0.672404 0.012314
0.883711 0.863569 0.360967
0.876204 0.965759 0.659525
0 0.766873 0
0 0.766766 0
0 0.766369 0
0 0.763851 0
0.626017 0.7635 0
0.852384 0.76875 0
0.87953 0.817441 0
0.880598 0.904509 0.336614
0.875669 0.973266 0.655924
0 0.941283 0
0 0.940505 0
0 0.939254 0
0 0.93547 0
0.589349 0.936416 0
0.796689 0.929046 0
0.870924 0.931334 0
0.876707 0.958755 0.369009
0.87454 0.989181 0.645335
0.483268 1 0.129274
0.501808 1 0.130343
0.525505 1 0.132006
0.582971 1 0.136828
0.681849 1 0.150652
0.790707 1 0.188464
0.866407 1 0.287602
0.87364 1 0.482765
0.872877 1 0.672923
0.757015 1 0.550515
0.758495 1 0.550668
0.76083 1 0.550912
0.767544 1 0.551659
0.785138 1 0.553933
0.81825 1 0.560754
0.858228 1 0.580377
0.872023 1 0.633722
0.871641 1 0.731609
0.838102 1 0.764019
0.838285 1 0.76405
0.83859 1 0.76408
0.83949 1 0.764172
0.842054 1 0.764508
0.848508 1 0.765438
0.860899 1 0.768261
0.871412 1 0.776013
0.87129 1 0.796796
0 0 0.129564
0 0 0.129747
0.152148 0 0.125566
0.42211 0 0.116487
0.718242 0 0.111986
0.932387 0 0.129183
0.909026 0.475807 0.216358
0.886305 0.829725 0.422629
0.876509 0.961044 0.671397
0 0 0.126146
0 0 0.126467
0.178271 0 0.121431
0.42063 0 0.113191
0.720409 0 0.108232
0.932326 0 0.123003
0.906416 0.516243 0.210452
0.885954 0.834714 0.421088
0.876463 0.961654 0.671168
0 0.164874 0.113603
0 0.167163 0.113283
0.14435 0.160861 0.108659
0.407065 0.14107 0.108202
0.71902 0 0.0982986
0.92842 0.104036 0.119356
0.902983 0.568353 0.200427
0.88539 0.842374 0.418601
0.876387 0.962661 0.670802
0 0.445792 0.041062
0 0.447074 0.0417945
0 0.4477 0.0428473
0.360647 0.44831 0.0456245
0.699046 0.436515 0.0478523
0.906111 0.489372 0.0698405
0.895796 0.671382 0.167468
0.883925 0.862593 0.411307
0.876188 0.965515 0.669673
0 0.764355 0
0 0.764248 0
0 0.763851 0
0 0.761288 0
0.628534 0.760967 0
0.852399 0.766674 0
0.882719 0.819577 0.0430457
0.880842 0.904143 0.391012
0.875639 0.973068 0.666331
0 0.940856 0
0 0.940078 0
0 0.938811 0
0 0.935058 0
0.592294 0.93608 0
0.797208 0.928786 0
0.870939 0.931151 0
0.876722 0.958648 0.368673
0.87451 0.989044 0.656504
0.488014 1 0.129076
0.505669 1 0.130114
0.528817 1 0.131777
0.585275 1 0.136599
0.682933 1 0.150439
0.791028 1 0.188281
0.866484 1 0.287572
0.87364 1 0.482643
0.872877 1 0.672877
0.757366 1 0.550484
0.758846 1 0.550637
0.761166 1 0.550881
0.767865 1 0.551629
0.785382 1 0.553903
0.818372 1 0.560723
0.858274 1 0.580346
0.872023 1 0.633722
0.871641 1 0.731594
0.838148 1 0.764019
0.838331 1 0.764035
0.838636 1 0.76408
0.839521 1 0.764172
0.8421 1 0.764492
0.848539 1 0.765438
0.860914 1 0.768246
0.871412 1 0.776013
0.87129 1 0.796796
0 0 0.34139
0 0 0.341527
0 0 0.341619
0.39942 0 0.331746
0.736461 0 0.32488
0.932937 0 0.336477
0.912459 0.429358 0.405936
0.886717 0.824552 0.520699
0.876448 0.96025 0.696971
0 0 0.339391
0 0 0.339574
0.0649729 0 0.337743
0.414176 0 0.329274
0.734569 0 0.322698
0.932937 0 0.333898
0.909606 0.476448 0.403174
0.886336 0.829801 0.519738
0.876402 0.960876 0.696788
0 0.0571908 0.335805
0 0.0626535 0.335927
0.0924086 0.0570687 0.334295
0.420233 0 0.325536
0.728771 0 0.319249
0.932952 0 0.329091
0.905699 0.539117 0.398352
0.885771 0.837842 0.518181
0.876326 0.961898 0.696468
0 0.403601 0.308492
0 0.405295 0.308751
0 0.406485 0.309331
0.355734 0.406561 0.311269
0.688762 0.395773 0.312444
0.911177 0.449622 0.325551
0.898161 0.656458 0.382788
0.88426 0.859022 0.513771
0.876127 0.964813 0.695552
0 0.760082 0.216815
0 0.760067 0.217456
0 0.759777 0.218448
0 0.757473 0.221347
0.631357 0.757397 0.237293
0.856855 0.76524 0.264591
0.886854 0.81883 0.341039
0.881132 0.902373 0.50248
0.875578 0.972457 0.692836
0 0.939651 0
0 0.938872 0
0 0.937606 0
0 0.933837 0
0.592279 0.934859 0
0.801221 0.932998 0.102052
0.877577 0.938201 0.260029
0.876997 0.958404 0.471778
0.874418 0.988632 0.685039
0.501518 1 0.128405
0.516396 1 0.129442
0.538552 1 0.13109
0.592126 1 0.135897
0.686198 1 0.149767
0.791974 1 0.187732
0.866697 1 0.28748
0.87364 1 0.482261
0.872877 1 0.672694
0.758465 1 0.550378
0.759915 1 0.550515
0.762219 1 0.550774
0.768811 1 0.551507
0.786114 1 0.553796
0.818753 1 0.560616
0.858381 1 0.58024
0.872023 1 0.633707
0.871641 1 0.731533
0.838285 1 0.764004
0.838483 1 0.764019
0.838773 1 0.76405
0.839673 1 0.764172
0.842206 1 0.764477
0.848646 1 0.765423
0.860975 1 0.768231
0.871412 1 0.775998
0.87129 1 0.796796
0 0 0.634211
0 0 0.634287
0 0 0.634409
0.240208 0 0.629343
0.722042 0 0.617548
0.931105 0 0.616541
0.925246 0.166278 0.639658
0.887541 0.805432 0.676478
0.876356 0.957855 0.748287
0 0 0.63357
0 0 0.633646
0 0 0.633799
0.267918 0 0.628153
0.727275 0 0.61677
0.931121 0 0.615869
0.919478 0.285283 0.640421
0.887114 0.811826 0.675807
0.87631 0.958526 0.74815
0 0 0.632532
0 0 0.632624
0 0 0.632761
0.304707 0 0.626352
0.73048 0 0.615564
0.931136 0 0.61471
0.913054 0.402365 0.63946
0.886458 0.821378 0.674784
0.876234 0.959594 0.747936
0 0.221286 0.626413
0 0.224277 0.626413
0 0.228122 0.626368
0.300496 0.220432 0.623804
0.725353 0.105547 0.616129
0.923079 0.217166 0.617868
0.901717 0.59202 0.633768
0.884749 0.845869 0.671885
0.876005 0.962661 0.747311
0 0.721111 0.589029
0 0.721416 0.589151
0 0.721492 0.589303
0 0.719921 0.589685
0.619242 0.719799 0.594614
0.851072 0.733562 0.599161
0.888258 0.799039 0.616648
0.8813 0.895125 0.66482
0.875441 0.970687 0.74548
0 0.944808 0.542626
0 0.94406 0.542809
0 0.942794 0.543099
0 0.938964 0.543999
0.572839 0.939651 0.55314
0.795026 0.932464 0.564141
0.878599 0.935927 0.591318
0.876966 0.955917 0.65037
0.87425 0.987427 0.74049
0.493065 1 0.466392
0.509529 1 0.466911
0.531945 1 0.467704
0.586648 1 0.469947
0.682002 1 0.475914
0.788327 1 0.492256
0.862531 1 0.531579
0.873594 1 0.617258
0.872679 1 0.727504
0.76173 1 0.550011
0.763119 1 0.550179
0.765316 1 0.550423
0.771649 1 0.551171
0.788296 1 0.553445
0.819898 1 0.560265
0.858763 1 0.57995
0.872023 1 0.633631
0.871641 1 0.73135
0.838712 1 0.763958
0.838895 1 0.763973
0.839185 1 0.764019
0.840055 1 0.764111
0.842573 1 0.764416
0.848905 1 0.765377
0.861112 1 0.7682
0.871412 1 0.775952
0.87129 1 0.796796
0 0 0.828687
0 0 0.828702
0 0 0.828733
0 0 0.828779
0.61825 0 0.813382
0.928893 0 0.801587
0.928878 0 0.802594
0.892592 0.716609 0.808652
0.876478 0.950362 0.813748
0 0 0.828611
0 0 0.828626
0 0 0.828641
0 0 0.828687
0.625422 0 0.813031
0.928893 0 0.801511
0.928878 0 0.802502
0.891783 0.728969 0.807996
0.876417 0.951156 0.813657
0 0 0.828473
0 0 0.828489
0 0 0.828504
0 0 0.82855
0.63679 0 0.812451
0.928893 0 0.801343
0.928878 0 0.802365
0.890593 0.747234 0.806958
0.876326 0.952422 0.813519
0 0 0.828046
0 0 0.828061
0 0 0.828077
0 0 0.827726
0.661799 0 0.811048
0.928893 0 0.800885
0.928923 0 0.800336
0.887663 0.791485 0.804196
0.876066 0.956039 0.813107
0 0.525032 0.812161
0 0.526436 0.8121
0 0.52871 0.811978
0 0.53225 0.811292
0.612665 0.527123 0.809552
0.899809 0.547845 0.804288
0.893965 0.696193 0.800595
0.882475 0.867247 0.798581
0.875395 0.965408 0.811963
0 0.929824 0.773846
0 0.929351 0.773816
0 0.92842 0.77377
0 0.924773 0.773571
0.500038 0.923613 0.779583
0.782544 0.916228 0.781476
0.874937 0.922759 0.783688
0.876844 0.947417 0.790631
0.874052 0.984192 0.809262
0.334508 1 0.759991
0.373648 1 0.760418
0.424582 1 0.760967
0.518425 1 0.76202
0.644831 1 0.763424
0.769451 1 0.765408
0.850935 0.999054 0.770001
0.873045 1 0.781247
0.872343 1 0.80383
0.751553 1 0.727275
0.752956 1 0.727337
0.755215 1 0.727428
0.7617 1 0.727733
0.778744 1 0.728603
0.811078 1 0.731182
0.850919 1 0.738567
0.871519 1 0.757382
0.871321 1 0.791638
0.839979 1 0.763806
0.840146 1 0.763836
0.840421 1 0.763867
0.84126 1 0.763958
0.843656 1 0.764279
0.849729 1 0.765225
0.861555 1 0.768048
0.871412 1 0.77583
0.87129 1 0.796765
0 0 0.88687
0 0 0.88687
0 0 0.88687
0 0 0.88687
0 0 0.88687
0.910216 0 0.871122
0.927932 0 0.870726
0.927932 0 0.870771
0.878355 0.91841 0.86688
0 0 0.88687
0 0 0.88687
0 0 0.88687
0 0 0.88687
0 0 0.88687
0.911559 0 0.871092
0.927932 0 0.870726
0.927932 0 0.870771
0.878248 0.91986 0.866758
0 0 0.88687
0 0 0.88687
0 0 0.88687
0 0 0.88687
0 0 0.88687
0.91371 0 0.871031
0.927932 0 0.870726
0.927932 0 0.870771
0.87808 0.922164 0.866575
0 0 0.88687
0 0 0.88687
0 0 0.88687
0 0 0.88687
0 0 0.88687
0.920012 0 0.870893
0.927932 0 0.870726
0.927947 0 0.870878
0.877623 0.928664 0.866072
0 0 0.88687
0 0 0.88687
0 0 0.88687
0 0 0.88687
0.314672 0 0.882231
0.927871 0 0.870726
0.927932 0 0.870726
0.899565 0.593317 0.880156
0.876493 0.944762 0.864775
0 0.819776 0.867781
0 0.820081 0.86775
0 0.820569 0.86772
0 0.82208 0.867582
0 0.816739 0.866361
0.79382 0.816434 0.869978
0.883558 0.84387 0.867292
0.878996 0.909651 0.863615
0.874449 0.973342 0.862303
0 1 0.846754
0 1 0.846723
0 1 0.846647
0 0.999496 0.846448
0.543236 1 0.853498
0.746899 0.995773 0.854658
0.845304 0.992096 0.855131
0.872938 0.99498 0.856046
0.872206 1 0.858991
0.721386 1 0.847944
0.723262 1 0.847959
0.726238 1 0.847959
0.734737 1 0.848005
0.756191 1 0.848127
0.796399 1 0.848386
0.842008 1 0.849042
0.870924 1 0.850889
0.870893 1 0.85536
0.835203 1 0.834119
0.835386 1 0.834134
0.83566 1 0.834134
0.836515 1 0.83418
0.838956 1 0.834272
0.845151 1 0.834607
0.857221 1 0.835584
0.870954 1 0.838422
0.87097 1 0.845716
0 0.0333562 0.887984
0 0.0333562 0.887984
0 0.0333562 0.887984
0 0.0333715 0.887984
0 0.0334478 0.887999
0 0.0334325 0.887984
0.927932 0 0.870726
0.927947 0 0.870863
0.896468 0.643503 0.886046
0 0.0333257 0.887984
0 0.0333257 0.887984
0 0.033341 0.887984
0 0.0333562 0.887984
0 0.0334325 0.887999
0 0.0334173 0.887984
0.927932 0 0.870726
0.927947 0 0.870863
0.896468 0.643473 0.886046
0 0.0332647 0.887984
0 0.0332647 0.887984
0 0.0332952 0.887984
0 0.0333104 0.887984
0 0.0333562 0.887984
0 0.0333715 0.887984
0.927932 0 0.870726
0.927947 0 0.870863
0.896468 0.643427 0.886046
0 0.0331273 0.887984
0 0.0331121 0.887984
0 0.0331273 0.887984
0 0.0331426 0.887984
0 0.0332189 0.887984
0 0.00386053 0.887556
0.927932 0 0.870726
0.927947 0 0.870863
0.896483 0.64329 0.886046
0 0.032639 0.887984
0 0.032639 0.887984
0 0.0326543 0.887984
0 0.0326696 0.887984
0 0.0327306 0.887984
0.351217 0 0.881773
0.927932 0 0.870726
0.927947 0 0.870863
0.896513 0.642847 0.886046
0 0.0311284 0.887968
0 0.0311284 0.887968
0 0.0311284 0.887968
0 0.0311437 0.887968
0 0.03122 0.887968
0.733684 0 0.875044
0.927932 0 0.870726
0.927352 0.0185245 0.874678
0.881575 0.870161 0.886107
0 0.967956 0.875685
0 0.968002 0.875685
0 0.968063 0.875685
0 0.968246 0.875669
0 0.968811 0.875654
0.636759 0.958694 0.884276
0.850309 0.95346 0.885588
0.874907 0.964462 0.885603
0.873075 0.989944 0.885435
0.559899 1 0.882704
0.56791 1 0.882765
0.580667 1 0.882856
0.61294 1 0.88307
0.678614 1 0.883391
0.762997 1 0.88365
0.832868 1 0.883757
0.869596 1 0.883909
0.870741 1 0.884153
0.823865 1 0.8813
0.824109 1 0.8813
0.824491 1 0.8813
0.82562 1 0.881315
0.82887 1 0.881315
0.836896 1 0.881346
0.851621 1 0.881407
0.867445 1 0.881621
0.870695 1 0.882185
0 0.277974 0.887709
0 0.277974 0.887709
0 0.277974 0.887709
0 0.277989 0.887709
0 0.277989 0.887709
0 0.278035 0.887709
0 0.277089 0.88777
0.918105 0.261219 0.882139
0.893507 0.69099 0.886244
0 0.277974 0.887709
0 0.277974 0.887709
0 0.277974 0.887709
0 0.277974 0.887709
0 0.277989 0.887709
0 0.278019 0.887709
0 0.277089 0.88777
0.91809 0.261524 0.882139
0.893507 0.691051 0.886244
0 0.277943 0.887709
0 0.277943 0.887709
0 0.277943 0.887709
0 0.277974 0.887709
0 0.277974 0.887709
0 0.278019 0.887709
0 0.277058 0.88777
0.918074 0.262013 0.882155
0.893507 0.691127 0.886244
0 0.277928 0.887709
0 0.277928 0.887709
0 0.277928 0.887709
0 0.277928 0.887709
0 0.277943 0.887709
0 0.277989 0.887709
0 0.277028 0.88777
0.917998 0.263523 0.88217
0.893492 0.691356 0.886244
0 0.277821 0.887724
0 0.277821 0.887724
0 0.277821 0.887724
0 0.277821 0.887724
0 0.277836 0.887724
0 0.277867 0.887709
0.342824 0.257282 0.8869
0.917769 0.268116 0.882261
0.893446 0.692058 0.886244
0 0.277501 0.887724
0 0.277501 0.887724
0 0.277501 0.887724
0 0.277516 0.887724
0 0.277516 0.887724
0 0.277562 0.887724
0.75816 0.0519417 0.879149
0.917082 0.281666 0.88249
0.89337 0.693111 0.886244
0 0.276524 0.887724
0 0.276524 0.887724
0 0.276524 0.887724
0 0.276539 0.887724
0 0.276539 0.887724
0 0.276585 0.887724
0.927932 0 0.870726
0.915755 0.307897 0.882918
0.893248 0.695079 0.886259
0 1 0.874739
0 1 0.874739
0 1 0.874739
0 1 0.874739
0 1 0.874739
0 1 0.874739
0.792081 1 0.884871
0.871763 1 0.885313
0.871519 1 0.885283
0.77023 1 0.884627
0.771389 1 0.884627
0.772702 1 0.884642
0.776501 1 0.884672
0.786664 1 0.884733
0.80853 1 0.884855
0.839811 1 0.885039
0.864637 1 0.885161
0.87068 1 0.885191
