BBLuts/BB_102_0100_LUT.cube
TITLE "Generated by Resolve"
LUT_3D_SIZE 5
0 0 0
0.196796 0 0
0.81146 0 0
0.870756 0.619593 0.0401617
0.854749 0.94107 0.606424
0 0.220615 0
0.130999 0.225696 0
0.809079 0.159442 0
0.866865 0.66482 0.0187228
0.854688 0.941909 0.605982
0 0.829267 0
0 0.827878 0
0.68838 0.831434 0
0.850568 0.859113 0
0.853773 0.95436 0.600031
0.55964 0.988754 0.201236
0.559625 0.988754 0.201236
0.705196 0.987732 0.220645
0.847761 0.982742 0.342718
0.851179 0.988571 0.648295
0.813993 0.997192 0.731319
0.813993 0.997192 0.731319
0.813993 0.997192 0.731319
0.839139 0.997452 0.736156
0.850095 0.997513 0.764965
0 0 0.159518
0.16199 0 0.149416
0.816785 0 0.112871
0.875196 0.611475 0.229984
0.854749 0.941054 0.606424
0 0.173938 0.139223
0.131304 0.178698 0.141436
0.814649 0.0564584 0.120668
0.872175 0.66009 0.216159
0.854688 0.941894 0.605982
0 0.826642 0
0 0.825345 0
0.690196 0.828992 0
0.855177 0.863233 0.0799268
0.853773 0.95436 0.600031
0.564752 0.988815 0.200656
0.564828 0.988815 0.200793
0.706523 0.98761 0.220249
0.847776 0.982681 0.342473
0.851179 0.988571 0.648295
0.814084 0.997192 0.731319
0.814084 0.997192 0.731319
0.814084 0.997192 0.731319
0.839155 0.997452 0.736141
0.850095 0.997513 0.764965
0 0 0.724346
0 0 0.724544
0.80061 0 0.689982
0.894179 0.184176 0.714046
0.854704 0.935744 0.74757
0 0 0.723751
0 0 0.723781
0.807218 0 0.688792
0.88539 0.40734 0.716899
0.854627 0.936721 0.747417
0 0.799039 0.674342
0 0.799039 0.674342
0.67071 0.80383 0.690944
0.861219 0.846082 0.699016
0.853635 0.950744 0.744823
0.542184 0.99202 0.631647
0.542184 0.99202 0.631647
0.690013 0.989609 0.636408
0.840253 0.983047 0.659831
0.850996 0.987762 0.729656
0.815198 0.997208 0.731151
0.815198 0.997208 0.731151
0.815198 0.997208 0.731151
0.83946 0.997452 0.735988
0.850095 0.997513 0.764904
0 0 0.850782
0 0 0.850782
0 0 0.851209
0.887251 0 0.820661
0.859648 0.853086 0.852415
0 0 0.850782
0 0 0.850782
0 0 0.851209
0.887251 0 0.820661
0.85922 0.859495 0.852171
0 0 0.850782
0 0 0.850782
0 0 0.851423
0.890425 0 0.825803
0.855589 0.913329 0.849134
0 0.967575 0.820264
0 0.967575 0.820264
0.14612 0.979324 0.831128
0.827268 0.974426 0.841428
0.85069 0.982727 0.843046
0.806943 0.996841 0.830564
0.806943 0.996841 0.830564
0.806943 0.996841 0.830564
0.832212 0.997131 0.831189
0.849683 0.997299 0.835569
0 0.19881 0.856687
0 0.19881 0.856687
0 0.19881 0.856687
0.0145266 0.180972 0.859174
0.872404 0.634287 0.858946
0 0.19881 0.856687
0 0.19881 0.856687
0 0.19881 0.856687
0.0145266 0.180972 0.859174
0.872404 0.634287 0.858946
0 0.19881 0.856687
0 0.19881 0.856687
0 0.19881 0.856687
0.0129244 0.181308 0.859174
0.872404 0.634272 0.858946
0 0.197009 0.856687
0 0.197009 0.856687
0 0.197009 0.856687
0.585428 0.0196536 0.848707
0.870726 0.667185 0.859495
0.723659 0.995575 0.859205
0.723659 0.995575 0.859205
0.723659 0.995575 0.859205
0.780026 0.996384 0.859693
0.849515 0.997192 0.860105
