BBLuts/BB_104_0360_LUT.cube
TITLE "Generated by Resolve"
LUT_3D_SIZE 5
0 0 0.00447089
0.140291 0 0.00579843
0.683665 0.223667 0.261097
0.830045 0.593149 0.576776
0.814878 0.804883 0.652567
0 0.141833 0
0.0931868 0.146944 0
0.689143 0.266804 0.27219
0.828946 0.610788 0.573449
0.814801 0.805783 0.651255
0 0.682429 0
0 0.682078 0
0.632731 0.683528 0
0.821378 0.728725 0.490074
0.814298 0.811658 0.641123
0 0.84567 0
0 0.8448 0
0.52961 0.841169 0
0.810254 0.831189 0
0.811856 0.832685 0.644877
0.7879 0.840269 0.726146
0.788235 0.840284 0.726207
0.790692 0.840314 0.72665
0.804227 0.840513 0.730251
0.812177 0.841108 0.750881
0.00367742 0.00573739 0.133577
0.139788 0.00666819 0.134737
0.683772 0.230716 0.304967
0.830198 0.590692 0.580621
0.814878 0.804669 0.667674
0 0.125154 0.110277
0.121523 0.125017 0.110567
0.684474 0.231708 0.302556
0.82916 0.607492 0.577722
0.814786 0.805585 0.666636
0 0.679591 0
0 0.679225 0
0.637858 0.680842 0
0.821393 0.727596 0.496605
0.814252 0.81146 0.658732
0 0.845502 0
0 0.844633 0
0.550561 0.840558 0
0.810346 0.831159 0
0.811872 0.83267 0.644785
0.78793 0.840269 0.726146
0.788281 0.840284 0.726207
0.790738 0.840314 0.726635
0.804242 0.840513 0.730251
0.812177 0.841108 0.750881
0.494194 0.462013 0.654063
0.494453 0.462318 0.6542
0.692287 0.484306 0.653925
0.830091 0.601038 0.68394
0.815579 0.803922 0.725826
0.492042 0.459449 0.652857
0.492332 0.459815 0.653025
0.697978 0.484825 0.652979
0.829679 0.606332 0.681559
0.815473 0.804868 0.725399
0 0.649775 0.612665
0 0.650065 0.612879
0.636942 0.65304 0.62359
0.821271 0.713878 0.656962
0.814847 0.81091 0.722438
0 0.844617 0
0 0.843793 0
0.54023 0.840131 0
0.807279 0.830594 0
0.812039 0.83238 0.701381
0.788342 0.840284 0.726116
0.788678 0.840284 0.726177
0.791074 0.840314 0.726604
0.804379 0.840513 0.73022
0.812177 0.841108 0.750881
0.69955 0.695979 0.81181
0.69955 0.695979 0.81181
0.69955 0.695979 0.81181
0.828504 0.706493 0.813962
0.820874 0.790097 0.799298
0.69955 0.695979 0.81181
0.69955 0.695979 0.81181
0.69955 0.695979 0.81181
0.828504 0.706493 0.813962
0.820722 0.791836 0.799054
0.69955 0.695979 0.81181
0.69955 0.695979 0.81181
0.700389 0.695994 0.811826
0.828504 0.706493 0.813962
0.819715 0.802808 0.797543
0 0.85008 0.798123
0 0.848905 0.798077
0.528618 0.838941 0.794415
0.799298 0.826154 0.789792
0.816098 0.833158 0.791867
0.78941 0.841779 0.774838
0.789715 0.841779 0.774853
0.791943 0.84181 0.77499
0.804425 0.841993 0.776074
0.814023 0.842435 0.782681
0.699443 0.696742 0.811795
0.699443 0.696742 0.811795
0.699443 0.696742 0.811795
0.699443 0.696742 0.811795
0.827115 0.722972 0.813046
0.699443 0.696742 0.811795
0.699443 0.696742 0.811795
0.699443 0.696742 0.811795
0.699443 0.696742 0.811795
0.827115 0.723003 0.813046
0.699443 0.696742 0.811795
0.699443 0.696742 0.811795
0.699443 0.696742 0.811795
0.700572 0.696681 0.811795
0.8271 0.72314 0.813031
0.699443 0.696742 0.811795
0.699443 0.696742 0.811795
0.699443 0.696742 0.811795
0.828504 0.706493 0.813962
0.82707 0.723598 0.813016
0.753246 0.843488 0.806332
0.754589 0.843488 0.806332
0.763394 0.843534 0.806378
0.796902 0.843839 0.80676
0.816266 0.844099 0.80708
