BBLuts/BB_103_0928_LUT.cube
TITLE "Generated by Resolve"
LUT_3D_SIZE 9
0 0 0
0 0 0
0.17377 0 0
0.461234 0 0
0.760052 0 0
0.904555 0 0
0.953597 0.560082 0.200061
0.946639 0.816571 0.566171
0.938735 0.878996 0.882521
0 0.0367132 0
0 0.0462196 0
0.185672 0.0243229 0
0.474495 0 0
0.761868 0 0
0.904631 0 0
0.954025 0.591165 0.185733
0.9467 0.819806 0.563714
0.93875 0.879316 0.882322
0 0.188205 0
0 0.191684 0
0.150973 0.192767 0
0.495689 0.153033 0
0.769924 0.0188602 0
0.933989 0.191211 0.00248722
0.953643 0.628107 0.154711
0.946822 0.824323 0.559747
0.938766 0.879835 0.881987
0 0.477333 0
0 0.478691 0
0 0.479423 0
0.438666 0.498756 0
0.802274 0.491112 0
0.951354 0.567437 0.0442664
0.950515 0.710719 0.0390173
0.947234 0.836042 0.547982
0.938811 0.881346 0.88098
0 0.774441 0
0 0.774365 0
0 0.774044 0
0 0.772015 0
0.767483 0.774136 0.011017
0.930053 0.784192 0.0328374
0.950698 0.816999 0.0371099
0.947662 0.858534 0.552621
0.938964 0.885313 0.877943
0.0846723 0.913405 0.08542
0.0843366 0.912871 0.0850385
0.0837873 0.911971 0.0844129
0.0856489 0.909392 0.0829786
0.764202 0.889555 0.0494545
0.908888 0.881376 0.0423743
0.953719 0.88249 0.0444038
0.947188 0.885924 0.596735
0.939193 0.89369 0.874495
0.669993 0.937057 0.313191
0.686137 0.935302 0.310903
0.7093 0.932784 0.307958
0.761425 0.927275 0.303761
0.837339 0.920516 0.312139
0.904341 0.91577 0.363394
0.945876 0.911192 0.502525
0.943984 0.905699 0.707454
0.938964 0.904433 0.897826
0.87303 0.914107 0.783932
0.873915 0.914107 0.784085
0.875334 0.914076 0.784329
0.879377 0.914031 0.785092
0.889616 0.913939 0.787427
0.908965 0.913741 0.794583
0.932082 0.913207 0.814725
0.939452 0.912047 0.864958
0.938399 0.911116 0.940673
0.918151 0.911086 0.962524
0.918257 0.911086 0.962539
0.918425 0.911086 0.962554
0.918959 0.911086 0.962631
0.920485 0.911086 0.962844
0.924315 0.911086 0.963455
0.931716 0.911086 0.965286
0.938247 0.910994 0.97023
0.938201 0.910979 0.983322
0 0 0.0439612
0 0 0.044358
0.17377 0 0.0455329
0.461707 0 0.0209812
0.759884 0 0
0.904997 0 0.0321202
0.954528 0.555077 0.282002
0.945739 0.815106 0.600092
0.938643 0.878828 0.887938
0 0.0140078 0.034638
0.0267185 0.0251316 0.0333562
0.193027 0 0.0356451
0.468574 0 0.00639353
0.760693 0 0
0.90483 0 9.15541e-05
0.955062 0.58819 0.268788
0.945785 0.818067 0.598428
0.938643 0.879149 0.887755
0 0.179324 0
0 0.182239 0
0.170245 0.183413 0
0.492775 0.142779 0
0.765194 0 0
0.931395 0.168902 0
0.954833 0.625956 0.242679
0.945876 0.822904 0.595804
0.938659 0.879667 0.887434
0 0.472114 0
0 0.473411 0
0 0.47393 0
0.452827 0.492958 0
0.801892 0.486244 0
0.951278 0.564279 0.0441138
0.951156 0.709682 0.101305
0.946227 0.834684 0.588251
0.93872 0.881178 0.886488
0 0.773373 0
0 0.773281 0
0 0.772931 0
0 0.770871 0
0.769665 0.773175 0.0108339
0.930114 0.783566 0.0328222
0.950683 0.816693 0.0370794
0.947417 0.858183 0.56228
0.938842 0.885161 0.88365
0.0845655 0.913222 0.0852979
0.0842145 0.912673 0.0849012
0.0836652 0.911772 0.0842756
0.0856794 0.909194 0.0828565
0.765728 0.889342 0.0492103
0.909087 0.881285 0.0423743
0.953704 0.882429 0.0443885
0.947204 0.885893 0.596551
0.939178 0.89366 0.875013
0.67248 0.936782 0.312413
0.688396 0.935042 0.310216
0.711238 0.93257 0.307347
0.762646 0.927153 0.303319
0.837812 0.92047 0.31191
0.904463 0.915755 0.363226
0.945907 0.911177 0.50251
0.943984 0.905699 0.707378
0.938964 0.904433 0.897795
0.873167 0.914107 0.783902
0.874052 0.914092 0.784054
0.875471 0.914076 0.784298
0.879484 0.914031 0.785061
0.889693 0.913939 0.787396
0.90901 0.913741 0.794553
0.932097 0.913207 0.814694
0.939452 0.912047 0.864958
0.938399 0.911116 0.940658
0.918166 0.911086 0.962524
0.918273 0.911086 0.962539
0.918441 0.911086 0.962554
0.918975 0.911086 0.962631
0.920501 0.911086 0.962844
0.924331 0.911086 0.963455
0.931716 0.911086 0.965286
0.938247 0.910994 0.97023
0.938201 0.910979 0.983322
0 0 0.206409
0 0 0.206683
0.149859 0 0.206668
0.47509 0 0.174731
0.759747 0 0.140856
0.905531 0 0.195148
0.955108 0.54313 0.413291
0.944503 0.812894 0.644327
0.938491 0.878569 0.895979
0 0 0.201373
0 0 0.20209
0.177737 0 0.200839
0.473274 0 0.169986
0.761471 0 0.135256
0.905531 0 0.185351
0.95581 0.579797 0.40557
0.944518 0.8159 0.642802
0.938506 0.878889 0.895811
0 0.15317 0.186679
0 0.155352 0.186206
0.157626 0.15079 0.183932
0.473167 0.116777 0.168612
0.760678 0 0.120668
0.925017 0.102068 0.215808
0.955901 0.619791 0.390875
0.944579 0.820798 0.640375
0.938521 0.879423 0.895537
0 0.458457 0.0488289
0 0.460014 0.049958
0 0.460777 0.051606
0.455573 0.480095 0.0943618
0.79971 0.473869 0.114687
0.953521 0.556191 0.200885
0.95288 0.706905 0.333944
0.944854 0.832685 0.633433
0.938567 0.880934 0.894682
0 0.77113 0
0 0.771038 0
0 0.770687 0
0 0.768597 0
0.77145 0.771176 0.0103914
0.929992 0.782086 0.0327306
0.950774 0.815961 0.149157
0.94583 0.856321 0.615167
0.938704 0.884916 0.892119
0.0843671 0.912917 0.0850843
0.0840314 0.912367 0.0846876
0.0834669 0.911467 0.084062
0.0857099 0.908904 0.0826581
0.7682 0.888991 0.0488136
0.909377 0.881148 0.0423743
0.953704 0.882338 0.0443732
0.947204 0.885863 0.596277
0.93901 0.893431 0.884367
0.676509 0.936324 0.311208
0.692027 0.934646 0.309087
0.714336 0.932219 0.30634
0.764614 0.92694 0.302632
0.838544 0.920394 0.311528
0.904646 0.91574 0.362951
0.945953 0.911162 0.502464
0.943999 0.905699 0.707256
0.938964 0.904418 0.897749
0.873381 0.914107 0.783871
0.874266 0.914092 0.784024
0.875669 0.914076 0.784253
0.879683 0.914046 0.785031
0.889845 0.913939 0.78735
0.909087 0.913741 0.794507
0.932113 0.913207 0.814679
0.939452 0.912047 0.864958
0.938399 0.911116 0.940658
0.918181 0.911086 0.962524
0.918303 0.911086 0.962539
0.918471 0.911086 0.962554
0.919005 0.911086 0.962631
0.920516 0.911086 0.962829
0.924346 0.911086 0.963455
0.931731 0.911086 0.965286
0.938247 0.910994 0.97023
0.938201 0.910979 0.983322
0 0 0.525689
0 0 0.525872
0 0 0.526055
0.43917 0 0.508125
0.77055 0 0.482795
0.903624 0 0.522057
0.954009 0.493736 0.643671
0.941558 0.806836 0.748989
0.938201 0.877913 0.915541
0 0 0.522972
0 0 0.523232
0.0537118 0 0.523278
0.458366 0 0.503471
0.769162 0 0.479271
0.903655 0 0.518517
0.954528 0.541802 0.640879
0.941527 0.809979 0.747829
0.938216 0.878248 0.915419
0 0.0431983 0.51809
0 0.0482948 0.518349
0.085069 0.0434272 0.518273
0.466667 0 0.497887
0.764767 0 0.473365
0.90396 0 0.512169
0.955215 0.595453 0.63621
0.941512 0.814771 0.745968
0.938231 0.878782 0.915206
0 0.406546 0.469642
0 0.408576 0.469978
0 0.409979 0.470893
0.443275 0.428077 0.500237
0.788373 0.421866 0.513191
0.954559 0.516701 0.565087
0.951568 0.690852 0.615915
0.941604 0.827405 0.74078
0.938262 0.880323 0.914549
0 0.765545 0.371176
0 0.765515 0.372183
0 0.765255 0.373648
0 0.763348 0.377661
0.768933 0.764523 0.410407
0.927779 0.775174 0.465446
0.946624 0.808637 0.567575
0.942245 0.851759 0.727565
0.938384 0.884352 0.912642
0.0839246 0.912093 0.0864881
0.0835889 0.911543 0.0861219
0.0830091 0.910628 0.0854963
0.085359 0.908064 0.084123
0.768017 0.888304 0.0508125
0.908293 0.879988 0.240375
0.950118 0.878553 0.462882
0.943954 0.882399 0.695613
0.938628 0.892897 0.906981
0.688197 0.935012 0.307607
0.702617 0.933455 0.30576
0.723369 0.931212 0.30341
0.770367 0.926329 0.300618
0.840772 0.920195 0.310414
0.905211 0.915663 0.362158
0.946075 0.911101 0.502342
0.943999 0.905669 0.706859
0.938964 0.904402 0.897627
0.874052 0.914107 0.783734
0.874922 0.914092 0.783886
0.87631 0.914076 0.784131
0.880247 0.914031 0.784894
0.890288 0.913939 0.787228
0.9093 0.913741 0.7944
0.932189 0.913222 0.814572
0.939452 0.912047 0.864927
0.938399 0.911116 0.940612
0.918273 0.911086 0.962524
0.918379 0.911086 0.962524
0.918547 0.911086 0.962539
0.919081 0.911086 0.962615
0.920592 0.911086 0.962829
0.924407 0.911086 0.963439
0.931762 0.911086 0.96527
0.938247 0.911009 0.97023
0.938201 0.910979 0.983322
0 0 0.837079
0 0 0.837156
0 0 0.837263
0.230442 0 0.834226
0.756024 0 0.806363
0.901061 0 0.821241
0.935897 0.181918 0.874495
0.938857 0.792508 0.900572
0.937819 0.876417 0.951446
0 0 0.836515
0 0 0.836576
0 0 0.836713
0.264073 0 0.832471
0.760113 0 0.805829
0.901061 0 0.820615
0.949508 0.328267 0.888518
0.938674 0.796368 0.899794
0.937819 0.876768 0.951354
0 0 0.835569
0 0 0.835645
0 0 0.835767
0.310567 0 0.829572
0.762615 0 0.804822
0.901061 0 0.819532
0.953887 0.463813 0.890944
0.938445 0.802075 0.898665
0.937835 0.877333 0.951232
0 0.194156 0.831708
0 0.197391 0.831724
0 0.201556 0.831708
0.342351 0.20145 0.837171
0.777737 0.0639506 0.81886
0.942962 0.246265 0.861784
0.95288 0.635325 0.882368
0.938064 0.816327 0.895857
0.937881 0.87895 0.950851
0 0.728832 0.808515
0 0.729107 0.808698
0 0.729183 0.808865
0 0.727855 0.809125
0.749233 0.729595 0.82295
0.916564 0.745296 0.83534
0.939773 0.789303 0.84976
0.938018 0.8439 0.889967
0.937987 0.883146 0.949722
0.0737316 0.906081 0.811048
0.0734722 0.905592 0.811109
0.0730297 0.904738 0.811185
0.0730144 0.902205 0.811475
0.733333 0.877272 0.79324
0.890608 0.866117 0.797238
0.939544 0.866819 0.82504
0.93875 0.876127 0.878721
0.938201 0.891951 0.946578
0.670054 0.927565 0.707973
0.684962 0.925887 0.706691
0.706447 0.923476 0.704952
0.755077 0.918212 0.70193
0.827558 0.911574 0.702571
0.893202 0.906905 0.717906
0.935271 0.903304 0.762997
0.939818 0.90135 0.850385
0.938491 0.903716 0.937942
0.876036 0.914107 0.783322
0.87686 0.914092 0.78349
0.878187 0.914076 0.783734
0.881956 0.914046 0.784497
0.891585 0.913954 0.786847
0.910002 0.913756 0.794034
0.932418 0.913222 0.814267
0.939452 0.912047 0.864866
0.938399 0.911116 0.94049
0.918517 0.911086 0.962478
0.918624 0.911086 0.962493
0.918807 0.911086 0.962524
0.91931 0.911086 0.962585
0.920806 0.911086 0.962783
0.924559 0.911086 0.963409
0.931838 0.911086 0.96524
0.938247 0.910994 0.970199
0.938201 0.910979 0.983322
0 0 0.97879
0 0 0.97879
0 0 0.978805
0 0 0.978836
0.667674 0 0.952422
0.903532 0 0.960571
0.903563 0 0.961242
0.944198 0.734798 0.998734
0.937514 0.872435 0.993301
0 0 0.978729
0 0 0.978744
0 0 0.978744
0 0 0.97879
0.674632 0 0.951995
0.903532 0 0.960525
0.903563 0 0.961181
0.943191 0.74345 0.997055
0.937514 0.872847 0.993255
0 0 0.978637
0 0 0.978653
0 0 0.978668
0 0 0.978683
0.685496 0 0.951354
0.903532 0 0.960418
0.903548 0 0.961089
0.941802 0.755886 0.994659
0.93753 0.873518 0.993179
0 0 0.978378
0 0 0.978378
0 0 0.978393
0 0 0.978225
0.708507 0 0.950179
0.903517 0 0.960113
0.904036 0 0.960281
0.939147 0.784207 0.989578
0.937575 0.87541 0.992966
0 0.55314 0.974517
0 0.554574 0.974517
0 0.556893 0.974502
0 0.560449 0.974136
0.73463 0.568017 0.992355
0.954864 0.604868 1
0.945922 0.72018 0.995758
0.93724 0.828244 0.98352
0.937682 0.880323 0.99237
0.0687724 0.896681 1
0.0686198 0.896376 1
0.0683146 0.89575 1
0.0671244 0.893324 1
0.661906 0.872404 0.985428
0.879911 0.855055 0.97261
0.934905 0.858015 0.97406
0.937545 0.870863 0.978653
0.937926 0.890181 0.990921
0.533562 0.933181 0.990219
0.569894 0.930236 0.987213
0.608652 0.926268 0.983261
0.688334 0.917235 0.974472
0.795193 0.906172 0.965103
0.877012 0.900526 0.963546
0.924697 0.898253 0.966415
0.938186 0.898787 0.973327
0.938216 0.902861 0.987808
0.866972 0.911238 0.938018
0.867826 0.911238 0.938048
0.869215 0.911223 0.938094
0.873137 0.911192 0.938262
0.883131 0.911162 0.938796
0.902251 0.911162 0.940551
0.925765 0.911162 0.945602
0.938293 0.91104 0.958099
0.938216 0.910979 0.980056
0.919264 0.911086 0.962386
0.919356 0.911086 0.962402
0.919524 0.911086 0.962417
0.920027 0.911086 0.962478
0.921447 0.911086 0.962692
0.925048 0.911086 0.963317
0.932113 0.911086 0.965148
0.938247 0.910994 0.970123
0.938201 0.910979 0.983307
0 0 1
0 0 1
0 0 1
0 0 1
0 0 1
0.892546 0 1
0.904845 0 1
0.904845 0 1
0.937057 0.855665 1
0 0 1
0 0 1
0 0 1
0 0 1
0 0 1
0.893462 0 1
0.904845 0 1
0.904845 0 1
0.937072 0.856428 1
0 0 1
0 0 1
0 0 1
0 0 1
0 0 1
0.894926 0 1
0.904845 0 1
0.904845 0 1
0.937087 0.857649 1
0 0 1
0 0 1
0 0 1
0 0 1
0 0 1
0.899229 0 1
0.904845 0 1
0.904845 0 1
0.937148 0.861067 1
0 0 1
0 0 1
0 0 1
0 0 1
0.328496 0 1
0.904601 0 1
0.904845 0 1
0.956497 0.64033 1
0.937301 0.86952 1
0.0304265 0.819974 1
0.0305486 0.820203 1
0.0307469 0.820584 1
0.0313573 0.821759 1
0.0310216 0.817334 1
0.882734 0.799176 1
0.937423 0.815183 1
0.937026 0.851179 1
0.937652 0.884504 1
0.0878614 0.944457 1
0.0881208 0.944015 1
0.0883345 0.943282 1
0.0902419 0.941176 1
0.710872 0.910613 1
0.863157 0.897276 1
0.921126 0.894636 1
0.937957 0.895903 1
0.938079 0.901106 1
0.84831 0.911147 1
0.8495 0.911131 1
0.851377 0.911101 1
0.856703 0.911025 1
0.869856 0.910918 1
0.893675 0.910887 1
0.920607 0.910979 1
0.938125 0.910933 1
0.938109 0.910933 1
0.916548 0.910979 1
0.916655 0.910979 1
0.916823 0.910979 1
0.917327 0.910979 1
0.918776 0.910994 1
0.922454 0.910994 1
0.929641 0.911009 1
0.937911 0.910994 1
0.93814 0.910948 1
0 0.0131991 1
0 0.0131991 1
0 0.0131991 1
0 0.0132143 1
0 0.0132753 1
0 0.0133059 1
0.904845 0 1
0.904845 0 1
0.952026 0.680842 1
0 0.0131533 1
0 0.0131533 1
0 0.0131838 1
0 0.0131991 1
0 0.0132601 1
0 0.0132906 1
0.904845 0 1
0.904845 0 1
0.952026 0.680812 1
0 0.0131075 1
0 0.0131075 1
0 0.0131228 1
0 0.013138 1
0 0.0131991 1
0 0.0132448 1
0.904845 0 1
0.904845 0 1
0.952026 0.680781 1
0 0.0129854 1
0 0.0129549 1
0 0.0129854 1
0 0.0130007 1
0 0.0130617 1
0 0 1
0.904845 0 1
0.904845 0 1
0.952041 0.680659 1
0 0.0125124 1
0 0.0125124 1
0 0.0125277 1
0 0.0125429 1
0 0.0125887 1
0.378515 0 1
0.904845 0 1
0.904845 0 1
0.952087 0.680308 1
0 0.0110781 1
0 0.0110781 1
0 0.0110781 1
0 0.0110933 1
0 0.0111543 1
0.771771 0 0.993973
0.904845 0 1
0.914748 0.00941482 1
0.93698 0.830472 1
0.0811627 0.922438 1
0.081178 0.922454 1
0.081178 0.922499 1
0.0812238 0.922606 1
0.0813458 0.922957 1
0.786679 0.881148 1
0.921965 0.874418 1
0.937438 0.879881 1
0.937789 0.893263 1
0.728283 0.917647 1
0.735348 0.917052 1
0.74583 0.916197 1
0.771969 0.91429 1
0.820432 0.911788 1
0.874083 0.910826 1
0.915434 0.910842 1
0.937301 0.91017 1
0.938216 0.910445 1
0.909972 0.910887 1
0.910109 0.910887 1
0.910338 0.910887 1
0.911009 0.910887 1
0.912917 0.910903 1
0.917662 0.910918 1
0.926406 0.910948 1
0.935897 0.910948 1
0.938064 0.910903 1
0 0.267338 1
0 0.267338 1
0 0.267338 1
0 0.267369 1
0 0.267369 1
0 0.26743 1
0 0.266529 1
0.953414 0.312734 1
0.947051 0.717479 1
0 0.267338 1
0 0.267338 1
0 0.267338 1
0 0.267338 1
0 0.267369 1
0 0.267414 1
0 0.266529 1
0.953445 0.313115 1
0.947051 0.717525 1
0 0.267323 1
0 0.267323 1
0 0.267323 1
0 0.267338 1
0 0.267338 1
0 0.267414 1
0 0.266499 1
0.953475 0.313695 1
0.947036 0.717571 1
0 0.267292 1
0 0.267292 1
0 0.267292 1
0 0.267292 1
0 0.267323 1
0 0.267369 1
0 0.266468 1
0.953613 0.315526 1
0.947021 0.717754 1
0 0.267155 1
0 0.267155 1
0 0.267155 1
0 0.267155 1
0 0.267185 1
0 0.267231 1
0.418708 0.259052 1
0.954009 0.321065 1
0.946944 0.718273 1
0 0.266789 1
0 0.266789 1
0 0.266789 1
0 0.266804 1
0 0.266819 1
0 0.26685 1
0.801297 0.0177768 1
0.955093 0.337453 1
0.946838 0.719051 1
0 0.265644 1
0 0.265644 1
0 0.265644 1
0 0.26566 1
0 0.26566 1
0 0.265705 1
0.904845 0 1
0.956832 0.369116 1
0.946639 0.720485 1
0.0874342 0.945754 1
0.0874342 0.945754 1
0.0874342 0.945754 1
0.0874342 0.945754 1
0.0874342 0.945754 1
0.0874342 0.945754 1
0.89073 0.904158 1
0.937804 0.902464 1
0.938064 0.904585 1
0.878401 0.910796 1
0.878889 0.91078 1
0.879683 0.91078 1
0.881956 0.91078 1
0.887984 0.910796 1
0.900908 0.910826 1
0.919356 0.910903 1
0.934188 0.910933 1
0.938277 0.911116 1
