BBLuts/BB_103_0740_LUT.cube
TITLE "Generated by Resolve"
LUT_3D_SIZE 5
0.005066 0 0.0301671
0.119066 0.00907912 0.0401465
0.656535 0 0.00587472
0.816175 0.506157 0.224399
0.743267 0.893324 0.839826
0 0.18735 0.00543221
0.0604105 0.200214 0.0171969
0.639445 0.087953 0
0.804929 0.588678 0.177188
0.74313 0.894469 0.839628
0 0.739101 0
0 0.738689 0
0.491936 0.759258 0.0334173
0.774227 0.805982 0.0489204
0.74226 0.901793 0.838117
0.320363 0.94818 0.321462
0.369726 0.946166 0.321553
0.552789 0.93814 0.33637
0.740536 0.927962 0.509804
0.738705 0.928252 0.847013
0.70193 0.937911 0.876081
0.702419 0.937911 0.876097
0.705989 0.937911 0.876219
0.72546 0.937881 0.877302
0.736782 0.93785 0.885603
0 0 0.281788
0.098497 0.00308232 0.290913
0.648096 0 0.284245
0.816938 0.485145 0.423697
0.74316 0.892973 0.845457
0 0.152255 0.240421
0.0653697 0.159731 0.246372
0.649622 0 0.264683
0.804334 0.575082 0.401266
0.743023 0.894118 0.845289
0 0.735653 0
0 0.735195 0
0.498207 0.755993 0.0331273
0.771084 0.801907 0.177249
0.742123 0.901503 0.844007
0.32845 0.947829 0.320439
0.376211 0.945861 0.320638
0.554742 0.938018 0.335851
0.740658 0.927916 0.509743
0.738705 0.928237 0.846983
0.701991 0.937911 0.876081
0.702495 0.937911 0.876097
0.70605 0.937911 0.876219
0.72549 0.937881 0.877287
0.736782 0.93785 0.885603
0 0 0.832883
0 0 0.832959
0.646174 0 0.851774
0.852018 0.193301 0.841016
0.743038 0.890761 0.869871
0 0 0.832273
0 0 0.832364
0.656123 0 0.851133
0.824887 0.41294 0.835309
0.742885 0.891981 0.86981
0 0.683497 0.783307
0 0.683864 0.783429
0.467933 0.705898 0.812757
0.760983 0.774105 0.823804
0.741909 0.89984 0.869276
0.322911 0.941665 0.738949
0.368872 0.939712 0.73846
0.542748 0.932067 0.741588
0.729397 0.923781 0.791714
0.73846 0.927794 0.864561
0.702571 0.937911 0.876066
0.703059 0.937911 0.876081
0.706538 0.937911 0.876188
0.725689 0.937881 0.877272
0.736782 0.93785 0.885603
0 0 0.913161
0 0 0.913161
0 0 0.913176
0.881575 0 0.933913
0.746441 0.863325 0.90399
0 0 0.913161
0 0 0.913161
0 0 0.913207
0.881575 0 0.933913
0.746075 0.865995 0.90396
0 0 0.913161
0 0 0.913161
0.220188 0 0.928283
0.881575 0 0.933913
0.743999 0.882033 0.903853
0 0.928374 0.883314
0 0.926894 0.883207
0.380545 0.92932 0.902602
0.710567 0.915846 0.902129
0.738689 0.924926 0.90341
0.699367 0.938079 0.896574
0.69984 0.938079 0.89659
0.703227 0.938079 0.89662
0.722057 0.938064 0.896956
0.736767 0.937987 0.899855
0 0.253864 0.884535
0 0.253864 0.884535
0 0.25388 0.884535
0 0.254032 0.884535
0.779156 0.688807 0.909392
0 0.253834 0.884535
0 0.253834 0.884535
0 0.253864 0.884535
0 0.254017 0.884535
0.779126 0.688899 0.909392
0 0.253727 0.88455
0 0.253727 0.88455
0 0.253742 0.884535
0.203204 0.259083 0.905379
0.778943 0.689708 0.909392
0 0.252537 0.884596
0 0.252537 0.884596
0 0.252552 0.884596
0.880262 0.000564584 0.934051
0.778347 0.692271 0.909346
0.633341 0.938125 0.911421
0.635538 0.938125 0.911437
0.649851 0.93814 0.911452
0.704341 0.938186 0.911498
0.737087 0.938399 0.911574
