BBLuts/BB_103_0780_LUT.cube
TITLE "Generated by Resolve"
LUT_3D_SIZE 9
0 0 0
0 0 0
0.15848 0 0
0.417563 0 0
0.786053 0 0
1 0 0
1 0.558846 0.128923
0.969162 0.937423 0.495415
0.956069 1 0.866743
0 0.0116274 0
0 0.0243992 0
0.16585 0.00239567 0
0.428275 0 0
0.788998 0 0
1 0 0
1 0.590921 0.116075
0.968765 0.942153 0.493721
0.956024 1 0.866514
0 0.20267 0
0 0.207218 0
0.108782 0.206958 0
0.422324 0.180728 0
0.787533 0.0386053 0
1 0.225467 0
0.995911 0.634348 0.0943618
0.968185 0.948989 0.491188
0.955962 1 0.866194
0 0.480903 0
0 0.482078 0
0 0.482658 0
0.347768 0.482124 0
0.764004 0.471427 0
1 0.529656 0
0.987274 0.742 0
0.966628 0.96788 0.483497
0.955764 1 0.865141
0 0.853086 0
0 0.852949 0
0 0.852461 0
0 0.849195 0
0.664805 0.840818 0
0.947814 0.847898 0
0.973053 0.910872 0
0.963195 1 0.482429
0.955184 1 0.86183
0 1 0
0 1 0
0 1 0
0 1 0
0.624414 1 0
0.877913 1 0
0.961349 1 0.097734
0.958068 1 0.52282
0.953887 1 0.854032
0.531899 1 0.274525
0.548486 1 0.27538
0.57142 1 0.276677
0.629419 1 0.280797
0.738064 1 0.294087
0.863218 1 0.333745
0.950515 1 0.434226
0.953429 1 0.645899
0.951934 1 0.881849
0.831037 1 0.739254
0.832471 1 0.739391
0.834623 1 0.739651
0.841001 1 0.740383
0.858289 1 0.742748
0.893446 1 0.75024
0.937987 1 0.772595
0.95111 1 0.83418
0.950698 1 0.944396
0.918624 1 0.979629
0.918807 1 0.979644
0.919036 1 0.979675
0.919783 1 0.979767
0.922072 1 0.980026
0.928252 1 0.98085
0.940749 1 0.983505
0.95053 1 0.991394
0.950454 1 1
0 0 0.00813306
0 0 0.00848402
0.157931 0 0.00953689
0.418235 0 0.0113985
0.785718 0 0.0169375
1 0 0.0631266
1 0.552895 0.210819
0.969131 0.936385 0.526238
0.956069 1 0.872526
0 0 0
0 0 0
0.179889 0 0
0.42359 0 0
0.787091 0 0
1 0 0.0302434
1 0.585748 0.197971
0.968734 0.941176 0.524697
0.956024 1 0.872312
0 0.191302 0
0 0.195239 0
0.131197 0.195377 0
0.421088 0.16849 0
0.790082 0 0
1 0.20734 0
0.996048 0.630121 0.176593
0.968154 0.948074 0.522377
0.955947 1 0.872007
0 0.476432 0
0 0.477531 0
0 0.477974 0
0.360159 0.477058 0
0.7635 0.467247 0
1 0.526253 0
0.98706 0.739681 0.0867933
0.966583 0.967117 0.515343
0.955749 1 0.871015
0 0.851545 0
0 0.851377 0
0 0.850858 0
0 0.847562 0
0.668223 0.839277 0
0.947997 0.846845 0
0.973098 0.910277 0
0.963165 1 0.495079
0.955169 1 0.867857
0 1 0
0 1 0
0 1 0
0 1 0
0.626596 1 0
0.878294 1 0
0.961364 1 0.0969406
0.958083 1 0.522652
0.953872 1 0.858061
0.534447 1 0.274372
0.55082 1 0.275227
0.573526 1 0.276509
0.63093 1 0.280644
0.738811 1 0.29395
0.863432 1 0.333623
0.950561 1 0.434211
0.953429 1 0.645823
0.951934 1 0.881819
0.83125 1 0.739223
0.83267 1 0.739391
0.834821 1 0.739605
0.841184 1 0.740353
0.858427 1 0.742733
0.893523 1 0.750225
0.938018 1 0.77258
0.95111 1 0.83418
0.950698 1 0.944366
0.918654 1 0.979629
0.918822 1 0.979644
0.919066 1 0.979675
0.919799 1 0.979751
0.922087 1 0.980011
0.928267 1 0.98085
0.940764 1 0.983474
0.95053 1 0.991394
0.950454 1 1
0 0 0.175021
0 0 0.17528
0.132433 0 0.175051
0.428199 0 0.171328
0.785122 0 0.179065
1 0 0.217975
1 0.542138 0.319997
0.969116 0.934798 0.568292
0.956054 1 0.880812
0 0 0.169787
0 0 0.170275
0.164508 0 0.169665
0.426841 0 0.166217
0.787961 0 0.173327
1 0 0.208881
1 0.576089 0.312566
0.968704 0.939651 0.566903
0.956008 1 0.880629
0 0.160357 0.154635
0 0.163272 0.154192
0.120348 0.156802 0.149508
0.408713 0.136339 0.153201
0.786191 0 0.158709
1 0.152514 0.191592
0.996399 0.621759 0.300999
0.968124 0.946639 0.564843
0.955932 1 0.880308
0 0.464042 0.0467689
0 0.465309 0.0481575
0 0.465888 0.0499886
0.360876 0.464515 0.0543374
0.758144 0.455558 0.0616464
1 0.51516 0.106538
0.98706 0.733928 0.262181
0.966522 0.965957 0.558587
0.955734 1 0.879362
0 0.848646 0
0 0.848463 0
0 0.847929 0
0 0.844602 0
0.671382 0.836378 0
0.948028 0.844541 0
0.972747 0.908858 0.117281
0.963058 1 0.540688
0.955154 1 0.876387
0 1 0
0 1 0
0 1 0
0 1 0
0.629877 1 0
0.878874 1 0
0.961379 1 0.0956741
0.958083 1 0.522377
0.953857 1 0.867292
0.538277 1 0.274113
0.55436 1 0.274968
0.576684 1 0.276265
0.633204 1 0.2804
0.73994 1 0.293736
0.863752 1 0.33344
0.950622 1 0.43418
0.953429 1 0.645701
0.951934 1 0.881773
0.831571 1 0.739193
0.83299 1 0.73933
0.835126 1 0.73959
0.841474 1 0.740322
0.858656 1 0.742687
0.893645 1 0.750164
0.938048 1 0.772549
0.95111 1 0.83418
0.950713 1 0.94435
0.9187 1 0.979629
0.918853 1 0.979644
0.919097 1 0.97966
0.91986 1 0.979751
0.922118 1 0.980011
0.928283 1 0.98085
0.94078 1 0.983474
0.95053 1 0.991394
0.950454 1 1
0 0 0.435157
0 0 0.435309
0 0 0.435401
0.405554 0 0.434195
0.805676 0 0.437522
1 0 0.458625
1 0.504875 0.519295
0.969162 0.929656 0.673777
0.956024 1 0.903761
0 0 0.432975
0 0 0.433173
0.0263828 0 0.433143
0.420371 0 0.431861
0.803128 0 0.435065
1 0 0.455787
1 0.542947 0.515846
0.96875 0.934722 0.672709
0.955978 1 0.903593
0 0.0250401 0.429053
0 0.0325933 0.429236
0.0586252 0.0265507 0.429191
0.426169 0 0.428183
0.796078 0 0.431357
1 0 0.450767
0.998077 0.593362 0.510643
0.968124 0.942031 0.671122
0.955901 1 0.903334
0 0.419715 0.405188
0 0.421454 0.405493
0 0.422583 0.406134
0.351659 0.421042 0.407858
0.741314 0.412985 0.41181
1 0.475837 0.430076
0.98793 0.714427 0.494667
0.966461 0.962158 0.666316
0.955703 1 0.902525
0 0.835401 0.308125
0 0.835325 0.308934
0 0.834928 0.310124
0 0.831846 0.31368
0.666499 0.823743 0.325399
0.944884 0.834073 0.36173
0.972229 0.902678 0.453864
0.962844 1 0.652903
0.955108 1 0.899992
0 1 0
0 1 0
0 1 0
0.00828565 1 0
0.63093 1 0
0.877791 1 0.133593
0.960662 1 0.369711
0.957809 1 0.617884
0.953796 1 0.892287
0.54992 1 0.27332
0.565164 1 0.274159
0.586328 1 0.275471
0.640192 1 0.279637
0.743465 1 0.293034
0.864775 1 0.332891
0.950851 1 0.434089
0.953445 1 0.645289
0.951934 1 0.881621
0.832609 1 0.739055
0.834012 1 0.739223
0.836103 1 0.739452
0.84239 1 0.740185
0.859358 1 0.74258
0.894041 1 0.750057
0.93817 1 0.772442
0.95111 1 0.83415
0.950713 1 0.944305
0.918822 1 0.979614
0.918975 1 0.979629
0.919219 1 0.979644
0.919966 1 0.979736
0.922225 1 0.979995
0.928359 1 0.980835
0.94081 1 0.983474
0.95053 1 0.991379
0.950454 1 1
0 0 0.796063
0 0 0.79617
0 0 0.796323
0.229175 0 0.7953
0.790036 0 0.79118
1 0 0.79646
1 0.328557 0.815732
0.970016 0.91165 0.859876
0.956008 1 0.954345
0 0 0.795254
0 0 0.795361
0 0 0.795514
0.262409 0 0.794293
0.79675 0 0.790326
1 0 0.795605
1 0.401572 0.81384
0.969528 0.917525 0.85922
0.955947 1 0.954208
0 0 0.794034
0 0 0.794125
0 0 0.794293
0.304326 0 0.792767
0.800626 0 0.788983
1 0 0.794202
1 0.478202 0.811002
0.968811 0.925978 0.858244
0.955886 1 0.95404
0 0.22002 0.786618
0 0.223621 0.786633
0 0.228107 0.786633
0.292729 0.218631 0.785489
0.79266 0.0558785 0.782879
1 0.24712 0.786114
0.993088 0.640085 0.802487
0.966873 0.949065 0.85539
0.955673 1 0.953475
0 0.784619 0.747555
0 0.784985 0.747723
0 0.785046 0.747921
0 0.783017 0.748333
0.649393 0.775326 0.750042
0.937224 0.793896 0.756405
0.973007 0.879408 0.781094
0.962768 0.998199 0.84802
0.955062 1 0.951782
0 1 0.692729
0 1 0.692943
0 1 0.693278
0 1 0.69427
0.595483 1 0.698283
0.864713 1 0.711894
0.959686 1 0.749844
0.95729 1 0.83154
0.953674 1 0.946822
0.543587 1 0.578607
0.558831 1 0.579019
0.57998 1 0.579629
0.633753 1 0.581613
0.737041 1 0.588037
0.858457 1 0.608408
0.94461 1 0.667109
0.952987 1 0.790326
0.951797 1 0.932937
0.835813 1 0.738674
0.837156 1 0.738811
0.83917 1 0.73904
0.845197 1 0.739803
0.86157 1 0.742184
0.895232 1 0.749691
0.938552 1 0.772122
0.95111 1 0.834089
0.950713 1 0.944121
0.919188 1 0.979568
0.919341 1 0.979583
0.91957 1 0.979614
0.920317 1 0.97969
0.922545 1 0.979965
0.928634 1 0.980804
0.940948 1 0.983444
0.95053 1 0.991348
0.950454 1 1
0 0 1
0 0 1
0 0 1
0 0 1
0.65124 0 1
1 0 1
1 0 1
0.97641 0.829236 1
0.956298 1 1
0 0 1
0 0 1
0 0 1
0 0 1
0.660822 0 1
1 0 1
1 0 1
0.975479 0.840208 1
0.956252 1 1
0 0 1
0 0 1
0 0 1
0 0 1
0.674952 0 1
1 0 1
1 0 1
0.974197 0.855482 1
0.956161 1 1
0 0 1
0 0 1
0 0 1
0 0 1
0.709636 0 1
1 0 1
1 0 1
0.970932 0.894286 1
0.955917 1 1
0 0.531334 1
0 0.53286 1
0 0.53518 1
0 0.539483 1
0.646372 0.529595 1
0.999161 0.55903 1
0.982651 0.755337 1
0.964645 0.969284 1
0.955215 1 1
0 1 0.984192
0 1 0.984146
0 1 0.98407
0 1 0.983703
0.502831 1 0.983154
0.849805 1 0.983093
0.959838 1 0.985473
0.957458 1 0.994522
0.953674 1 1
0.419257 1 0.96379
0.444038 1 0.96379
0.477165 1 0.963775
0.556619 1 0.963806
0.691966 1 0.964004
0.835218 1 0.965331
0.930114 1 0.970443
0.952468 1 0.983963
0.951614 1 1
0.826917 1 0.916259
0.828275 1 0.91632
0.830289 1 0.916411
0.836347 1 0.916701
0.852796 1 0.917678
0.886763 1 0.92076
0.930755 1 0.93019
0.950668 1 0.954971
0.9505 1 0.998825
0.920333 1 0.979416
0.92047 1 0.979446
0.920714 1 0.979477
0.921416 1 0.979553
0.923583 1 0.979812
0.929442 1 0.980652
0.941375 1 0.983307
0.95053 1 0.991226
0.950454 1 1
0 0 1
0 0 1
0 0 1
0 0 1
0 0 1
1 0 1
1 0 1
1 0 1
0.958526 1 1
0 0 1
0 0 1
0 0 1
0 0 1
0 0 1
1 0 1
1 0 1
1 0 1
0.958434 1 1
0 0 1
0 0 1
0 0 1
0 0 1
0 0 1
1 0 1
1 0 1
1 0 1
0.958282 1 1
0 0 1
0 0 1
0 0 1
0 0 1
0 0 1
1 0 1
1 0 1
1 0 1
0.957839 1 1
0 0 1
0 0 1
0 0 1
0 0 1
0.201068 0 1
1 0 1
1 0 1
0.990784 0.654841 1
0.956664 1 1
0 0.903181 1
0 0.903563 1
0 0.904173 1
0 0.906035 1
0 0.900465 1
0.868727 0.889174 1
0.96791 0.927001 1
0.960784 1 1
0.954391 1 1
0 1 1
0 1 1
0 1 1
0 1 1
0.568261 1 1
0.807889 1 1
0.923796 1 1
0.952636 1 1
0.951659 1 1
0.794324 1 1
0.796124 1 1
0.798779 1 1
0.806745 1 1
0.828 1 1
0.869825 1 1
0.920516 1 1
0.950271 1 1
0.95024 1 1
0.916503 1 1
0.916655 1 1
0.916884 1 1
0.917586 1 1
0.919738 1 1
0.925612 1 1
0.937591 1 1
0.950317 1 1
0.950286 1 1
0 0.0668498 1
0 0.0668803 1
0 0.0668803 1
0 0.0668803 1
0 0.0669108 1
0 0.0670481 1
1 0 1
1 0.260105 1
0.983261 0.74403 1
0 0.0668193 1
0 0.0668193 1
0 0.0668498 1
0 0.0668498 1
0 0.0668956 1
0 0.0670481 1
1 0 1
1 0.260502 1
0.983261 0.743999 1
0 0.066804 1
0 0.066804 1
0 0.066804 1
0 0.0668193 1
0 0.0668803 1
0 0.0670024 1
1 0 1
1 0.261097 1
0.983261 0.743969 1
0 0.0666972 1
0 0.0666972 1
0 0.0666972 1
0 0.0667277 1
0 0.0667735 1
0 0.0668956 1
1 0 1
1 0.263005 1
0.983276 0.743832 1
0 0.0663615 1
0 0.0663615 1
0 0.066392 1
0 0.066392 1
0 0.0664378 1
0 0.0665599 1
1 0 1
1 0.266407 1
0.983322 0.743374 1
0 0.0653239 1
0 0.0653239 1
0 0.0653239 1
0 0.0653391 1
0 0.0653697 1
0.738125 0 1
1 0 1
1 0.271977 1
0.963623 0.977279 1
0 1 1
0 1 1
0 1 1
0 1 1
0 1 1
0.652308 1 1
0.931609 1 1
0.955612 1 1
0.952926 1 1
0.625986 1 1
0.633417 1 1
0.64416 1 1
0.673808 1 1
0.739116 1 1
0.831098 1 1
0.910216 1 1
0.950134 1 1
0.950134 1 1
0.905074 1 1
0.905287 1 1
0.905592 1 1
0.906523 1 1
0.909331 1 1
0.916793 1 1
0.931548 1 1
0.948425 1 1
0.950134 1 1
0 0.352056 1
0 0.352056 1
0 0.352056 1
0 0.352056 1
0 0.352087 1
0 0.352117 1
0 0.352255 1
1 0.398871 1
0.978561 0.799786 1
0 0.352041 1
0 0.352041 1
0 0.352041 1
0 0.352056 1
0 0.352056 1
0 0.352102 1
0 0.352239 1
1 0.399054 1
0.978561 0.799832 1
0 0.352041 1
0 0.352041 1
0 0.352041 1
0 0.352041 1
0 0.352056 1
0 0.352102 1
0 0.352239 1
1 0.399329 1
0.978561 0.799908 1
0 0.35201 1
0 0.35201 1
0 0.35201 1
0 0.352026 1
0 0.352026 1
0 0.352056 1
0 0.352193 1
1 0.400198 1
0.978546 0.800107 1
0 0.351904 1
0 0.351904 1
0 0.351904 1
0 0.351904 1
0 0.351934 1
0 0.351965 1
0 0.352102 1
1 0.40293 1
0.978485 0.800763 1
0 0.351583 1
0 0.351583 1
0 0.351598 1
0 0.351598 1
0 0.351598 1
0 0.351659 1
0 0.349157 1
1 0.411582 1
0.978393 0.801923 1
0 0.350561 1
0 0.350561 1
0 0.350561 1
0 0.350576 1
0 0.350576 1
0 0.350622 1
1 0 1
1 0.431708 1
0.978225 0.803906 1
0 1 1
0 1 1
0 1 1
0 1 1
0 1 1
0 1 1
0.854307 1 1
0.951476 1 1
0.951049 1 1
0.849302 1 1
0.850019 1 1
0.851072 1 1
0.854322 1 1
0.86363 1 1
0.885435 1 1
0.918227 1 1
0.94493 1 1
0.950134 1 1
