BBLuts/BB_102_0500_LUT.cube
TITLE "Generated by Resolve"
LUT_3D_SIZE 5
0 0 0
0.170977 0 0
0.714931 0 0
0.905776 0.494179 0.069276
0.876539 0.961471 0.654765
0 0.196628 0
0.131167 0.199298 0
0.71812 0.0599527 0
0.899519 0.577981 0.0401617
0.876417 0.963058 0.654078
0 0.768078 0
0 0.767636 0
0.62327 0.764736 0
0.879499 0.817929 0
0.875685 0.973373 0.649058
0.480308 1 0.129412
0.523445 1 0.132143
0.681163 1 0.15079
0.866377 1 0.287617
0.872877 1 0.672969
0.838087 1 0.764019
0.83856 1 0.76408
0.842023 1 0.764508
0.860899 1 0.768261
0.87129 1 0.796796
0 0 0.129564
0.152148 0 0.125566
0.718242 0 0.111986
0.909026 0.475807 0.216358
0.876509 0.961044 0.671397
0 0.164874 0.113603
0.14435 0.160861 0.108659
0.71902 0 0.0982986
0.902983 0.568353 0.200427
0.876387 0.962661 0.670802
0 0.764355 0
0 0.763851 0
0.628534 0.760967 0
0.882719 0.819577 0.0430457
0.875639 0.973068 0.666331
0.488014 1 0.129076
0.528817 1 0.131777
0.682933 1 0.150439
0.866484 1 0.287572
0.872877 1 0.672877
0.838148 1 0.764019
0.838636 1 0.76408
0.8421 1 0.764492
0.860914 1 0.768246
0.87129 1 0.796796
0 0 0.634211
0 0 0.634409
0.722042 0 0.617548
0.925246 0.166278 0.639658
0.876356 0.957855 0.748287
0 0 0.632532
0 0 0.632761
0.73048 0 0.615564
0.913054 0.402365 0.63946
0.876234 0.959594 0.747936
0 0.721111 0.589029
0 0.721492 0.589303
0.619242 0.719799 0.594614
0.888258 0.799039 0.616648
0.875441 0.970687 0.74548
0.493065 1 0.466392
0.531945 1 0.467704
0.682002 1 0.475914
0.862531 1 0.531579
0.872679 1 0.727504
0.838712 1 0.763958
0.839185 1 0.764019
0.842573 1 0.764416
0.861112 1 0.7682
0.87129 1 0.796796
0 0 0.88687
0 0 0.88687
0 0 0.88687
0.927932 0 0.870726
0.878355 0.91841 0.86688
0 0 0.88687
0 0 0.88687
0 0 0.88687
0.927932 0 0.870726
0.87808 0.922164 0.866575
0 0 0.88687
0 0 0.88687
0.314672 0 0.882231
0.927932 0 0.870726
0.876493 0.944762 0.864775
0 1 0.846754
0 1 0.846647
0.543236 1 0.853498
0.845304 0.992096 0.855131
0.872206 1 0.858991
0.835203 1 0.834119
0.83566 1 0.834134
0.838956 1 0.834272
0.857221 1 0.835584
0.87097 1 0.845716
0 0.277974 0.887709
0 0.277974 0.887709
0 0.277989 0.887709
0 0.277089 0.88777
0.893507 0.69099 0.886244
0 0.277943 0.887709
0 0.277943 0.887709
0 0.277974 0.887709
0 0.277058 0.88777
0.893507 0.691127 0.886244
0 0.277821 0.887724
0 0.277821 0.887724
0 0.277836 0.887724
0.342824 0.257282 0.8869
0.893446 0.692058 0.886244
0 0.276524 0.887724
0 0.276524 0.887724
0 0.276539 0.887724
0.927932 0 0.870726
0.893248 0.695079 0.886259
0.77023 1 0.884627
0.772702 1 0.884642
0.786664 1 0.884733
0.839811 1 0.885039
0.87068 1 0.885191
