BBLuts/BB_102_0640_LUT.cube
TITLE "Generated by Resolve"
LUT_3D_SIZE 9
0 0 0
0 0 0
0.207294 0 0
0.473564 0 0
0.73167 0 0
0.915831 0 0
0.879835 0.613092 0.0582437
0.864881 0.864591 0.382498
0.857618 0.958938 0.662821
0 0.05037 0
0 0.0619669 0
0.21062 0.0370031 0
0.48159 0 0
0.733516 0 0
0.915724 0 0
0.878325 0.630503 0.0444648
0.864744 0.866423 0.381277
0.857618 0.959091 0.662745
0 0.238758 0
0 0.242985 0
0.143679 0.242359 0
0.475059 0.217227 0
0.72929 0.105165 0
0.899245 0.25951 0
0.875914 0.653437 0.0171969
0.864515 0.869413 0.3794
0.857603 0.959335 0.662608
0 0.536629 0
0 0.537606 0
0 0.538643 0
0.381308 0.539178 0
0.703746 0.529076 0
0.877012 0.579889 0
0.869383 0.719478 0
0.863722 0.880186 0.377432
0.857511 0.960449 0.661967
0 0.791455 0
0 0.79144 0
0 0.791241 0
0 0.789487 0
0.63267 0.787167 0
0.834653 0.79173 0
0.861051 0.833799 0
0.861692 0.907942 0.38735
0.857221 0.964569 0.659464
0 0.937514 0
0 0.937514 0
0 0.937514 0
0 0.934096 0
0.592065 0.931243 0
0.786496 0.924666 0
0.85417 0.926772 0
0.85864 0.949844 0.430762
0.856413 0.975464 0.661128
0.530648 0.994751 0.166293
0.530648 0.994751 0.166293
0.530648 0.994751 0.166293
0.530632 0.994751 0.166293
0.663874 0.991562 0.182925
0.779736 0.987182 0.228504
0.84828 0.984955 0.340078
0.85597 0.98613 0.523583
0.855116 0.991714 0.685237
0.759411 1 0.584253
0.759411 1 0.584268
0.759411 1 0.584268
0.759411 1 0.584268
0.759411 1 0.584268
0.798825 1 0.590158
0.840116 1 0.60734
0.854475 1 0.651881
0.854093 1 0.735195
0.826276 1 0.763745
0.826276 1 0.763745
0.826276 1 0.763745
0.826276 1 0.763745
0.826276 1 0.763745
0.826276 1 0.763745
0.841031 1 0.766186
0.85388 1 0.772961
0.853773 1 0.789822
0 0 0.0328527
0 0 0.0332494
0.205478 0 0.0292973
0.474327 0 0.0260471
0.732754 0 0.0197452
0.917708 0 0.0173648
0.880415 0.612055 0.0843977
0.864881 0.864561 0.382513
0.857633 0.958923 0.662837
0 0.01944 0.0263981
0.0245518 0.0339361 0.0244144
0.221073 0 0.0230869
0.476768 0 0.0171511
0.73228 0 0
0.916396 0 0
0.878874 0.629602 0.0655222
0.864744 0.866392 0.381292
0.857618 0.959091 0.662745
0 0.226276 0
0 0.230106 0
0.164355 0.229923 0
0.473457 0.20412 0
0.728542 0.0677653 0
0.900282 0.242725 0
0.876524 0.652842 0.034287
0.864515 0.869413 0.3794
0.857603 0.959319 0.662608
0 0.531594 0
0 0.532494 0
0 0.53344 0
0.39295 0.533654 0
0.703456 0.524254 0
0.877089 0.576806 0
0.869444 0.718761 0
0.863722 0.880186 0.377432
0.857511 0.960449 0.661967
0 0.790127 0
0 0.790127 0
0 0.789899 0
0 0.788113 0
0.634623 0.786084 0
0.834714 0.790997 0
0.861067 0.833539 0
0.861692 0.907942 0.38735
0.857221 0.964569 0.659464
0 0.937194 0
0 0.937255 0
0 0.937255 0
0 0.933867 0
0.593652 0.931044 0
0.786679 0.924544 0
0.854185 0.926711 0
0.85864 0.949844 0.430762
0.856413 0.975464 0.661128
0.533257 0.99469 0.166094
0.533257 0.99469 0.166094
0.533242 0.99469 0.166094
0.533242 0.99469 0.166094
0.664637 0.991531 0.182681
0.779873 0.987137 0.228305
0.848295 0.984939 0.340063
0.85597 0.98613 0.523583
0.855116 0.991714 0.685237
0.759594 1 0.584253
0.759594 1 0.584253
0.759594 1 0.584253
0.759594 1 0.584253
0.759579 1 0.584253
0.798901 1 0.590143
0.840131 1 0.607324
0.854475 1 0.651881
0.854093 1 0.735195
0.826291 1 0.763745
0.826291 1 0.763745
0.826291 1 0.763745
0.826291 1 0.763745
0.826291 1 0.763745
0.826291 1 0.763745
0.841031 1 0.766186
0.85388 1 0.772961
0.853773 1 0.789822
0 0 0.171618
0 0 0.171923
0.172427 0 0.167727
0.485222 0 0.159548
0.734508 0 0.156725
0.919905 0 0.171588
0.882429 0.605966 0.233616
0.864942 0.864118 0.414694
0.857633 0.958923 0.662837
0 0 0.168902
0 0 0.169345
0.197574 0 0.164279
0.484184 0 0.156039
0.735439 0 0.152422
0.919661 0 0.163516
0.881163 0.624567 0.226383
0.864805 0.865965 0.413626
0.857618 0.959091 0.662745
0 0.19379 0.155154
0 0.19704 0.155108
0.151293 0.191287 0.149783
0.462928 0.169696 0.14931
0.733333 0 0.142168
0.908202 0.183413 0.157198
0.879423 0.649348 0.215579
0.864591 0.869001 0.41178
0.857603 0.959319 0.662608
0 0.519585 0.0758984
0 0.520989 0.0762036
0 0.52192 0.0774548
0.394324 0.522164 0.0791333
0.702861 0.513268 0.0795148
0.881086 0.569345 0.0906996
0.87422 0.719722 0.17348
0.863783 0.879866 0.404669
0.857511 0.960449 0.661967
0 0.78761 0
0 0.78761 0
0 0.787381 0
0 0.785611 0
0.636454 0.783383 0
0.834714 0.788846 0
0.862898 0.834257 0.0158541
0.861708 0.90782 0.388876
0.857221 0.964569 0.659464
0 0.936782 0
0 0.936782 0
0 0.936782 0
0 0.933455 0
0.596445 0.930755 0
0.787106 0.9243 0
0.8542 0.926558 0
0.858656 0.949783 0.430579
0.856413 0.975464 0.661128
0.536751 0.994598 0.165805
0.536751 0.994598 0.165805
0.536751 0.994598 0.165805
0.536736 0.994598 0.165805
0.665644 0.991455 0.182345
0.780194 0.987091 0.228061
0.848325 0.984909 0.339834
0.85597 0.98613 0.523522
0.855116 0.991714 0.685237
0.759854 1 0.584222
0.759854 1 0.584222
0.759854 1 0.584222
0.759854 1 0.584222
0.759854 1 0.584222
0.798993 1 0.590097
0.840162 1 0.607294
0.854475 1 0.651865
0.854093 1 0.735195
0.826307 1 0.763745
0.826307 1 0.763745
0.826307 1 0.763745
0.826307 1 0.763745
0.826307 1 0.763745
0.826307 1 0.763745
0.841047 1 0.766171
0.85388 1 0.772961
0.853773 1 0.789822
0 0 0.427771
0 0 0.427863
0 0 0.428107
0.440879 0 0.420035
0.750103 0 0.415351
0.920134 0 0.426535
0.885283 0.568429 0.470359
0.865202 0.860014 0.540078
0.857603 0.95874 0.672908
0 0 0.426261
0 0 0.426398
0.0115358 0 0.425879
0.457374 0 0.417807
0.748852 0 0.413413
0.920027 0 0.42385
0.883284 0.598672 0.467842
0.865064 0.861997 0.539605
0.857588 0.958892 0.672831
0 0.0421302 0.42298
0 0.0449226 0.423087
0.0137331 0.0453803 0.422492
0.464973 0 0.414313
0.744518 0 0.409781
0.91928 0 0.420127
0.881407 0.627771 0.464134
0.864836 0.865187 0.538842
0.857572 0.959136 0.672724
0 0.463188 0.395544
0 0.464195 0.395621
0 0.466499 0.396262
0.375784 0.466896 0.397375
0.694865 0.456382 0.3991
0.88571 0.525628 0.410559
0.876188 0.70573 0.45095
0.863996 0.876722 0.536019
0.857496 0.96025 0.672175
0 0.783307 0.30396
0 0.783307 0.30396
0 0.783475 0.304784
0 0.781781 0.308019
0.636469 0.779858 0.320653
0.838254 0.786999 0.346029
0.867124 0.83415 0.412848
0.861875 0.906126 0.526543
0.857191 0.964385 0.669963
0 0.939025 0.048249
0 0.939025 0.048249
0 0.939025 0.048249
0 0.935866 0.049836
0.595865 0.933074 0.0584268
0.790799 0.928725 0.178195
0.859525 0.932357 0.325551
0.858701 0.94934 0.502068
0.856413 0.975402 0.663676
0.547295 0.994278 0.164279
0.547295 0.994278 0.164279
0.547295 0.994278 0.164279
0.547295 0.994278 0.164279
0.668772 0.991226 0.181277
0.781018 0.986954 0.227222
0.848508 0.984802 0.339467
0.85597 0.986053 0.523217
0.855116 0.991699 0.685176
0.760739 1 0.584131
0.760739 1 0.584131
0.760739 1 0.584131
0.760739 1 0.584131
0.760739 1 0.584131
0.799329 1 0.58999
0.840299 1 0.607217
0.854475 1 0.651759
0.854093 1 0.735164
0.826413 1 0.763745
0.826413 1 0.763745
0.826413 1 0.763745
0.826413 1 0.763745
0.826413 1 0.763745
0.826413 1 0.763745
0.841077 1 0.766155
0.85388 1 0.772946
0.853773 1 0.789822
0 0 0.671183
0 0 0.671183
0 0 0.67126
0.0944839 0 0.669047
0.723842 0 0.659358
0.91931 0 0.658885
0.901213 0.306325 0.67245
0.86569 0.845396 0.689998
0.857389 0.956695 0.74168
0 0 0.671122
0 0 0.671122
0 0 0.671168
0.102251 0 0.668574
0.726818 0 0.658961
0.919326 0 0.658564
0.895354 0.399466 0.671611
0.865522 0.847868 0.689723
0.857374 0.956832 0.741634
0 0 0.670283
0 0 0.670283
0 0 0.670344
0.205997 0 0.666438
0.731273 0 0.657969
0.919326 0 0.657679
0.889143 0.495674 0.670146
0.865263 0.851637 0.68925
0.857359 0.957107 0.741573
0 0.202274 0.665629
0 0.202274 0.665629
0 0.206928 0.665599
0.201022 0.19823 0.662699
0.725658 0.0899214 0.656657
0.907927 0.179767 0.656794
0.879469 0.645762 0.665156
0.864286 0.865354 0.687526
0.857282 0.958282 0.741253
0 0.744533 0.635309
0 0.744533 0.635309
0 0.744579 0.635325
0 0.744411 0.63566
0.617197 0.742489 0.636683
0.833326 0.754833 0.639841
0.868101 0.814237 0.651209
0.86186 0.899458 0.682261
0.856962 0.962646 0.740093
0 0.939406 0.599954
0 0.939406 0.599954
0 0.939483 0.599908
0 0.93695 0.600412
0.561334 0.932998 0.604212
0.782559 0.926345 0.612253
0.858885 0.92932 0.631403
0.858473 0.946807 0.670832
0.856153 0.974136 0.735958
0.532403 0.995651 0.544137
0.532403 0.995651 0.544137
0.532403 0.995651 0.544137
0.532403 0.995651 0.544137
0.656794 0.992569 0.548211
0.775189 0.987716 0.558862
0.84361 0.984634 0.586831
0.855756 0.985351 0.644465
0.854963 0.991211 0.7243
0.763561 1 0.583566
0.763561 1 0.583566
0.763561 1 0.583566
0.763561 1 0.583566
0.763561 1 0.583566
0.800397 1 0.589609
0.84062 1 0.606882
0.854475 1 0.651606
0.854093 1 0.734997
0.826764 1 0.763699
0.826764 1 0.763699
0.826764 1 0.763699
0.826764 1 0.763699
0.826764 1 0.763699
0.826749 1 0.763699
0.841215 1 0.76611
0.85388 1 0.772915
0.853773 1 0.789792
0 0 0.826688
0 0 0.82678
0 0 0.82678
0 0 0.826795
0.5682 0 0.817365
0.914199 0 0.807233
0.9178 0 0.807706
0.869856 0.775113 0.803418
0.857389 0.951034 0.805035
0 0 0.82678
0 0 0.82678
0 0 0.82678
0 0 0.826795
0.567636 0 0.817395
0.914199 0 0.807233
0.9178 0 0.807645
0.86949 0.780468 0.803082
0.857374 0.951232 0.80502
0 0 0.826734
0 0 0.826734
0 0 0.826734
0 0 0.826734
0.575372 0 0.817121
0.914488 0 0.807141
0.9178 0 0.807538
0.868925 0.788663 0.802579
0.857359 0.951537 0.804959
0 0 0.826352
0 0 0.826352
0 0 0.826352
0 0 0.826368
0.616922 0 0.815564
0.915251 0 0.806729
0.917769 0 0.806332
0.867063 0.815671 0.800824
0.857252 0.952926 0.804791
0 0.517052 0.814862
0 0.517052 0.814862
0 0.517052 0.814862
0 0.521279 0.814725
0.574258 0.519097 0.8103
0.876173 0.53994 0.80499
0.874601 0.705135 0.800793
0.86305 0.873182 0.796597
0.856886 0.958053 0.804135
0 0.924529 0.782422
0 0.924529 0.782422
0 0.924529 0.782422
0 0.924529 0.782422
0.348837 0.917235 0.782223
0.768475 0.910597 0.784451
0.855344 0.916457 0.785809
0.858396 0.938689 0.790234
0.855955 0.97116 0.802152
0.366461 0.992599 0.768811
0.366461 0.992599 0.768811
0.367666 0.99263 0.768795
0.367666 0.99263 0.768795
0.589883 0.99086 0.770504
0.756283 0.985046 0.772229
0.833661 0.981842 0.775448
0.855207 0.983093 0.782956
0.854612 0.989822 0.797894
0.75256 1 0.746593
0.75256 1 0.746593
0.75256 1 0.746593
0.75256 1 0.746593
0.75256 1 0.746593
0.789868 1 0.748318
0.832822 1 0.753323
0.853895 1 0.76585
0.853773 1 0.788327
0.827878 1 0.763561
0.827878 1 0.763561
0.827878 1 0.763561
0.827878 1 0.763561
0.827878 1 0.763561
0.827878 1 0.763561
0.841627 1 0.765957
0.85388 1 0.772793
0.853773 1 0.789746
0 0 0.869917
0 0 0.869917
0 0 0.869917
0 0 0.869917
0 0 0.869917
0.840772 0 0.860487
0.917205 0 0.859449
0.917205 0 0.859449
0.8589 0.925505 0.850141
0 0 0.869917
0 0 0.869917
0 0 0.869917
0 0 0.869917
0 0 0.869917
0.840772 0 0.860487
0.917205 0 0.859449
0.917205 0 0.859449
0.858869 0.925933 0.850111
0 0 0.869917
0 0 0.869917
0 0 0.869917
0 0 0.869917
0 0 0.869917
0.840772 0 0.860487
0.917205 0 0.859449
0.917205 0 0.859449
0.858824 0.92668 0.85005
0 0 0.869917
0 0 0.869917
0 0 0.869917
0 0 0.869917
0 0 0.869917
0.845045 0 0.860426
0.917205 0 0.859449
0.917205 0 0.859449
0.85861 0.929595 0.849821
0 0 0.869917
0 0 0.869917
0 0 0.869917
0 0 0.869917
0 0 0.869917
0.874784 0 0.860029
0.917205 0 0.859449
0.88983 0.458869 0.862272
0.857908 0.939513 0.849012
0 0.769314 0.857755
0 0.769314 0.857755
0 0.769314 0.857755
0 0.769314 0.857755
0 0.772183 0.857633
0.765469 0.770062 0.856718
0.866712 0.814572 0.854017
0.860853 0.898314 0.8495
0.856367 0.961013 0.847181
0 0.990295 0.839551
0 0.990295 0.839551
0 0.990295 0.839551
0 0.990295 0.839551
0 0.990295 0.839551
0.71516 0.979599 0.841764
0.827741 0.97525 0.842161
0.855177 0.977783 0.84271
0.85452 0.986633 0.844556
0.725673 1 0.836805
0.725673 1 0.836805
0.725673 1 0.836805
0.725673 1 0.836805
0.725673 1 0.836805
0.767285 1 0.836957
0.824384 1 0.837461
0.852689 1 0.838727
0.853422 1 0.841779
0.822965 1 0.827466
0.822965 1 0.827466
0.822965 1 0.827466
0.822965 1 0.827466
0.822965 1 0.827466
0.822965 1 0.827466
0.836835 1 0.828107
0.852049 1 0.830106
0.853468 1 0.834913
0 0.0679637 0.870375
0 0.0679637 0.870375
0 0.0679637 0.870375
0 0.0679637 0.870375
0 0.0679637 0.870375
0 0.0680705 0.870375
0.917205 0 0.859449
0.916228 0 0.860487
0.875593 0.681193 0.865843
0 0.0679637 0.870375
0 0.0679637 0.870375
0 0.0679637 0.870375
0 0.0679637 0.870375
0 0.0679637 0.870375
0 0.0680705 0.870375
0.917205 0 0.859449
0.916228 0 0.860487
0.875593 0.681193 0.865843
0 0.0679637 0.870375
0 0.0679637 0.870375
0 0.0679637 0.870375
0 0.0679637 0.870375
0 0.0679637 0.870375
0 0.0680705 0.870375
0.917205 0 0.859449
0.916228 0 0.860487
0.875593 0.681147 0.865843
0 0.0679637 0.870375
0 0.0679637 0.870375
0 0.0679637 0.870375
0 0.0679637 0.870375
0 0.0679637 0.870375
0 0.0680705 0.870375
0.917205 0 0.859449
0.916228 0 0.860487
0.875608 0.681056 0.865843
0 0.0678416 0.870375
0 0.0678416 0.870375
0 0.0678416 0.870375
0 0.0678416 0.870375
0 0.0678416 0.870375
0 0.0679332 0.870375
0.917205 0 0.859449
0.916121 0 0.860563
0.875624 0.680797 0.865843
0 0.0660258 0.870375
0 0.0660258 0.870375
0 0.0660258 0.870375
0 0.0660258 0.870375
0 0.0660258 0.870375
0 0.0661173 0.870375
0.917205 0 0.859449
0.914168 0.0387732 0.861646
0.866773 0.812299 0.86566
0 0.920317 0.861372
0 0.920317 0.861372
0 0.920317 0.861372
0 0.920317 0.861372
0 0.920317 0.861372
0 0.922042 0.861341
0.829328 0.908431 0.86508
0.857862 0.938354 0.865003
0.855512 0.970718 0.864775
0.470726 0.996811 0.861692
0.470726 0.996811 0.861692
0.470726 0.996811 0.861692
0.470726 0.996811 0.861692
0.470726 0.996811 0.861692
0.470726 0.996811 0.861692
0.808469 1 0.863615
0.850828 1 0.863752
0.85333 1 0.863905
0.812955 1 0.862211
0.812955 1 0.862211
0.812955 1 0.862211
0.812955 1 0.862211
0.812955 1 0.862211
0.812955 1 0.862211
0.828489 1 0.862257
0.848936 1 0.862409
0.853269 1 0.862745
0 0.332921 0.869108
0 0.332921 0.869108
0 0.332921 0.869108
0 0.332921 0.869108
0 0.332921 0.869108
0 0.332921 0.869108
0 0.332998 0.869108
0.910674 0.109331 0.862928
0.87364 0.710994 0.865858
0 0.332921 0.869108
0 0.332921 0.869108
0 0.332921 0.869108
0 0.332921 0.869108
0 0.332921 0.869108
0 0.332921 0.869108
0 0.332998 0.869108
0.910674 0.109331 0.862928
0.87364 0.710994 0.865858
0 0.332921 0.869108
0 0.332921 0.869108
0 0.332921 0.869108
0 0.332921 0.869108
0 0.332921 0.869108
0 0.332921 0.869108
0 0.332998 0.869108
0.910674 0.109331 0.862928
0.87364 0.710994 0.865858
0 0.332921 0.869108
0 0.332921 0.869108
0 0.332921 0.869108
0 0.332921 0.869108
0 0.332921 0.869108
0 0.332921 0.869108
0 0.332998 0.869108
0.910674 0.109331 0.862928
0.87364 0.710994 0.865858
0 0.332921 0.869108
0 0.332921 0.869108
0 0.332921 0.869108
0 0.332921 0.869108
0 0.332921 0.869108
0 0.332921 0.869108
0 0.332998 0.869108
0.910674 0.109331 0.862928
0.87364 0.710994 0.865858
0 0.33283 0.869108
0 0.33283 0.869108
0 0.33283 0.869108
0 0.33283 0.869108
0 0.33283 0.869108
0 0.33283 0.869108
0 0.332891 0.869108
0.910613 0.110445 0.862943
0.873564 0.71223 0.865858
0 0.331502 0.869123
0 0.331502 0.869123
0 0.331502 0.869123
0 0.331502 0.869123
0 0.331502 0.869123
0 0.331502 0.869123
0 0.331579 0.869123
0.902419 0.255436 0.864454
0.873411 0.714473 0.865858
0 0.989456 0.860121
0 0.989456 0.860121
0 0.989456 0.860121
0 0.989456 0.860121
0 0.989456 0.860121
0 0.989456 0.860121
0 0.989639 0.860121
0.849454 0.985656 0.864637
0.854078 0.99057 0.864622
0.768215 1 0.864103
0.768215 1 0.864103
0.768215 1 0.864103
0.768215 1 0.864103
0.768215 1 0.864103
0.768215 1 0.864103
0.768215 1 0.864103
0.844373 1 0.8645
0.853254 1 0.864546
