BBLuts/BB_102_0260_LUT.cube
TITLE "Generated by Resolve"
LUT_3D_SIZE 33
0 0 0
0 0 0
0 0 0
0 0 0
0 0 0
0.0505226 0 0
0.120409 0 0
0.174609 0 0
0.231205 0 0
0.299199 0 0
0.376074 0 0
0.450904 0 0
0.524147 0 0
0.597482 0 0
0.688365 0 0
0.784695 0 0
0.882872 0 0
0.979629 0 0
1 0 0
1 0 0
1 0 0
1 0.0353094 0
1 0.324453 0
1 0.49485 0.00962844
1 0.601053 0.0733959
1 0.70135 0.139406
1 0.78999 0.21323
1 0.859739 0.306737
1 0.912154 0.415076
1 0.953079 0.507057
1 0.983551 0.581811
1 1 0.659205
1 1 0.72311
0 0 0
0 0 0
0 0 0
0 0 0
0 0 0
0.0623789 0 0
0.124834 0 0
0.178851 0 0
0.237003 0 0
0.305455 0 0
0.381567 0 0
0.453712 0 0
0.524971 0 0
0.598398 0 0
0.68864 0 0
0.784527 0 0
0.882322 0 0
0.978622 0 0
1 0 0
1 0 0
1 0 0
1 0.0651255 0
1 0.351614 0
1 0.504677 0
1 0.606195 0.0680858
1 0.704341 0.136538
1 0.791333 0.211566
1 0.860014 0.304799
1 0.912077 0.413245
1 0.95288 0.505608
1 0.983398 0.580865
1 1 0.658061
1 1 0.723095
0 0 0
0 0 0
0 0 0
0 0 0
0 0 0
0.067155 0 0
0.124849 0 0
0.180911 0 0
0.241154 0 0
0.309361 0 0
0.384039 0 0
0.454887 0 0
0.526497 0 0
0.599924 0 0
0.689769 0 0
0.785199 0 0
0.882399 0 0
0.978195 0 0
1 0 0
1 0 0
1 0 0
1 0.132982 0
1 0.377615 0
1 0.514473 0
1 0.611414 0.0634165
1 0.707271 0.134142
1 0.792844 0.2103
1 0.860655 0.303761
1 0.912306 0.412207
1 0.952941 0.504814
1 0.983368 0.580209
1 1 0.657465
1 1 0.723079
0 0 0
0 0 0
0 0 0
0 0 0
0 0 0
0.064622 0 0
0.119844 0 0
0.176959 0 0
0.238926 0 0
0.310262 0 0
0.386191 0 0
0.456779 0 0
0.528222 0 0
0.601511 0 0
0.690913 0 0
0.78584 0 0
0.882734 0 0
0.978103 0 0
1 0 0
1 0 0
1 0.00762951 0
1 0.198795 0
1 0.398703 0
1 0.522332 0
1 0.616068 0.0589303
1 0.709972 0.131838
1 0.794217 0.209049
1 0.861463 0.303166
1 0.912703 0.411551
1 0.952987 0.504021
1 0.983337 0.579553
1 1 0.657145
1 1 0.723049
0 0.0387732 0
0 0.0425574 0
0 0.0463417 0
0 0.0495613 0
0 0.0502632 0
0.0516213 0.0487678 0
0.11342 0.0458686 0
0.172778 0.0389105 0
0.236378 0.020798 0
0.309316 0 0
0.386496 0 0
0.458518 0 0
0.529732 0 0
0.603189 0 0
0.692332 0 0
0.786679 0 0
0.88307 0 0
0.978332 0 0
1 0 0
1 0 0
1 0.0193027 0
1 0.238926 0
1 0.415518 0
1 0.530144 0
1 0.621302 0.0539101
1 0.713115 0.12961
1 0.79585 0.208164
1 0.862242 0.302586
1 0.912917 0.410513
1 0.953155 0.503563
1 0.983383 0.579202
1 1 0.65655
1 1 0.723018
0 0.0838331 0
0 0.0869459 0
0 0.0897536 0
0 0.0919051 0
0 0.0926375 0
0.0239719 0.0918441 0
0.101015 0.0906233 0
0.167102 0.0880598 0
0.234195 0.0826581 0
0.309178 0.0717174 0
0.386374 0.0467994 0
0.458869 0 0
0.530632 0 0
0.604929 0 0
0.693889 0 0
0.787839 0 0
0.883406 0 0
0.978164 0 0
1 0 0
1 0 0
1 0.0588235 0
1 0.274525 0
1 0.430671 0
1 0.537209 0
1 0.626383 0.0488594
1 0.716472 0.127138
1 0.797742 0.207187
1 0.863081 0.302007
1 0.913314 0.409873
1 0.953323 0.50309
1 0.983459 0.578836
1 1 0.656229
1 1 0.722988
0 0.130709 0
0 0.133043 0
0 0.135302 0
0 0.136706 0
0 0.137407 0
0 0.13724 0
0.0725567 0.135958 0
0.154772 0.134615 0
0.228061 0.131807 0
0.306706 0.126406 0
0.386831 0.116243 0
0.461097 0.0990921 0
0.532464 0.0652018 0
0.606104 0.0107424 0
0.694743 0 0
0.788281 0 0
0.883467 0 0
0.978103 0 0
1 0 0
1 0.00691234 0
1 0.130556 0
1 0.312795 0
1 0.448249 0
1 0.546105 0
1 0.632776 0.0426184
1 0.720806 0.12459
1 0.800137 0.206073
1 0.864332 0.301411
1 0.914031 0.409537
1 0.953567 0.502586
1 0.983566 0.578454
1 1 0.655894
1 1 0.722957
0 0.18323 0
0 0.185016 0
0 0.186267 0
0 0.187381 0
0 0.188098 0
0 0.188449 0
0.0220798 0.187289 0
0.126665 0.185946 0
0.214374 0.184237 0
0.298863 0.180575 0
0.383948 0.173983 0
0.462104 0.164431 0
0.535653 0.149783 0
0.609766 0.123873 0
0.696254 0.0771496 0
0.788113 0.0286107 0
0.882445 0.0130922 0
0.976638 0 0
1 0.000259403 0
1 0.0811017 0
1 0.214405 0
1 0.356374 0
1 0.469932 0
1 0.557565 0
1 0.641413 0.0307164
1 0.72636 0.120729
1 0.803693 0.205066
1 0.866133 0.300771
1 0.915022 0.408637
1 0.954131 0.502342
1 0.983749 0.578027
1 1 0.655818
1 1 0.722911
0 0.243137 0
0 0.244312 0
0 0.245045 0
0 0.245823 0
0 0.246464 0
0 0.246738 0
0 0.246387 0
0.0727855 0.24445 0
0.184146 0.242069 0
0.281712 0.238895 0
0.37528 0.234302 0
0.460197 0.227955 0
0.537804 0.218601 0
0.614298 0.205158 0
0.701152 0.187137 0
0.790951 0.161898 0
0.882307 0.122484 0
0.974166 0.068925 0
1 0.093019 0
1 0.190692 0
1 0.297078 0
1 0.404166 0
1 0.495949 0
1 0.572869 0
1 0.653498 0.0128328
1 0.734249 0.11519
1 0.808225 0.203357
1 0.868818 0.300496
1 0.916442 0.407553
1 0.954879 0.501625
1 0.984085 0.577539
1 1 0.655421
1 1 0.722835
0 0.311711 0
0 0.312154 0
0 0.312367 0
0 0.312795 0
0 0.312932 0
0 0.313024 0
0 0.312947 0
0 0.311849 0
0.11664 0.308888 0
0.246891 0.306127 0
0.357321 0.302907 0
0.452674 0.298116 0
0.536614 0.291142 0
0.617716 0.281575 0
0.706279 0.270878 0
0.795636 0.259434 0
0.885588 0.248508 0
0.975036 0.243442 0
1 0.258366 0
1 0.304372 0
1 0.375387 0
1 0.452171 0
1 0.525536 0
1 0.592889 0
1 0.668956 0
1 0.745144 0.108217
1 0.814847 0.201511
1 0.872267 0.299718
1 0.918563 0.406622
1 0.955962 0.500771
1 0.984771 0.577218
1 1 0.654963
1 1 0.722744
0 0.385214 0
0 0.385504 0
0 0.385962 0
0 0.386069 0
0 0.386358 0
0 0.386557 0
0 0.386694 0
0 0.386465 0
0.0133211 0.38497 0
0.174899 0.381537 0
0.320943 0.379034 0
0.436545 0.375769 0
0.5308 0.370962 0
0.61738 0.36492 0
0.70988 0.358236 0
0.800473 0.351995 0
0.889494 0.348028 0
0.976913 0.349706 0
1 0.365026 0
1 0.399695 0
1 0.446326 0
1 0.502022 0
1 0.557504 0
1 0.619898 0
1 0.688991 0
1 0.759121 0.0999466
1 0.823301 0.198718
1 0.877241 0.299351
1 0.921401 0.4056
1 0.95758 0.500053
1 0.985718 0.576776
1 1 0.654643
1 1 0.722606
0 0.46041 0
0 0.46038 0
0 0.460472 0
0 0.460929 0
0 0.460883 0
0 0.461158 0
0 0.461326 0
0 0.461402 0
0 0.461082 0
0.0680552 0.459312 0
0.244038 0.456657 0
0.402808 0.454643 0
0.516014 0.452049 0
0.610071 0.448493 0
0.708507 0.44445 0
0.802747 0.44126 0
0.892775 0.440513 0
0.978531 0.444099 0
1 0.456199 0
1 0.47953 0
1 0.511864 0
1 0.549889 0
1 0.595666 0
1 0.652338 0
1 0.714137 0
1 0.776211 0.0893568
1 0.834363 0.195712
1 0.883787 0.299077
1 0.925216 0.404959
1 0.959731 0.499138
1 0.986893 0.575891
1 1 0.653925
1 1 0.722362
0 0.535409 0
0 0.535271 0
0 0.535531 0
0 0.535454 0
0 0.535668 0
0 0.535714 0
0 0.535882 0
0 0.536065 0
0 0.536217 0
0.0107881 0.535821 0
0.129992 0.533898 0
0.32697 0.532113 0
0.485466 0.530388 0
0.592828 0.528267 0
0.699046 0.525795 0
0.799359 0.523751 0
0.893019 0.523064 0
0.978882 0.525536 0
1 0.533516 0
1 0.548104 0
1 0.570199 0
1 0.601358 0
1 0.642405 0
1 0.690486 0
1 0.743954 0
1 0.797482 0.0747234
1 0.847913 0.192096
1 0.891997 0.298573
1 0.930373 0.405509
1 0.962615 0.497627
1 0.988617 0.575082
1 1 0.653361
1 1 0.721996
0 0.610712 0
0 0.610147 0
0 0.610346 0
0 0.610224 0
0 0.610376 0
0 0.610208 0
0 0.610376 0
0 0.61059 0
0 0.61088 0
0 0.610956 0
0.028748 0.610056 0
0.197101 0.607004 0
0.423865 0.604486 0
0.565576 0.602106 0
0.680217 0.599664 0
0.78822 0.597314 0
0.88777 0.596002 0
0.975784 0.597208 0
1 0.603372 0
1 0.615885 0
1 0.634806 0
1 0.660777 0
1 0.694163 0
1 0.733837 0
1 0.777691 0
1 0.821836 0.0557717
1 0.864073 0.187915
1 0.902342 0.298772
1 0.936919 0.406424
1 0.966491 0.496468
1 0.990982 0.574029
1 1 0.652583
1 1 0.721553
0.00514229 0.693278 0
0.00509651 0.692653 0
0.00509651 0.692744 0
0.00508125 0.692546 0
0.00508125 0.692638 0
0.005066 0.692393 0
0.005066 0.69247 0
0.00508125 0.692561 0
0.00508125 0.692576 0
0.00505074 0.692241 0
0.00505074 0.69221 0
0.0530251 0.690532 0
0.300496 0.686229 0
0.521874 0.683314 0
0.651621 0.680674 0
0.768658 0.678157 0
0.875151 0.676143 0
0.967529 0.676158 0
1 0.680293 0
1 0.689219 0
1 0.703655 0
1 0.723659 0
1 0.749447 0
1 0.780255 0
1 0.81416 0
1 0.848707 0.0295262
1 0.882521 0.184253
1 0.91487 0.299641
1 0.945327 0.407904
1 0.97142 0.496666
1 0.994049 0.572519
1 1 0.651514
1 1 0.720913
0.0123598 0.775692 0
0.0122988 0.775067 0
0.0122988 0.775067 0
0.0122835 0.774807 0
0.012253 0.774517 0
0.012253 0.774548 0
0.012253 0.774563 0
0.012253 0.774563 0
0.0122225 0.774182 0
0.0122072 0.773999 0
0.0121767 0.773678 0
0.0260319 0.772839 0
0.142885 0.769436 0
0.438636 0.764813 0
0.611673 0.761791 0
0.741009 0.758938 0
0.855009 0.756451 0
0.9523 0.755245 0
1 0.757046 0
1 0.762646 0
1 0.772503 0
1 0.786816 0
1 0.805142 0
1 0.826795 0
1 0.851331 0
1 0.876951 0
1 0.902663 0.181186
1 0.929244 0.302235
1 0.954833 0.41001
1 0.977478 0.498527
1 0.998032 0.571878
1 1 0.649882
1 1 0.720012
0.0191653 0.853483 0
0.0191348 0.853223 0
0.0191196 0.852949 0
0.0191196 0.852949 0
0.019089 0.852674 0
0.019089 0.852644 0
0.0190585 0.852323 0
0.0190585 0.852216 0
0.0190433 0.852033 0
0.0190127 0.851713 0
0.018967 0.851179 0
0.0188907 0.850355 0
0.0676738 0.847761 0
0.331594 0.842206 0
0.563882 0.838056 0
0.709194 0.83476 0
0.830579 0.83151 0
0.931838 0.829175 0
1 0.828702 0
1 0.831189 0
1 0.836332 0
1 0.844739 0
1 0.856245 0
1 0.870405 0
1 0.887098 0
1 0.905333 0
1 0.924315 0.182528
1 0.94551 0.307225
1 0.965698 0.414115
1 0.984909 0.501228
1 1 0.57229
1 1 0.648463
1 1 0.718807
0.0248417 0.918395 0
0.0248264 0.918196 0
0.0248112 0.917998 0
0.0247959 0.917784 0
0.0247959 0.917784 0
0.0247654 0.91754 0
0.0247654 0.917433 0
0.0247349 0.917235 0
0.0247044 0.916716 0
0.0246586 0.916213 0
0.0245975 0.915496 0
0.0244907 0.914412 0
0.053193 0.912169 0
0.233921 0.906981 0
0.516564 0.901793 0
0.682002 0.897642 0
0.8094 0.893797 0
0.91281 0.890608 0
0.993103 0.888655 0
1 0.888365 0
1 0.890166 0
1 0.89424 0
1 0.900633 0
1 0.909407 0
1 0.920409 0
1 0.932738 0
1 0.946715 0.192111
1 0.962051 0.315679
1 0.977646 0.420172
1 0.993454 0.505104
1 1 0.574792
1 1 0.647684
1 1 0.717342
0.0292058 0.968673 0
0.0291752 0.968353 0
0.02916 0.9682 0
0.02916 0.9682 0
0.02916 0.968032 0
0.02916 0.968032 0
0.0291295 0.967849 0
0.0291142 0.967651 0
0.0290837 0.967269 0
0.0290227 0.966613 0
0.0289311 0.96553 0
0.0288243 0.964294 0
0.047303 0.962173 0
0.184115 0.957321 0
0.484184 0.951293 0
0.667231 0.946777 0
0.796811 0.942214 0
0.899077 0.938537 0
0.978683 0.935882 0
1 0.934325 0
1 0.934157 0
1 0.935729 0
1 0.938994 0
1 0.944503 0
1 0.951247 0
1 0.95874 0.0588083
1 0.96791 0.211398
1 0.978607 0.328603
1 0.990509 0.428779
1 1 0.510826
1 1 0.578805
1 1 0.650416
1 1 0.716182
0.032578 1 0
0.0325628 1 0
0.0325475 1 0
0.0325475 1 0
0.0325475 1 0
0.0325322 1 0
0.0325322 1 0
0.032517 1 0
0.0325017 1 0
0.0324407 1 0
0.0323491 1 0
0.0322271 1 0
0.049073 1 0
0.185183 0.99588 0
0.497353 0.989563 0
0.66836 0.984985 0
0.793515 0.980911 0
0.891569 0.977188 0
0.96849 0.974151 0
1 0.971954 0
1 0.970733 0
1 0.970626 0
1 0.97174 0
1 0.974151 0
1 0.977691 0
1 0.981552 0.109148
1 0.987564 0.238331
1 0.995117 0.347753
1 1 0.440482
1 1 0.518486
1 1 0.58439
1 1 0.654765
1 1 0.71812
0.0350805 1 0
0.03505 1 0
0.03505 1 0
0.03505 1 0
0.03505 1 0
0.0350347 1 0
0.0350347 1 0
0.0350347 1 0
0.0350195 1 0
0.0350042 1 0
0.0349126 1 0
0.0349737 1 0
0.0476844 1 0
0.180072 1 0
0.541878 1 0
0.687877 1 0
0.801511 1 0
0.891661 1 0
0.963806 1 0
1 1 0
1 0.99913 0
1 0.998169 0
1 0.998016 0
1 0.998856 0
1 1 0
1 1 0.161654
1 1 0.274678
1 1 0.37319
1 1 0.456703
1 1 0.528389
1 1 0.592096
1 1 0.660578
1 1 0.721645
0.0383001 1 0
0.0382239 1 0
0.0381781 1 0
0.0381781 1 0
0.0381476 1 0
0.0381476 1 0
0.0381018 1 0
0.0381018 1 0
0.038056 1 0
0.038056 1 0
0.0380407 1 0
0.0392615 1 0
0.095079 1 0
0.367819 1 0
0.597589 1 0
0.720928 1 0
0.818616 1 0
0.898238 1 0
0.963958 1 0
1 1 0
1 1 0
1 1 0
1 1 0
1 1 0
1 1 0.113771
1 1 0.226383
1 1 0.31957
1 1 0.40473
1 1 0.477363
1 1 0.541466
1 1 0.602441
1 1 0.668238
1 1 0.726543
0.110994 1 0
0.109285 1 0
0.107576 1 0
0.105867 1 0
0.104158 1 0
0.104158 1 0
0.102449 1 0
0.102449 1 0
0.100725 1 0
0.100725 1 0
0.100725 1 0
0.101228 1 0
0.187137 1 0
0.537438 1 0
0.66363 1 0
0.762325 1 0
0.843244 1 0
0.91107 1 0
0.969421 1 0
1 1 0
1 1 0
1 1 0
1 1 0
1 1 0.100343
1 1 0.205509
1 1 0.291691
1 1 0.370306
1 1 0.439475
1 1 0.502251
1 1 0.557794
1 1 0.616327
1 1 0.677958
1 1 0.732906
0.501305 1 0
0.500343 1 0
0.499367 1 0
0.498405 1 0
0.497429 1 0
0.497429 1 0
0.496468 1 0
0.496452 1 0
0.495476 1 0
0.495445 1 0
0.495445 1 0
0.495415 1 0
0.517464 1 0
0.62594 1 0
0.727916 1 0
0.806394 1 0
0.87187 1 0
0.928328 1 0
0.978592 1 0
1 1 0
1 1 0.048661
1 1 0.115343
1 1 0.167483
1 1 0.22536
1 1 0.29073
1 1 0.358068
1 1 0.421027
1 1 0.47805
1 1 0.529976
1 1 0.578607
1 1 0.634089
1 1 0.690608
1 1 0.740795
0.7131 1 0.204929
0.712566 1 0.204318
0.712047 1 0.203708
0.711513 1 0.203098
0.710994 1 0.202487
0.710994 1 0.202487
0.71046 1 0.201877
0.71046 1 0.201877
0.709926 1 0.201266
0.709926 1 0.201266
0.709926 1 0.201266
0.709392 1 0.200656
0.709377 1 0.200656
0.721035 1 0.20116
0.783673 1 0.204227
0.848554 1 0.209064
0.901747 1 0.215091
0.948745 1 0.222599
0.990768 1 0.231922
1 1 0.244419
1 1 0.260166
1 1 0.279698
1 1 0.303944
1 1 0.333333
1 1 0.374685
1 1 0.42208
1 1 0.470008
1 1 0.517067
1 1 0.559625
1 1 0.60528
1 1 0.656199
1 1 0.70602
1 1 0.750973
0.84036 1 0.360937
0.840009 1 0.360433
0.839658 1 0.35993
0.839307 1 0.359426
0.838956 1 0.358907
0.838605 1 0.358404
0.838605 1 0.358404
0.838605 1 0.358404
0.838254 1 0.3579
0.838254 1 0.3579
0.837903 1 0.357397
0.837903 1 0.357397
0.837888 1 0.357397
0.837888 1 0.357397
0.845106 1 0.357794
0.886168 1 0.359792
0.931701 1 0.363622
0.971267 1 0.368277
1 1 0.374044
1 1 0.381567
1 1 0.390997
1 1 0.402472
1 1 0.415991
1 1 0.432914
1 1 0.453696
1 1 0.483421
1 1 0.518502
1 1 0.554238
1 1 0.592889
1 1 0.636698
1 1 0.681315
1 1 0.724132
1 1 0.762997
0.925597 1 0.473732
0.925093 1 0.472984
0.924834 1 0.472602
0.924834 1 0.472602
0.924575 1 0.472221
0.924331 1 0.471855
0.924331 1 0.471855
0.924071 1 0.471473
0.924071 1 0.471473
0.923812 1 0.471092
0.923812 1 0.471092
0.923812 1 0.471092
0.923812 1 0.471092
0.923552 1 0.47071
0.923537 1 0.47071
0.92871 1 0.471015
0.959182 1 0.472908
0.992966 1 0.475807
1 1 0.479255
1 1 0.483467
1 1 0.488914
1 1 0.495735
1 1 0.504189
1 1 0.514305
1 1 0.527016
1 1 0.542473
1 1 0.564965
1 1 0.59498
1 1 0.63151
1 1 0.670329
1 1 0.708507
1 1 0.744442
1 1 0.776989
0.988098 1 0.557549
0.987747 1 0.55697
0.987564 1 0.55668
0.987381 1 0.55639
0.987381 1 0.55639
0.987198 1 0.5561
0.98703 1 0.55581
0.987015 1 0.55581
0.987015 1 0.55581
