BBLuts/BB_102_0140_LUT.cube
TITLE "Generated by Resolve"
LUT_3D_SIZE 33
0.00415045 0.00553903 0.00477607
0.00415045 0.00553903 0.00477607
0.00463874 0.00555428 0.00492866
0.0113375 0.00569161 0.00569161
0.0219425 0.00610361 0.00576791
0.0353246 0.00727855 0.00581369
0.0536202 0.0080415 0.00665293
0.079469 0.00933852 0.00724804
0.117433 0.00903334 0.00621042
0.170031 0.00721752 0.00430304
0.234623 0.00390631 0.0034638
0.313756 0.000534066 0.00209049
0.414023 0 0.000488289
0.528862 0 0.00015259
0.634272 0 0
0.734539 0 0
0.843793 0 0
0.947295 0 0
0.985183 0 0
0.985183 0 0
0.985183 0 0
0.95317 0.0172427 0
0.92871 0.246464 0
0.908934 0.374746 0
0.891432 0.476555 0.00523384
0.882383 0.564935 0.119509
0.880827 0.649241 0.241947
0.886564 0.722972 0.37293
0.894392 0.782376 0.494194
0.901732 0.829389 0.601404
0.909651 0.865446 0.691691
0.917037 0.894774 0.760388
0.929229 0.916655 0.816175
0.00415045 0.00553903 0.00477607
0.00415045 0.00553903 0.00477607
0.00573739 0.00556954 0.00514229
0.0121157 0.00570687 0.00569161
0.0217441 0.00608835 0.00576791
0.0357366 0.00730907 0.00581369
0.0548714 0.00807202 0.00674449
0.0813001 0.00941482 0.00724804
0.119966 0.00895705 0.00611887
0.172519 0.00708019 0.00425727
0.236622 0.00381476 0.0034638
0.315969 0.00047303 0.00204471
0.416281 0 0.000457771
0.530465 0 0.00015259
0.635203 0 0
0.73518 0 0
0.843976 0 0
0.946929 0 0
0.985183 0 0
0.985183 0 0
0.985183 0 0
0.945495 0.0524758 0
0.921904 0.267903 0
0.904295 0.386358 0
0.888121 0.48336 0.00608835
0.881575 0.569619 0.12285
0.88069 0.652461 0.245655
0.886732 0.725109 0.375738
0.894469 0.783566 0.495766
0.9019 0.830228 0.602197
0.909804 0.865965 0.69218
0.917113 0.895033 0.760601
0.929351 0.916915 0.816495
0.00495918 0.0113985 0.00741588
0.00503548 0.0117342 0.00756847
0.00717174 0.0119326 0.00851453
0.0119783 0.0128328 0.00868238
0.0204623 0.0139925 0.00781262
0.0347601 0.0138705 0.00622568
0.0576486 0.0116579 0.00668345
0.0831769 0.00988785 0.00717174
0.121614 0.00891127 0.00605783
0.174731 0.00694286 0.00421149
0.238773 0.0037232 0.00344854
0.318379 0.000427253 0.00199893
0.418463 0 0.000442512
0.532235 0 0.000137331
0.636133 0 0
0.735668 0 0
0.844144 0 0
0.946578 0 0
0.985183 0 0
0.985183 0 0
0.984588 0 0
0.941131 0.0970932 0
0.91606 0.286793 0
0.900099 0.396246 0
0.885206 0.490059 0.00761425
0.880583 0.574304 0.126329
0.880644 0.655695 0.2495
0.887037 0.727138 0.378256
0.894697 0.784756 0.497246
0.901961 0.831037 0.603037
0.909926 0.866346 0.692561
0.91725 0.89543 0.761013
0.929412 0.917052 0.816617
0.00517281 0.0220035 0.0099031
0.00515755 0.0226749 0.0100404
0.00570687 0.0230716 0.0100862
0.0118563 0.024567 0.0102998
0.0211337 0.0267185 0.0114443
0.0344396 0.0291142 0.0100252
0.0597696 0.0297856 0.00729381
0.0944228 0.0258793 0.00590524
0.136339 0.0202182 0.00404364
0.180575 0.00868238 0.0037995
0.24123 0.00360113 0.00341802
0.321111 0.000366217 0.0019379
0.421012 0 0.000442512
0.533989 0 0.000137331
0.637217 0 0
0.736309 0 0
0.844144 0 0
0.946212 0 0
0.985183 0 0
0.985183 0 0
0.971359 0 0
0.93228 0.153613 0
0.909514 0.304265 0
0.89572 0.406332 0
0.883055 0.496696 0.0106813
0.87982 0.578958 0.129702
0.880598 0.65893 0.25333
0.887205 0.729274 0.381094
0.894804 0.786084 0.499001
0.902144 0.831876 0.60383
0.910094 0.866865 0.693126
0.917327 0.895689 0.761242
0.929488 0.917174 0.81677
0.00369268 0.043061 0.0121004
0.00350958 0.0444953 0.0122683
0.00341802 0.0451514 0.0123445
0.00553903 0.0464332 0.012253
0.0177615 0.0492714 0.0137636
0.040528 0.0537423 0.0162966
0.066453 0.0587472 0.0134127
0.1019 0.0603037 0.00956741
0.147112 0.0565957 0.00509651
0.198688 0.0424506 0.00144961
0.25304 0.0226139 0.00141909
0.325628 0.000915541 0.00149538
0.424292 0 0.000427253
0.536477 0 0.000137331
0.638605 0 0
0.737118 0 0
0.844312 0 0
0.945678 0 0
0.985016 0 0
0.985183 0 0
0.956741 0 0
0.922591 0.198245 0
0.900877 0.323445 0
0.890059 0.419013 0
0.880446 0.504707 0.0139315
0.878859 0.584649 0.13431
0.880446 0.662913 0.258167
0.887434 0.731823 0.38436
0.895079 0.787549 0.500771
0.902358 0.832853 0.604791
0.910262 0.867369 0.693599
0.917311 0.895933 0.761456
0.92961 0.917433 0.817044
0.000244144 0.0816052 0.0152895
0.000228885 0.0827497 0.0153201
0.000228885 0.0833906 0.0153353
0.000366217 0.0838941 0.0153201
0.00402838 0.0864118 0.0149081
0.034165 0.0889601 0.0180362
0.0726177 0.0931868 0.0205386
0.110246 0.0979477 0.0149996
0.155428 0.0978866 0.0115511
0.202686 0.0946822 0.00428778
0.255085 0.0842145 0.000350958
0.325139 0.0555734 0
0.418418 0.00701915 0
0.532403 0 3.0518e-05
0.640589 0 0
0.738079 0 0
0.844663 0 0
0.944961 0 0
0.984222 0 0
0.976471 0 0
0.944442 0.0632944 0
0.914046 0.239902 0
0.892241 0.345739 0
0.883055 0.434577 0
0.877485 0.514794 0.0171359
0.877729 0.591928 0.140871
0.880537 0.667948 0.263935
0.887785 0.735027 0.388464
0.895308 0.789548 0.503212
0.90251 0.834089 0.605936
0.910353 0.868009 0.69424
0.917464 0.896468 0.761898
0.929732 0.917693 0.817334
0 0.133272 0.0182193
0 0.134279 0.0182956
0 0.134844 0.0183413
0 0.135271 0.0183719
0 0.135348 0.0183108
0.000885023 0.137728 0.0176547
0.0675822 0.136126 0.0283055
0.111604 0.138399 0.0255741
0.15761 0.140398 0.0162814
0.205921 0.138415 0.0131228
0.252796 0.133989 0.0059205
0.308995 0.126207 0.000503548
0.387594 0.10547 0
0.488502 0.0592508 0
0.602289 0.00515755 0
0.722881 0 0
0.844831 0 0
0.941039 0 0
0.971481 0 0
0.954391 0.00209049 0
0.929763 0.165194 0
0.906233 0.279316 0
0.88629 0.370779 0
0.877928 0.451743 0
0.874601 0.526787 0.0232853
0.8766 0.601175 0.149279
0.880568 0.67425 0.271244
0.888304 0.73933 0.393851
0.895827 0.792248 0.506279
0.902876 0.835752 0.607523
0.910674 0.869032 0.695262
0.917678 0.897108 0.762478
0.929931 0.91809 0.817761
0 0.184955 0.0185092
0 0.185412 0.0185092
0 0.185641 0.0185092
0 0.185748 0.0185092
0 0.185748 0.0185092
0 0.185077 0.0183871
0.00611887 0.184573 0.018967
0.103853 0.177462 0.0403143
0.149599 0.180972 0.0281987
0.20058 0.181857 0.0169833
0.251972 0.177203 0.0144503
0.306935 0.172869 0.0068513
0.37232 0.166903 0.00047303
0.453544 0.15642 0
0.552941 0.132052 0
0.664012 0.0855421 0
0.782864 0.0162356 0
0.885451 0.00677501 0
0.938094 0.0290227 0
0.934279 0.141344 0
0.913939 0.240406 0
0.896468 0.321767 0
0.879728 0.398901 0
0.872679 0.471092 1.5259e-05
0.872206 0.540856 0.033814
0.875502 0.612528 0.159594
0.880629 0.682185 0.280507
0.888823 0.744533 0.400351
0.896345 0.795483 0.509651
0.903197 0.837827 0.609461
0.91104 0.870192 0.696391
0.917983 0.897887 0.763287
0.930114 0.918593 0.818341
0 0.231357 0.0206302
0 0.231693 0.0206302
0 0.231907 0.0206302
0 0.231907 0.0206302
0 0.232029 0.0206302
0 0.2318 0.0206302
0 0.230976 0.0204166
0.0296788 0.227726 0.0259403
0.144152 0.219867 0.0531319
0.189883 0.225452 0.0298619
0.244144 0.223743 0.0184939
0.305501 0.220935 0.0151675
0.372076 0.216022 0.00665293
0.444785 0.213306 0.000335698
0.526818 0.208194 0
0.620768 0.199527 0
0.725277 0.186648 0
0.827863 0.177066 0
0.901808 0.192111 0
0.913512 0.242573 0
0.901854 0.302068 0
0.887144 0.367269 0
0.874372 0.431113 0
0.867781 0.493584 0.000167849
0.869917 0.557794 0.0464179
0.875044 0.626108 0.173678
0.881407 0.692195 0.29192
0.889586 0.75108 0.408331
0.896925 0.799634 0.513954
0.903822 0.84062 0.612085
0.911437 0.871717 0.697917
0.918502 0.898741 0.764355
0.930434 0.919234 0.819059
0 0.279896 0.0204623
0 0.280095 0.0204623
0 0.280308 0.0204623
0 0.2804 0.0204623
0 0.280507 0.0204623
0 0.280507 0.0204623
0 0.280308 0.0204623
0 0.278462 0.0212711
0.0955062 0.26894 0.0475776
0.182666 0.266117 0.0627298
0.233738 0.271931 0.0323644
0.299275 0.27248 0.019379
0.371176 0.269017 0.0157473
0.445518 0.268086 0.00608835
0.521004 0.268788 0.000183108
0.600092 0.271855 0
0.690791 0.273579 0
0.78703 0.276295 0
0.867582 0.289357 0
0.896803 0.319234 0
0.887907 0.364294 0
0.877211 0.413443 0
0.870451 0.467201 0
0.866651 0.519249 0.00175479
0.869505 0.578302 0.0661936
0.87509 0.642222 0.190341
0.882399 0.704173 0.305364
0.890745 0.758938 0.417166
0.897887 0.804898 0.519295
0.904433 0.843946 0.615106
0.912047 0.873655 0.69984
0.919127 0.899931 0.765972
0.930816 0.920012 0.819928
0 0.335409 0.0220035
0 0.335637 0.0220035
0 0.335744 0.0220035
0 0.335866 0.0220035
0 0.33608 0.0220188
0 0.33608 0.0220188
0 0.33608 0.0220188
0 0.335607 0.0218662
0 0.333242 0.0224002
0.149981 0.319203 0.0710307
0.227955 0.321553 0.0737316
0.285191 0.328573 0.0340887
0.363928 0.32813 0.0216068
0.443656 0.327855 0.0184329
0.520088 0.328923 0.00727855
0.59321 0.336095 0.000427253
0.674708 0.345174 0
0.759869 0.354574 0
0.841276 0.369604 0
0.881346 0.390738 0
0.875456 0.423255 0
0.870924 0.46302 0
0.86717 0.50399 0.000366217
0.867277 0.549645 0.0170138
0.870878 0.603311 0.0970321
0.876677 0.661616 0.21001
0.883818 0.718471 0.320409
0.892226 0.768383 0.426978
0.898955 0.811185 0.525505
0.905119 0.848096 0.618906
0.912718 0.876081 0.702281
0.919997 0.901396 0.76791
0.931258 0.920913 0.82089
0 0.403204 0.0227817
0 0.403433 0.0228275
0 0.403555 0.0228428
0 0.403662 0.022858
0 0.403784 0.0228733
0 0.403906 0.0228885
0 0.404028 0.0229038
0 0.404028 0.0229038
0 0.403265 0.0225834
0.0068513 0.398337 0.0333715
0.208225 0.381765 0.098497
0.283406 0.387808 0.089662
0.353735 0.396887 0.041062
0.437095 0.399878 0.0304417
0.516182 0.40116 0.0323339
0.593332 0.405371 0.0213779
0.66952 0.412451 0.0024567
0.746502 0.424491 1.5259e-05
0.817914 0.438682 0
0.871672 0.457282 0
0.868574 0.480797 0
0.867002 0.50956 0.000518807
0.867094 0.543923 0.0125582
0.869184 0.584619 0.0559396
0.873518 0.632624 0.132403
0.879744 0.68394 0.2309
0.886046 0.734798 0.33611
0.894026 0.779309 0.437873
0.900145 0.818509 0.532479
0.906126 0.853101 0.623392
0.913542 0.879026 0.705211
0.92108 0.903288 0.770474
0.931807 0.922194 0.822354
0 0.473182 0.0364996
0 0.473426 0.0365759
0 0.473548 0.0366064
0 0.473671 0.0366369
0 0.473671 0.0366369
0 0.473793 0.0366674
0 0.473915 0.0366979
0 0.473915 0.0366979
0 0.473671 0.0366369
0 0.472267 0.0360876
0.0962997 0.46186 0.0712596
0.287785 0.452827 0.128389
0.357748 0.459983 0.10985
0.431861 0.469627 0.0640116
0.512947 0.47245 0.0569314
0.590127 0.473625 0.0621653
0.668956 0.478111 0.0558785
0.741375 0.4878 0.0292973
0.80499 0.500267 0.00994888
0.859937 0.515709 0.00105287
0.866499 0.534661 0.00846876
0.867628 0.558511 0.025742
0.869581 0.588479 0.061387
0.873289 0.624765 0.111147
0.878187 0.664836 0.167391
0.883162 0.7093 0.252903
0.888701 0.75288 0.353765
0.896132 0.791821 0.449302
0.901808 0.827054 0.54023
0.90721 0.858946 0.628458
0.914549 0.88249 0.708553
0.922286 0.90544 0.773419
0.93257 0.923751 0.824048
0 0.54461 0.0662852
0 0.544732 0.0663462
0 0.544732 0.0663462
0 0.544854 0.0664073
0 0.544854 0.0664073
0 0.544854 0.0664073
0 0.544854 0.0664073
0 0.544732 0.0663462
0 0.54461 0.0662852
0 0.544137 0.066041
0.000640879 0.540597 0.0693675
0.263493 0.524407 0.139406
0.375525 0.522622 0.168688
0.438621 0.531823 0.140002
0.509407 0.540841 0.0998398
0.587961 0.543359 0.0985275
0.66659 0.544778 0.106157
0.738949 0.55169 0.103059
0.798703 0.560906 0.0915541
0.849531 0.575174 0.066865
0.868528 0.592462 0.0687724
0.872007 0.613108 0.0957351
0.874907 0.638498 0.129076
0.879011 0.667842 0.163256
0.883009 0.699931 0.201984
0.88719 0.736843 0.273716
0.892332 0.772671 0.37293
0.898772 0.806455 0.462303
0.903838 0.837064 0.549065
0.908873 0.865522 0.63476
0.91574 0.886839 0.712901
0.923858 0.908202 0.777142
0.933471 0.925643 0.826185
0.0160525 0.617609 0.110216
0.0160525 0.617609 0.110216
0.0160525 0.617609 0.110216
0.0160525 0.617609 0.110216
0.0160525 0.617594 0.110216
0.0156863 0.617472 0.11014
0.0153353 0.617334 0.110063
0.0149691 0.617197 0.109987
0.0138857 0.6168 0.109758
0.0121004 0.616114 0.109377
0.0129854 0.615 0.108705
0.201343 0.607034 0.129168
0.385428 0.591882 0.203693
0.460334 0.594125 0.214908
0.519692 0.605356 0.183017
0.58822 0.61265 0.147601
0.66479 0.615915 0.148058
0.736736 0.620111 0.155474
0.794583 0.628168 0.158145
0.841947 0.639994 0.154879
0.872419 0.654658 0.151904
0.879042 0.670436 0.166491
0.881834 0.689387 0.186572
0.884871 0.711421 0.209293
0.888457 0.736706 0.234928
0.891783 0.765469 0.29073
0.896239 0.794034 0.394705
0.901884 0.822766 0.479011
0.906004 0.848264 0.56025
0.911269 0.872847 0.642832
0.917266 0.891966 0.717937
0.925689 0.911437 0.781567
0.934508 0.927749 0.828534
0.173419 0.695354 0.158053
0.173419 0.695354 0.158053
0.173419 0.695354 0.158053
0.17322 0.695186 0.157946
0.173007 0.695033 0.157855
0.172808 0.694865 0.157748
0.17261 0.694713 0.157641
0.172 0.694224 0.157336
0.171176 0.693599 0.156939
0.169955 0.692638 0.156329
0.168124 0.691188 0.155413
0.206958 0.686412 0.158145
0.377447 0.673259 0.215915
0.48333 0.666209 0.267277
0.546822 0.670008 0.273075
0.602152 0.679942 0.236255
0.66833 0.686641 0.202548
0.736248 0.691447 0.201404
0.792187 0.696941 0.209918
0.837049 0.703334 0.215412
0.871916 0.713512 0.218006
0.885359 0.725338 0.223407
0.889021 0.738857 0.235569
0.891417 0.75465 0.249989
0.894255 0.77258 0.265812
0.896757 0.794034 0.309529
0.900526 0.816693 0.417914
0.904997 0.839658 0.499504
0.908583 0.860563 0.575021
0.913878 0.881086 0.65304
0.919509 0.897841 0.724941
0.927855 0.915297 0.78677
0.935973 0.93048 0.83154
0.266423 0.76762 0.209461
0.266423 0.76762 0.209461
0.266209 0.767452 0.209354
0.266011 0.7673 0.209247
0.265812 0.767132 0.209155
0.2654 0.766812 0.208942
0.26479 0.766339 0.208637
0.264179 0.765866 0.208316
0.263172 0.765057 0.207797
0.26154 0.76379 0.206973
0.259617 0.76231 0.205844
0.265431 0.758465 0.203769
0.369238 0.751797 0.225803
0.505364 0.740856 0.296513
0.579858 0.738216 0.331914
0.635325 0.741421 0.330831
0.686503 0.74789 0.295186
0.742275 0.754238 0.261418
0.792142 0.758053 0.254841
0.835142 0.762737 0.260029
0.868223 0.767987 0.265095
0.890333 0.775204 0.26891
0.895933 0.783642 0.275212
0.897826 0.794247 0.283024
0.899855 0.806699 0.2934
0.901762 0.822858 0.338704
0.904768 0.839582 0.443336
0.908339 0.857099 0.522499
0.912291 0.873686 0.596536
0.916869 0.890394 0.66717
0.922744 0.904631 0.735103
0.930236 0.919738 0.792844
0.935882 0.930358 0.830915
0.342428 0.827314 0.249699
0.342214 0.827146 0.249592
0.341817 0.826825 0.249363
0.341604 0.826673 0.249256
0.341405 0.826505 0.249134
0.340795 0.826032 0.248798
0.340185 0.825559 0.248463
0.339376 0.824918 0.248005
0.338155 0.823957 0.247318
0.336324 0.822507 0.246296
0.334279 0.82092 0.245167
0.333318 0.816754 0.244099
0.399771 0.809873 0.251453
0.526909 0.80174 0.307805
0.61294 0.794339 0.362692
0.670466 0.793652 0.385794
0.715892 0.795819 0.381384
0.755688 0.801831 0.347158
0.79733 0.806622 0.311742
0.835767 0.810224 0.300313
0.866484 0.813565 0.30016
0.892042 0.817792 0.302419
0.901534 0.82327 0.303365
0.904128 0.829984 0.305516
0.905348 0.838026 0.316106
0.907546 0.849439 0.379812
0.909133 0.861738 0.471778
0.912917 0.873411 0.550195
0.916182 0.887449 0.620508
0.920668 0.900236 0.686198
0.926207 0.912077 0.748348
0.933013 0.924834 0.799985
0.935729 0.93019 0.830167
0.409751 0.872343 0.270375
0.409506 0.872206 0.270329
0.409018 0.8719 0.270253
0.408789 0.871763 0.270207
0.408301 0.871458 0.270115
0.407568 0.871015 0.269993
0.406607 0.870436 0.26981
0.405386 0.869703 0.269596
0.403937 0.868818 0.269337
0.40177 0.867491 0.26894
0.399344 0.866011 0.268513
0.401526 0.86128 0.268254
0.468803 0.85597 0.278553
0.565911 0.84863 0.318853
0.647364 0.841901 0.375387
0.704967 0.837995 0.415381
0.745052 0.837491 0.429877
0.777783 0.84004 0.421851
0.808972 0.844678 0.387915
0.840009 0.848356 0.351003
0.86714 0.851331 0.332326
0.891402 0.854292 0.323827
0.906279 0.857359 0.318807
0.910506 0.86096 0.320012
0.911192 0.865446 0.342321
0.912642 0.872389 0.404944
0.913909 0.881224 0.504479
0.917906 0.889509 0.582406
0.920729 0.901442 0.65182
0.925307 0.910643 0.70927
0.930129 0.920165 0.764355
0.935012 0.92845 0.806058
0.935637 0.929992 0.829221
0.480247 0.904906 0.397681
0.479896 0.904768 0.396872
0.479194 0.904479 0.395239
0.478492 0.904189 0.393606
0.477791 0.903899 0.391974
0.476753 0.903471 0.389517
0.475349 0.902892 0.386252
0.47396 0.902312 0.382986
0.471519 0.901305 0.377264
0.468727 0.900145 0.370718
0.464881 0.898558 0.36173
0.476219 0.893095 0.344213
0.553048 0.888853 0.344808
0.622217 0.882765 0.365805
0.688106 0.87747 0.403952
0.737331 0.872312 0.434195
0.772 0.870451 0.444709
0.800031 0.870939 0.44184
0.825635 0.873747 0.407141
0.84918 0.876356 0.380209
0.872938 0.878859 0.412818
0.894118 0.881361 0.404654
0.91133 0.883818 0.363088
0.916732 0.885771 0.348333
0.916945 0.887877 0.35996
0.918013 0.894133 0.453727
0.920134 0.899275 0.555016
0.923796 0.90573 0.630106
0.925948 0.914549 0.689616
0.930007 0.921187 0.732906
0.933761 0.927703 0.780499
0.935149 0.928389 0.807721
0.935485 0.929946 0.829221
0.516548 0.919921 0.482658
0.516548 0.919921 0.482658
0.516548 0.919921 0.482658
0.516548 0.919921 0.482658
0.516548 0.919921 0.482658
0.516548 0.919921 0.482658
0.516548 0.919921 0.482658
0.516548 0.919921 0.482658
0.516548 0.919921 0.482658
0.516548 0.919921 0.482658
0.525017 0.916121 0.458625
0.57998 0.915984 0.446891
0.631952 0.91249 0.453361
0.680888 0.909682 0.462974
0.72723 0.905653 0.481514
0.764126 0.90132 0.494301
0.794125 0.89929 0.497688
0.819196 0.898009 0.488701
0.842329 0.899413 0.453361
0.862135 0.900542 0.4206
0.881849 0.902144 0.488228
0.900603 0.904265 0.564675
0.915099 0.906218 0.506462
0.922835 0.907149 0.471534
0.925124 0.90811 0.395163
0.926101 0.912657 0.542412
0.927825 0.915373 0.622827
0.929381 0.92079 0.681208
0.930861 0.926726 0.72575
0.933028 0.927977 0.750378
0.933577 0.927642 0.784863
0.935424 0.928344 0.809979
0.935439 0.930236 0.8309
0.516548 0.919921 0.482658
0.516548 0.919921 0.482658
0.516548 0.919921 0.482658
0.516548 0.919921 0.482658
0.516548 0.919921 0.482658
0.516548 0.919921 0.482658
0.516548 0.919921 0.482658
0.517372 0.917327 0.46537
0.535241 0.917128 0.453513
0.558968 0.916915 0.44892
0.594293 0.91487 0.446357
0.634943 0.912505 0.454002
0.673945 0.912474 0.466148
0.713802 0.911009 0.484367
0.750454 0.91104 0.503334
0.780484 0.910079 0.514992
0.806897 0.911147 0.51902
0.831144 0.912093 0.513939
0.853376 0.915175 0.483421
0.872236 0.91725 0.450446
0.890333 0.919661 0.522957
0.907912 0.922393 0.721614
0.9187 0.923568 0.55639
0.927993 0.922072 0.357992
0.932311 0.925261 0.538262
0.932067 0.925582 0.622324
0.932052 0.925689 0.676234
0.931487 0.928435 0.713008
0.932219 0.928069 0.734478
0.933013 0.927825 0.760449
0.93344 0.927855 0.790707
0.935241 0.928328 0.813275
0.935347 0.930571 0.833051
0.545556 0.916915 0.451865
0.549416 0.916838 0.451408
0.553079 0.916869 0.450446
0.556664 0.916899 0.449516
0.560754 0.916915 0.448569
0.565484 0.916838 0.447913
0.571313 0.916701 0.447196
0.5935 0.914931 0.446387
0.616556 0.91342 0.45037
0.638483 0.91252 0.454765
0.662638 0.912749 0.461982
0.690181 0.911742 0.472587
0.717678 0.91104 0.486488
0.745556 0.911254 0.50103
0.769558 0.910216 0.51133
0.793118 0.910582 0.517937
0.813901 0.911421 0.518914
0.835294 0.912642 0.510109
0.854505 0.915236 0.479988
0.871046 0.916594 0.462135
0.887404 0.917845 0.411139
0.901595 0.92018 0.43331
0.916014 0.921386 0.472084
0.926925 0.924865 0.553811
0.931167 0.925536 0.615412
0.931716 0.925414 0.665003
0.931456 0.927199 0.701137
0.931014 0.928389 0.727275
0.932662 0.927871 0.742779
0.933043 0.927642 0.773068
0.933227 0.928161 0.798306
0.935073 0.928374 0.817349
0.935683 0.93051 0.835096
0.636866 0.912749 0.450965
0.64004 0.913161 0.460273
0.643412 0.913436 0.465476
0.647181 0.913573 0.466529
0.651637 0.913741 0.467796
0.657191 0.913939 0.469352
0.664607 0.913878 0.471595
0.673808 0.913664 0.474418
0.685084 0.913252 0.47895
0.698466 0.912612 0.485252
0.714153 0.912016 0.49305
0.731807 0.911818 0.503166
0.75053 0.911528 0.515984
0.769619 0.911223 0.529931
0.788586 0.911254 0.543221
0.807157 0.91165 0.555596
0.825345 0.9122 0.565408
0.843 0.912825 0.571817
0.859968 0.914092 0.576623
0.875685 0.915709 0.595392
0.890089 0.917906 0.609552
0.902327 0.921736 0.615824
0.914061 0.923415 0.625711
0.924132 0.924376 0.641932
0.929854 0.925109 0.669429
0.931182 0.926787 0.698192
0.9308 0.928496 0.722454
0.932113 0.927901 0.736248
0.93254 0.92781 0.757794
0.932952 0.92755 0.783627
0.933944 0.928206 0.805173
0.93492 0.928542 0.822354
0.936217 0.930449 0.837552
0.709819 0.914473 0.457969
0.711955 0.914443 0.458762
0.714076 0.914336 0.459648
0.716304 0.914199 0.460441
0.718929 0.914061 0.461494
0.722377 0.913863 0.462791
0.72665 0.913619 0.464363
0.732052 0.913329 0.466529
0.738399 0.913161 0.473228
0.745983 0.912947 0.481605
0.755276 0.912856 0.493065
0.766506 0.913283 0.510643
0.779004 0.913451 0.526955
0.792645 0.913283 0.543069
0.80737 0.913756 0.574762
0.82266 0.913954 0.601755
0.838285 0.913878 0.61976
0.853147 0.915236 0.649699
0.867277 0.916289 0.665797
0.88011 0.917647 0.679133
0.891859 0.919341 0.689662
0.903075 0.92108 0.693492
0.912856 0.922576 0.696025
0.921996 0.9243 0.698054
0.928206 0.926955 0.708675
0.930526 0.928435 0.723888
0.931731 0.927932 0.735454
0.932265 0.927855 0.751705
0.932662 0.92755 0.776623
0.932891 0.927993 0.796643
0.93489 0.928176 0.812345
0.934951 0.92961 0.828244
0.936812 0.930373 0.840513
0.759121 0.917632 0.56875
0.760204 0.917647 0.569299
0.761364 0.917662 0.569772
0.762539 0.917662 0.570352
0.763928 0.917678 0.571023
0.765866 0.917678 0.572152
0.768505 0.917647 0.573907
0.771756 0.917632 0.575998
0.775891 0.917601 0.578622
0.781064 0.917586 0.581979
0.787274 0.91754 0.586023
0.794736 0.917235 0.593393
0.803311 0.916899 0.601892
0.813474 0.916472 0.612558
0.82536 0.915953 0.626734
0.838026 0.915602 0.642618
0.85098 0.915618 0.660029
0.862928 0.91632 0.675807
0.874235 0.917235 0.690913
0.88513 0.917952 0.707958
0.895445 0.918929 0.71931
0.905074 0.92079 0.728054
0.913634 0.923064 0.732219
0.92079 0.925643 0.731868
0.927321 0.927535 0.735515
0.931853 0.927703 0.738598
0.932052 0.927825 0.753796
0.932464 0.927535 0.775189
0.932692 0.927749 0.792248
0.934081 0.9281 0.807599
0.934707 0.928344 0.82121
0.935225 0.93048 0.834501
0.937041 0.930236 0.843885
0.798764 0.919768 0.649073
0.799374 0.919783 0.649409
0.799969 0.919783 0.649668
0.800656 0.919799 0.65005
0.80148 0.919814 0.650401
0.802457 0.919829 0.650904
0.803937 0.91986 0.651789
0.80592 0.919936 0.653223
0.808515 0.920012 0.65507
0.811734 0.920119 0.657313
0.815656 0.920272 0.660121
0.820356 0.920439 0.663432
0.82591 0.920668 0.667308
0.832944 0.92047 0.674784
0.841031 0.920241 0.683375
0.850156 0.919997 0.693034
0.859693 0.919631 0.705837
0.870298 0.919127 0.720104
0.880049 0.919661 0.731701
0.88954 0.920729 0.742947
0.898436 0.922148 0.750042
0.906554 0.923537 0.755261
0.914153 0.924804 0.758511
0.921309 0.926024 0.759533
0.927535 0.927062 0.762814
0.931334 0.927459 0.769482
0.932372 0.927489 0.780423
0.932525 0.927779 0.793957
0.933806 0.928084 0.806683
0.934646 0.928252 0.818341
0.934783 0.929961 0.830518
0.936492 0.930373 0.83978
0.936934 0.930037 0.847684
0.829923 0.921874 0.709865
0.83035 0.921874 0.71017
0.830777 0.921889 0.710399
0.831189 0.921889 0.710643
0.831785 0.921889 0.71104
0.832456 0.921904 0.711467
0.833295 0.92192 0.71194
0.834394 0.921935 0.712612
0.83592 0.92195 0.713558
