BBLuts/BB_103_0110_LUT.cube
TITLE "Generated by Resolve"
LUT_3D_SIZE 5
0 0 0
0.297124 0 0
1 0 0
1 0.877104 0.0928511
1 1 1
0 0.330114 0
0.195727 0.331304 0
1 0.178897 0
1 0.965774 0.0322881
1 1 1
0 1 0
0 1 0
0.965896 1 0
1 1 0
1 1 1
0.768994 1 0.272541
0.768978 1 0.272541
1 1 0.285725
1 1 0.490089
1 1 1
1 1 1
1 1 1
1 1 1
1 1 1
1 1 1
0 0 0.248981
0.246265 0 0.242802
1 0 0.208972
1 0.857435 0.36846
1 1 1
0 0.265415 0.221729
0.193683 0.263615 0.21738
1 0.0635386 0.19707
1 0.952819 0.342184
1 1 1
0 1 0
0 1 0
0.970718 1 0
1 1 0.0985275
1 1 1
0.781292 1 0.270771
0.781292 1 0.270771
1 1 0.284916
1 1 0.489784
1 1 1
1 1 1
1 1 1
1 1 1
1 1 1
1 1 1
0 0 1
0 0 1
1 0 1
1 0.415473 1
1 1 1
0 0 1
0 0 1
1 0 1
1 0.672602 1
1 1 1
0 1 1
0 1 1
0.916808 1 1
1 1 1
1 1 1
0.748455 1 0.872984
0.748455 1 0.872984
0.997986 1 0.871138
1 1 0.944945
1 1 1
1 1 1
1 1 1
1 1 1
1 1 1
1 1 1
0 0 1
0 0 1
0 0 1
1 0 1
1 1 1
0 0 1
0 0 1
0 0 1
1 0 1
1 1 1
0 0 1
0 0 1
0 0 1
1 0 1
1 1 1
0 1 1
0 1 1
0 1 1
1 1 1
1 1 1
1 1 1
1 1 1
1 1 1
1 1 1
1 1 1
0 0.397375 1
0 0.397375 1
0 0.397375 1
0 0.397498 1
1 1 1
0 0.397375 1
0 0.397375 1
0 0.397375 1
0 0.397498 1
1 1 1
0 0.397375 1
0 0.397375 1
0 0.397375 1
0 0.397498 1
1 1 1
0 0.395346 1
0 0.395346 1
0 0.395346 1
0.0602274 0.370428 1
1 1 1
1 1 1
1 1 1
1 1 1
1 1 1
1 1 1
