BBLuts/BB_106_0270_LUT.cube
TITLE "Generated by Resolve"
LUT_3D_SIZE 9
0.0229191 0.0391699 0.0644999
0.0229191 0.0391699 0.0644999
0.223728 0.0459297 0.0697948
0.489448 0.0629282 0.0961013
0.76997 0.340505 0.423041
0.959274 0.643488 0.687785
0.957885 0.671031 0.686824
0.948699 0.847349 0.637186
0.940993 0.951965 0.782879
0.0138247 0.090959 0.0584115
0.012192 0.100252 0.0573434
0.22855 0.0866865 0.0643931
0.500847 0.0644236 0.0982986
0.772061 0.344869 0.427161
0.959274 0.643488 0.687785
0.957519 0.678645 0.685756
0.948486 0.851194 0.63209
0.940948 0.952468 0.782223
0.00149538 0.239612 0.0415045
0.00137331 0.243473 0.0410163
0.159503 0.244938 0.0457008
0.499367 0.238422 0.0761883
0.774426 0.383108 0.430793
0.959091 0.647242 0.687434
0.956817 0.692424 0.683635
0.948135 0.85713 0.623072
0.940856 0.953262 0.78114
0 0.530144 0.00601205
0 0.531273 0.00598154
0 0.531899 0.00598154
0.400366 0.531243 0.00715648
0.773968 0.552987 0.409339
0.957778 0.673014 0.684749
0.954467 0.739147 0.673838
0.947219 0.872953 0.58912
0.940597 0.955535 0.777829
0 0.802625 0.00109865
0 0.802548 0.00109865
0 0.802213 0.00109865
0 0.799969 0.00114443
0.70103 0.792172 0.00122072
0.923018 0.801907 0.597528
0.94902 0.842893 0.61265
0.948363 0.908827 0
0.939879 0.961547 0.767666
0 0.956863 0
0 0.956191 0
0 0.955077 0
0 0.951751 0
0 0.943358 0
0.872709 0.934615 0
0.945876 0.937606 0
0.944411 0.952728 0
0.938262 0.97438 0.746303
0 1 0
0 1 0
0 1 0
0 1 0
0.580652 0.995895 0
0.851377 0.991226 0
0.933318 0.988571 0
0.940002 0.989151 0
0.936049 0.991821 0.771908
0.799344 1 0
0.801648 1 0
0.805264 1 0
0.815305 1 0
0.839368 1 0
0.879835 1 0
0.923415 1 0
0.934249 1 0.624872
0.935195 1 0.847578
0.902632 1 0.88368
0.902815 1 0.883726
0.90312 1 0.883772
0.904036 1 0.88394
0.906676 1 0.884428
0.913268 1 0.885832
0.925765 1 0.889693
0.9364 1 0.898741
0.937179 1 0.919982
0.0291142 0.0437324 0.120256
0.02916 0.0437476 0.120516
0.228351 0.05037 0.12549
0.490074 0.067216 0.152636
0.769787 0.342458 0.439109
0.959274 0.643656 0.689021
0.957961 0.669886 0.687938
0.94873 0.846571 0.646525
0.94107 0.951934 0.791043
0.0227817 0.0723583 0.107393
0.0654307 0.0843977 0.106081
0.246769 0.050309 0.115938
0.495888 0.0670329 0.141527
0.770764 0.343221 0.432303
0.959274 0.643595 0.68864
0.957565 0.677424 0.686885
0.948516 0.850431 0.641871
0.941009 0.952438 0.790448
0.00181582 0.22977 0.0426642
0.00170901 0.233021 0.042298
0.183368 0.23537 0.0450904
0.497871 0.229084 0.076936
0.772305 0.368994 0.426978
0.959106 0.646906 0.687449
0.956878 0.691127 0.68484
0.948165 0.856397 0.633707
0.940932 0.953231 0.789441
0 0.525826 0.00607309
0 0.526894 0.00605783
0 0.527337 0.00605783
0.41709 0.526543 0.00740063
0.773663 0.550042 0.409476
0.957824 0.672343 0.68484
0.954528 0.738003 0.674922
0.947219 0.872343 0.603189
0.940658 0.95552 0.786404
0 0.801526 0.00111391
0 0.801419 0.00111391
0 0.801083 0.00112917
0 0.798795 0.00117494
0.704295 0.791089 0.00128176
0.923156 0.801221 0.598444
0.949035 0.842496 0.613199
0.948379 0.908644 0
0.939941 0.961547 0.777142
0 0.956619 0
0 0.955962 0
0 0.954849 0
0 0.951507 0
0 0.94316 0
0.87306 0.934478 0
0.945891 0.937514 0
0.944427 0.952667 0
0.938277 0.97438 0.747372
0 1 0
0 1 0
0 1 0
0 1 0
0.588357 0.995834 0
0.851606 0.991196 0
0.933364 0.98854 0
0.940017 0.989136 0
0.936049 0.991806 0.771847
0.79971 1 0
0.801984 1 0
0.805585 1 0
0.815564 1 0
0.839567 1 0
0.879911 1 0
0.923445 1 0
0.934249 1 0.624796
0.935195 1 0.847562
0.902647 1 0.88368
0.902831 1 0.883726
0.903136 1 0.883772
0.904082 1 0.88394
0.906691 1 0.884428
0.913283 1 0.885832
0.92578 1 0.889693
0.9364 1 0.898741
0.937179 1 0.919982
0.046128 0.0563363 0.259586
0.0461738 0.0563516 0.259831
0.219272 0.0616159 0.265476
0.502327 0.0796521 0.283436
0.769497 0.347234 0.471733
0.959274 0.6439 0.690929
0.958053 0.667826 0.690867
0.948791 0.845289 0.662837
0.941192 0.951888 0.803006
0.0455634 0.0559243 0.255207
0.045594 0.0559396 0.255604
0.243351 0.0620279 0.261997
0.500755 0.0790723 0.279469
0.771466 0.350973 0.473396
0.959274 0.643885 0.690791
0.957687 0.675074 0.689815
0.948577 0.84921 0.658854
0.941115 0.952377 0.802457
0.0147402 0.216419 0.224186
0.014313 0.218479 0.223636
0.196109 0.215976 0.213504
0.482918 0.21648 0.250004
0.770336 0.348211 0.468925
0.959136 0.64625 0.690318
0.957015 0.688441 0.687816
0.948211 0.855253 0.651957
0.941024 0.953185 0.801587
0 0.512795 0.051194
0 0.514076 0.0513008
0 0.514687 0.0523537
0.421286 0.513359 0.0784619
0.769421 0.540627 0.431968
0.957931 0.670237 0.686931
0.954681 0.735012 0.678965
0.947234 0.871351 0.627192
0.940764 0.955474 0.798901
0 0.799237 0.00115969
0 0.79913 0.00115969
0 0.798779 0.00117494
0 0.79646 0.00122072
0.707424 0.788876 0.00132753
0.923125 0.799588 0.599802
0.949081 0.841413 0.617685
0.945861 0.90573 0.330892
0.940047 0.961517 0.790829
0 0.956252 0
0 0.955581 0
0 0.954482 0
0 0.951141 0
0 0.942855 0
0.87361 0.934264 0
0.945891 0.937362 0
0.944427 0.952575 0
0.938354 0.974365 0.765713
0 1 0
0 1 0
0 1 0
0 1 0
0.598245 0.995743 0
0.852003 0.991165 0
0.93344 0.98851 0
0.940017 0.98912 0
0.936065 0.991791 0.771771
0.800259 1 0
0.802548 1 0
0.806104 1 0
0.816022 1 0
0.839887 1 0
0.880064 1 0
0.923476 1 0
0.934249 1 0.624796
0.935195 1 0.847547
0.902693 1 0.88368
0.902876 1 0.883711
0.903197 1 0.883787
0.904112 1 0.88394
0.906737 1 0.884413
0.913298 1 0.885817
0.92578 1 0.889677
0.9364 1 0.898741
0.937179 1 0.919982
0.149981 0.13225 0.5252
0.150134 0.132357 0.525353
0.150225 0.132403 0.525444
0.485359 0.148196 0.529717
0.784649 0.40174 0.580026
0.959197 0.645624 0.703456
0.958312 0.663493 0.710094
0.94905 0.841611 0.715343
0.941543 0.951751 0.832013
0.147784 0.130663 0.523003
0.147997 0.130785 0.523201
0.227466 0.132753 0.524178
0.499763 0.14844 0.527886
0.78294 0.398413 0.577859
0.959197 0.645579 0.70312
0.957992 0.669657 0.708934
0.948806 0.845655 0.712856
0.941482 0.952255 0.831617
0.131838 0.191562 0.515923
0.131106 0.196567 0.515908
0.239109 0.194629 0.517189
0.505409 0.146624 0.524285
0.777737 0.388937 0.573129
0.959197 0.645487 0.702541
0.957397 0.681575 0.706798
0.94844 0.851896 0.708644
0.94139 0.953048 0.830945
0.00192264 0.471885 0.471153
0.00114443 0.473793 0.471382
0.00062562 0.475135 0.472114
0.438392 0.474434 0.453742
0.755596 0.511757 0.543297
0.958221 0.664729 0.69865
0.955139 0.726238 0.698268
0.947372 0.868528 0.694865
0.941115 0.955383 0.828992
0 0.789288 0.00132753
0 0.789258 0.00132753
0 0.788998 0.00132753
0 0.786892 0.00132753
0.705409 0.779553 0.00132753
0.921233 0.79234 0.621057
0.949294 0.837003 0.647822
0.944991 0.903288 0.639933
0.940383 0.961471 0.822889
0 0.9552 0
0 0.954528 0
0 0.953414 0
0 0.950072 0
0 0.941802 0
0.873091 0.933272 0
0.945998 0.936538 0
0.944564 0.951995 0
0.938674 0.974395 0.805951
0 1 0
0 1 0
0 1 0
0 1 0
0.623545 0.995514 0
0.853178 0.991043 0
0.933654 0.988418 0
0.940017 0.989059 0
0.936065 0.991775 0.771496
0.801953 1 0
0.804181 1 0
0.807675 1 0
0.81738 1 0
0.840833 1 0
0.880491 1 0
0.923598 1 0
0.934249 1 0.624628
0.935195 1 0.847456
0.902831 1 0.88368
0.903029 1 0.883711
0.903319 1 0.883741
0.90425 1 0.883925
0.906859 1 0.884413
0.913405 1 0.885817
0.925826 1 0.889662
0.9364 1 0.898726
0.937179 1 0.919982
0.563561 0.567666 0.793133
0.563638 0.567758 0.79321
0.563775 0.56791 0.793317
0.574487 0.567041 0.792523
0.772671 0.584466 0.792386
0.958373 0.674022 0.813245
0.958144 0.680735 0.823789
0.950454 0.832502 0.838056
0.942672 0.951385 0.884428
0.562844 0.566888 0.792554
0.562936 0.566979 0.792615
0.563088 0.567147 0.792752
0.576059 0.566125 0.791806
0.777203 0.58497 0.791943
0.958373 0.673838 0.812757
0.958053 0.682597 0.822644
0.950179 0.837003 0.836988
0.942611 0.951888 0.884184
0.561685 0.565606 0.791592
0.561776 0.565713 0.791684
0.561929 0.565896 0.791806
0.578851 0.564675 0.790661
0.77995 0.58468 0.791012
0.958389 0.673503 0.811933
0.957794 0.687175 0.820691
0.949752 0.843824 0.835309
0.942504 0.952728 0.883787
0.552895 0.572229 0.785672
0.552895 0.572503 0.785687
0.552834 0.572824 0.785687
0.572793 0.571466 0.784909
0.778531 0.585657 0.786419
0.958251 0.67509 0.80737
0.956374 0.713939 0.814099
0.948592 0.861769 0.83035
0.942229 0.955123 0.882628
0 0.757046 0.746441
0 0.757305 0.746532
0 0.757382 0.746685
0 0.756085 0.747204
0.706447 0.749386 0.738018
0.915236 0.771771 0.773144
0.950378 0.824292 0.790295
0.945861 0.899367 0.816083
0.941466 0.96141 0.879301
0 0.952056 0
0 0.9514 0
0 0.950317 0
0 0.946975 0
0 0.938415 0
0.86157 0.926467 0.606622
0.942763 0.930541 0.718868
0.941451 0.947356 0.780362
0.939712 0.974578 0.870405
0 1 0
0 1 0
0 1 0
0 1 0
0.590005 0.994812 0
0.847547 0.990311 0
0.929061 0.987716 0
0.936736 0.985443 0.648341
0.936919 0.992096 0.848661
0.806928 1 0
0.809003 1 0
0.812284 1 0
0.821408 1 0
0.843656 1 0
0.881804 1 0
0.923995 1 0
0.934249 1 0.624216
0.93518 1 0.847242
0.903273 1 0.883635
0.903456 1 0.883665
0.903761 1 0.883741
0.904662 1 0.883894
0.907225 1 0.884367
0.91368 1 0.885786
0.925963 1 0.889632
0.9364 1 0.89868
0.937179 1 0.919982
0.732265 0.750881 0.964523
0.732265 0.750896 0.964538
0.732296 0.750927 0.964553
0.732341 0.750973 0.964599
0.757534 0.746548 0.959854
0.958068 0.764782 0.958877
0.958083 0.765454 0.959701
0.955352 0.807675 0.950454
0.945403 0.949142 0.945464
0.732189 0.75082 0.964462
0.732204 0.75082 0.964462
0.732219 0.750835 0.964477
0.732265 0.750881 0.964523
0.759609 0.746426 0.959701
0.958068 0.764721 0.958816
0.958083 0.765408 0.959625
0.955062 0.812329 0.94966
0.945357 0.949737 0.945312
0.732082 0.750698 0.96434
0.732097 0.750713 0.964355
0.732113 0.750713 0.96437
0.732143 0.750759 0.964401
0.763149 0.746258 0.959442
0.958068 0.764614 0.958679
0.958083 0.765301 0.959518
0.954589 0.819883 0.948425
0.945251 0.950668 0.945083
0.731731 0.750317 0.963973
0.731746 0.750332 0.963989
0.731746 0.750332 0.964004
0.731472 0.750027 0.963699
0.772152 0.7458 0.95877
0.958053 0.764309 0.958312
0.958038 0.763851 0.957778
0.953201 0.841688 0.945022
0.94493 0.953384 0.944396
0.71902 0.75108 0.952255
0.718959 0.751186 0.952209
0.718853 0.751354 0.952132
0.718273 0.751247 0.951583
0.757794 0.74844 0.949035
0.954589 0.76817 0.948974
0.955581 0.797131 0.944198
0.949935 0.887785 0.937499
0.944106 0.960418 0.942519
0 0.94229 0.915099
0 0.941894 0.915114
0 0.941146 0.915145
0 0.93817 0.915267
0.558404 0.927153 0.913725
0.859434 0.9196 0.916442
0.942946 0.926009 0.92079
0.944732 0.945251 0.924926
0.942245 0.974701 0.938048
0 1 0.882734
0 1 0.882918
0 1 0.883192
0 0.998962 0.883986
0.528908 0.992309 0.883711
0.832853 0.987152 0.888273
0.917815 0.984573 0.896773
0.939422 0.986252 0.908721
0.939406 0.993164 0.92961
0.797879 1 0.833509
0.799893 1 0.833646
0.803113 1 0.833844
0.812085 1 0.834485
0.834058 1 0.836362
0.872053 1 0.841627
0.91458 1 0.854139
0.935821 1 0.878187
0.936965 1 0.914672
0.90454 1 0.883543
0.904723 1 0.883574
0.904997 1 0.883619
0.905867 1 0.883772
0.908309 1 0.88426
0.914504 1 0.885664
0.926406 1 0.889494
0.9364 1 0.898558
0.937179 1 0.919951
0.779767 0.80235 1
0.779767 0.80235 1
0.779767 0.80235 1
0.779767 0.80235 1
0.779767 0.80235 1
0.946136 0.81239 1
0.960403 0.81445 1
0.960403 0.81445 1
0.950622 0.932113 0.993408
0.779767 0.80235 1
0.779767 0.80235 1
0.779767 0.80235 1
0.779767 0.80235 1
0.779767 0.80235 1
0.947219 0.812543 1
0.960403 0.81445 1
0.960403 0.81445 1
0.950515 0.933074 0.99324
0.779767 0.80235 1
0.779767 0.80235 1
0.779767 0.80235 1
0.779767 0.80235 1
0.779767 0.80235 1
0.948943 0.812772 1
0.960403 0.81445 1
0.960403 0.81445 1
0.950378 0.9346 0.992996
0.779767 0.80235 1
0.779767 0.80235 1
0.779767 0.80235 1
0.779767 0.80235 1
0.779767 0.80235 1
0.954025 0.813504 1
0.960403 0.81445 1
0.960403 0.81445 1
0.94992 0.938964 0.992279
0.779767 0.80235 1
0.779767 0.80235 1
0.779767 0.80235 1
0.779767 0.80235 1
0.78088 0.802365 1
0.960403 0.81445 1
0.960403 0.81445 1
0.959564 0.81976 1
0.948745 0.949981 0.990417
0.752895 0.877333 1
0.752834 0.877485 1
0.752712 0.87776 1
0.752316 0.878569 1
0.751949 0.87509 0.99942
0.883284 0.869718 0.997864
0.954238 0.886458 0.99617
0.950896 0.925887 0.990982
0.946303 0.970306 0.986633
0 1 0.978073
0 1 0.978088
0 1 0.978119
0 1 0.978195
0.578973 0.993652 0.976059
0.829053 0.986419 0.976852
0.919005 0.98349 0.978408
0.943786 0.985901 0.979522
0.942946 0.99353 0.981323
0.78999 1 0.968048
0.792126 1 0.968063
0.795483 1 0.968078
0.804929 1 0.968124
0.828214 1 0.968261
0.868742 1 0.968704
0.912871 1 0.969833
0.940154 1 0.972122
0.940475 1 0.976242
0.904875 1 0.955566
0.905043 1 0.955596
0.905318 1 0.955596
0.906157 1 0.955657
0.908522 1 0.955795
0.914504 1 0.956222
0.926085 1 0.957427
0.939269 1 0.960479
0.939788 1 0.967315
0.779751 0.802502 1
0.779751 0.802502 1
0.779751 0.802502 1
0.779751 0.802502 1
0.779751 0.802502 1
0.779751 0.802502 1
0.960403 0.81445 1
0.960403 0.81445 1
0.959564 0.829129 1
0.779751 0.802502 1
0.779751 0.802502 1
0.779751 0.802502 1
0.779751 0.802502 1
0.779751 0.802502 1
0.779751 0.802502 1
0.960403 0.81445 1
0.960403 0.81445 1
0.959579 0.829114 1
0.779751 0.802502 1
0.779751 0.802502 1
0.779751 0.802502 1
0.779751 0.802502 1
0.779751 0.802502 1
0.779751 0.802502 1
0.960403 0.81445 1
0.960403 0.81445 1
0.959579 0.829114 1
0.779751 0.802502 1
0.779751 0.802502 1
0.779751 0.802502 1
0.779751 0.802502 1
0.779751 0.802502 1
0.779751 0.802426 1
0.960403 0.81445 1
0.960403 0.81445 1
0.959579 0.829099 1
0.779751 0.802502 1
0.779751 0.802502 1
0.779751 0.802502 1
0.779751 0.802502 1
0.779751 0.802502 1
0.781231 0.802365 1
0.960403 0.81445 1
0.960403 0.81445 1
0.959579 0.829038 1
0.779751 0.802502 1
0.779751 0.802502 1
0.779751 0.802502 1
0.779751 0.802502 1
0.779751 0.802502 1
0.832486 0.8038 1
0.960403 0.81445 1
0.960388 0.814588 1
0.954498 0.906355 1
0.68249 0.978485 1
0.682399 0.978515 1
0.682307 0.978546 1
0.681987 0.978698 1
0.68098 0.979126 1
0.776181 0.962554 1
0.928389 0.95845 1
0.948913 0.966415 1
0.946654 0.98471 1
0.659846 1 1
0.667369 1 1
0.678691 1 1
0.708263 1 1
0.768582 1 1
0.845914 1 1
0.908812 1 1
0.941939 1 1
0.942962 1 1
0.900374 1 0.999222
0.900587 1 0.999222
0.900923 1 0.999222
0.901961 1 0.999252
0.904891 1 0.999268
0.912154 1 0.999359
0.925429 1 0.999588
0.939696 1 0.999969
0.942687 1 1
0.779629 0.803342 1
0.779629 0.803342 1
0.779629 0.803342 1
0.779629 0.803342 1
0.779629 0.803342 1
0.779629 0.803342 1
0.779629 0.803342 1
0.960342 0.815244 1
0.959106 0.837278 1
0.779629 0.803342 1
0.779629 0.803342 1
0.779629 0.803342 1
0.779629 0.803342 1
0.779629 0.803342 1
0.779629 0.803342 1
0.779629 0.803342 1
0.960342 0.815244 1
0.959106 0.837278 1
0.779629 0.803342 1
0.779629 0.803342 1
0.779629 0.803342 1
0.779629 0.803342 1
0.779629 0.803342 1
0.779629 0.803342 1
0.779629 0.803342 1
0.960342 0.815244 1
0.959106 0.837308 1
0.779629 0.803342 1
0.779629 0.803342 1
0.779629 0.803342 1
0.779629 0.803342 1
0.779629 0.803342 1
0.779629 0.803342 1
0.779629 0.803342 1
0.960342 0.815244 1
0.959091 0.837354 1
0.779629 0.803342 1
0.779629 0.803342 1
0.779629 0.803342 1
0.779629 0.803342 1
0.779629 0.803342 1
0.779629 0.803342 1
0.781125 0.80325 1
0.960342 0.815274 1
0.959075 0.837491 1
0.779629 0.803342 1
0.779629 0.803342 1
0.779629 0.803342 1
0.779629 0.803342 1
0.779629 0.803342 1
0.779629 0.803342 1
0.84387 0.804486 1
0.960342 0.815351 1
0.959075 0.83772 1
0.779629 0.803342 1
0.779629 0.803342 1
0.779629 0.803342 1
0.779629 0.803342 1
0.779629 0.803342 1
0.779629 0.803342 1
0.960403 0.81445 1
0.960342 0.815518 1
0.959045 0.838148 1
0 1 1
0 1 1
0 1 1
0 1 1
0 1 1
0 1 1
0.874403 0.999161 1
0.944808 0.997421 1
0.944381 1 1
0.852857 1 1
0.85359 1 1
0.85478 1 1
0.858228 1 1
0.867399 1 1
0.887129 1 1
0.915282 1 1
0.93756 1 1
0.942977 1 1
