BBLuts/BB_106_0360_LUT.cube
TITLE "Generated by Resolve"
LUT_3D_SIZE 9
0 0 0
0 0 0
0.164584 0 0
0.376959 0.000198367 0.000503548
0.736965 0.000381476 0.000991836
0.991226 0.000518807 0.00132753
0.985534 0.476326 0.145678
0.98088 0.82002 0.463172
0.978546 0.946166 0.830106
0 0.0492256 0.000244144
0 0.0581674 0.000289921
0.173968 0.0419928 0
0.387457 0.000198367 0.000518807
0.739834 0.000381476 0.000991836
0.991226 0.000518807 0.00132753
0.985229 0.505547 0.136095
0.980835 0.824338 0.461524
0.978546 0.946654 0.829892
0 0.182834 0.000900282
0 0.186038 0.000915541
0.140917 0.18529 0.000946059
0.394751 0.166049 0.00134279
0.743526 0.0653849 0.00131228
0.989044 0.195499 0.00227359
0.984817 0.545129 0.119829
0.980774 0.830564 0.459068
0.978546 0.947387 0.829557
0 0.409186 0.00199893
0 0.410254 0.00199893
0 0.410788 0.00199893
0.345068 0.409018 0.0024567
0.746853 0.397787 0.00294499
0.986175 0.449989 0.00352483
0.984009 0.643229 0.00447089
0.980591 0.847745 0.45156
0.978515 0.949615 0.82855
0 0.74786 0.00364691
0 0.747723 0.00364691
0 0.74728 0.00364691
0 0.744335 0.00363165
0.676722 0.734188 0.00450141
0.953155 0.739605 0.00489815
0.982269 0.796719 0.00521859
0.980179 0.884901 0.450706
0.978454 0.955932 0.82533
0 0.943816 0.00460822
0 0.942916 0.00460822
0 0.941527 0.00459297
0 0.937224 0.00457771
0.652491 0.926467 0.00541695
0.898939 0.916121 0.00569161
0.980621 0.918212 0.124559
0.979477 0.938537 0.490959
0.978317 0.970199 0.817716
0.568338 1 0.261112
0.584543 1 0.261814
0.606928 1 0.262867
0.663417 0.998749 0.266239
0.769055 0.994171 0.27715
0.890654 0.987854 0.310246
0.97554 0.983291 0.403571
0.978668 0.983581 0.612711
0.978027 0.990097 0.845243
0.860807 1 0.704738
0.862196 1 0.70489
0.864286 1 0.705119
0.870512 1 0.705852
0.887373 1 0.708202
0.921675 1 0.715587
0.965148 1 0.737652
0.978012 1 0.798337
0.977752 1 0.90692
0.946502 1 0.941634
0.94667 1 0.941649
0.946899 1 0.941665
0.947631 1 0.941756
0.949859 1 0.942016
0.955886 1 0.94284
0.968078 1 0.945449
0.97763 1 0.953231
0.977584 1 0.974838
0 0 0.0507057
0 0 0.0509651
0.163897 1.5259e-05 0.0498207
0.377691 0.000137331 0.0533913
0.73669 0.000320439 0.0577859
0.991012 0.000411994 0.0930037
0.985443 0.470802 0.207691
0.980819 0.819043 0.493645
0.978546 0.946029 0.835798
0 0.0285344 0.042298
0.0377813 0.0386816 0.0409705
0.180835 0 0.0412146
0.382925 0.00015259 0.0420386
0.738003 0.000350958 0.0288701
0.991073 0.000442512 0.06804
0.985122 0.50074 0.198016
0.980774 0.823392 0.492134
0.978531 0.946532 0.835599
0 0.174868 0.000854505
0 0.177615 0.000869764
0.159976 0.176806 1.5259e-05
0.392859 0.157565 0.00129702
0.740871 0.000381476 0.000991836
0.989181 0.182467 0.00221256
0.98471 0.541161 0.182116
0.980697 0.829664 0.489891
0.978531 0.947265 0.835294
0 0.405112 0.00198367
0 0.406119 0.00198367
0 0.406516 0.00198367
0.355245 0.404349 0.0024567
0.746075 0.393973 0.00292973
0.986206 0.446891 0.00350958
0.983749 0.640909 0.114641
0.980529 0.846998 0.48304
0.9785 0.949493 0.834318
0 0.746456 0.00364691
0 0.746303 0.00364691
0 0.745846 0.00364691
0 0.74284 0.00363165
0.679942 0.732769 0.00450141
0.953262 0.738628 0.00488289
0.982284 0.796201 0.00521859
0.980148 0.884627 0.463218
0.978439 0.955825 0.83125
0 0.943526 0.00460822
0 0.942626 0.00460822
0 0.941238 0.00459297
0 0.936934 0.00457771
0.654597 0.926223 0.00541695
0.89929 0.915969 0.00569161
0.980621 0.918105 0.123964
0.979477 0.938476 0.490776
0.978302 0.970138 0.821683
0.570825 1 0.260975
0.586847 1 0.261677
0.608972 1 0.262745
0.664881 0.998672 0.266117
0.769787 0.994125 0.277043
0.890867 0.987823 0.31014
0.975586 0.983261 0.403555
0.978668 0.983566 0.612634
0.978027 0.990097 0.845212
0.861006 1 0.704707
0.862409 1 0.70486
0.864485 1 0.705089
0.870695 1 0.705821
0.887526 1 0.708171
0.921752 1 0.715572
0.965179 1 0.737621
0.978012 1 0.798337
0.977752 1 0.906905
0.946532 1 0.941634
0.946685 1 0.941649
0.946929 1 0.941665
0.947662 1 0.941756
0.949874 1 0.942016
0.955901 1 0.94284
0.968093 1 0.945449
0.97763 1 0.953231
0.977584 1 0.974838
0 0 0.177249
0 0 0.177447
0.143786 0 0.177371
0.387594 1.5259e-05 0.174701
0.736248 0.000183108 0.180713
0.990723 0.000289921 0.210544
0.985336 0.460822 0.295674
0.980728 0.817533 0.535164
0.978515 0.94583 0.843961
0 0 0.173327
0 0 0.173678
0.167834 0 0.173327
0.386252 1.5259e-05 0.170855
0.73901 0.000198367 0.17641
0.990738 0.000289921 0.203479
0.985 0.491768 0.289662
0.980682 0.821942 0.533822
0.978515 0.946334 0.843778
0 0.153079 0.162768
0 0.155093 0.162448
0.146548 0.150042 0.158938
0.379156 0.134859 0.161791
0.73727 0.000198367 0.165393
0.989151 0.143893 0.191119
0.984558 0.533379 0.280324
0.980621 0.828305 0.531807
0.978515 0.947066 0.843488
0 0.393668 0.0822919
0 0.394812 0.0833448
0 0.395331 0.0847486
0.355047 0.392752 0.0882277
0.740108 0.383154 0.0939345
0.986023 0.436545 0.12845
0.98349 0.635447 0.249256
0.980438 0.845853 0.525734
0.978485 0.94931 0.842557
0 0.743816 0.00363165
0 0.743664 0.00363165
0 0.743175 0.00363165
0 0.740154 0.00361639
0.682811 0.730129 0.00448615
0.953109 0.736553 0.00488289
0.981964 0.794659 0.138674
0.980041 0.883925 0.508293
0.978424 0.955657 0.839673
0 0.943084 0.00460822
0 0.942168 0.00460822
0 0.940795 0.00459297
0.0994736 0.936568 0.00471504
0.657771 0.925872 0.00541695
0.899825 0.915724 0.00569161
0.980621 0.917952 0.123003
0.979477 0.938384 0.490517
0.978286 0.970016 0.830777
0.574563 1 0.260777
0.590295 1 0.261479
0.612039 1 0.262547
0.667094 0.99855 0.265919
0.770886 0.994049 0.27686
0.891173 0.987778 0.310002
0.975647 0.983246 0.403525
0.978668 0.983551 0.612512
0.978027 0.990082 0.845167
0.861326 1 0.704662
0.862715 1 0.704814
0.86479 1 0.705058
0.870985 1 0.705791
0.887739 1 0.708141
0.921874 1 0.715526
0.965209 1 0.737591
0.978012 1 0.798321
0.977752 1 0.906889
0.946563 1 0.941619
0.946731 1 0.941634
0.94696 1 0.941665
0.947692 1 0.941741
0.949905 1 0.942
0.955932 1 0.942824
0.968109 1 0.945434
0.97763 1 0.953231
0.977584 1 0.974838
0 0 0.398245
0 0 0.398398
0 0 0.398489
0.365682 0 0.397513
0.756558 0 0.401022
0.990204 6.10361e-05 0.422049
0.985245 0.42652 0.484504
0.980529 0.81265 0.639216
0.978469 0.94522 0.866575
0 0 0.396078
0 0 0.396292
0.0643626 0 0.396292
0.380179 0 0.395209
0.75407 0 0.398581
0.990204 6.10361e-05 0.419242
0.984863 0.461234 0.4813
0.980468 0.817273 0.638178
0.978469 0.945724 0.866423
0 0.057908 0.392554
0 0.0632029 0.392767
0.0932479 0.0586252 0.392737
0.38584 0 0.391592
0.747173 0 0.394903
0.990219 6.10361e-05 0.414267
0.98436 0.507149 0.476417
0.980407 0.823911 0.636637
0.978454 0.946471 0.866163
0 0.352651 0.370642
0 0.354253 0.370962
0 0.355291 0.371588
0.344366 0.352575 0.373495
0.720943 0.343832 0.377554
0.985763 0.400183 0.396109
0.983154 0.617334 0.46128
0.980209 0.842206 0.632013
0.978439 0.948745 0.86537
0 0.731258 0.286778
0 0.731197 0.287465
0 0.730831 0.288472
0 0.728038 0.291386
0.67747 0.718105 0.301534
0.949645 0.726436 0.332738
0.981338 0.788525 0.421881
0.979797 0.881712 0.619043
0.978363 0.955169 0.862898
0 0.941817 0.00459297
0 0.940917 0.00459297
0 0.939529 0.00459297
0.124285 0.935317 0.00474556
0.658701 0.924666 0.00540169
0.898848 0.914412 0.15172
0.980102 0.916716 0.34078
0.979263 0.937499 0.584817
0.978225 0.969665 0.855406
0.585946 1 0.260136
0.600809 1 0.260838
0.621439 1 0.261906
0.673884 0.998199 0.265309
0.774289 0.99379 0.276295
0.892164 0.98764 0.309529
0.97586 0.983139 0.403433
0.978668 0.98349 0.6121
0.978027 0.990051 0.845014
0.862333 1 0.70454
0.863706 1 0.704692
0.865751 1 0.704936
0.87187 1 0.705669
0.888426 1 0.708019
0.922255 1 0.715419
0.965316 1 0.737499
0.978012 1 0.798306
0.977752 1 0.906844
0.946685 1 0.941604
0.946838 1 0.941619
0.947066 1 0.941649
0.947799 1 0.941726
0.950011 1 0.941985
0.956008 1 0.942824
0.968139 1 0.945434
0.97763 1 0.953216
0.977584 1 0.974838
0 0 0.754421
0 0 0.754528
0 0 0.754681
0.217426 0 0.753796
0.741695 0 0.750027
0.98938 0 0.755383
0.986267 0.271412 0.775937
0.980255 0.795956 0.822461
0.978363 0.943343 0.916396
0 0 0.753628
0 0 0.753735
0 0 0.753887
0.24361 0 0.752834
0.748257 0 0.749203
0.98938 0 0.754543
0.985595 0.331731 0.774426
0.980194 0.801312 0.821851
0.978363 0.943862 0.916274
0 0 0.752407
0 0 0.752514
0 0 0.752682
0.277455 0 0.751339
0.752026 0 0.747875
0.98938 0 0.753155
0.984817 0.401679 0.772045
0.980117 0.808988 0.820935
0.978363 0.94464 0.916106
0 0.193866 0.746242
0 0.196475 0.746273
0 0.199725 0.746288
0.283207 0.191821 0.745296
0.750317 0.0760967 0.742321
0.98703 0.209964 0.74641
0.983169 0.549172 0.764492
0.979889 0.829984 0.81825
0.978332 0.947005 0.915572
0 0.684337 0.710597
0 0.684672 0.71075
0 0.684733 0.710948
0 0.682887 0.711345
0.65774 0.673411 0.713359
0.939727 0.68925 0.719875
0.980774 0.766796 0.744671
0.9794 0.874647 0.811231
0.978256 0.953674 0.913924
0 0.936934 0.658045
0 0.936034 0.658244
0 0.934661 0.658549
0 0.930312 0.659525
0.624475 0.919249 0.663767
0.886305 0.908675 0.677272
0.979217 0.911986 0.714733
0.978775 0.934478 0.795361
0.978103 0.968658 0.909117
0.580011 1 0.546181
0.594873 0.999557 0.546578
0.615488 0.99884 0.547204
0.667857 0.996887 0.549172
0.768292 0.992523 0.55555
0.886229 0.986404 0.575692
0.96997 0.981949 0.6336
0.978332 0.982528 0.755016
0.977905 0.989548 0.895552
0.865461 1 0.704158
0.866773 1 0.704311
0.868742 1 0.70454
0.874617 1 0.705287
0.890593 1 0.707637
0.92343 1 0.715053
0.965682 1 0.737179
0.978012 1 0.798245
0.977752 1 0.906676
0.947036 1 0.941573
0.947188 1 0.941588
0.947433 1 0.941604
0.94815 1 0.941695
0.950332 1 0.941955
0.956252 1 0.942779
0.968277 1 0.945388
0.97763 1 0.953185
0.977584 1 0.974838
0 0 0.992645
0 0 0.99266
0 0 0.992676
0 0 0.992737
0.606592 0 0.986511
0.988815 0 0.980896
0.988815 0 0.98204
0.980728 0.720775 0.972412
0.978271 0.937362 0.983917
0 0 0.992554
0 0 0.992569
0 0 0.992584
0 0 0.992645
0.615946 0 0.986282
0.988815 0 0.980789
0.988815 0 0.981949
0.980621 0.730739 0.971817
0.978256 0.937957 0.983841
0 0 0.992416
0 0 0.992432
0 0 0.992447
0 0 0.992508
0.629755 0 0.985946
0.988815 0 0.980652
0.988815 0 0.981796
0.980468 0.744625 0.970962
0.978256 0.938857 0.983749
0 0 0.991974
0 0 0.991989
0 0 0.992004
0 0 0.99176
0.663569 0 0.984985
0.988815 0 0.980163
0.98883 0 0.97908
0.980072 0.779919 0.968673
0.978225 0.941558 0.983413
0 0.453391 0.978958
0 0.454795 0.978912
0 0.456916 0.978821
0 0.460838 0.978119
0.637415 0.449439 0.974594
0.983505 0.474998 0.969879
0.981506 0.653605 0.964614
0.979324 0.848096 0.963638
0.978134 0.949142 0.982467
0 0.921828 0.945129
0 0.921248 0.945083
0 0.920195 0.944976
0 0.916014 0.94461
0.533028 0.903655 0.944289
0.870741 0.891493 0.944381
0.978576 0.8981 0.946822
0.978469 0.926101 0.955901
0.977966 0.96582 0.979965
0.458762 0.998825 0.925719
0.482963 0.99823 0.925734
0.515312 0.997391 0.92575
0.592828 0.995026 0.925795
0.724575 0.98996 0.926055
0.863752 0.983215 0.927382
0.955947 0.97879 0.932448
0.97789 0.980179 0.9458
0.977722 0.988312 0.974441
0.856977 1 0.879133
0.858305 1 0.879194
0.860273 1 0.879286
0.866178 1 0.879591
0.882231 1 0.880537
0.915343 1 0.883604
0.958267 1 0.892912
0.977722 1 0.917342
0.977615 1 0.96054
0.948165 1 0.941436
0.948318 1 0.941451
0.948531 1 0.941466
0.949233 1 0.941558
0.951324 1 0.941817
0.957046 1 0.942641
0.968688 1 0.945266
0.97763 1 0.953063
0.977584 1 0.974807
0 0 1
0 0 1
0 0 1
0 0 1
0 0 1
0.976928 0 1
0.988632 0 1
0.988632 0 1
0.978424 0.910979 1
0 0 1
0 0 1
0 0 1
0 0 1
0 0 1
0.9785 0 1
0.988632 0 1
0.988632 0 1
0.978408 0.912062 1
0 0 1
0 0 1
0 0 1
0 0 1
0 0 1
0.980835 0 1
0.988632 0 1
0.988632 0 1
0.978393 0.913664 1
0 0 1
0 0 1
0 0 1
0 0 1
0 0 1
0.987945 0 1
0.988632 0 1
0.988632 0 1
0.978347 0.918456 1
0 0 1
0 0 1
0 0 1
0 0 1
0.19617 0 1
0.988632 0 1
0.988632 0 1
0.982315 0.562066 1
0.97821 0.931075 1
0 0.791501 1
0 0.791867 1
0 0.792401 1
0 0.794095 1
0 0.789044 1
0.88014 0.775494 1
0.979568 0.809522 1
0.978698 0.886824 1
0.977935 0.955764 1
0 1 1
0 1 1
0 0.999817 1
0 0.995941 1
0.603693 0.98706 1
0.836744 0.977081 1
0.949371 0.972 1
0.977737 0.974868 1
0.9776 0.985214 1
0.82536 1 1
0.827115 1 1
0.829725 1 1
0.837476 1 1
0.858213 1 1
0.899016 1 1
0.948425 1 1
0.977462 1 1
0.977447 1 1
0.944503 1 1
0.944656 1 1
0.944869 1 1
0.945571 1 1
0.947662 1 1
0.953368 1 1
0.965072 1 1
0.977493 1 1
0.977478 1 1
0 0.0859998 1
0 0.0859998 1
0 0.0859998 1
0 0.0860151 1
0 0.0860456 1
0 0.0861372 1
0.988632 0 1
0.98616 0.218982 1
0.981399 0.643168 1
0 0.0859846 1
0 0.0859846 1
0 0.0859846 1
0 0.0859998 1
0 0.0860304 1
0 0.0861219 1
0.988632 0 1
0.98616 0.219272 1
0.981399 0.643137 1
0 0.0859541 1
0 0.0859693 1
0 0.0859693 1
0 0.0859846 1
0 0.0859998 1
0 0.0861067 1
0.988632 0 1
0.98616 0.21973 1
0.981399 0.643091 1
0 0.085893 1
0 0.085893 1
0 0.085893 1
0 0.0859083 1
0 0.0859388 1
0 0.0860304 1
0.988632 0 1
0.986145 0.221134 1
0.981399 0.642969 1
0 0.0856641 1
0 0.0856641 1
0 0.0856641 1
0 0.0856641 1
0 0.0857099 1
0 0.0858015 1
0.988632 0 1
0.986114 0.223667 1
0.981399 0.642557 1
0 0.0849165 1
0 0.0849165 1
0 0.0849165 1
0 0.0849317 1
0 0.0849622 1
0.691432 0 1
0.988632 0 1
0.986068 0.227817 1
0.979004 0.855192 1
0 0.960693 1
0 0.960723 1
0 0.960784 1
0 0.960983 1
0 0.961578 1
0.68191 0.93756 1
0.953597 0.92874 1
0.978027 0.941711 1
0.977707 0.970596 1
0.661189 1 1
0.668452 1 1
0.678935 1 1
0.707866 1 1
0.771557 1 1
0.861265 1 1
0.938445 1 1
0.977371 1 1
0.977371 1 1
0.933425 1 1
0.933623 1 1
0.933913 1 1
0.934829 1 1
0.93756 1 1
0.944854 1 1
0.959243 1 1
0.975692 1 1
0.977371 1 1
0 0.293004 1
0 0.293004 1
0 0.293004 1
0 0.293004 1
0 0.293019 1
0 0.29305 1
0 0.293156 1
0.984924 0.328756 1
0.980819 0.693843 1
0 0.292988 1
0 0.293004 1
0 0.293004 1
0 0.293004 1
0 0.293019 1
0 0.29305 1
0 0.293141 1
0.984924 0.328923 1
0.980819 0.693874 1
0 0.292988 1
0 0.292988 1
0 0.292988 1
0 0.292988 1
0 0.293004 1
0 0.293034 1
0 0.293141 1
0.984924 0.329168 1
0.980819 0.693935 1
0 0.292958 1
0 0.292958 1
0 0.292973 1
0 0.292973 1
0 0.292973 1
0 0.293004 1
0 0.293111 1
0.984909 0.329961 1
0.980819 0.694133 1
0 0.292882 1
0 0.292882 1
0 0.292882 1
0 0.292897 1
0 0.292897 1
0 0.292927 1
0 0.293034 1
0.984894 0.332464 1
0.980819 0.694728 1
0 0.292622 1
0 0.292638 1
0 0.292638 1
0 0.292638 1
0 0.292653 1
0 0.292683 1
0 0.2907 1
0.984802 0.340337 1
0.980804 0.695781 1
0 0.291814 1
0 0.291814 1
0 0.291814 1
0 0.291829 1
0 0.291829 1
0 0.291859 1
0.988632 0 1
0.984588 0.358724 1
0.980774 0.697581 1
0 1 1
0 1 1
0 1 1
0 1 1
0 1 1
0 1 1
0.88307 0.989899 1
0.977539 0.986267 1
0.977478 0.990845 1
0.879026 1 1
0.879713 1 1
0.880751 1 1
0.883925 1 1
0.893004 1 1
0.91426 1 1
0.946242 1 1
0.97229 1 1
0.977371 1 1
