BBLuts/BB_102_0490_LUT.cube
TITLE "Generated by Resolve"
LUT_3D_SIZE 33
0.00822461 0.00933852 0.00393683
0.00822461 0.00933852 0.00393683
0.00822461 0.00933852 0.00393683
0.00822461 0.00933852 0.00393683
0.00822461 0.00933852 0.00393683
0.0561227 0.00860609 0.00300603
0.110887 0.00810254 0.00231937
0.150271 0.00787366 0.0019379
0.189548 0.00769055 0.00161746
0.235752 0.00755322 0.00132753
0.288716 0.0074464 0.00105287
0.346303 0.00741588 0.000839246
0.41033 0.0074464 0.000671397
0.484031 0.00755322 0.000564584
0.560357 0.00770581 0.000518807
0.632349 0.00787366 0.000503548
0.70518 0.00808728 0.000564584
0.778317 0.00834669 0.000671397
0.844556 0.00862135 0.000808728
0.897078 0.00886549 0.000961318
0.906691 0.00891127 0.000991836
0.906691 0.00891127 0.000991836
0.895766 0.179492 0.0304417
0.883085 0.363745 0.0592813
0.874174 0.493034 0.0912642
0.866957 0.598291 0.130266
0.861204 0.682795 0.180911
0.856367 0.753994 0.254505
0.852537 0.808637 0.339376
0.849409 0.850706 0.425635
0.846891 0.88278 0.504036
0.844862 0.90721 0.573343
0.843153 0.926726 0.635111
0.00822461 0.00933852 0.00393683
0.00822461 0.00933852 0.00393683
0.00822461 0.00933852 0.00393683
0.00822461 0.00933852 0.00393683
0.00822461 0.00933852 0.00393683
0.0672007 0.00848402 0.00285344
0.114687 0.00808728 0.00227359
0.153368 0.0078584 0.00190738
0.194385 0.00767529 0.00158694
0.241337 0.00753796 0.00129702
0.294286 0.0074464 0.00103761
0.35108 0.00741588 0.000823987
0.413199 0.0074464 0.000671397
0.485893 0.00755322 0.000564584
0.561822 0.00770581 0.000503548
0.633265 0.00787366 0.000503548
0.705745 0.00808728 0.000564584
0.778592 0.00834669 0.000671397
0.844465 0.00862135 0.000808728
0.896727 0.00886549 0.000961318
0.906691 0.00891127 0.000991836
0.906691 0.00891127 0.000991836
0.892958 0.214267 0.0192721
0.881941 0.378302 0.0549325
0.873487 0.501991 0.088838
0.866545 0.603647 0.128862
0.860945 0.686152 0.179339
0.856214 0.756024 0.253635
0.852445 0.809781 0.338888
0.849363 0.851392 0.425361
0.846876 0.883162 0.503883
0.844846 0.907454 0.573251
0.843153 0.926863 0.635065
0.00822461 0.00933852 0.00393683
0.00822461 0.00933852 0.00393683
0.00822461 0.00933852 0.00393683
0.00822461 0.00933852 0.00393683
0.00822461 0.00933852 0.00393683
0.0737774 0.00842298 0.00276188
0.115999 0.00807202 0.00225834
0.156313 0.00784314 0.00187686
0.199451 0.00766003 0.00155642
0.246509 0.0075227 0.0012665
0.298512 0.0074464 0.0010071
0.353643 0.00741588 0.000823987
0.415579 0.0074464 0.000656138
0.487892 0.00755322 0.000549325
0.563287 0.00772107 0.000503548
0.634165 0.00787366 0.000503548
0.70631 0.00808728 0.000564584
0.778836 0.00834669 0.000671397
0.844373 0.00862135 0.000808728
0.896376 0.00886549 0.000946059
0.906691 0.00891127 0.000991836
0.906691 0.00891127 0.000991836
0.890166 0.242222 0.000366217
0.880858 0.392035 0.0501717
0.872831 0.510506 0.0863508
0.866148 0.608881 0.127459
0.8607 0.689448 0.177813
0.856062 0.758007 0.252735
0.852369 0.810925 0.338415
0.849317 0.852079 0.425086
0.846845 0.883543 0.503731
0.844831 0.907683 0.573144
0.843137 0.927001 0.634989
0.00822461 0.00933852 0.00393683
0.00822461 0.00933852 0.00393683
0.00822461 0.00933852 0.00393683
0.00770581 0.0150759 0.00389105
0.030045 0.0198367 0.00334173
0.0788128 0.00836194 0.00268559
0.116609 0.00807202 0.00225834
0.156573 0.00784314 0.00187686
0.200305 0.00766003 0.00154116
0.248615 0.0075227 0.00125124
0.301244 0.00743114 0.0010071
0.355962 0.00741588 0.000808728
0.417884 0.00746166 0.000656138
0.489891 0.00756847 0.000549325
0.564782 0.00772107 0.000503548
0.635096 0.00787366 0.000503548
0.706859 0.00808728 0.000564584
0.779065 0.00834669 0.000671397
0.844236 0.00862135 0.000808728
0.895979 0.00886549 0.000946059
0.906691 0.00891127 0.000991836
0.906691 0.00891127 0.000991836
0.88838 0.267018 0.000289921
0.879805 0.404852 0.044831
0.872206 0.518624 0.0837873
0.865766 0.614008 0.12604
0.860456 0.692668 0.177096
0.855909 0.75996 0.251865
0.852277 0.812039 0.337942
0.849271 0.85275 0.424796
0.846815 0.883909 0.503594
0.844816 0.907927 0.573053
0.843122 0.927138 0.634943
0.00344854 0.0625467 0.00360113
0.00317388 0.0655528 0.00358587
0.00291447 0.0684367 0.00357061
0.00265507 0.0712444 0.00354009
0.00254826 0.0723278 0.00354009
0.0658885 0.0708476 0.00236515
0.107408 0.0682994 0.00190738
0.149645 0.0627298 0.00155642
0.196139 0.0502174 0.00129702
0.249546 0.0075227 0.00125124
0.302815 0.00743114 0.000991836
0.358068 0.00741588 0.000808728
0.420111 0.00746166 0.000656138
0.49192 0.00756847 0.000549325
0.566293 0.00772107 0.000503548
0.636042 0.00787366 0.000503548
0.707424 0.00808728 0.000564584
0.779278 0.00834669 0.000671397
0.844099 0.00862135 0.000808728
0.895598 0.00886549 0.000946059
0.906691 0.00891127 0.000991836
0.902998 0.0624552 0.000900282
0.886778 0.289052 0.000213626
0.878798 0.416892 0.0386969
0.871595 0.526421 0.0811627
0.8654 0.618845 0.12462
0.860227 0.695811 0.176379
0.855772 0.761898 0.251011
0.852201 0.813153 0.337453
0.849226 0.853407 0.424521
0.846784 0.884291 0.503441
0.8448 0.908156 0.572961
0.843122 0.927275 0.634882
0.000381476 0.0956588 0.00343328
0.00015259 0.0980697 0.00343328
0 0.100435 0.00341802
0 0.102296 0.00341802
0 0.103182 0.00341802
0.0446784 0.102464 0.00242618
0.0976883 0.101274 0.00177005
0.142733 0.0988632 0.00137331
0.190631 0.0940566 0.00105287
0.243473 0.0848096 0.000823987
0.299153 0.0666819 0.000686656
0.359945 0.00741588 0.000793469
0.42237 0.00746166 0.000640879
0.494072 0.00756847 0.000549325
0.567926 0.00772107 0.000503548
0.637034 0.00788891 0.000503548
0.707988 0.00808728 0.000564584
0.779492 0.00834669 0.000671397
0.843946 0.00862135 0.000808728
0.895155 0.00886549 0.000946059
0.906691 0.00891127 0.000991836
0.896971 0.147692 0.000671397
0.885267 0.309743 0.000137331
0.877729 0.428855 0.0308232
0.870985 0.534249 0.0783246
0.865034 0.62359 0.123125
0.859983 0.699031 0.175647
0.855619 0.763851 0.25008
0.85211 0.814298 0.33695
0.849165 0.854093 0.424247
0.846754 0.884672 0.503288
0.844785 0.908385 0.572854
0.843107 0.927428 0.634821
0 0.130663 0.00329595
0 0.132662 0.00329595
0 0.134646 0.00328069
0 0.13576 0.00328069
0 0.136492 0.00328069
0 0.136751 0.00328069
0.0798962 0.135424 0.00172427
0.132357 0.134157 0.00122072
0.183413 0.131579 0.000869764
0.238483 0.126711 0.000595102
0.294987 0.117708 0.000411994
0.354543 0.10312 0.000335698
0.420127 0.0749065 0.000350958
0.496818 0.00758373 0.000549325
0.570031 0.00773632 0.000503548
0.638331 0.00788891 0.000503548
0.708736 0.00808728 0.000564584
0.779767 0.00834669 0.000671397
0.843732 0.00862135 0.000808728
0.894575 0.00886549 0.000946059
0.906691 0.00891127 0.000991836
0.893111 0.20148 0.000503548
0.883528 0.333776 4.57771e-05
0.876188 0.44329 0.014374
0.870222 0.543893 0.0745556
0.864591 0.629343 0.121202
0.859678 0.70309 0.174731
0.855436 0.766354 0.248936
0.852003 0.815747 0.336309
0.849104 0.854963 0.423865
0.846723 0.885176 0.50309
0.844755 0.908705 0.572717
0.843091 0.927611 0.63473
0 0.170367 0.00311284
0 0.172122 0.00311284
0 0.173419 0.00309758
0 0.174289 0.00309758
0 0.174899 0.00309758
0 0.17525 0.00309758
0.0255894 0.17464 0.00222782
0.113787 0.173587 0.00112917
0.171725 0.172168 0.000686656
0.229877 0.168872 0.000381476
0.28896 0.162829 0.000183108
0.351354 0.154147 6.10361e-05
0.417975 0.1411 3.0518e-05
0.492103 0.118685 9.15541e-05
0.568276 0.0700694 0.000289921
0.64007 0.00788891 0.000518807
0.709743 0.00810254 0.000564584
0.780133 0.00834669 0.000671397
0.843427 0.00862135 0.000808728
0.893751 0.00885023 0.000946059
0.899977 0.105379 0.000793469
0.889479 0.251865 0.000335698
0.881453 0.362158 0
0.874205 0.461265 0
0.869245 0.555962 0.0692454
0.864027 0.636667 0.118639
0.859281 0.708293 0.173541
0.855192 0.769558 0.24741
0.851865 0.817639 0.33547
0.849027 0.856123 0.423377
0.846677 0.885832 0.502831
0.844724 0.909117 0.572549
0.843076 0.927871 0.634638
0 0.2168 0.00289921
0 0.218128 0.00289921
0 0.21886 0.00288396
0 0.219623 0.00288396
0 0.220142 0.00288396
0 0.220493 0.00288396
0 0.220722 0.00288396
0.072343 0.21944 0.00125124
0.150469 0.217609 0.000549325
0.21503 0.214893 0.000183108
0.278798 0.210834 0
0.345357 0.204929 0
0.415564 0.196353 0
0.490959 0.183551 0
0.564553 0.165667 0
0.632837 0.139788 6.10361e-05
0.704677 0.0987106 0.000320439
0.780621 0.00834669 0.000671397
0.842954 0.00862135 0.000808728
0.88539 0.112001 0.000732433
0.892515 0.209827 0.00047303
0.885756 0.303105 0.000167849
0.879042 0.395285 0
0.872511 0.484504 0
0.868025 0.570886 0.0615549
0.863294 0.64622 0.115206
0.858793 0.714916 0.17203
0.854887 0.773663 0.245411
0.851682 0.820081 0.334356
0.84892 0.857603 0.422736
0.846616 0.886687 0.50248
0.844694 0.909651 0.572305
0.843061 0.928191 0.634485
0 0.268818 0.00265507
0 0.26923 0.00265507
0 0.269627 0.00265507
0 0.269947 0.00265507
0 0.270161 0.00265507
0 0.270207 0.00265507
0 0.2701 0.00265507
0 0.269749 0.00265507
0.11014 0.267506 0.000564584
0.191394 0.265751 1.5259e-05
0.262623 0.263081 0
0.334676 0.258991 0
0.409964 0.252857 0
0.489174 0.243931 0
0.563058 0.233555 0
0.629755 0.220996 0
0.698589 0.206973 0
0.76791 0.194553 0.000122072
0.828794 0.197879 0.000289921
0.875227 0.230182 0.000350958
0.886992 0.286015 0.000228885
0.881865 0.356512 0
0.87631 0.432624 0
0.870497 0.512001 0
0.866468 0.589059 0.0496223
0.862348 0.658396 0.110613
0.858167 0.723247 0.170123
0.85449 0.778836 0.242817
0.851453 0.823209 0.332891
0.848768 0.85951 0.421881
0.84654 0.8878 0.502007
0.844648 0.910338 0.572
0.84303 0.928603 0.634302
0 0.324208 0.00241093
0 0.32459 0.00239567
0 0.325002 0.00239567
0 0.325292 0.00239567
0 0.325505 0.00239567
0 0.325643 0.00239567
0 0.325689 0.00239567
0 0.325597 0.00239567
0 0.32517 0.00239567
0.150408 0.322728 0
0.236973 0.32105 0
0.316991 0.318349 0
0.398901 0.314015 0
0.48423 0.307942 0
0.560555 0.30106 0
0.62739 0.293996 0
0.694774 0.287739 0
0.761959 0.284321 0
0.820829 0.291386 0
0.866514 0.316182 4.57771e-05
0.881743 0.35819 0
0.877775 0.412482 0
0.873152 0.475685 0
0.868208 0.543175 0
0.864332 0.610636 0.0261845
0.861158 0.673579 0.104402
0.857389 0.733532 0.167773
0.854017 0.785275 0.239429
0.851164 0.827192 0.330999
0.8486 0.861952 0.420783
0.846433 0.88922 0.501411
0.844572 0.911238 0.571603
0.842985 0.929152 0.634073
0 0.388876 0.002121
0 0.389258 0.002121
0 0.389624 0.002121
0 0.389899 0.002121
0 0.390112 0.002121
0 0.39028 0.00210575
0 0.390417 0.00210575
0 0.390463 0.00210575
0 0.390341 0.00210575
0.0265202 0.388983 0.000869764
0.192355 0.387442 0
0.288121 0.385824 0
0.37966 0.383322 0
0.472709 0.379583 0
0.553903 0.37496 0
0.62324 0.37055 0
0.690639 0.36788 0
0.756039 0.368612 0
0.812619 0.377401 0
0.857099 0.397665 0
0.876585 0.428885 0
0.873457 0.471595 0
0.869657 0.523308 0
0.865629 0.578241 0
0.861555 0.633799 0
0.859709 0.691966 0.0961471
0.856458 0.746029 0.164965
0.853437 0.793133 0.238834
0.850797 0.832197 0.328511
0.848371 0.865049 0.419318
0.846296 0.891066 0.500603
0.844495 0.912428 0.571069
0.842939 0.929854 0.633753
0 0.463401 0.00180056
0 0.463737 0.00180056
0 0.464057 0.00180056
0 0.464302 0.00180056
0 0.4645 0.00180056
0 0.464683 0.00180056
0 0.464851 0.00180056
0 0.464973 0.00180056
0 0.46511 0.00180056
0 0.465187 0.00180056
0.0832074 0.463676 0
0.23888 0.462943 0
0.348409 0.461769 0
0.451499 0.459449 0
0.540291 0.456352 0
0.614069 0.453269 0
0.684215 0.451499 0
0.749157 0.452827 0
0.8038 0.460243 0
0.84683 0.476204 0
0.871305 0.500938 0
0.868925 0.53344 0
0.866041 0.572656 0
0.862791 0.617029 0
0.859449 0.662287 0
0.857984 0.713359 0.0853742
0.855344 0.760784 0.161791
0.852735 0.802518 0.238437
0.85034 0.838361 0.325277
0.848096 0.86891 0.417426
0.846128 0.893416 0.499535
0.844388 0.913924 0.570367
0.842863 0.93077 0.633326
0 0.545144 0.00146487
0 0.545403 0.00146487
0 0.545617 0.00146487
0 0.5458 0.00146487
0 0.545968 0.00146487
0 0.546105 0.00146487
0 0.546258 0.00146487
0 0.546395 0.00146487
0 0.546502 0.00146487
0 0.546532 0.00146487
0 0.546395 0.00146487
0.142107 0.54432 0
0.299962 0.54342 0
0.419211 0.541955 0
0.518318 0.539818 0
0.598901 0.537316 0
0.673564 0.535454 0
0.740353 0.535882 0
0.793866 0.541192 0
0.835462 0.55259 0
0.866239 0.570077 0
0.864485 0.593912 0
0.862318 0.623346 0
0.859892 0.656352 0
0.857038 0.695003 0
0.856001 0.737438 0.071397
0.854078 0.777691 0.158526
0.851926 0.813581 0.238315
0.849775 0.845823 0.32166
0.847745 0.87361 0.414954
0.845914 0.896376 0.498131
0.844251 0.915816 0.569451
0.842786 0.93196 0.632776
0 0.621424 0.00117494
0 0.621546 0.00117494
0 0.621668 0.00117494
0 0.621744 0.00117494
0 0.62182 0.00117494
0 0.621881 0.00117494
0 0.621942 0.00117494
0 0.622003 0.00117494
0 0.622003 0.00117494
0 0.621958 0.00117494
0 0.62179 0.00117494
0 0.621347 0.00117494
0.223926 0.618799 0
0.374807 0.617823 0
0.488853 0.616464 0
0.577829 0.614649 0
0.657679 0.612863 0
0.727657 0.612482 0
0.78204 0.615579 0
0.822934 0.62295 0
0.855024 0.634424 0
0.860288 0.651057 0
0.858671 0.673014 0
0.856687 0.699809 0
0.854475 0.72987 0
0.853758 0.763439 0.0532692
0.852689 0.796307 0.155734
0.85098 0.826474 0.238697
0.849134 0.854627 0.322911
0.847333 0.879255 0.411765
0.845655 0.900053 0.496239
0.844083 0.918227 0.568246
0.84268 0.93344 0.632044
0 0.690593 0.0009308
0 0.690654 0.0009308
0 0.6907 0.0009308
0 0.69073 0.0009308
0 0.690745 0.0009308
0 0.690761 0.0009308
0 0.690776 0.0009308
0 0.690745 0.0009308
0 0.6907 0.0009308
0 0.690562 0.0009308
0 0.690288 0.0009308
0 0.689769 0.0009308
0.0381476 0.687572 0
0.315053 0.686061 0
0.451453 0.684916 0
0.551598 0.68336 0
0.6365 0.681605 0
0.710018 0.680705 0
0.766506 0.682246 0
0.807996 0.687221 0
0.840116 0.695903 0
0.856062 0.708293 0
0.854902 0.724132 0
0.853483 0.743267 0
0.851865 0.765179 0
0.85127 0.78999 0.0293126
0.851225 0.816068 0.15433
0.849928 0.841001 0.24004
0.848402 0.864698 0.324926
0.84686 0.885817 0.40856
0.845335 0.90454 0.493751
0.84387 0.921172 0.566644
0.842542 0.935286 0.631083
0 0.758923 0.000747692
0 0.758907 0.000747692
0 0.758892 0.000747692
0 0.758862 0.000747692
0 0.758846 0.000747692
0 0.758801 0.000747692
0 0.75874 0.000747692
0 0.758648 0.000762951
0 0.758495 0.000762951
0 0.758251 0.000762951
0 0.757839 0.000762951
0 0.757168 0.000762951
0 0.75613 0.000762951
0.229709 0.753048 0
0.404944 0.751858 0
0.522438 0.750271 0
0.611658 0.748287 0
0.688014 0.746715 0
0.747021 0.746639 0
0.790906 0.748821 0
0.824414 0.753582 0
0.84831 0.761242 0
0.851392 0.77142 0
0.850462 0.784039 0
0.849378 0.798795 0
0.848157 0.81529 0
0.849699 0.836957 0.15523
0.848783 0.856703 0.243061
0.847593 0.875792 0.328145
0.846296 0.89337 0.411383
0.844953 0.909865 0.49044
0.84361 0.924758 0.564569
0.842359 0.937987 0.629831
0 0.817014 0.000579843
0 0.816953 0.000579843
0 0.816876 0.000579843
0 0.8168 0.000579843
0 0.816709 0.000579843
0 0.816617 0.000579843
0 0.816495 0.000579843
0 0.816312 0.000579843
0 0.816052 0.000579843
0 0.815671 0.000579843
0 0.815091 0.000579843
0 0.814237 0.000579843
0 0.813031 0.000595102
0.128832 0.80975 0
0.363104 0.80824 0
0.496025 0.806455 0
0.590463 0.804166 0
0.667552 0.802029 0
0.727718 0.800778 0
0.773877 0.80087 0
0.809277 0.802655 0
0.834562 0.80647 0
0.848386 0.812222 0
0.847807 0.819959 0
0.847089 0.82974 0
0.846723 0.841917 0.0075227
0.848188 0.858091 0.160128
0.847608 0.872923 0.248707
0.846738 0.88751 0.33312
0.84567 0.901976 0.415335
0.844495 0.916045 0.490349
0.84332 0.928985 0.561883
0.842161 0.94081 0.628183
0 0.861708 0.000411994
0 0.861585 0.000411994
0 0.861479 0.000411994
0 0.861357 0.000411994
0 0.861234 0.000411994
0 0.861097 0.000411994
0 0.860914 0.000411994
0 0.86067 0.000411994
0 0.860319 0.000427253
0 0.859831 0.000427253
0 0.859113 0.000427253
0 0.858167 0.000427253
0 0.856886 0.000427253
0.0700999 0.853681 0
0.344793 0.85185 0
0.48246 0.849973 0
0.577585 0.847562 0
0.652918 0.845197 0
0.71191 0.843412 0
0.758785 0.842451 0
0.795087 0.842603 0
0.822141 0.844221 0
0.842802 0.847333 0
0.845441 0.851957 0
0.844984 0.858122 0
0.846067 0.867613 0.0513161
0.846784 0.878279 0.171008
0.846479 0.888747 0.258091
0.845838 0.89984 0.340459
0.844968 0.911421 0.420859
0.843976 0.922957 0.494377
0.842969 0.933837 0.559503
0.841917 0.944183 0.626017
0 0.896666 0.000289921
0 0.896513 0.000289921
0 0.896376 0.000289921
0 0.896208 0.000289921
0 0.896056 0.000289921
0 0.895888 0.000289921
0 0.895659 0.000289921
0 0.895369 0.000289921
0 0.894942 0.000289921
0 0.894392 0.000289921
0 0.89366 0.000289921
0 0.892668 0.00030518
0 0.891371 0.00030518
0.134905 0.887968 0
0.355276 0.886397 0
0.48426 0.88452 0
0.573388 0.882139 0
0.644282 0.879774 0
0.700435 0.877806 0
0.746273 0.876326 0
0.78262 0.875563 0
0.810742 0.875761 0
0.832624 0.876921 0
0.843427 0.879194 0
0.843168 0.882582 0
0.845106 0.889769 0.0912184
0.845563 0.896742 0.189334
0.84538 0.90425 0.272023
0.844907 0.912535 0.350896
0.844221 0.92137 0.428473
0.843412 0.930419 0.499672
0.842527 0.939605 0.563363
0.841642 0.948089 0.623163
0 0.922499 0.000183108
0 0.922316 0.000183108
0 0.922148 0.000183108
0 0.921965 0.000183108
0 0.921782 0.000183108
0 0.921599 0.000183108
0 0.921355 0.000183108
0 0.921035 0.000198367
0 0.920607 0.000198367
0 0.920043 0.000198367
0 0.919295 0.000198367
0 0.918303 0.000198367
0 0.917021 0.000198367
0.245212 0.913817 0
0.39649 0.912398 0
0.502922 0.910536 0
0.579232 0.908324 0
0.642878 0.906081 0
0.694621 0.904097 0
0.738109 0.902419 0
0.773022 0.901228 0
0.801266 0.900649 0
0.823865 0.90074 0
0.841077 0.901671 0
0.841627 0.90341 0
0.84416 0.909438 0.133593
0.844434 0.914015 0.215335
0.844343 0.919188 0.291402
0.843992 0.925032 0.365499
0.843473 0.931441 0.438804
0.842802 0.938567 0.506493
0.842084 0.94551 0.568475
0.841321 0.952438 0.625772
0 0.942489 0.000106813
0 0.942306 0.000106813
0 0.942138 0.000106813
0 0.941955 0.000106813
0 0.941756 0.000106813
0 0.941588 0.000106813
0 0.941344 0.000106813
0 0.941024 0.000106813
0 0.940597 0.000106813
0 0.940047 0.000122072
0 0.93933 0.000122072
0 0.938399 0.000122072
0.222309 0.935561 0
0.352499 0.934493 0
0.453361 0.933135 0
0.530037 0.931395 0
0.593042 0.929046 0
0.647272 0.927077 0
0.693568 0.925216 0
0.733532 0.923537 0
0.766125 0.92224 0
0.793118 0.92134 0
0.815991 0.920851 0
0.833661 0.920974 0
0.842603 0.924361 0.094667
0.843275 0.926818 0.179202
0.843442 0.929564 0.249119
0.843381 0.932876 0.316609
0.843107 0.937118 0.38526
0.84271 0.941558 0.452506
0.842191 0.946487 0.515373
0.841596 0.951736 0.575235
0.840955 0.957153 0.630091
0 0.957076 4.57771e-05
0 0.956909 4.57771e-05
0 0.956725 4.57771e-05
0 0.956573 4.57771e-05
0 0.95639 4.57771e-05
0 0.956207 4.57771e-05
0 0.955978 6.10361e-05
0 0.955688 6.10361e-05
0 0.955291 6.10361e-05
0.128344 0.953079 0
0.228199 0.952499 0
0.308858 0.951904 0
0.383032 0.951156 0
0.451698 0.950149 0
0.512001 0.948898 0
0.563973 0.947387 0
0.612909 0.945739 0
0.656916 0.944045 0
0.697108 0.942367 0
0.73254 0.940795 0
0.762127 0.939483 0
0.78764 0.938415 0
0.809628 0.937636 0
0.829374 0.939803 0.0840467
0.842115 0.940887 0.163226
0.842451 0.941924 0.227726
0.842557 0.943389 0.28867
0.842496 0.945357 0.348058
0.842298 0.94786 0.409873
0.841978 0.950866 0.470161
0.841581 0.954299 0.527428
0.841093 0.958053 0.584024
0.840558 0.962036 0.635721
0.248051 0.965789 0
0.263554 0.965698 0
0.277989 0.965591 0
0.291463 0.965484 0
0.304097 0.965377 0
0.316243 0.965286 0
0.33109 0.965133 0
0.349416 0.964965 0
0.371862 0.964721 0
0.398505 0.964401 0
0.427939 0.964004 0
0.459998 0.96347 0
0.494514 0.962783 0
0.528557 0.961913 0
0.564218 0.960845 0
0.600687 0.95964 0
0.636423 0.958328 0
0.671397 0.956909 0
0.704738 0.955459 0
0.734859 0.95407 0
0.762646 0.954711 0.0490272
0.786801 0.954452 0.0920577
0.807813 0.954101 0.128405
0.824994 0.954025 0.17528
0.839231 0.954131 0.226368
0.841718 0.954421 0.278614
0.841764 0.955047 0.331212
0.841718 0.956069 0.385428
0.84155 0.957549 0.438941
0.841306 0.959426 0.492256
0.840986 0.961654 0.543145
0.840604 0.964141 0.595254
0.840177 0.966888 0.642924
0.475517 0.977493 0.148196
0.480186 0.977401 0.148394
0.484703 0.97731 0.148592
0.489113 0.977218 0.148775
0.493416 0.977127 0.148974
0.497765 0.977035 0.149172
0.503212 0.976928 0.149447
0.509773 0.976776 0.149798
0.517647 0.976577 0.150256
0.527413 0.976318 0.150881
0.539757 0.975982 0.15169
0.554665 0.975555 0.152758
0.57229 0.975036 0.154208
0.592523 0.974395 0.156085
0.614954 0.973632 0.158602
0.639231 0.972763 0.161913
0.665248 0.971771 0.166262
0.692088 0.970672 0.171908
0.718441 0.969558 0.179232
0.742885 0.96849 0.188632
0.765667 0.967468 0.200549
0.786709 0.966552 0.215503
0.805585 0.965805 0.23386
0.821454 0.965225 0.256046
0.834913 0.964904 0.290517
0.841047 0.964752 0.331762
0.841062 0.964813 0.377569
0.841016 0.965179 0.424979
0.840879 0.965866 0.471626
0.840681 0.966903 0.516762
0.840436 0.9682 0.562921
0.840131 0.969741 0.609201
0.83978 0.971557 0.651987
0.581033 0.980774 0.270665
0.583047 0.980804 0.270771
0.585031 0.980819 0.270893
0.586984 0.980835 0.271
0.588922 0.98085 0.271122
0.590906 0.980865 0.271244
0.593408 0.98088 0.271412
0.596628 0.980911 0.271611
0.600778 0.980957 0.271885
0.606027 0.981003 0.272251
0.612619 0.981048 0.272725
0.620813 0.981125 0.273365
0.630915 0.981216 0.274205
0.643107 0.981323 0.275334
0.657496 0.981277 0.276814
0.674022 0.980606 0.278782
0.692302 0.979812 0.281361
0.711696 0.978958 0.284779
0.731273 0.978058 0.28925
0.750622 0.977142 0.295109
0.769772 0.976196 0.302602
0.787884 0.975296 0.312047
0.804547 0.974502 0.324163
0.819043 0.973816 0.339483
0.831617 0.973281 0.358602
0.840467 0.972915 0.389517
0.840452 0.972656 0.426368
0.840391 0.972595 0.465675
0.840284 0.972793 0.505959
0.840131 0.973251 0.545174
0.839918 0.973922 0.586023
0.839673 0.974807 0.625864
0.839414 0.975906 0.662974
0.649165 0.981765 0.372061
0.650263 0.981781 0.372122
0.651347 0.981796 0.372229
0.652399 0.981796 0.372305
0.653468 0.981811 0.372381
0.654566 0.981826 0.372473
0.655955 0.981826 0.37258
0.657786 0.981842 0.372717
0.660151 0.981872 0.3729
0.663188 0.981903 0.373175
0.667079 0.981933 0.37351
0.672007 0.981979 0.373938
0.678157 0.98204 0.374548
0.68571 0.982101 0.375326
0.694789 0.982193 0.376349
0.705425 0.982284 0.377707
0.717464 0.982406 0.379522
0.730571 0.982528 0.381888
0.744823 0.982666 0.384985
0.759945 0.982818 0.389044
0.775372 0.982574 0.394293
0.790402 0.981781 0.401007
0.80473 0.981048 0.409567
0.817639 0.980346 0.420356
0.829053 0.979767 0.433783
0.838636 0.979294 0.450278
0.839918 0.978882 0.47628
0.839857 0.978592 0.507439
0.839765 0.978485 0.540307
0.839628 0.978546 0.575982
0.83946 0.97879 0.611185
0.839261 0.979187 0.644724
0.839048 0.979767 0.675776
0.698695 0.982376 0.461799
0.699306 0.982376 0.461845
0.699901 0.982376 0.461906
0.700496 0.982391 0.461967
0.701091 0.982391 0.461997
0.701701 0.982391 0.462058
0.70248 0.982406 0.462135
0.703502 0.982406 0.462226
0.704829 0.982422 0.462364
