BBLuts/BB_106_0198_LUT.cube
TITLE "Generated by Resolve"
LUT_3D_SIZE 33
0.0551308 0.0569009 0.055848
0.0551308 0.0569009 0.055848
0.0551308 0.0569009 0.055848
0.0551308 0.0569009 0.055848
0.0551308 0.0569009 0.055848
0.057557 0.0569467 0.0563668
0.0665599 0.057084 0.0570993
0.0764935 0.0574197 0.0571756
0.090959 0.0585794 0.0571756
0.118868 0.0600443 0.057969
0.160784 0.0622263 0.059205
0.224491 0.061387 0.057435
0.324163 0.0562295 0.0558022
0.475563 0.0495766 0.0596323
0.612207 0.0493935 0.0950027
0.610971 0.0508278 0.238911
0.669322 0.0681468 0.360418
0.738552 0.0865492 0.463386
0.818357 0.070634 0.557366
0.852995 0.0586709 0.608179
0.851164 0.0662852 0.616342
0.851164 0.0662852 0.616342
0.851087 0.0666361 0.616724
0.851102 0.0665751 0.616648
0.90573 0.472862 0.637476
0.934371 0.607019 0.644953
0.977829 0.676875 0.622461
0.970184 0.761639 0.560861
0.955016 0.823301 0.547387
0.960494 0.859297 0.420371
0.966659 0.893965 0.459007
0.969665 0.925414 0.768399
0.975052 0.947601 0.857511
0.0551308 0.0569009 0.055848
0.0551308 0.0569009 0.055848
0.0551308 0.0569009 0.055848
0.0551308 0.0569009 0.055848
0.0551308 0.0569009 0.055848
0.0591592 0.0569772 0.0566567
0.0672618 0.0570993 0.0571145
0.077348 0.057435 0.0571908
0.0931868 0.058793 0.0571756
0.12282 0.0601358 0.0582589
0.166293 0.0622721 0.0590982
0.230396 0.0612192 0.0572213
0.329381 0.0558328 0.0559091
0.48043 0.049546 0.0596475
0.61326 0.0493935 0.0965591
0.610773 0.0508583 0.240986
0.66981 0.0683452 0.361349
0.738842 0.0865644 0.463813
0.818219 0.0706493 0.557244
0.85304 0.0584573 0.60795
0.851164 0.0662852 0.616342
0.851164 0.0662852 0.616342
0.851148 0.0663615 0.616419
0.853147 0.0808576 0.616693
0.907744 0.488807 0.638224
0.936828 0.6112 0.644648
0.978622 0.680293 0.62005
0.969558 0.764324 0.558648
0.954818 0.82417 0.545419
0.960632 0.860044 0.421607
0.966735 0.894392 0.459098
0.969757 0.925719 0.767773
0.975113 0.947784 0.857588
0.0551308 0.0569009 0.055848
0.0551308 0.0569009 0.055848
0.0551308 0.0569009 0.055848
0.0551308 0.0569009 0.055848
0.0551308 0.0569009 0.055848
0.0601053 0.0569772 0.0568093
0.0675059 0.0570993 0.0571145
0.0781872 0.0574807 0.0571908
0.095964 0.0589761 0.0572061
0.126421 0.0602121 0.0585184
0.170443 0.0622721 0.0590219
0.233845 0.0611124 0.0570687
0.333852 0.0555734 0.0560159
0.485206 0.0495003 0.0596628
0.614389 0.0493935 0.0982681
0.611002 0.0510109 0.242847
0.67042 0.0684825 0.362295
0.739132 0.0865949 0.46424
0.818082 0.0706645 0.557137
0.853117 0.0581674 0.607645
0.851164 0.0662852 0.616342
0.851164 0.0662852 0.616342
0.851255 0.065919 0.615961
0.85948 0.139071 0.616892
0.909453 0.502892 0.638773
0.939544 0.615076 0.644327
0.979309 0.683635 0.617624
0.968933 0.766873 0.556359
0.95462 0.825025 0.542947
0.960754 0.860807 0.422843
0.966827 0.89482 0.459174
0.969833 0.925933 0.766949
0.975143 0.94789 0.857572
0.0551308 0.0569009 0.055848
0.0551308 0.0569009 0.055848
0.0551308 0.0569009 0.055848
0.0551308 0.0569009 0.055848
0.0555734 0.0569162 0.0559854
0.0608377 0.0569924 0.0569467
0.067628 0.0570993 0.0571145
0.0782788 0.0574807 0.0571908
0.0964828 0.0590066 0.0572061
0.127977 0.0602579 0.0586252
0.173251 0.0622721 0.0589609
0.236973 0.0610208 0.0569314
0.338476 0.0552987 0.056199
0.490242 0.0494545 0.0596933
0.615488 0.0493935 0.0998398
0.611688 0.0514839 0.244633
0.670924 0.0686656 0.363241
0.73933 0.0866102 0.46453
0.817792 0.0706951 0.556893
0.853193 0.0578164 0.607263
0.851164 0.0662852 0.616342
0.851164 0.0662852 0.616342
0.85127 0.0658579 0.615885
0.868635 0.21416 0.61973
0.910704 0.515465 0.639261
0.94229 0.618967 0.643992
0.97995 0.687022 0.615167
0.968307 0.769421 0.55404
0.954437 0.826062 0.540322
0.960861 0.861448 0.423651
0.966888 0.89514 0.459236
0.969909 0.926146 0.766064
0.975174 0.947982 0.857542
0.0556191 0.0621653 0.057969
0.0557565 0.0627451 0.0582589
0.0558938 0.0632639 0.0585031
0.0560159 0.0637827 0.0587625
0.0560616 0.0639963 0.0588693
0.0614023 0.0641794 0.0598306
0.0671855 0.0645457 0.0595712
0.0779736 0.0641184 0.0584421
0.0964523 0.0624857 0.0573587
0.128573 0.0602579 0.0586709
0.174838 0.0622721 0.0589303
0.240101 0.060914 0.0567941
0.34258 0.0550851 0.0563363
0.494469 0.0494392 0.0599527
0.616663 0.0493935 0.101549
0.61236 0.0519112 0.246418
0.671427 0.0688334 0.364172
0.73962 0.0866407 0.464958
0.817655 0.0707103 0.556771
0.853269 0.0575265 0.606958
0.851164 0.0662852 0.616342
0.851194 0.0662089 0.616266
0.851286 0.0657816 0.615808
0.876417 0.269947 0.622141
0.911894 0.526925 0.639628
0.944976 0.622599 0.643488
0.980484 0.690242 0.612589
0.967697 0.771847 0.551629
0.954223 0.826917 0.536599
0.960998 0.862211 0.424613
0.966964 0.895567 0.459327
0.969985 0.92636 0.76524
0.97525 0.94818 0.857588
0.0570382 0.068574 0.0609445
0.057023 0.0694743 0.0610971
0.057023 0.0703136 0.0612497
0.057023 0.071046 0.061387
0.057023 0.0713664 0.0614481
0.0617075 0.0717021 0.0628061
0.0682689 0.0734569 0.0631418
0.0778058 0.0751659 0.0622721
0.0954757 0.0756085 0.0586557
0.136294 0.0767987 0.057847
0.188434 0.0709544 0.0577707
0.242695 0.0608377 0.056672
0.347005 0.0548257 0.0565194
0.498589 0.0494392 0.0604562
0.617929 0.0493935 0.10341
0.613108 0.0523384 0.248341
0.671946 0.0689403 0.364996
0.739818 0.086656 0.465232
0.81738 0.0707561 0.556542
0.853361 0.0571756 0.606561
0.851164 0.0662852 0.616342
0.851225 0.0660716 0.616114
0.851301 0.0657054 0.615732
0.883528 0.312398 0.624765
0.913771 0.538491 0.640421
0.947768 0.626368 0.642985
0.980987 0.693706 0.609918
0.967041 0.77438 0.549142
0.954009 0.827817 0.531945
0.961135 0.862959 0.425559
0.967041 0.895994 0.459419
0.970077 0.92668 0.764431
0.97528 0.948272 0.857557
0.0569619 0.0815595 0.0632639
0.0568856 0.0829328 0.0634012
0.0568093 0.0842908 0.0635233
0.0567636 0.085069 0.0635996
0.056733 0.0855573 0.0636454
0.0567178 0.0857557 0.0636759
0.0674601 0.0883497 0.0641184
0.0797589 0.0907912 0.0657816
0.0978866 0.0943008 0.0645457
0.140734 0.099794 0.0595712
0.200565 0.10045 0.0572366
0.273762 0.0906996 0.0530098
0.361288 0.0705119 0.0525216
0.50396 0.0494392 0.0612039
0.619532 0.0493935 0.106035
0.614023 0.0528267 0.250889
0.672587 0.0691844 0.366323
0.740108 0.0866712 0.46566
0.817105 0.0707713 0.556298
0.853452 0.056733 0.606104
0.851164 0.0662852 0.616342
0.85124 0.0659953 0.616037
0.851347 0.065568 0.615579
0.890013 0.355413 0.627695
0.916793 0.552499 0.641718
0.951354 0.631113 0.642023
0.980743 0.698589 0.606165
0.966217 0.777462 0.546456
0.95375 0.828443 0.523445
0.961288 0.863828 0.426642
0.967147 0.896513 0.459525
0.970184 0.927001 0.763226
0.975357 0.94847 0.857603
0.0550088 0.110094 0.0660563
0.0547951 0.11194 0.0662547
0.054612 0.113329 0.0664073
0.0545052 0.114244 0.0665141
0.0544289 0.11487 0.0665904
0.0543679 0.115328 0.0666361
0.056611 0.116442 0.0665141
0.0762951 0.120806 0.0689708
0.10544 0.126238 0.0722057
0.148608 0.134722 0.0671702
0.208194 0.138003 0.0624552
0.284566 0.136873 0.053727
0.37644 0.123796 0.0506142
0.500587 0.0800641 0.0498665
0.638086 0.0493935 0.0918135
0.61532 0.053315 0.254093
0.673518 0.0694133 0.367941
0.740475 0.0867933 0.466346
0.816709 0.0707561 0.555856
0.85362 0.0560922 0.605417
0.851209 0.0661479 0.61619
0.851255 0.065919 0.615961
0.851377 0.0654154 0.615427
0.896757 0.403479 0.630274
0.92047 0.568734 0.643076
0.956115 0.637171 0.640177
0.980316 0.704814 0.601068
0.965087 0.781384 0.542779
0.95317 0.829221 0.503166
0.961486 0.865019 0.428138
0.967269 0.897154 0.459648
0.970306 0.927321 0.761532
0.975433 0.948669 0.857557
0.0499733 0.169406 0.0705882
0.0499275 0.171344 0.070634
0.049897 0.172396 0.0706493
0.0498665 0.173465 0.0706798
0.049836 0.174334 0.0706951
0.0498207 0.174868 0.0707103
0.0498207 0.175051 0.0707103
0.0538643 0.178317 0.0701152
0.0975967 0.180011 0.074403
0.155032 0.183948 0.0785992
0.217624 0.190387 0.0694896
0.293004 0.190753 0.0620279
0.378286 0.18471 0.0524758
0.488945 0.165927 0.0493935
0.631037 0.0764935 0.0610971
0.641657 0.0717784 0.240574
0.675517 0.0735637 0.367041
0.740963 0.0868238 0.467048
0.815839 0.0708934 0.55523
0.853895 0.0549477 0.604181
0.85124 0.0659953 0.616037
0.851301 0.0657054 0.615732
0.860883 0.149218 0.616129
0.904219 0.456046 0.634363
0.924483 0.585107 0.64361
0.962264 0.644724 0.6374
0.979599 0.712917 0.594461
0.963516 0.786374 0.537728
0.953811 0.829145 0.436362
0.961776 0.866636 0.430167
0.967437 0.898009 0.459815
0.970504 0.927962 0.759319
0.97554 0.948959 0.857527
0.0493935 0.250172 0.0751354
0.0493935 0.250889 0.0751507
0.0493935 0.251423 0.0751507
0.0493935 0.251774 0.0751507
0.0493935 0.25214 0.0751507
0.0493935 0.25214 0.0751507
0.0493935 0.25214 0.0751507
0.0493935 0.251606 0.0751507
0.0508736 0.252842 0.0742504
0.145724 0.248783 0.0899977
0.217487 0.252125 0.0836957
0.294118 0.2533 0.0715953
0.378164 0.250385 0.0635233
0.47068 0.243 0.0516976
0.59646 0.208087 0.0505837
0.696071 0.104067 0.218769
0.687419 0.147234 0.366354
0.742016 0.0965438 0.465766
0.815198 0.0709239 0.553536
0.854337 0.0540627 0.602655
0.851286 0.0657816 0.615808
0.851377 0.0654154 0.615427
0.885634 0.323415 0.625162
0.910094 0.506172 0.636805
0.931487 0.599817 0.643137
0.969162 0.654871 0.632212
0.978347 0.723293 0.585458
0.961379 0.792447 0.533242
0.955444 0.829908 0.370871
0.962142 0.868681 0.432761
0.967651 0.899168 0.46006
0.970733 0.928603 0.756024
0.975692 0.94934 0.857527
0.0493935 0.323186 0.0749676
0.0493935 0.323659 0.0749676
0.0493935 0.324285 0.0749676
0.0493935 0.324605 0.0749523
0.0493935 0.32491 0.0749523
0.0493935 0.325063 0.0749523
0.0493935 0.325063 0.0749523
0.0493935 0.32491 0.0749523
0.0493935 0.324437 0.0749523
0.0601663 0.321157 0.0781415
0.2094 0.311131 0.111925
0.282048 0.318151 0.0863355
0.371267 0.315694 0.0728161
0.468635 0.310872 0.0627909
0.568765 0.305577 0.0537728
0.714656 0.226459 0.158648
0.711818 0.248707 0.363043
0.755306 0.208545 0.469062
0.813153 0.0948806 0.549783
0.854276 0.0545357 0.600351
0.851377 0.0654154 0.615427
0.873869 0.248432 0.620432
0.901564 0.436728 0.632761
0.917357 0.552987 0.639902
0.942336 0.616861 0.641306
0.976272 0.668132 0.624155
0.975372 0.736706 0.572961
0.958587 0.799695 0.529366
0.956191 0.834134 0.378729
0.962585 0.871275 0.436011
0.967941 0.900664 0.460349
0.970993 0.929213 0.751705
0.975875 0.949828 0.857496
0.0493935 0.395132 0.078172
0.0493935 0.39556 0.078172
0.0493935 0.395987 0.078172
0.0493935 0.396277 0.078172
0.0493935 0.396414 0.078172
0.0493935 0.396704 0.078172
0.0493935 0.396841 0.078172
0.0493935 0.396841 0.078172
0.0493935 0.396704 0.078172
0.0493935 0.395697 0.0779736
0.119249 0.387106 0.0944533
0.271717 0.378927 0.128527
0.35433 0.386755 0.085832
0.461585 0.385321 0.074052
0.561364 0.379522 0.0622873
0.664622 0.371466 0.0946212
0.766354 0.320272 0.329854
0.771878 0.34342 0.470558
0.828061 0.315847 0.554635
0.877546 0.267338 0.603204
0.883741 0.311604 0.624048
0.900252 0.427451 0.631983
0.911849 0.523507 0.63743
0.927886 0.592248 0.641886
0.957671 0.636042 0.636088
0.980209 0.687129 0.610834
0.97116 0.752926 0.556069
0.955428 0.807691 0.523201
0.957107 0.83949 0.387701
0.963149 0.874525 0.440085
0.968307 0.902571 0.460746
0.971344 0.929946 0.7449
0.976135 0.950515 0.857481
0.0493935 0.476234 0.0798962
0.0493935 0.476677 0.0799115
0.0493935 0.476967 0.0799115
0.0493935 0.477256 0.0799268
0.0493935 0.477546 0.0799268
0.0493935 0.477699 0.0799268
0.0493935 0.477836 0.0799268
0.0493935 0.477989 0.079942
0.0493935 0.478279 0.079942
0.0493935 0.478279 0.079942
0.0493935 0.47657 0.0800641
0.206394 0.461418 0.127382
0.342931 0.460243 0.147585
0.441947 0.470008 0.084947
0.555444 0.466835 0.0770886
0.63209 0.467231 0.086717
0.762814 0.446189 0.237476
0.81651 0.438285 0.447929
0.84303 0.458732 0.555901
0.896178 0.46215 0.60763
0.908003 0.487663 0.635981
0.914168 0.538582 0.638483
0.925948 0.587701 0.641825
0.946929 0.622263 0.639582
0.973388 0.660029 0.624475
0.979507 0.712459 0.590402
0.966445 0.77174 0.538903
0.952575 0.816175 0.507134
0.958221 0.846021 0.398444
0.963882 0.87863 0.445274
0.96878 0.905013 0.461234
0.971847 0.930877 0.733303
0.97644 0.951308 0.857343
0.0493935 0.562432 0.0808118
0.0493935 0.562661 0.080827
0.0493935 0.562905 0.0808423
0.0493935 0.563027 0.0808423
0.0493935 0.563256 0.0808423
0.0493935 0.563378 0.0808576
0.0493935 0.5635 0.0808576
0.0493935 0.563622 0.0808576
0.0493935 0.563729 0.0808728
0.0493935 0.563851 0.0808728
0.0493935 0.563622 0.0808576
0.0493935 0.561364 0.0806287
0.30454 0.542794 0.172976
0.431815 0.547311 0.164141
0.542382 0.557122 0.0926375
0.62826 0.557534 0.0896773
0.70248 0.565957 0.19791
0.839567 0.545892 0.358312
0.88716 0.546883 0.533608
0.913222 0.566979 0.604227
0.925231 0.585412 0.641779
0.934798 0.604547 0.641337
0.950835 0.627344 0.638727
0.970748 0.654841 0.627497
0.981079 0.692988 0.601236
0.972992 0.743786 0.559396
0.959915 0.792111 0.521279
0.953704 0.820096 0.352255
0.959579 0.853941 0.411521
0.964767 0.883696 0.451774
0.969375 0.90808 0.461845
0.972686 0.931716 0.708034
0.976867 0.952392 0.857206
0.0493935 0.6271 0.100801
0.0493935 0.627192 0.100847
0.0493935 0.627375 0.100938
0.0493935 0.627375 0.100938
0.0493935 0.627466 0.100969
0.0493935 0.627558 0.101015
0.0493935 0.627558 0.101015
0.0493935 0.627649 0.101061
0.0493935 0.627649 0.101061
0.0493935 0.627649 0.101061
0.0493935 0.627466 0.100969
0.0493935 0.627008 0.100755
0.049424 0.622934 0.110918
0.430457 0.610788 0.227115
0.539147 0.618067 0.18854
0.62153 0.623804 0.128603
0.695262 0.624201 0.134142
0.774075 0.636164 0.304189
0.891478 0.623621 0.425879
0.950103 0.621958 0.568078
0.96286 0.635584 0.625391
0.968246 0.650156 0.630152
0.977539 0.669657 0.618341
0.980789 0.698772 0.596735
0.974258 0.737011 0.560983
0.964034 0.777249 0.525429
0.952544 0.810636 0.500938
0.956115 0.833707 0.377997
0.961196 0.863279 0.425971
0.96582 0.889616 0.458122
0.970108 0.91191 0.462623
0.972747 0.932235 0.59443
0.977417 0.953765 0.856962
0.0493935 0.688853 0.150317
0.0493935 0.688945 0.150423
0.0493935 0.688945 0.150423
0.0494087 0.689036 0.150515
0.0494087 0.689036 0.150515
0.0494087 0.689036 0.150515
0.0494087 0.689036 0.150515
0.0494087 0.689036 0.150515
0.0493935 0.688945 0.150423
0.0493935 0.688853 0.150317
0.0493935 0.688579 0.149996
0.0493935 0.688136 0.149477
0.0493935 0.687327 0.148623
0.324376 0.677745 0.209934
0.556802 0.670451 0.291279
0.62237 0.680461 0.231678
0.692332 0.684779 0.192355
0.765682 0.685252 0.202625
0.835309 0.695308 0.35433
0.920745 0.698131 0.443763
0.978729 0.697444 0.554116
0.979751 0.709316 0.588495
0.976135 0.729519 0.568292
0.969635 0.754528 0.541848
0.962051 0.781659 0.516396
0.95259 0.805997 0.494392
0.954284 0.823362 0.358465
0.958755 0.849119 0.403571
0.963073 0.874083 0.439536
0.967147 0.896513 0.459525
0.970993 0.916426 0.461967
0.974762 0.933883 0.431922
0.978134 0.95555 0.856565
0.156786 0.752239 0.2215
0.156786 0.752239 0.2215
0.156786 0.752239 0.2215
0.156786 0.752239 0.2215
0.156268 0.752132 0.221408
0.156268 0.752132 0.221408
0.155764 0.752041 0.221302
0.155245 0.751934 0.221195
0.154742 0.751827 0.221088
0.153201 0.751537 0.220768
0.151156 0.751125 0.22034
0.148089 0.750515 0.219699
0.142473 0.749416 0.218524
0.135317 0.747997 0.217044
0.542794 0.730709 0.33077
0.636881 0.732708 0.363943
0.694209 0.742397 0.297429
0.763653 0.746334 0.270298
0.831357 0.748775 0.280812
0.885023 0.753628 0.2813
0.933211 0.769177 0.431632
0.961944 0.777508 0.507057
0.959335 0.789014 0.508995
0.953918 0.801648 0.498161
0.951141 0.809903 0.353597
0.954772 0.826108 0.363668
0.958129 0.845487 0.397559
0.961639 0.865873 0.429221
0.965164 0.885969 0.454688
0.968673 0.904479 0.461128
0.972122 0.921675 0.452842
0.975494 0.937316 0.426093
0.978973 0.957626 0.855695
0.340322 0.815015 0.294408
0.340047 0.814893 0.29427
0.339773 0.814771 0.294118
0.339498 0.814649 0.29398
0.339498 0.814649 0.29398
0.339223 0.814527 0.293843
0.338674 0.814282 0.293568
0.338399 0.814176 0.293431
0.337575 0.813809 0.293019
0.336477 0.813336 0.29247
0.335103 0.812726 0.291783
0.332631 0.811658 0.290532
0.329335 0.810208 0.288869
0.324941 0.808011 0.286656
0.320684 0.805463 0.28368
0.650706 0.788922 0.439017
0.714305 0.792966 0.437415
0.768322 0.800793 0.367147
0.830396 0.80444 0.347906
0.881865 0.807355 0.358175
0.92343 0.810971 0.360037
0.953185 0.817151 0.346624
0.954208 0.82295 0.357656
0.955642 0.831067 0.373068
0.957458 0.84152 0.391028
0.959564 0.853834 0.411353
0.96202 0.86804 0.431937
0.964675 0.883162 0.451087
0.967498 0.898329 0.459892
0.970382 0.91339 0.462928
0.973449 0.927825 0.442222
0.976394 0.941451 0.419059
0.980133 0.959762 0.85417
0.452491 0.865034 0.35993
0.452216 0.864912 0.359792
0.451942 0.86479 0.359655
0.451682 0.864668 0.359503
0.451148 0.864439 0.359228
0.450874 0.864317 0.359075
0.450324 0.864073 0.358801
0.44979 0.863844 0.358511
0.448722 0.863355 0.357946
0.447379 0.86276 0.357229
0.445502 0.861921 0.356237
0.443107 0.860853 0.354955
0.439658 0.859297 0.353094
0.435447 0.857374 0.350805
0.429908 0.854871 0.347814
0.650568 0.841917 0.455131
0.738415 0.839582 0.521737
0.787518 0.843763 0.496803
0.835142 0.849653 0.432212
0.880796 0.852018 0.415549
0.920378 0.853971 0.42121
0.951003 0.856825 0.419593
0.960662 0.860258 0.421958
0.961532 0.865232 0.428412
0.962676 0.871824 0.436698
0.964126 0.880034 0.447074
0.965805 0.889509 0.458106
0.967773 0.899809 0.460182
0.969955 0.911162 0.46247
0.972412 0.922988 0.450568
0.974929 0.934691 0.430549
0.97818 0.946075 0.438285
0.98146 0.962188 0.850752
0.53669 0.906264 0.410269
0.536431 0.906157 0.410208
0.535927 0.905943 0.410101
0.5355 0.905699 0.409796
0.535286 0.905577 0.409659
0.534844 0.905333 0.409369
0.534417 0.905104 0.409064
0.533761 0.904738 0.408621
0.532906 0.904265 0.408042
0.531807 0.90367 0.407309
0.530068 0.902708 0.406134
0.528084 0.901625 0.404807
0.5252 0.900084 0.402899
0.521401 0.898039 0.400397
0.51664 0.895537 0.397314
0.644633 0.88571 0.446006
0.763149 0.878538 0.557275
0.811399 0.878447 0.571542
0.847105 0.883101 0.53785
0.884184 0.886931 0.487175
0.91873 0.88893 0.468849
0.947463 0.889982 0.464759
0.966293 0.892058 0.458625
0.96672 0.894286 0.459068
0.967407 0.897902 0.4598
0.968322 0.902678 0.460761
0.969497 0.908721 0.461982
0.970901 0.91603 0.462669
0.972641 0.924102 0.448646
0.974548 0.932876 0.433631
0.976654 0.942138 0.421927
0.980179 0.951293 0.460319
0.983047 0.964477 0.841581
0.593225 0.934401 0.42742
0.592752 0.934188 0.425361
0.592416 0.933959 0.425238
0.592248 0.933852 0.425177
0.591913 0.933623 0.425055
0.591577 0.93341 0.424933
0.591241 0.933181 0.424826
0.59057 0.932754 0.424582
0.589899 0.932311 0.424338
0.589044 0.931746 0.424048
0.587671 0.930877 0.42356
0.586069 0.929885 0.423026
0.583642 0.92845 0.422263
0.580423 0.92668 0.421302
0.575769 0.924361 0.42005
0.675517 0.91545 0.462272
0.788617 0.908476 0.57351
0.833417 0.906905 0.597452
0.863691 0.908934 0.590402
0.891936 0.912627 0.548287
0.920333 0.914931 0.519188
0.946044 0.916335 0.494179
0.968582 0.917037 0.464317
0.971298 0.917845 0.459525
0.971664 0.919554 0.456535
0.972274 0.922377 0.451621
0.973083 0.926116 0.445167
0.974105 0.930861 0.437064
0.975326 0.936507 0.427466
0.976928 0.942824 0.424796
0.979538 0.949615 0.453208
0.982376 0.956985 0.484001
0.984771 0.968673 0.843397
0.642786 0.955352 0.59443
0.642267 0.955123 0.593332
0.642008 0.955016 0.592782
0.641489 0.954803 0.591684
0.64097 0.954589 0.590585
0.640452 0.954376 0.589471
0.639933 0.954147 0.588342
0.63917 0.953826 0.586603
0.638132 0.953399 0.584176
0.636576 0.952743 0.580209
0.634775 0.95198 0.575082
0.632441 0.951003 0.568322
0.629343 0.949706 0.559091
0.625208 0.947967 0.546395
0.620295 0.945907 0.530678
0.737057 0.937179 0.543969
0.817456 0.931945 0.600244
0.85417 0.929793 0.614282
0.880415 0.930297 0.604959
0.902586 0.932525 0.555886
0.925704 0.934539 0.583551
0.947631 0.936248 0.572045
0.967163 0.93695 0.478157
0.975479 0.937209 0.426261
0.975616 0.937819 0.425238
0.975921 0.939239 0.422827
0.976394 0.941451 0.419059
0.977493 0.944305 0.43093
0.978897 0.947936 0.446113
0.98056 0.95227 0.4645
0.982528 0.957382 0.485557
0.98471 0.963088 0.507118
0.985489 0.970428 0.845106
0.658549 0.961959 0.630564
0.658549 0.961959 0.630564
0.658549 0.961959 0.630564
0.658549 0.961959 0.630564
0.658549 0.961959 0.630564
0.658549 0.961959 0.630564
0.658549 0.961959 0.630564
0.658549 0.961959 0.630564
0.658549 0.961959 0.630564
0.658549 0.961959 0.630564
0.658549 0.961959 0.630564
0.658549 0.961959 0.630564
0.658549 0.961959 0.630564
0.658549 0.961959 0.630564
0.675135 0.960449 0.6121
0.798108 0.954177 0.626886
0.844266 0.950912 0.646616
0.872694 0.94934 0.649912
0.895842 0.94902 0.636728
0.915297 0.949996 0.589426
0.934432 0.951217 0.640742
0.952773 0.952697 0.689952
0.96878 0.953079 0.592172
0.980789 0.952865 0.466987
0.980713 0.952667 0.466163
0.980896 0.953155 0.468238
0.981308 0.954238 0.47277
0.981994 0.956008 0.480049
0.982895 0.958373 0.489387
0.984039 0.961318 0.500572
0.985428 0.96495 0.513893
0.986084 0.966628 0.519844
0.985504 0.970443 0.847654
0.658549 0.961959 0.630564
0.658549 0.961959 0.630564
0.658549 0.961959 0.630564
0.658549 0.961959 0.630564
0.658549 0.961959 0.630564
0.658549 0.961959 0.630564
0.658549 0.961959 0.630564
0.658549 0.961959 0.630564
0.658549 0.961959 0.630564
0.658549 0.961959 0.630564
0.658549 0.961959 0.630564
0.658549 0.961959 0.630564
0.658549 0.961959 0.630564
0.710567 0.959381 0.607553
0.792676 0.956283 0.628138
0.835279 0.955856 0.649805
0.86302 0.955337 0.659983
0.885542 0.956252 0.661234
0.906523 0.958144 0.647486
0.924498 0.96025 0.607675
0.941863 0.96257 0.682109
0.958343 0.965194 0.788998
0.971511 0.96643 0.69424
0.984451 0.965545 0.534997
0.985473 0.965057 0.514244
0.985428 0.96495 0.513893
0.985626 0.965454 0.515648
0.985962 0.966339 0.518791
0.986084 0.966628 0.519844
0.986084 0.966628 0.519844
0.986084 0.966628 0.519844
0.986084 0.966628 0.519844
0.985473 0.971038 0.854826
0.658549 0.961959 0.630564
0.658549 0.961959 0.630564
0.658549 0.961959 0.630564
0.658549 0.961959 0.630564
0.658549 0.961959 0.630564
0.658549 0.961959 0.630564
0.658549 0.961959 0.630564
0.658549 0.961959 0.630564
0.658549 0.961959 0.630564
0.658549 0.961959 0.630564
0.714748 0.959075 0.607385
0.75996 0.957107 0.615625
0.793576 0.956237 0.62858
0.820935 0.955932 0.642603
0.842756 0.955459 0.653315
0.861891 0.955291 0.659709
0.879438 0.956008 0.661906
0.89662 0.956664 0.657908
0.912917 0.958968 0.634333
0.927733 0.960647 0.612284
0.943175 0.962783 0.69688
0.9579 0.965118 0.791394
0.969802 0.966751 0.71667
0.982238 0.966659 0.577585
0.986084 0.966628 0.519844
0.986084 0.966628 0.519844
0.986084 0.966628 0.519844
0.986084 0.966628 0.519844
0.986084 0.966628 0.519844
0.986084 0.966628 0.519844
0.986084 0.966628 0.519844
0.986084 0.966628 0.519844
0.985321 0.972442 0.866102
0.803052 0.955825 0.633097
0.805951 0.95584 0.634668
0.808606 0.955856 0.636118
0.811475 0.955871 0.637552
0.814023 0.955886 0.638926
0.816495 0.955901 0.640284
0.819516 0.955932 0.641871
0.823285 0.955947 0.643793
0.827909 0.955978 0.646159
0.833326 0.955947 0.64889
0.8392 0.955642 0.651637
0.846143 0.955306 0.654795
0.854322 0.9552 0.657526
0.86363 0.955367 0.660121
0.873762 0.955795 0.661952
0.884199 0.956191 0.661631
0.896254 0.956649 0.658061
0.908537 0.95845 0.64538
0.920287 0.959762 0.611795
0.932586 0.961257 0.619196
0.946197 0.963241 0.730846
0.958679 0.96524 0.787213
0.969162 0.966751 0.723812
0.980529 0.966674 0.596857
0.986084 0.966628 0.519844
0.986084 0.966628 0.519844
0.986084 0.966628 0.519844
0.986084 0.966628 0.519844
0.986084 0.966628 0.519844
0.986084 0.966628 0.519844
0.986084 0.966628 0.519844
0.986084 0.966628 0.519844
0.985153 0.972503 0.876722
0.868376 0.955566 0.661234
0.869139 0.955612 0.661418
0.869963 0.955642 0.661616
0.87068 0.955673 0.661784
0.871443 0.955703 0.661967
0.872145 0.955734 0.661967
0.87303 0.955764 0.661967
0.874189 0.95581 0.661952
0.875715 0.955871 0.661936
0.877623 0.955947 0.661921
0.880034 0.956039 0.661906
0.883055 0.956161 0.661875
0.887083 0.956298 0.660777
0.892088 0.956481 0.659297
0.897963 0.956863 0.656504
0.904677 0.95787 0.649424
0.912123 0.958892 0.63679
0.919936 0.959731 0.612879
0.928954 0.960815 0.614038
