BBLuts/BB_103_0640_LUT.cube
TITLE "Generated by Resolve"
LUT_3D_SIZE 33
0 0 0
0 0 0
0 0 0
0 0 0
0.0295872 0 0
0.0747539 0 0
0.112078 0 0
0.155245 0 0
0.205753 0 0
0.263111 0 0
0.326375 0 0
0.399023 0 0
0.481498 0 0
0.571527 0 0
0.660426 0 0
0.745007 0 0
0.818982 0 0
0.876722 0 0
0.893523 0 0
0.896727 0 0
0.892287 0.039353 0
0.883635 0.196582 0
0.876371 0.328054 0.0173495
0.869932 0.429999 0.0432593
0.864118 0.520577 0.0789197
0.858549 0.604791 0.123537
0.853559 0.677882 0.178027
0.849348 0.738842 0.241947
0.845869 0.78761 0.311452
0.842939 0.827039 0.382467
0.840528 0.857847 0.452964
0.838514 0.88191 0.522805
0.836805 0.901335 0.584009
0 0 0
0 0 0
0 0 0
0 0 0
0.0330968 0 0
0.0758984 0 0
0.115923 0 0
0.160433 0 0
0.210575 0 0
0.2663 0 0
0.328634 0 0
0.400916 0 0
0.48307 0 0
0.57261 0 0
0.661051 0 0
0.745296 0 0
0.81886 0 0
0.87631 0 0
0.8934 0 0
0.896727 0 0
0.891249 0.05243 0
0.88159 0.221424 0
0.875349 0.341299 0.0132906
0.869276 0.438697 0.0408331
0.86363 0.52694 0.0765698
0.858183 0.609354 0.121813
0.853315 0.680964 0.176898
0.849195 0.740795 0.24126
0.845792 0.788815 0.311025
0.842893 0.827802 0.382208
0.840497 0.858305 0.452781
0.838499 0.882216 0.522683
0.836789 0.901534 0.583932
0 0 0
0 0 0
0 0 0
0 0 0
0.0327916 0 0
0.0734112 0 0
0.115694 0 0
0.161898 0 0
0.213031 0 0
0.268727 0 0
0.330861 0 0
0.402899 0 0
0.484718 0 0
0.573709 0 0
0.661692 0 0
0.745541 0 0
0.818723 0 0
0.875883 0 0
0.893263 0 0
0.896635 0 0
0.890455 0.0654612 0
0.880186 0.243305 0
0.874342 0.353796 0.00883497
0.868635 0.447135 0.0383764
0.863157 0.533135 0.0741894
0.857847 0.613809 0.120134
0.853086 0.684016 0.175784
0.849058 0.742718 0.240574
0.845701 0.790005 0.310597
0.842832 0.82855 0.381933
0.840452 0.858763 0.452598
0.838468 0.882506 0.52256
0.836774 0.901717 0.583856
0 0.0101015 0
0 0.0130465 0
0 0.0154879 0
0 0.0159304 0
0.0201572 0.0129397 0
0.0642557 0.00866712 0
0.109743 0 0
0.159548 0 0
0.213809 0 0
0.270527 0 0
0.333089 0 0
0.404974 0 0
0.486458 0 0
0.574884 0 0
0.662348 0 0
0.7458 0 0
0.818586 0 0
0.875425 0 0
0.893126 0 0
0.895262 0 0
0.888457 0.0990616 0
0.878889 0.262943 0
0.87332 0.365713 0.0037995
0.867994 0.45539 0.0358129
0.862669 0.539239 0.0717479
0.857496 0.618189 0.118425
0.852857 0.687007 0.174685
0.84892 0.744625 0.239887
0.845609 0.791196 0.31017
0.842771 0.829297 0.381659
0.840421 0.859205 0.452415
0.838437 0.882811 0.522423
0.836759 0.901915 0.583764
0 0.0442817 0
0 0.0466316 0
0 0.0481575 0
0 0.0487068 0
0 0.047715 0
0.0539254 0.0453498 0
0.102419 0.0418097 0
0.154238 0.0350958 0
0.210239 0.0217746 0
0.269841 0 0
0.334325 0 0
0.407111 0 0
0.488472 0 0
0.576211 0 0
0.663081 0 0
0.746059 0 0
0.818387 0 0
0.874891 0 0
0.892958 0 0
0.892241 0.0360876 0
0.884688 0.162966 0
0.877562 0.282445 0
0.872053 0.378012 0
0.867308 0.46424 0.0328832
0.86215 0.545815 0.0690013
0.85713 0.622919 0.116518
0.852613 0.690242 0.173465
0.848753 0.7467 0.239124
0.845518 0.792493 0.309697
0.842725 0.830106 0.381353
0.840391 0.859693 0.452216
0.838422 0.883131 0.522286
0.836744 0.902144 0.583673
0 0.0818036 0
0 0.0835737 0
0 0.084535 0
0 0.0850843 0
0 0.0850233 0
0.0331884 0.0830396 0
0.0913558 0.0809644 0
0.14699 0.0773938 0
0.205219 0.0707866 0
0.266011 0.0595712 0
0.332326 0.038819 0
0.407965 0 0
0.489952 0 0
0.57792 0 0
0.664073 0 0
0.746426 0 0
0.818112 0 0
0.874144 0 0
0.89163 0 0
0.889601 0.0798657 0
0.882124 0.205921 0
0.875898 0.305638 0
0.870451 0.392889 0
0.866407 0.475517 0.0288548
0.861494 0.554284 0.0656748
0.856641 0.628992 0.114107
0.852293 0.694423 0.171847
0.848554 0.749386 0.238132
0.845396 0.794186 0.309071
0.842634 0.831174 0.380972
0.840345 0.860349 0.451957
0.838392 0.883558 0.522103
0.836728 0.902434 0.583566
0 0.125002 0
0 0.12607 0
0 0.126894 0
0 0.127382 0
0 0.127581 0
0 0.126833 0
0.06981 0.124666 0
0.133944 0.122103 0
0.196353 0.117586 0
0.261067 0.110628 0
0.330068 0.100343 0
0.405615 0.0834058 0
0.488701 0.0486305 0
0.577646 0.00393683 0
0.663539 0 0
0.746822 0 0
0.817716 0 0
0.871321 0 0
0.886778 0.0543984 0
0.885328 0.152132 0
0.879438 0.249348 0
0.87393 0.333547 0
0.868772 0.411963 0
0.865232 0.489967 0.0230869
0.860624 0.56524 0.062211
0.856031 0.636912 0.111147
0.851881 0.69987 0.16968
0.848295 0.752895 0.236805
0.845228 0.796414 0.308232
0.842542 0.832593 0.380438
0.840284 0.861204 0.451591
0.838346 0.884138 0.521843
0.836698 0.9028 0.583398
0 0.174838 0
0 0.175448 0
0 0.175998 0
0 0.176318 0
0 0.176501 0
0 0.176333 0
0.0181277 0.174365 0
0.109545 0.171664 0
0.180636 0.168414 0
0.251484 0.163699 0
0.325719 0.156802 0
0.4047 0.146639 0
0.487434 0.132769 0
0.573831 0.113283 0
0.65951 0.084535 0
0.742855 0.0361181 0
0.812528 0.0350195 0
0.863661 0.0908827 0
0.880262 0.15613 0
0.880949 0.225299 0
0.876463 0.295689 0
0.871672 0.36672 0
0.867033 0.436103 0
0.863676 0.508186 0.014374
0.859525 0.579339 0.0577096
0.855238 0.647105 0.107256
0.851347 0.706874 0.166781
0.847959 0.757458 0.235035
0.845014 0.799344 0.307134
0.842405 0.834455 0.379721
0.840192 0.862364 0.451118
0.8383 0.884901 0.521508
0.836667 0.903304 0.583185
0 0.23035 0
0 0.230762 0
0 0.231067 0
0 0.231235 0
0 0.231312 0
0 0.231205 0
0 0.230594 0
0.0460059 0.227863 0
0.153979 0.22536 0
0.234348 0.222171 0
0.315847 0.217304 0
0.40116 0.210269 0
0.486809 0.201862 0
0.572732 0.192309 0
0.65597 0.182544 0
0.735119 0.175265 0
0.802747 0.179843 0
0.854551 0.204288 0
0.874327 0.242435 0
0.876783 0.29073 0
0.873091 0.345876 0
0.869017 0.404562 0
0.864866 0.46566 0
0.861448 0.530602 0
0.858106 0.597208 0.0510109
0.854215 0.660029 0.102007
0.850675 0.715755 0.162921
0.847517 0.763302 0.232685
0.844739 0.803143 0.305638
0.842222 0.836896 0.378775
0.840085 0.863874 0.450462
0.838224 0.885924 0.521065
0.836606 0.903975 0.582879
0 0.292958 0
0 0.293324 0
0 0.293599 0
0 0.293812 0
0 0.29395 0
0 0.294011 0
0 0.293889 0
0 0.292973 0
0.0969863 0.290105 0
0.20441 0.287984 0
0.297017 0.284886 0
0.391226 0.28043 0
0.482246 0.275074 0
0.570642 0.269749 0
0.653269 0.265873 0
0.730159 0.265232 0
0.795239 0.272709 0
0.845548 0.292012 0
0.868238 0.320211 0
0.872358 0.356771 0
0.869352 0.399756 0
0.86595 0.44802 0
0.862242 0.500969 0
0.858457 0.557794 0
0.856306 0.619074 0.041474
0.852979 0.676005 0.0966354
0.849836 0.726772 0.158724
0.846967 0.770672 0.229603
0.844373 0.808011 0.30367
0.841993 0.84004 0.377508
0.839948 0.865858 0.449607
0.838132 0.887251 0.52047
0.836545 0.90486 0.582498
0 0.36672 0
0 0.367025 0
0 0.367285 0
0 0.367498 0
0 0.367666 0
0 0.367803 0
0 0.367864 0
0 0.367773 0
0.00665293 0.366339 0
0.144915 0.36437 0
0.263905 0.362737 0
0.370062 0.360113 0
0.46923 0.35668 0
0.563226 0.353307 0
0.648402 0.351476 0
0.724132 0.35285 0
0.786664 0.36025 0
0.835142 0.37554 0
0.86157 0.396307 0
0.867658 0.423667 0
0.865263 0.457649 0
0.862425 0.497627 0
0.859205 0.542229 0
0.855695 0.591363 0
0.85417 0.645075 0.0317388
0.851499 0.695201 0.0915847
0.848814 0.740139 0.154376
0.846296 0.779767 0.225605
0.843915 0.814176 0.301045
0.841703 0.844068 0.375845
0.83975 0.868437 0.448447
0.837995 0.888991 0.519646
0.836469 0.90602 0.581964
0 0.448814 0
0 0.449058 0
0 0.449271 0
0 0.449439 0
0 0.449607 0
0 0.44976 0
0 0.449897 0
0 0.449973 0
0 0.449851 0
0.0438392 0.447715 0
0.205966 0.446097 0
0.33547 0.444327 0
0.44593 0.441886 0
0.547677 0.439231 0
0.638514 0.437491 0
0.715724 0.438407 0
0.776577 0.444129 0
0.823224 0.455741 0
0.854383 0.471931 0
0.86273 0.49337 0
0.860807 0.520211 0
0.858473 0.552361 0
0.855787 0.589242 0
0.852827 0.630152 0
0.851698 0.674922 0.0208286
0.84979 0.717388 0.085832
0.847639 0.755856 0.150744
0.845487 0.790707 0.221744
0.843366 0.821759 0.297642
0.841337 0.849058 0.373632
0.839521 0.871733 0.446891
0.837842 0.891234 0.518563
0.836362 0.907515 0.581262
0 0.536355 0
0 0.536522 0
0 0.536645 0
0 0.536751 0
0 0.536843 0
0 0.536919 0
0 0.536995 0
0 0.536995 0
0 0.536858 0
0 0.53637 0
0.100023 0.533288 0
0.283833 0.531502 0
0.412161 0.529503 0
0.522957 0.527169 0
0.621302 0.52517 0
0.702235 0.525063 0
0.763592 0.528862 0
0.809094 0.537377 0
0.842069 0.549569 0
0.854963 0.565942 0
0.85597 0.58677 0
0.854124 0.611917 0
0.852003 0.640635 0
0.849699 0.672541 0
0.848859 0.707683 0.00698863
0.847898 0.742153 0.0792248
0.846296 0.773953 0.149264
0.844511 0.803723 0.219104
0.84268 0.830915 0.293248
0.840879 0.855207 0.370733
0.839216 0.875914 0.444862
0.837629 0.894118 0.517128
0.836225 0.909438 0.580331
0 0.624872 0
0 0.624949 0
0 0.624994 0
0 0.625025 0
0 0.62504 0
0 0.62504 0
0 0.624994 0
0 0.624903 0
0 0.624659 0
0 0.624155 0
0 0.622675 0
0.195148 0.619181 0
0.366613 0.617365 0
0.489403 0.615305 0
0.595636 0.61323 0
0.681376 0.612314 0
0.745129 0.614237 0
0.791485 0.619806 0
0.824475 0.628382 0
0.844526 0.640162 0
0.85095 0.654994 0
0.849638 0.672816 0
0.848127 0.693339 0
0.846479 0.716274 0
0.845487 0.741588 0
0.845853 0.768658 0.0717327
0.844831 0.794171 0.149279
0.843412 0.818753 0.219425
0.841901 0.841657 0.291417
0.840345 0.862562 0.366934
0.838849 0.881117 0.442115
0.837369 0.897734 0.515175
0.836042 0.911925 0.579065
0 0.708736 0
0 0.708721 0
0 0.708705 0
0 0.708659 0
0 0.708598 0
0 0.708537 0
0 0.708385 0
0 0.708156 0
0 0.707744 0
0 0.707057 0
0 0.705943 0
0.0996872 0.702052 0
0.309697 0.699809 0
0.451118 0.697566 0
0.565011 0.69514 0
0.655085 0.693355 0
0.721904 0.693401 0
0.770886 0.695872 0
0.80531 0.700557 0
0.83151 0.707668 0
0.844114 0.717021 0
0.845563 0.72845 0
0.844587 0.741833 0
0.843488 0.757061 0
0.842298 0.773999 0
0.843778 0.795407 0.0630808
0.84329 0.815442 0.151186
0.842237 0.834928 0.222293
0.841031 0.853468 0.292485
0.839734 0.871 0.364202
0.838407 0.887282 0.43859
0.837064 0.902098 0.512673
0.835828 0.914931 0.577401
0 0.777356 0
0 0.777264 0
0 0.777173 0
0 0.777066 0
0 0.776959 0
0 0.776776 0
0 0.776532 0
0 0.776135 0
0 0.775555 0
0 0.774639 0
0 0.773327 0
0.0234684 0.769924 0
0.256916 0.766644 0
0.419928 0.764019 0
0.539406 0.761135 0
0.631266 0.758618 0
0.69955 0.75729 0
0.750973 0.757458 0
0.787335 0.759197 0
0.815335 0.762646 0
0.834073 0.767742 0
0.842222 0.774487 0
0.841611 0.782834 0
0.840894 0.792935 0
0.840208 0.80499 0
0.841978 0.821241 0.0679484
0.84181 0.836286 0.156024
0.841077 0.851087 0.227237
0.840146 0.865675 0.296818
0.839048 0.880232 0.366003
0.837903 0.894163 0.434333
0.836713 0.907042 0.509514
0.835584 0.918456 0.575311
0 0.82855 0
0 0.828412 0
0 0.82826 0
0 0.828107 0
0 0.827939 0
0 0.827695 0
0 0.827344 0
0 0.826841 0
0 0.826108 0
0 0.825071 0
0 0.823636 0
0 0.821088 0
0.230457 0.816663 0
0.404303 0.813825 0
0.524117 0.810697 0
0.61474 0.807874 0
0.681834 0.805875 0
0.733989 0.804883 0
0.771557 0.805035 0
0.800885 0.806409 0
0.823774 0.809049 0
0.837293 0.812955 0
0.839063 0.818128 0
0.838621 0.824674 0
0.839338 0.834058 0
0.840482 0.845151 0.0858625
0.840436 0.855802 0.164874
0.839948 0.866804 0.234821
0.839231 0.878233 0.303059
0.838331 0.890043 0.370855
0.837339 0.901595 0.437415
0.836316 0.91252 0.506081
0.835294 0.922484 0.572671
0 0.867872 0
0 0.867689 0
0 0.867506 0
0 0.867308 0
0 0.867094 0
0 0.866789 0
0 0.866377 0
0 0.865797 0
0 0.865003 0
0 0.86392 0
0 0.862455 0
0.0132296 0.859083 0
0.244266 0.855406 0
0.405158 0.852506 0
0.518929 0.849393 0
0.604959 0.84651 0
0.66923 0.844266 0
0.720317 0.84268 0
0.757916 0.841962 0
0.788022 0.842054 0
0.812253 0.843015 0
0.829389 0.844907 0
0.836912 0.847745 0
0.836698 0.851606 0
0.838483 0.85893 0.0281224
0.839185 0.866316 0.106676
0.8392 0.873945 0.178439
0.838849 0.882155 0.245548
0.838285 0.890929 0.311604
0.837568 0.900191 0.377493
0.836744 0.909453 0.442618
0.835874 0.91841 0.508202
0.834974 0.92697 0.570642
0 0.895216 0
0 0.895003 0
0 0.894789 0
0 0.894575 0
0 0.894331 0
0 0.893996 0
0 0.893553 0
0 0.892958 0
0 0.892149 0
0 0.891066 0
0 0.889601 0
0.0766766 0.885466 0
0.284657 0.882612 0
0.421454 0.879789 0
0.523919 0.876844 0
0.602762 0.874067 0
0.662913 0.871763 0
0.711849 0.869932 0
0.748302 0.868803 0
0.778256 0.868238 0
0.802976 0.868299 0
0.822599 0.869032 0
0.834806 0.870527 0
0.835172 0.872831 0
0.837598 0.879042 0.056733
0.838102 0.884199 0.130144
0.838132 0.889738 0.19559
0.837873 0.895842 0.25893
0.837446 0.902464 0.322194
0.836866 0.909621 0.385657
0.836179 0.916915 0.449134
0.835416 0.924269 0.512978
0.834638 0.931502 0.571817
0 0.916823 0
0 0.916594 0
0 0.916381 0
0 0.916152 0
0 0.915908 0
0 0.915572 0
0 0.915129 0
0 0.914534 0
0 0.913741 0
0 0.912673 0
0 0.910582 0
0.187381 0.906752 0
0.33901 0.904448 0
0.448356 0.901884 0
0.536263 0.899168 0
0.605859 0.89662 0
0.660807 0.894408 0
0.706615 0.892515 0
0.741192 0.891203 0
0.77026 0.890318 0
0.794842 0.889845 0
0.81529 0.889876 0
0.83006 0.890684 0
0.835447 0.893523 0.00981155
0.836789 0.8972 0.0941482
0.837125 0.900618 0.158206
0.83714 0.904418 0.217334
0.836957 0.908751 0.276143
0.836622 0.913558 0.335882
0.836149 0.918914 0.396231
0.835584 0.924544 0.457527
0.834943 0.930419 0.519387
0.834257 0.936339 0.575601
0 0.933806 0
0 0.933593 0
0 0.933379 0
0 0.933165 0
0 0.932921 0
0 0.932601 0
0 0.932174 0
0 0.931517 0
0 0.930175 0
0.020737 0.928176 0
0.164614 0.925795 0
0.302525 0.924025 0
0.399344 0.922042 0
0.482628 0.919799 0
0.554513 0.917433 0
0.613611 0.915175 0
0.662654 0.913115 0
0.704524 0.911284 0
0.736614 0.909926 0
0.764263 0.908858 0
0.788144 0.908095 0
0.808621 0.907973 0
0.825544 0.909392 0.00430304
0.835492 0.911467 0.0750134
0.836027 0.913191 0.135561
0.836225 0.915251 0.190478
0.83624 0.917723 0.243519
0.836103 0.920668 0.297459
0.835843 0.924056 0.352804
0.835462 0.927962 0.409674
0.834989 0.932204 0.468193
0.83444 0.936706 0.527413
0.833844 0.94136 0.581079
0 0.946319 0
0 0.946044 0
0 0.945785 0
0 0.945495 0
0 0.94519 0
0 0.944762 0
0 0.944198 0
0.0707713 0.942489 0
0.18764 0.941299 0
0.262226 0.940322 0
0.330129 0.939162 0
0.396078 0.937758 0
0.459098 0.936095 0
0.520851 0.934203 0
0.576974 0.932204 0
0.625528 0.930251 0
0.668238 0.928405 0
0.70544 0.926711 0
0.734844 0.925689 0
0.760937 0.924865 0
0.783902 0.924239 0
0.804456 0.924651 0.0113222
0.821683 0.925612 0.0714122
0.834211 0.926299 0.127962
0.835203 0.927047 0.177432
0.835416 0.928145 0.225696
0.835416 0.929625 0.27361
0.835309 0.931533 0.322881
0.835096 0.933852 0.37319
0.834791 0.936599 0.426444
0.834394 0.93962 0.481498
0.833936 0.942931 0.537346
0.833448 0.946441 0.587854
0.232425 0.954223 0
0.245869 0.954025 0
0.258396 0.953841 0
0.270268 0.953658 0
0.282612 0.95346 0
0.297917 0.953201 0
0.31696 0.952865 0
0.3402 0.952407 0
0.367864 0.951843 0
0.399664 0.95111 0
0.435019 0.950225 0
0.474266 0.949111 0
0.516564 0.947799 0
0.560357 0.946288 0
0.602564 0.944686 0
0.641596 0.943053 0
0.677638 0.941466 0
0.709667 0.940002 0
0.736797 0.940063 0.0132906
0.761135 0.939757 0.0461128
0.782757 0.9393 0.0747997
0.801602 0.938949 0.104189
0.817685 0.938781 0.139437
0.831189 0.938781 0.179065
0.834257 0.938949 0.220523
0.834669 0.939406 0.263111
0.834653 0.940169 0.306722
0.834562 0.941268 0.351659
0.834394 0.942733 0.39736
0.83415 0.944549 0.446708
0.833814 0.946593 0.497795
0.833448 0.948882 0.549386
0.833036 0.9514 0.596078
0.418738 0.96437 0.0984512
0.42388 0.964233 0.0986191
0.428901 0.964111 0.0987869
0.433845 0.963973 0.09897
0.439155 0.963851 0.0991684
0.445975 0.963668 0.0994278
0.45481 0.963424 0.0997787
0.466133 0.963119 0.100252
0.480369 0.962722 0.100908
0.497887 0.962203 0.101793
0.518868 0.961547 0.102998
0.543175 0.960754 0.104646
0.570565 0.959808 0.106889
0.60061 0.958679 0.109957
0.631815 0.957427 0.113985
0.662516 0.95613 0.119081
0.691707 0.954833 0.125505
0.718288 0.953643 0.133532
0.741024 0.952621 0.142733
0.76231 0.951675 0.153964
0.781735 0.95082 0.167498
0.799023 0.950134 0.183581
0.814115 0.949599 0.203464
0.8271 0.949248 0.231556
0.833234 0.949081 0.265751
0.833997 0.949081 0.303075
0.833982 0.949325 0.342626
0.83389 0.949844 0.382971
0.833753 0.950622 0.425437
0.833539 0.95169 0.470741
0.83328 0.952956 0.517418
0.832959 0.954437 0.563836
0.832624 0.956176 0.606027
0.523613 0.9673 0.197375
0.526421 0.9673 0.197498
0.529168 0.967285 0.19762
0.531899 0.967285 0.197726
0.534859 0.967285 0.197864
0.538659 0.967285 0.198032
0.543633 0.967285 0.198276
0.550057 0.967269 0.198596
0.558236 0.967269 0.199054
0.568551 0.967254 0.199634
0.581338 0.967239 0.200443
0.596857 0.967239 0.201541
0.615274 0.967056 0.203021
0.636347 0.966278 0.205035
0.659251 0.965286 0.207721
0.68249 0.964202 0.211124
0.705089 0.963149 0.215457
0.726726 0.962112 0.220905
0.746136 0.961151 0.227253
0.764706 0.960235 0.235096
0.781949 0.959396 0.244709
0.797604 0.958648 0.256382
0.811597 0.958007 0.270481
0.823941 0.957488 0.288075
0.83238 0.957137 0.314534
0.833417 0.956878 0.346334
0.833371 0.956786 0.380316
0.833295 0.956909 0.417395
0.833173 0.957244 0.456886
0.83299 0.957809 0.498436
0.832761 0.958541 0.540169
0.832502 0.959487 0.580774
0.832242 0.960616 0.61799
0.596399 0.968277 0.28336
0.598032 0.968277 0.283452
0.599649 0.968292 0.283528
0.601236 0.968292 0.283619
0.602991 0.968307 0.283726
0.605264 0.968322 0.283848
0.608255 0.968338 0.284016
0.612177 0.968353 0.28426
0.617227 0.968383 0.284596
0.623652 0.968429 0.285023
0.631769 0.96849 0.285603
0.641825 0.968551 0.286397
0.654108 0.968597 0.287465
0.668711 0.96849 0.28893
0.684901 0.968338 0.290852
0.701717 0.968185 0.293324
0.718944 0.968032 0.296468
0.736416 0.967895 0.300435
0.752544 0.967514 0.305104
0.768322 0.966827 0.310933
0.783276 0.966033 0.318166
0.797177 0.965316 0.327031
0.809918 0.96466 0.337819
0.821378 0.96408 0.350713
0.83064 0.963653 0.367681
0.832609 0.963241 0.391989
0.832837 0.962982 0.421408
0.832761 0.962844 0.454734
0.832639 0.962875 0.490501
0.832486 0.963073 0.528038
0.832288 0.963409 0.564706
0.83209 0.963912 0.599435
0.831861 0.964584 0.631586
0.650355 0.96878 0.362524
0.651316 0.96878 0.3626
0.652277 0.968795 0.362661
0.653239 0.968795 0.362737
0.654276 0.968811 0.362814
0.65565 0.968811 0.362905
0.65745 0.968826 0.363027
0.659846 0.968841 0.36321
0.662974 0.968872 0.363439
0.667033 0.968902 0.363775
0.672221 0.968933 0.364202
0.678721 0.968978 0.364782
0.686748 0.969039 0.365576
0.696559 0.969116 0.366644
0.707835 0.969207 0.368048
0.720073 0.969314 0.369848
0.733211 0.969421 0.372152
0.74699 0.969543 0.375067
0.760021 0.969543 0.3785
0.773007 0.969375 0.382818
0.785657 0.969146 0.388205
0.797757 0.968933 0.394888
0.80911 0.96875 0.403082
0.819471 0.968597 0.413153
0.828321 0.968475 0.425772
0.831662 0.968261 0.442969
0.832349 0.967941 0.466239
0.832273 0.967651 0.494408
0.832166 0.967483 0.525414
0.832029 0.967422 0.557946
0.831876 0.967468 0.589364
0.831708 0.967651 0.619028
0.83154 0.967971 0.646494
0.691218 0.969116 0.43769
0.691798 0.969131 0.437736
0.692393 0.969131 0.437781
0.692973 0.969131 0.437842
0.693599 0.969131 0.437903
0.694438 0.969146 0.43798
0.695552 0.969146 0.438071
0.697017 0.969162 0.438224
0.69897 0.969177 0.438407
