BBLuts/BB_103_0230_LUT.cube
TITLE "Generated by Resolve"
LUT_3D_SIZE 9
0.00782788 0.0089723 0.00369268
0.0104677 0.00856031 0.00343328
0.155047 0.00672923 0.00125124
0.361593 0 0
0.647684 0 0
0.801678 0 0
0.786511 0.524651 0.0589151
0.765972 0.775555 0.287358
0.756588 0.846784 0.585504
0.00389105 0.0518807 0.00337224
0.00318914 0.0596628 0.00332647
0.156786 0.0429847 0.00105287
0.368902 0 0
0.649348 0 0
0.801587 0 0
0.784207 0.549477 0.0493324
0.765866 0.777066 0.286366
0.756573 0.846906 0.585428
0 0.176303 0.00187686
0 0.179156 0.00180056
0.11133 0.178668 0.000381476
0.368139 0.156985 0
0.649668 0.0762493 0
0.802289 0.204044 0.00241093
0.780957 0.579355 0.0299687
0.765698 0.779507 0.284825
0.756573 0.847089 0.585321
0 0.409949 0
0 0.410941 0
0 0.412024 0
0.287343 0.420172 0
0.637598 0.413581 0
0.785214 0.483391 0.0047303
0.773251 0.64947 0.00257877
0.765057 0.788281 0.283207
0.756512 0.847974 0.584756
0 0.710277 0
0 0.710262 0
0 0.710063 0
0 0.708293 0
0.569177 0.707485 0
0.743099 0.715633 0.00108339
0.76495 0.752636 0.00154116
0.763378 0.810437 0.291432
0.756298 0.851225 0.582559
0 0.849485 0.010193
0 0.849485 0.010193
0 0.849485 0.010193
0 0.846387 0.00988785
0.538338 0.834592 0.00294499
0.706127 0.826825 0.00157168
0.75996 0.828702 0.00459297
0.760678 0.843046 0.331579
0.755642 0.859739 0.584024
0.473121 0.887785 0.133028
0.473121 0.887785 0.133028
0.473121 0.887785 0.133028
0.473106 0.887785 0.133028
0.604166 0.879301 0.137392
0.699474 0.874296 0.16762
0.752697 0.871565 0.253285
0.757305 0.8701 0.445014
0.754452 0.872328 0.604898
0.679423 0.88127 0.512917
0.679423 0.88127 0.512932
0.679423 0.88127 0.512932
0.679423 0.88127 0.512932
0.679408 0.88127 0.512932
0.710491 0.881437 0.518486
0.742763 0.881498 0.534829
0.753918 0.881025 0.575601
0.753277 0.880522 0.645685
0.731075 0.880293 0.668421
0.731075 0.880293 0.668421
0.731075 0.880293 0.668421
0.731075 0.880293 0.668421
0.731075 0.880293 0.668421
0.731075 0.880293 0.668421
0.742702 0.8804 0.670329
0.753109 0.88043 0.675563
0.753048 0.8804 0.68867
0.00830091 0.00955215 0.0319982
0.00831617 0.00955215 0.0322728
0.153658 0.00781262 0.0303807
0.361822 0 0.0242008
0.648386 0 0.0139162
0.803204 0 0.0176242
0.787198 0.52285 0.0761883
0.765972 0.77554 0.287373
0.756588 0.846784 0.585504
0.00663767 0.0307469 0.0279088
0.0329747 0.0407416 0.0267491
0.164553 0.00816358 0.0263523
0.36405 0 0.0182345
0.648173 0 0
0.802274 0 4.57771e-05
0.784802 0.548135 0.0633707
0.765866 0.777035 0.286381
0.756573 0.846906 0.585428
0 0.167941 0.00445563
0 0.170504 0.00447089
0.125322 0.170199 0.00299077
0.36611 0.148058 0
0.647471 0.0502632 0
0.802426 0.191135 0.00178531
0.781506 0.578408 0.041886
0.765698 0.779507 0.284825
0.756573 0.847089 0.585321
0 0.404868 0
0 0.405768 0
0 0.406729 0
0.297505 0.41442 0
0.637385 0.408789 0
0.785367 0.479759 0.0047303
0.773327 0.648783 0.00259403
0.765057 0.788281 0.283207
0.756512 0.847974 0.584756
0 0.708949 0
0 0.708934 0
0 0.708721 0
0 0.706935 0
0.571008 0.706462 0
0.74316 0.714992 0.00108339
0.764965 0.752422 0.00154116
0.763378 0.810437 0.291432
0.756298 0.851225 0.582559
0 0.84918 0.0101625
0 0.849241 0.0101778
0 0.849241 0.0101778
0 0.846174 0.00987259
0.539864 0.834379 0.00289921
0.706264 0.826719 0.00157168
0.759976 0.828656 0.00459297
0.760678 0.843046 0.331579
0.755642 0.859739 0.584024
0.476341 0.887602 0.132723
0.476341 0.887602 0.132723
0.476326 0.887602 0.132723
0.476326 0.887602 0.132723
0.604822 0.879255 0.137209
0.699596 0.874281 0.167483
0.752712 0.87155 0.253269
0.757305 0.8701 0.445014
0.754452 0.872328 0.604898
0.679561 0.88127 0.512901
0.679561 0.88127 0.512901
0.679561 0.88127 0.512901
0.679561 0.88127 0.512901
0.679561 0.88127 0.512901
0.710552 0.881437 0.518486
0.742779 0.881498 0.534798
0.753918 0.881025 0.575601
0.753277 0.880522 0.645685
0.73109 0.880293 0.668421
0.73109 0.880293 0.668421
0.73109 0.880293 0.668421
0.73109 0.880293 0.668421
0.73109 0.880293 0.668421
0.73109 0.880293 0.668421
0.742718 0.8804 0.670329
0.753109 0.88043 0.675563
0.753048 0.8804 0.68867
0.00929274 0.0108492 0.121706
0.00929274 0.0108492 0.121904
0.131746 0.00944533 0.119722
0.37145 0.00015259 0.109316
0.649912 0 0.100557
0.805371 0 0.117479
0.789899 0.513939 0.178042
0.765805 0.774868 0.315801
0.756588 0.846784 0.585504
0.00929274 0.0108339 0.119905
0.00929274 0.0108339 0.120195
0.148562 0.00917067 0.117433
0.370489 0.000183108 0.107057
0.650752 0 0.0977646
0.805158 0 0.112047
0.787686 0.5411 0.172274
0.765698 0.77641 0.314794
0.756573 0.846906 0.585428
0 0.14638 0.111116
0 0.148531 0.11107
0.116854 0.144442 0.107332
0.354452 0.125429 0.103151
0.649424 0.00190738 0.09131
0.806317 0.148241 0.118471
0.784817 0.573632 0.163668
0.765515 0.778897 0.313069
0.756573 0.847089 0.585321
0 0.393332 0.0534676
0 0.394675 0.0536507
0 0.39559 0.0544289
0.299306 0.402991 0.0601053
0.636912 0.398108 0.0628214
0.788983 0.470451 0.0806439
0.777234 0.648783 0.131456
0.764904 0.787762 0.306508
0.756512 0.847974 0.584756
0 0.706432 0
0 0.706432 0
0 0.706203 0
0 0.704433 0
0.572641 0.703914 0
0.74316 0.713039 0.00108339
0.765988 0.752453 0.0260319
0.763378 0.81033 0.292714
0.756298 0.851225 0.582559
0 0.848829 0.010132
0 0.848829 0.010132
0 0.848829 0.010132
0 0.845869 0.00988785
0.542519 0.834028 0.00282292
0.7066 0.826535 0.00157168
0.759991 0.828534 0.00457771
0.760678 0.843 0.331395
0.755642 0.859739 0.584024
0.480598 0.887358 0.132296
0.480598 0.887358 0.132296
0.480598 0.887358 0.132296
0.480583 0.887358 0.132296
0.605722 0.879164 0.13695
0.69984 0.874235 0.167315
0.752743 0.871534 0.253071
0.757305 0.8701 0.444953
0.754452 0.872328 0.604898
0.679759 0.88127 0.512871
0.679759 0.88127 0.512871
0.679759 0.88127 0.512871
0.679759 0.88127 0.512871
0.679759 0.88127 0.512871
0.710628 0.881437 0.518441
0.742809 0.881498 0.534783
0.753918 0.881025 0.575586
0.753277 0.880522 0.645685
0.731106 0.880293 0.668421
0.731106 0.880293 0.668421
0.731106 0.880293 0.668421
0.731106 0.880293 0.668421
0.731106 0.880293 0.668421
0.731106 0.880293 0.668421
0.742733 0.880415 0.670314
0.753109 0.88043 0.675563
0.753048 0.8804 0.68867
0.0069276 0.00901808 0.320806
0.0069276 0.00901808 0.320897
0.0069276 0.00901808 0.321126
0.332341 0.000457771 0.310613
0.6636 0 0.298405
0.805631 0 0.317601
0.793774 0.470115 0.384573
0.764599 0.769909 0.465492
0.756497 0.846555 0.594308
0.00695811 0.0090486 0.319371
0.00695811 0.0090486 0.319493
0.0238041 0.00877394 0.319295
0.345998 0 0.30808
0.662486 0 0.29659
0.805539 0 0.315038
0.791211 0.505104 0.381338
0.764462 0.771542 0.464912
0.756497 0.846677 0.594247
0.0040589 0.0453956 0.316106
0.00389105 0.0472572 0.316197
0.0248569 0.0474556 0.315801
0.352361 0 0.304601
0.658625 0 0.293202
0.8056 0.00163272 0.312093
0.787961 0.545098 0.376196
0.764263 0.774151 0.463951
0.756481 0.84686 0.594141
0 0.345754 0.287419
0 0.346609 0.287465
0 0.348516 0.287984
0.285115 0.355306 0.294865
0.630564 0.349767 0.299046
0.794659 0.425727 0.322362
0.779232 0.634684 0.357504
0.763561 0.78352 0.46041
0.75642 0.847745 0.593668
0 0.70251 0.219333
0 0.70251 0.219333
0 0.702678 0.220005
0 0.700984 0.222446
0.571771 0.699886 0.232609
0.745235 0.709575 0.258045
0.767819 0.750103 0.314336
0.761929 0.807187 0.448508
0.756207 0.850996 0.59176
0 0.850034 0.0637064
0 0.850034 0.0637064
0 0.850034 0.0637064
0 0.847242 0.0644236
0.540642 0.835126 0.0577249
0.708202 0.828443 0.132311
0.761975 0.830396 0.241245
0.759838 0.841672 0.416266
0.755627 0.859678 0.586252
0.493217 0.886564 0.130587
0.493217 0.886564 0.130587
0.493217 0.886564 0.130587
0.493217 0.886564 0.130587
0.608454 0.87892 0.136126
0.700496 0.874128 0.166705
0.752895 0.871443 0.252781
0.757305 0.870039 0.444541
0.754452 0.872328 0.604837
0.680476 0.881285 0.512779
0.680476 0.881285 0.512779
0.680476 0.881285 0.512779
0.680476 0.881285 0.512779
0.680476 0.881285 0.512779
0.710903 0.881437 0.518349
0.742901 0.881498 0.534707
0.753918 0.881025 0.575494
0.753277 0.880522 0.645655
0.731182 0.880293 0.668406
0.731182 0.880293 0.668406
0.731182 0.880293 0.668406
0.731182 0.880293 0.668406
0.731182 0.880293 0.668406
0.731182 0.880293 0.668406
0.742748 0.880415 0.670314
0.753109 0.88043 0.675547
0.753048 0.8804 0.68867
0.000518807 0.00354009 0.590005
0.000518807 0.00354009 0.590005
0.000503548 0.00354009 0.590082
0.0765393 0.00251774 0.588479
0.63917 0 0.570977
0.805127 0 0.577173
0.807843 0.244434 0.605035
0.763531 0.756405 0.609583
0.756115 0.844678 0.651118
0.000518807 0.00354009 0.58996
0.000518807 0.00354009 0.58996
0.000503548 0.00354009 0.590005
0.081651 0.00247196 0.588083
0.641901 0 0.570642
0.805127 0 0.576883
0.804273 0.318242 0.605386
0.763348 0.758434 0.609293
0.7561 0.844785 0.651072
0.000534066 0.00355535 0.589212
0.000534066 0.00355535 0.589212
0.000518807 0.00355535 0.589258
0.150484 0.00166323 0.58616
0.64596 0 0.569802
0.805127 0 0.576089
0.798733 0.399893 0.60383
0.763073 0.761501 0.608835
0.756085 0.844999 0.651026
0 0.148486 0.585321
0 0.148486 0.585321
0 0.151614 0.585306
0.147829 0.146532 0.583841
0.645838 0.0667735 0.572106
0.807401 0.148318 0.586084
0.785138 0.568689 0.596689
0.762097 0.772625 0.607172
0.756024 0.845914 0.650782
0 0.664332 0.559014
0 0.664332 0.559014
0 0.664378 0.559045
0 0.66421 0.559335
0.551781 0.663645 0.561746
0.740475 0.678431 0.567559
0.766674 0.730922 0.57644
0.759899 0.799908 0.602411
0.755779 0.849348 0.649851
0 0.848341 0.543801
0 0.848341 0.543801
0 0.848417 0.54377
0 0.846204 0.54403
0.501778 0.83212 0.53698
0.697627 0.821836 0.539635
0.757626 0.823941 0.557366
0.757198 0.837217 0.592493
0.755138 0.858351 0.64654
0.470771 0.884688 0.479316
0.470771 0.884688 0.479316
0.470771 0.884688 0.479316
0.470771 0.884688 0.479316
0.594491 0.876402 0.477775
0.692561 0.870863 0.48835
0.746029 0.867903 0.51545
0.75523 0.867643 0.569192
0.754208 0.871778 0.637125
0.682734 0.8813 0.51223
0.682734 0.8813 0.51223
0.682734 0.8813 0.51223
0.682734 0.8813 0.51223
0.682734 0.8813 0.51223
0.711742 0.881453 0.517968
0.743175 0.881514 0.534386
0.753918 0.881025 0.575357
0.753277 0.880522 0.645533
0.731456 0.880293 0.668376
0.731456 0.880293 0.668376
0.731456 0.880293 0.668376
0.731456 0.880293 0.668376
0.731456 0.880293 0.668376
0.731441 0.880293 0.668376
0.742855 0.880415 0.670268
0.753109 0.88043 0.675532
0.753048 0.8804 0.688655
0 0.00224308 0.716274
0 0.00224308 0.71635
0 0.00224308 0.71635
0 0.00224308 0.716365
0.458961 0 0.702541
0.802426 0 0.699184
0.805661 0 0.699672
0.769848 0.697643 0.702937
0.756115 0.840238 0.700664
0 0.00224308 0.71635
0 0.00224308 0.71635
0 0.00224308 0.71635
0 0.00224308 0.716365
0.458167 0 0.702571
0.802426 0 0.699184
0.805661 0 0.699611
0.769284 0.702281 0.702419
0.756115 0.840391 0.700648
0 0.00224308 0.71632
0 0.00224308 0.71632
0 0.00224308 0.71632
0 0.00224308 0.71632
0.470069 0 0.702113
0.80267 0 0.699123
0.805661 0 0.699535
0.768429 0.709346 0.70164
0.756085 0.840635 0.700618
0 0.00224308 0.71603
0 0.00224308 0.71603
0 0.00224308 0.71603
0 0.00224308 0.71603
0.528954 0 0.699702
0.803296 0 0.698833
0.80589 0 0.698878
0.765805 0.732174 0.699153
0.756008 0.841718 0.700481
0 0.397986 0.707286
0 0.397986 0.707286
0 0.397986 0.707286
0 0.40206 0.707179
0.508476 0.406973 0.708583
0.788708 0.443839 0.714412
0.777981 0.634409 0.705013
0.760952 0.778866 0.69453
0.755718 0.845747 0.699977
0 0.836072 0.699351
0 0.836072 0.699351
0 0.836072 0.699351
0 0.836072 0.699351
0.274449 0.826398 0.695583
0.68574 0.808606 0.684871
0.754299 0.813199 0.685908
0.756893 0.830564 0.689219
0.754986 0.856016 0.698436
0.292134 0.887327 0.686427
0.292134 0.887327 0.686427
0.293111 0.887312 0.686381
0.293111 0.887312 0.686381
0.531197 0.875746 0.678004
0.676066 0.867094 0.67541
0.737133 0.864485 0.677821
0.754391 0.86537 0.683574
0.753933 0.87068 0.695155
0.672847 0.879805 0.654963
0.672847 0.879805 0.654963
0.672847 0.879805 0.654963
0.672847 0.879805 0.654963
0.672847 0.879805 0.654963
0.702434 0.880034 0.656245
0.736233 0.880369 0.660197
0.752895 0.880491 0.670054
0.753048 0.8804 0.687526
0.732341 0.880308 0.668284
0.732341 0.880308 0.668284
0.732341 0.880308 0.668284
0.732341 0.880308 0.668284
0.732341 0.880308 0.668284
0.732341 0.880308 0.668284
0.743175 0.880415 0.670146
0.753109 0.88043 0.675425
0.753048 0.8804 0.688624
0 0.00195315 0.750271
0 0.00195315 0.750271
0 0.00195315 0.750271
0 0.00195315 0.750271
0 0.00195315 0.750271
0.74229 0 0.73785
0.805905 0 0.740795
0.805905 0 0.740795
0.757366 0.820279 0.735515
0 0.00195315 0.750271
0 0.00195315 0.750271
0 0.00195315 0.750271
0 0.00195315 0.750271
0 0.00195315 0.750271
0.74229 0 0.73785
0.805905 0 0.740795
0.805905 0 0.740795
0.757351 0.820615 0.7355
0 0.00195315 0.750271
0 0.00195315 0.750271
0 0.00195315 0.750271
0 0.00195315 0.750271
0 0.00195315 0.750271
0.74229 0 0.73785
0.805905 0 0.740795
0.805905 0 0.740795
0.757305 0.82121 0.735439
0 0.00195315 0.750271
0 0.00195315 0.750271
0 0.00195315 0.750271
0 0.00195315 0.750271
0 0.00195315 0.750271
0.74583 0 0.738003
0.805905 0 0.740795
0.805905 0 0.740795
0.757137 0.823484 0.735256
0 0.00195315 0.750271
0 0.00195315 0.750271
0 0.00195315 0.750271
0 0.00195315 0.750271
0 0.00195315 0.750271
0.770443 0 0.739132
0.805905 0 0.740795
0.802182 0.374105 0.761212
0.756558 0.831266 0.734615
0 0.692882 0.744884
0 0.692882 0.744884
0 0.692882 0.744884
0 0.692882 0.744884
0 0.69572 0.744991
0.685771 0.691981 0.742992
0.765728 0.731456 0.740414
0.759045 0.798886 0.735149
0.755352 0.848096 0.733196
0 0.892744 0.748043
0 0.892744 0.748043
0 0.892744 0.748043
0 0.892744 0.748043
0 0.892744 0.748043
0.642756 0.863218 0.729534
0.73254 0.859358 0.729427
0.754421 0.861265 0.729763
0.753902 0.868223 0.731182
0.651179 0.87953 0.725277
0.651179 0.87953 0.725277
0.651179 0.87953 0.725277
0.651179 0.87953 0.725277
0.651179 0.87953 0.725277
0.684642 0.879667 0.725185
0.729656 0.88014 0.725551
0.752026 0.880369 0.726543
0.752834 0.880308 0.728847
0.728527 0.88014 0.71783
0.728527 0.88014 0.71783
0.728527 0.88014 0.71783
0.728527 0.88014 0.71783
0.728527 0.88014 0.71783
0.728527 0.88014 0.71783
0.739467 0.880262 0.718334
0.751507 0.880385 0.719875
0.752865 0.880323 0.723522
0 0.0617533 0.750332
0 0.0617533 0.750332
0 0.0617533 0.750332
0 0.0617533 0.750332
0 0.0617533 0.750332
0 0.0618143 0.750332
0.805905 0 0.740795
0.806561 0.0145724 0.742992
0.780987 0.613062 0.758129
0 0.0617533 0.750332
0 0.0617533 0.750332
0 0.0617533 0.750332
0 0.0617533 0.750332
0 0.0617533 0.750332
0 0.0618143 0.750332
0.805905 0 0.740795
0.806561 0.0145724 0.742992
0.780987 0.613062 0.758129
0 0.0617533 0.750332
0 0.0617533 0.750332
0 0.0617533 0.750332
0 0.0617533 0.750332
0 0.0617533 0.750332
0 0.0618143 0.750332
0.805905 0 0.740795
0.806561 0.0145724 0.742992
0.780987 0.613031 0.758129
0 0.0617533 0.750332
0 0.0617533 0.750332
0 0.0617533 0.750332
0 0.0617533 0.750332
0 0.0617533 0.750332
0 0.0618143 0.750332
0.805905 0 0.740795
0.806561 0.0145724 0.742992
0.781003 0.61294 0.758129
0 0.0616617 0.750332
0 0.0616617 0.750332
0 0.0616617 0.750332
0 0.0616617 0.750332
0 0.0616617 0.750332
0 0.0617227 0.750332
0.805905 0 0.740795
0.806592 0.0163272 0.74316
0.781033 0.612665 0.758144
0 0.0604715 0.750332
0 0.0604715 0.750332
0 0.0604715 0.750332
0 0.0604715 0.750332
0 0.0604715 0.750332
0 0.0605325 0.750332
0.805905 0 0.740795
0.807401 0.0493324 0.74638
0.765866 0.72958 0.750179
0 0.833158 0.761532
0 0.833158 0.761532
0 0.833158 0.761532
0 0.833158 0.761532
0 0.833158 0.761532
0 0.834669 0.761639
0.733867 0.806943 0.747539
0.756512 0.830335 0.747295
0.754681 0.855695 0.747143
0.390402 0.887098 0.754971
0.390402 0.887098 0.754971
0.390402 0.887098 0.754971
0.390402 0.887098 0.754971
0.390402 0.887098 0.754971
0.390402 0.887098 0.754971
0.717357 0.87982 0.746029
0.75079 0.879149 0.746166
0.752987 0.879515 0.746212
0.720699 0.879973 0.744732
0.720699 0.879973 0.744732
0.720699 0.879973 0.744732
0.720699 0.879973 0.744732
0.720699 0.879973 0.744732
0.720699 0.879973 0.744732
0.732921 0.880125 0.744793
0.749081 0.880293 0.744915
0.752743 0.880262 0.745098
0 0.245457 0.750973
0 0.245457 0.750973
0 0.245457 0.750973
0 0.245457 0.750973
0 0.245457 0.750973
0 0.245457 0.750973
0 0.245518 0.750973
0.80882 0.101686 0.751629
0.777295 0.640528 0.756115
0 0.245457 0.750973
0 0.245457 0.750973
0 0.245457 0.750973
0 0.245457 0.750973
0 0.245457 0.750973
0 0.245457 0.750973
0 0.245518 0.750973
0.80882 0.101686 0.751629
0.777295 0.640528 0.756115
0 0.245457 0.750973
0 0.245457 0.750973
0 0.245457 0.750973
0 0.245457 0.750973
0 0.245457 0.750973
0 0.245457 0.750973
0 0.245518 0.750973
0.80882 0.101686 0.751629
0.777295 0.640528 0.756115
0 0.245457 0.750973
0 0.245457 0.750973
0 0.245457 0.750973
0 0.245457 0.750973
0 0.245457 0.750973
0 0.245457 0.750973
0 0.245518 0.750973
0.80882 0.101686 0.751629
0.777295 0.640528 0.756115
0 0.245457 0.750973
0 0.245457 0.750973
0 0.245457 0.750973
0 0.245457 0.750973
0 0.245457 0.750973
0 0.245457 0.750973
0 0.245518 0.750973
0.80882 0.101686 0.751629
0.777295 0.640528 0.756115
0 0.245396 0.750973
0 0.245396 0.750973
0 0.245396 0.750973
0 0.245396 0.750973
0 0.245396 0.750973
0 0.245396 0.750973
0 0.245441 0.750973
0.808835 0.102525 0.751705
0.777142 0.641672 0.756024
0 0.244373 0.750973
0 0.244373 0.750973
0 0.244373 0.750973
0 0.244373 0.750973
0 0.244373 0.750973
0 0.244373 0.750973
0 0.244419 0.750973
0.81001 0.210575 0.760678
0.776852 0.643732 0.755871
0 0.892134 0.764721
0 0.892134 0.764721
0 0.892134 0.764721
0 0.892134 0.764721
0 0.892134 0.764721
0 0.892134 0.764721
0 0.892287 0.764721
0.749676 0.867506 0.747112
0.753567 0.871336 0.747051
0.685389 0.879576 0.746502
0.685389 0.879576 0.746502
0.685389 0.879576 0.746502
0.685389 0.879576 0.746502
0.685389 0.879576 0.746502
0.685389 0.879576 0.746502
0.685389 0.879576 0.746502
0.745449 0.880217 0.746807
0.752972 0.880522 0.747066
