BBLuts/BB_104_0330_LUT.cube
TITLE "Generated by Resolve"
LUT_3D_SIZE 9
0.0384375 0.0384375 0.0384375
0.0384375 0.0384375 0.0384375
0.18819 0.0381323 0.0379339
0.439002 0.0302129 0.0323491
0.714549 0.0134279 0.324941
0.862791 0.017792 0.609659
0.866941 0.508995 0.627131
0.843931 0.804425 0.459312
0.836316 0.886275 0.687602
0.0363317 0.0691844 0.0381018
0.0357519 0.0784161 0.038056
0.198322 0.0580758 0.038056
0.451041 0.0296025 0.0335088
0.716289 0.0133516 0.328878
0.862791 0.017792 0.609659
0.864698 0.559228 0.625757
0.844038 0.808026 0.407889
0.836301 0.886641 0.686702
0.0252689 0.219883 0.0357824
0.0249027 0.223743 0.0356451
0.147753 0.223529 0.0363012
0.455329 0.190188 0.0300603
0.719265 0.0258335 0.332937
0.862791 0.017792 0.609339
0.861708 0.605859 0.622873
0.844495 0.813748 0.203326
0.836271 0.887236 0.685176
0 0.504448 0.0189517
0 0.505623 0.0189059
0 0.506279 0.0188754
0.371893 0.515419 0.0299382
0.721843 0.504143 0.319188
0.866331 0.523018 0.624918
0.853635 0.690379 0.607401
0.843412 0.826413 0.0376745
0.836164 0.88896 0.680461
0 0.76199 0.0233463
0 0.761929 0.0233463
0 0.761624 0.0233005
0 0.75964 0.0230106
0.662562 0.759915 0.0312047
0.826947 0.766461 0.393439
0.845151 0.801007 0.127184
0.841886 0.852949 0.0379339
0.835966 0.893538 0.664591
0 0.894865 0.0504616
0 0.894316 0.0503548
0 0.8934 0.0501717
0 0.890623 0.0496223
0.62417 0.881956 0.0423438
0.791348 0.874022 0.0378271
0.840482 0.875303 0.0381018
0.839765 0.886961 0.0381323
0.835813 0.90367 0.615732
0 0.934173 0.0570535
0 0.933806 0.0570077
0 0.933242 0.0569314
0.578943 0.927886 0.047425
0.701274 0.920913 0.0393988
0.7832 0.916594 0.0379187
0.83328 0.914122 0.0378882
0.837736 0.91458 0.0378576
0.834562 0.916411 0.64976
0.759716 0.926833 0.0378424
0.760739 0.926833 0.0378424
0.762387 0.926833 0.0378119
0.767102 0.926833 0.0377813
0.778958 0.926848 0.037705
0.80145 0.926925 0.0376287
0.827832 0.927092 0.0375677
0.837293 0.92752 0.0375067
0.833997 0.92462 0.740993
0.814588 0.924529 0.772992
0.81471 0.924529 0.773022
0.814878 0.924529 0.773053
0.815442 0.924544 0.77319
0.816999 0.924544 0.773541
0.820966 0.924559 0.774609
0.828656 0.924605 0.777569
0.835462 0.924651 0.784588
0.836423 0.924697 0.801099
0.0428016 0.0382086 0.0819867
0.0428626 0.0382086 0.0822919
0.198871 0.0380713 0.0889296
0.44123 0.0302434 0.0945754
0.714397 0.0132601 0.34342
0.862791 0.017792 0.61091
0.867323 0.499886 0.628321
0.843641 0.803525 0.507988
0.836316 0.886275 0.696635
0.0396735 0.0571908 0.068101
0.0739605 0.0670634 0.0670634
0.214298 0.0378882 0.0788891
0.446983 0.0299229 0.0815595
0.715206 0.0133211 0.335317
0.862776 0.017792 0.610529
0.864973 0.553368 0.626932
0.84361 0.807004 0.478843
0.836301 0.886641 0.695842
0.0261692 0.210086 0.0361028
0.0258793 0.213352 0.0360113
0.163897 0.213519 0.0365454
0.453468 0.17995 0.0299077
0.717159 0.0133516 0.328603
0.862791 0.017792 0.609369
0.861952 0.602762 0.624216
0.843793 0.812573 0.397864
0.836255 0.887221 0.694545
0 0.499947 0.0191348
0 0.50106 0.019089
0 0.501518 0.0190585
0.38558 0.510307 0.0299992
0.721706 0.499535 0.320134
0.86656 0.517815 0.625025
0.853803 0.688869 0.608774
0.843458 0.825986 0.0376745
0.836149 0.88893 0.690501
0 0.761013 0.023209
0 0.760922 0.0231937
0 0.760616 0.0231479
0 0.758587 0.022858
0.664775 0.758953 0.0311589
0.827039 0.765789 0.401053
0.845243 0.800778 0.156207
0.841901 0.852811 0.0379339
0.835889 0.893477 0.677256
0 0.894682 0.0504158
0 0.894118 0.050309
0 0.893217 0.0501411
0 0.890425 0.0495766
0.626215 0.881743 0.0422065
0.791577 0.87393 0.0378424
0.840482 0.875242 0.0381018
0.839765 0.886931 0.0381323
0.835782 0.903609 0.61825
0 0.934096 0.0570382
0 0.93373 0.0569924
0 0.933165 0.0569162
0.582177 0.927718 0.0471962
0.701869 0.920867 0.0393683
0.783337 0.916579 0.0379187
0.833295 0.914107 0.0378882
0.837736 0.91458 0.0378576
0.834577 0.916411 0.649683
0.759869 0.926833 0.0378424
0.760906 0.926833 0.0378271
0.762539 0.926833 0.0378119
0.767224 0.926833 0.0377813
0.779049 0.926848 0.037705
0.801495 0.926925 0.0376287
0.827848 0.927092 0.0375677
0.837293 0.92752 0.0375067
0.833997 0.92462 0.740978
0.814603 0.924529 0.772992
0.81471 0.924529 0.773022
0.814893 0.924544 0.773053
0.815457 0.924544 0.773175
0.817014 0.924544 0.773556
0.820981 0.924559 0.774609
0.828672 0.924605 0.777569
0.835462 0.924651 0.784588
0.836423 0.924697 0.801099
0.0669413 0.061799 0.23476
0.0669871 0.0618601 0.234974
0.200336 0.0614786 0.236133
0.469429 0.0475624 0.251453
0.714183 0.0129091 0.37911
0.862776 0.0177768 0.612848
0.867979 0.483009 0.631373
0.843305 0.802182 0.559853
0.836347 0.88629 0.70901
0.0661784 0.0607614 0.2309
0.0662394 0.0608682 0.23125
0.219989 0.0601205 0.232258
0.467658 0.0467231 0.247745
0.715846 0.0128786 0.380392
0.862776 0.0177768 0.612696
0.865507 0.54197 0.63003
0.843183 0.805615 0.5458
0.836316 0.886671 0.708354
0.0492561 0.221225 0.197864
0.0489815 0.223056 0.197162
0.186496 0.21825 0.19707
0.463645 0.190204 0.225727
0.714885 0.0129397 0.375845
0.862776 0.017792 0.612253
0.862455 0.596323 0.627466
0.843046 0.810956 0.515206
0.836286 0.887266 0.707301
0 0.488472 0.0196231
0 0.489799 0.0195621
0 0.490455 0.0195315
0.390219 0.498848 0.0301213
0.718547 0.488869 0.353323
0.867231 0.50193 0.627268
0.8542 0.684947 0.613657
0.843519 0.825315 0.0376745
0.836164 0.88896 0.704036
0 0.758984 0.0229038
0 0.758892 0.0228885
0 0.758572 0.0228428
0 0.756512 0.0225528
0.666773 0.757015 0.0310521
0.827008 0.764218 0.413764
0.845228 0.799908 0.295186
0.841947 0.85243 0.0379339
0.835859 0.893446 0.69366
0 0.894362 0.05037
0 0.893812 0.050248
0 0.892897 0.0500649
0 0.89012 0.0495155
0.629465 0.881407 0.0419928
0.791913 0.873762 0.0378271
0.840497 0.87512 0.0381018
0.839765 0.88687 0.0381323
0.835416 0.903243 0.653681
0 0.933989 0.057023
0 0.933623 0.0569772
0 0.933074 0.0569162
0.586664 0.927459 0.0468452
0.702831 0.92079 0.0393378
0.783551 0.916548 0.0379187
0.833356 0.914092 0.0378882
0.837736 0.914565 0.0378576
0.834577 0.916396 0.649546
0.760113 0.926833 0.0378424
0.761151 0.926833 0.0378271
0.762783 0.926833 0.0378119
0.767437 0.926833 0.0377813
0.779217 0.926848 0.037705
0.801587 0.926925 0.037644
0.827863 0.927092 0.0375677
0.837293 0.92752 0.0375067
0.833997 0.92462 0.740963
0.814633 0.924529 0.772992
0.81474 0.924529 0.773007
0.814939 0.924529 0.773053
0.815473 0.924544 0.773175
0.817044 0.924544 0.773541
0.820996 0.924575 0.774609
0.828672 0.924605 0.777569
0.835462 0.924651 0.784588
0.836423 0.924697 0.801099
0.209293 0.248066 0.476829
0.209476 0.248295 0.476982
0.209583 0.248417 0.477073
0.447639 0.242695 0.47454
0.730083 0.187411 0.516411
0.862776 0.017731 0.625147
0.868498 0.471046 0.650278
0.842741 0.799008 0.638331
0.836576 0.88658 0.735637
0.206683 0.244923 0.474464
0.206912 0.245212 0.474678
0.252018 0.245228 0.474784
0.461646 0.238712 0.471931
0.728557 0.183474 0.513771
0.862776 0.017731 0.624826
0.866331 0.526146 0.648981
0.842496 0.802441 0.634684
0.836545 0.886931 0.735225
0.197864 0.284199 0.468894
0.197787 0.287312 0.468986
0.260136 0.285206 0.469505
0.467018 0.232547 0.467536
0.724041 0.179263 0.508431
0.862776 0.017731 0.624277
0.863462 0.584344 0.646647
0.84213 0.807706 0.62829
0.8365 0.887526 0.734554
0.134279 0.475502 0.421729
0.134325 0.477211 0.421866
0.13492 0.478523 0.422522
0.410071 0.481758 0.431708
0.707591 0.469673 0.489296
0.868803 0.459525 0.6392
0.855329 0.673976 0.634928
0.841367 0.821576 0.604425
0.836362 0.889204 0.732525
0 0.750301 0.0216983
0 0.750271 0.0216983
0 0.750042 0.0216678
0 0.748165 0.0214237
0.664469 0.749111 0.0306249
0.825422 0.757488 0.513146
0.844175 0.794766 0.525658
0.842145 0.851469 0.0379187
0.836011 0.893645 0.726314
0 0.893492 0.0501869
0 0.892943 0.0500801
0 0.892012 0.049897
0 0.889235 0.0493324
0.629664 0.880598 0.0419318
0.791531 0.873014 0.0378119
0.840543 0.87454 0.0381018
0.839887 0.886534 0.0381323
0.835248 0.90312 0.706508
0 0.933654 0.0569924
0 0.933303 0.0569314
0.127764 0.935073 0.0602274
0.598291 0.926696 0.0458686
0.705684 0.920577 0.0392309
0.784207 0.916457 0.0379187
0.833478 0.914015 0.0378882
0.837736 0.914519 0.0378576
0.834577 0.916381 0.649042
0.760891 0.926833 0.0378424
0.761898 0.926833 0.0378271
0.7635 0.926833 0.0378119
0.768093 0.926833 0.0377661
0.779706 0.926848 0.037705
0.801846 0.926925 0.0376287
0.827939 0.927092 0.0375677
0.837293 0.92752 0.0375067
0.833997 0.92462 0.740887
0.81471 0.924529 0.772976
0.814832 0.924529 0.772992
0.815 0.924529 0.773037
0.815564 0.924544 0.773159
0.817105 0.924544 0.773526
0.821042 0.924575 0.774609
0.828702 0.924605 0.777554
0.835462 0.924651 0.784588
0.836423 0.924697 0.801099
0.584512 0.64062 0.716182
0.584573 0.640681 0.716228
0.584665 0.640787 0.71632
0.588235 0.639948 0.715679
0.7196 0.637888 0.71574
0.860044 0.638422 0.735286
0.858534 0.6551 0.742596
0.84329 0.797284 0.747219
0.837674 0.887785 0.777447
0.584009 0.64004 0.71574
0.58407 0.640116 0.715801
0.584176 0.640238 0.715892
0.588571 0.639246 0.715129
0.723018 0.637354 0.715465
0.86009 0.637766 0.734936
0.858366 0.656428 0.741711
0.842954 0.800671 0.746288
0.837644 0.888151 0.777234
0.583185 0.639124 0.715038
0.583261 0.639216 0.715099
0.583368 0.639338 0.71519
0.589227 0.638102 0.71426
0.725093 0.636362 0.714809
0.860197 0.636637 0.734356
0.857893 0.660426 0.740139
0.842496 0.805798 0.744823
0.837583 0.888731 0.776898
0.577554 0.637873 0.710796
0.577569 0.637964 0.710811
0.577554 0.638071 0.710811
0.585412 0.636988 0.71014
0.724025 0.634211 0.711437
0.860258 0.635142 0.730953
0.854765 0.686961 0.734203
0.841306 0.819242 0.740459
0.837446 0.890425 0.775906
0.523369 0.742565 0.68191
0.523507 0.742779 0.682002
0.52369 0.742855 0.682109
0.524483 0.741878 0.682521
0.667903 0.735759 0.683711
0.820615 0.745571 0.700313
0.843671 0.786786 0.710704
0.839048 0.847181 0.727413
0.837049 0.89485 0.773022
0 0.891402 0.0497749
0 0.890867 0.0496681
0 0.889967 0.049485
0 0.887221 0.0489204
0.619394 0.878935 0.0424048
0.786633 0.87097 0.0377356
0.838087 0.870512 0.605615
0.836545 0.882795 0.686137
0.836149 0.904189 0.765072
0 0.933165 0.0569162
0 0.932815 0.0568704
0.211078 0.935027 0.0605631
0.595026 0.926406 0.046128
0.702113 0.920211 0.0393683
0.781155 0.91606 0.0379339
0.830579 0.913756 0.0379034
0.838315 0.914778 0.0378576
0.834791 0.916686 0.744381
0.763149 0.926833 0.0378119
0.764126 0.926833 0.0377966
0.765652 0.926818 0.0377966
0.770047 0.926833 0.0377508
0.781186 0.926848 0.0376898
0.802594 0.926925 0.0376287
0.828199 0.927077 0.0375677
0.837293 0.92752 0.0375067
0.833997 0.92462 0.740673
0.814969 0.924544 0.772946
0.815076 0.924529 0.772961
0.815259 0.924544 0.773007
0.815793 0.924544 0.773129
0.817319 0.924544 0.773495
0.82121 0.924575 0.774563
0.828794 0.924605 0.777523
0.835462 0.924651 0.784543
0.836423 0.924697 0.801099
0.719402 0.794858 0.834638
0.719402 0.794858 0.834653
0.719417 0.794873 0.834669
0.719448 0.794919 0.834699
0.728847 0.79086 0.831388
0.849104 0.787686 0.830915
0.849104 0.788373 0.831449
0.846998 0.80444 0.82533
0.840467 0.889815 0.821485
0.719356 0.794797 0.834592
0.719356 0.794812 0.834607
0.719371 0.794812 0.834607
0.719402 0.794858 0.834638
0.729763 0.790722 0.831266
0.849104 0.787625 0.830869
0.849104 0.788312 0.831403
0.846754 0.806607 0.824796
0.840436 0.890211 0.821363
0.719265 0.794705 0.834516
0.71928 0.794705 0.834531
0.71928 0.79472 0.834531
0.71931 0.794751 0.834562
0.731365 0.790478 0.831083
0.849104 0.787518 0.830777
0.849104 0.78822 0.831327
0.846357 0.810254 0.823957
0.840375 0.890837 0.821195
0.719005 0.7944 0.834272
0.71902 0.794415 0.834287
0.71902 0.79443 0.834287
0.718807 0.794186 0.834089
0.735546 0.789899 0.83061
0.849119 0.787198 0.830549
0.849119 0.78674 0.830182
0.845212 0.821408 0.821653
0.840208 0.892622 0.820676
0.71043 0.789151 0.826566
0.710399 0.789166 0.826535
0.710338 0.789181 0.82649
0.709941 0.788907 0.826123
0.726619 0.786267 0.824231
0.84683 0.784695 0.824414
0.847272 0.796719 0.82121
0.842725 0.848295 0.816419
0.83978 0.897322 0.819242
0.675715 0.884398 0.801373
0.675746 0.884138 0.801389
0.675822 0.883635 0.801434
0.676097 0.881636 0.801587
0.688533 0.875471 0.80174
0.784878 0.868955 0.802243
0.83798 0.872084 0.804623
0.839521 0.885603 0.807157
0.838865 0.906996 0.815763
0.647181 0.925734 0.774212
0.649195 0.925322 0.774334
0.652918 0.924651 0.774517
0.666926 0.922728 0.774899
0.710277 0.918715 0.775753
0.774929 0.914595 0.778881
0.82295 0.91252 0.785031
0.836835 0.913863 0.793698
0.837507 0.919707 0.809018
0.759747 0.924422 0.729229
0.760616 0.924407 0.729351
0.76199 0.924407 0.729534
0.765972 0.924407 0.730083
0.776181 0.924422 0.731746
0.796109 0.924468 0.736446
0.821256 0.924559 0.747539
0.834745 0.92462 0.768078
0.836164 0.924681 0.797101
0.815717 0.924544 0.772839
0.815824 0.924544 0.772869
0.815991 0.924544 0.7729
0.81651 0.924544 0.773022
0.817975 0.924544 0.773404
0.821714 0.924575 0.774456
0.829053 0.924605 0.777417
0.835447 0.924651 0.784451
0.836423 0.924697 0.801083
0.753658 0.833951 0.85391
0.753658 0.833951 0.85391
0.753658 0.833951 0.85391
0.753658 0.833951 0.85391
0.753658 0.833951 0.85391
0.84152 0.833936 0.853895
0.847318 0.833783 0.853834
0.847318 0.833783 0.853834
0.843793 0.884382 0.853223
0.753658 0.833951 0.85391
0.753658 0.833951 0.85391
0.753658 0.833951 0.85391
0.753658 0.833951 0.85391
0.753658 0.833951 0.85391
0.842206 0.833921 0.853895
0.847318 0.833783 0.853834
0.847318 0.833783 0.853834
0.843763 0.884932 0.853223
0.753658 0.833951 0.85391
0.753658 0.833951 0.85391
0.753658 0.833951 0.85391
0.753658 0.833951 0.85391
0.753658 0.833951 0.85391
0.843336 0.833921 0.853895
0.847318 0.833783 0.853834
0.847318 0.833783 0.853834
0.843702 0.885832 0.853223
0.753658 0.833951 0.85391
0.753658 0.833951 0.85391
0.753658 0.833951 0.85391
0.753658 0.833951 0.85391
0.753658 0.833951 0.85391
0.846647 0.83389 0.85388
0.847318 0.833783 0.853834
0.847318 0.833783 0.853834
0.843534 0.888395 0.853193
0.753658 0.833951 0.85391
0.753658 0.833951 0.85391
0.753658 0.833951 0.85391
0.753658 0.833951 0.85391
0.754086 0.833951 0.85391
0.847318 0.833783 0.853834
0.847318 0.833783 0.853834
0.847349 0.833494 0.853834
0.843137 0.895048 0.852689
0.744106 0.858763 0.853773
0.744106 0.858824 0.853773
0.74406 0.858946 0.853773
0.743954 0.859297 0.853773
0.743267 0.857359 0.853788
0.803006 0.85304 0.853635
0.845487 0.858885 0.853452
0.844068 0.880232 0.853254
0.842329 0.907744 0.849958
0.721462 0.924727 0.84239
0.721492 0.924727 0.842405
0.721523 0.924727 0.842451
0.72163 0.924727 0.842573
0.731212 0.923522 0.842954
0.779568 0.918486 0.843305
0.82623 0.916197 0.844221
0.841459 0.917632 0.844862
0.841352 0.922957 0.84596
0.767102 0.924498 0.83653
0.767819 0.924498 0.836545
0.768963 0.924514 0.836545
0.772351 0.924514 0.836545
0.781338 0.924544 0.836606
0.800153 0.924636 0.836835
0.823819 0.924758 0.837522
0.84007 0.924834 0.839033
0.840452 0.924849 0.841993
0.818479 0.924697 0.827329
0.818586 0.924697 0.827344
0.818738 0.924712 0.827344
0.819211 0.924712 0.82739
0.820569 0.924712 0.827482
0.824048 0.924727 0.827771
0.830915 0.924773 0.82858
0.839033 0.924804 0.830701
0.839643 0.924819 0.835599
0.753658 0.833997 0.85391
0.753658 0.833997 0.85391
0.753658 0.833997 0.85391
0.753658 0.833997 0.85391
0.753658 0.833997 0.85391
0.753658 0.833997 0.85391
0.847318 0.833783 0.853834
0.847318 0.833783 0.853834
0.846937 0.838773 0.853742
0.753658 0.833997 0.85391
0.753658 0.833997 0.85391
0.753658 0.833997 0.85391
0.753658 0.833997 0.85391
0.753658 0.833997 0.85391
0.753658 0.833997 0.85391
0.847318 0.833783 0.853834
0.847318 0.833783 0.853834
0.846937 0.838773 0.853742
0.753658 0.833997 0.85391
0.753658 0.833997 0.85391
0.753658 0.833997 0.85391
0.753658 0.833997 0.85391
0.753658 0.833997 0.85391
0.753658 0.833997 0.85391
0.847318 0.833783 0.853834
0.847318 0.833783 0.853834
0.846937 0.838773 0.853742
0.753658 0.833997 0.85391
0.753658 0.833997 0.85391
0.753658 0.833997 0.85391
0.753658 0.833997 0.85391
0.753658 0.833997 0.85391
0.753658 0.833967 0.85391
0.847318 0.833783 0.853834
0.847318 0.833783 0.853834
0.846937 0.838758 0.853742
0.753658 0.833997 0.85391
0.753658 0.833997 0.85391
0.753658 0.833997 0.85391
0.753658 0.833997 0.85391
0.753658 0.833997 0.85391
0.754208 0.833951 0.85391
0.847318 0.833783 0.853834
0.847318 0.833783 0.853834
0.846937 0.838743 0.853742
0.753658 0.833997 0.85391
0.753658 0.833997 0.85391
0.753658 0.833997 0.85391
0.753658 0.833997 0.85391
0.753658 0.833997 0.85391
0.776318 0.833951 0.85388
0.847318 0.833783 0.853834
0.847318 0.833829 0.853834
0.844526 0.873137 0.853315
0.743999 0.916136 0.853284
0.743999 0.916152 0.853284
0.743999 0.916182 0.853284
0.743969 0.916259 0.853284
0.743938 0.916518 0.853284
0.761608 0.906294 0.853284
0.832425 0.90309 0.853193
0.842313 0.907622 0.853086
0.841581 0.919219 0.853025
0.74905 0.924529 0.852949
0.749752 0.924529 0.852949
0.750942 0.924529 0.852934
0.754788 0.924514 0.852918
0.766873 0.924514 0.852857
0.79295 0.924605 0.852827
0.823743 0.924788 0.852857
0.841276 0.925078 0.853056
0.841276 0.925078 0.853056
0.819013 0.924758 0.852857
0.819135 0.924758 0.852857
0.819303 0.924758 0.852857
0.819852 0.924758 0.852857
0.821424 0.924773 0.852857
0.825406 0.924788 0.852857
0.832883 0.924834 0.852857
0.841276 0.925078 0.853056
0.841276 0.925078 0.853056
0.753628 0.834241 0.85391
0.753628 0.834241 0.85391
0.753628 0.834241 0.85391
0.753628 0.834241 0.85391
0.753628 0.834241 0.85391
0.753628 0.834241 0.85391
0.753628 0.834241 0.85391
0.847303 0.834043 0.853819
0.846708 0.841794 0.853681
0.753628 0.834241 0.85391
0.753628 0.834241 0.85391
0.753628 0.834241 0.85391
0.753628 0.834241 0.85391
0.753628 0.834241 0.85391
0.753628 0.834241 0.85391
0.753628 0.834241 0.85391
0.847303 0.834043 0.853819
0.846708 0.84181 0.853681
0.753628 0.834241 0.85391
0.753628 0.834241 0.85391
0.753628 0.834241 0.85391
0.753628 0.834241 0.85391
0.753628 0.834241 0.85391
0.753628 0.834241 0.85391
0.753628 0.834241 0.85391
0.847303 0.834058 0.853819
0.846708 0.84181 0.853681
0.753628 0.834241 0.85391
0.753628 0.834241 0.85391
0.753628 0.834241 0.85391
0.753628 0.834241 0.85391
0.753628 0.834241 0.85391
0.753628 0.834241 0.85391
0.753628 0.834241 0.85391
0.847303 0.834058 0.853819
0.846708 0.841825 0.853681
0.753628 0.834241 0.85391
0.753628 0.834241 0.85391
0.753628 0.834241 0.85391
0.753628 0.834241 0.85391
0.753628 0.834241 0.85391
0.753628 0.834241 0.85391
0.754192 0.834195 0.85391
0.847303 0.834058 0.853819
0.846708 0.841886 0.853681
0.753628 0.834241 0.85391
0.753628 0.834241 0.85391
0.753628 0.834241 0.85391
0.753628 0.834241 0.85391
0.753628 0.834241 0.85391
0.753628 0.834241 0.85391
0.781933 0.834028 0.853864
0.847303 0.834089 0.853819
0.846693 0.841978 0.853681
0.753628 0.834241 0.85391
0.753628 0.834241 0.85391
0.753628 0.834241 0.85391
0.753628 0.834241 0.85391
0.753628 0.834241 0.85391
0.753628 0.834241 0.85391
0.847318 0.833783 0.853834
0.847303 0.834134 0.853819
0.846693 0.84213 0.853681
0.740978 0.924559 0.85301
0.740978 0.924559 0.85301
0.740978 0.924559 0.85301
0.740978 0.924559 0.85301
0.740978 0.924559 0.85301
0.740978 0.924559 0.85301
0.80499 0.924681 0.852842
0.841276 0.925078 0.853056
0.841276 0.925078 0.853056
0.796048 0.92462 0.852827
0.796643 0.924636 0.852842
0.797162 0.924636 0.852827
0.798688 0.924636 0.852842
0.802869 0.924666 0.852842
0.812451 0.924712 0.852842
0.82739 0.924804 0.852857
0.840192 0.924865 0.852857
0.841276 0.925078 0.853056
