BBLuts/BB_103_0160_LUT.cube
TITLE "Generated by Resolve"
LUT_3D_SIZE 5
0.00233463 0.00335698 0.000961318
0.284642 0.00257877 0
0.864912 0 0
0.99501 0.715526 0.111788
0.95671 1 0.768475
0 0.315908 0
0.202136 0.314458 0
0.855726 0.204211 0
0.988937 0.770459 0.060441
0.95668 1 0.768185
0 0.94258 0.00209049
0 0.941955 0.00201419
0.750072 0.929351 0
0.970245 0.979278 0.00637827
0.956298 1 0.763592
0.62858 1 0.255177
0.628565 1 0.255177
0.786923 1 0.263905
0.95407 1 0.420706
0.953841 1 0.796872
0.924102 1 0.878492
0.924102 1 0.878492
0.924102 1 0.878492
0.939788 1 0.881285
0.951843 1 0.905257
0.00534066 0.00717174 0.234409
0.244404 0.00642405 0.231327
0.867765 0 0.220951
0.998016 0.7028 0.327108
0.95671 1 0.768475
0 0.263767 0.213886
0.19939 0.260349 0.208789
0.856901 0.112398 0.203174
0.99234 0.761898 0.307195
0.95668 1 0.768185
0 0.937667 0.00157168
0 0.937072 0.0015259
0.753033 0.925002 0
0.971923 0.979431 0.116136
0.956298 1 0.763592
0.635981 1 0.253742
0.635981 1 0.253742
0.788785 1 0.263264
0.954147 1 0.420478
0.953841 1 0.796872
0.924147 1 0.878492
0.924147 1 0.878492
0.924147 1 0.878492
0.939803 1 0.881285
0.951843 1 0.905257
0 0.00128176 0.806241
0 0.00128176 0.806531
0.852399 0 0.791409
1 0.387686 0.824018
0.955795 1 0.863508
0 0.00128176 0.805142
0 0.00128176 0.805234
0.861463 0 0.790234
1 0.584131 0.819348
0.955764 1 0.863386
0 0.880842 0.766812
0 0.880964 0.766873
0.718547 0.870466 0.76289
0.967269 0.946944 0.780377
0.955306 1 0.861631
0.615167 1 0.668208
0.615167 1 0.668208
0.769146 1 0.666163
0.943816 1 0.709697
0.953353 1 0.845624
0.924666 1 0.878416
0.924666 1 0.878416
0.924651 1 0.878416
0.940002 1 0.881209
0.951843 1 0.905226
0 0.00268559 0.992996
0 0.00268559 0.992996
0 0.00268559 0.992996
1 0.00648508 0.993088
0.957565 1 0.968811
0 0.00268559 0.992996
0 0.00268559 0.992996
0 0.00268559 0.992996
1 0.00648508 0.993088
0.957443 1 0.968688
0 0.00268559 0.992996
0 0.00268559 0.992996
0 0.00268559 0.992996
1 0.00648508 0.993088
0.956222 1 0.96733
0 1 0.991119
0 1 0.991119
0.00555428 1 0.990433
0.927474 1 0.960571
0.952728 1 0.962676
0.920256 1 0.9467
0.920256 1 0.9467
0.920256 1 0.9467
0.935195 1 0.947372
0.951492 1 0.95346
0 0.375219 0.989731
0 0.375219 0.989731
0 0.375219 0.989731
0 0.375341 0.989731
0.98291 0.812161 0.994339
0 0.375219 0.989731
0 0.375219 0.989731
0 0.375219 0.989731
0 0.375341 0.989731
0.98291 0.812161 0.994339
0 0.375219 0.989731
0 0.375219 0.989731
0 0.375219 0.989731
0 0.375341 0.989731
0.98291 0.812161 0.994339
0 0.373587 0.989746
0 0.373587 0.989746
0 0.373587 0.989746
0.101122 0.351568 0.988724
0.9823 0.81651 0.993988
0.865827 1 0.981155
0.865827 1 0.981155
0.865827 1 0.981155
0.873106 1 0.981186
0.951553 1 0.981964
