BBLuts/BB_104_0110_LUT.cube
TITLE "Generated by Resolve"
LUT_3D_SIZE 33
0.0455329 0.0566262 0.066865
0.0455329 0.0566262 0.066865
0.0455329 0.0566262 0.066865
0.0455329 0.0566262 0.066865
0.0455329 0.0566262 0.066865
0.0988479 0.057023 0.0673075
0.161318 0.0575113 0.0678416
0.20708 0.0577401 0.0684367
0.254108 0.0579995 0.0689708
0.31136 0.0587625 0.0695659
0.378134 0.0602884 0.0708629
0.45275 0.062974 0.0739605
0.531518 0.0685893 0.0805371
0.599237 0.0816052 0.095964
0.663249 0.114275 0.134691
0.731563 0.197009 0.231144
0.800534 0.350454 0.353674
0.869825 0.493309 0.471351
0.932769 0.588327 0.560037
0.982437 0.641169 0.609186
0.991608 0.65098 0.617517
0.991608 0.65098 0.617517
0.991455 0.654063 0.617838
0.991104 0.661387 0.617777
0.990295 0.677714 0.616907
0.988754 0.708629 0.614206
0.986343 0.754986 0.607645
0.983474 0.806241 0.594888
0.980697 0.850004 0.575631
0.978134 0.885557 0.553841
0.976074 0.913741 0.577783
0.97464 0.93608 0.638331
0.973571 0.954406 0.699397
0.0455329 0.0566262 0.066865
0.0455329 0.0566262 0.066865
0.0455329 0.0566262 0.066865
0.0455329 0.0566262 0.066865
0.0455329 0.0566262 0.066865
0.111406 0.0571298 0.0673991
0.165713 0.0575265 0.0679026
0.210712 0.0577554 0.0684672
0.260487 0.0579843 0.0691691
0.318883 0.058793 0.0698253
0.38529 0.0604715 0.0710918
0.459174 0.0632792 0.0743114
0.534646 0.068925 0.0809644
0.600732 0.0821241 0.0965438
0.664515 0.115236 0.135836
0.732448 0.198642 0.232761
0.801068 0.351614 0.354589
0.870069 0.493767 0.471763
0.932692 0.588251 0.559945
0.982101 0.640818 0.608896
0.991608 0.65098 0.617517
0.991608 0.65098 0.617517
0.991424 0.654734 0.617594
0.991043 0.662531 0.617609
0.990219 0.6795 0.616709
0.988632 0.710872 0.613901
0.986221 0.757214 0.607111
0.983368 0.807828 0.594156
0.980621 0.850965 0.574304
0.978088 0.886152 0.552102
0.976043 0.914061 0.576699
0.974624 0.936278 0.63798
0.973571 0.954543 0.69926
0.0455329 0.0566262 0.066865
0.0455329 0.0566262 0.066865
0.0455329 0.0566262 0.066865
0.0455329 0.0566262 0.066865
0.0455329 0.0566262 0.066865
0.118883 0.0571908 0.0674754
0.167224 0.0575418 0.0679179
0.21416 0.0577707 0.0685283
0.266758 0.0580453 0.0692149
0.325521 0.0588846 0.0699626
0.390677 0.0606546 0.0712749
0.462608 0.0634318 0.0745098
0.537224 0.0692302 0.0813153
0.602319 0.0826429 0.0971695
0.665812 0.116213 0.136995
0.733303 0.200259 0.234348
0.801602 0.352758 0.35552
0.870314 0.494209 0.472175
0.932586 0.588159 0.559823
0.981765 0.640452 0.608576
0.991608 0.65098 0.617517
0.991608 0.65098 0.617517
0.991394 0.655436 0.617182
0.990982 0.663737 0.617441
0.990112 0.681331 0.616495
0.988525 0.71313 0.613596
0.986099 0.759426 0.606561
0.983276 0.809354 0.593408
0.98056 0.851911 0.572961
0.978027 0.886732 0.550301
0.976013 0.914397 0.57557
0.974594 0.936477 0.637613
0.973556 0.95465 0.699123
0.0455329 0.0566262 0.066865
0.0455329 0.0566262 0.066865
0.0455329 0.0566262 0.066865
0.0445106 0.0619821 0.066392
0.0686961 0.0670176 0.0661631
0.124605 0.0572366 0.0675212
0.16791 0.0575418 0.0679179
0.21445 0.0577707 0.0685283
0.267536 0.0581216 0.0691386
0.328054 0.0589609 0.0699779
0.394202 0.0607462 0.0713817
0.46569 0.0635996 0.0746929
0.539712 0.0695201 0.081651
0.603922 0.0831922 0.0978408
0.667109 0.117235 0.138216
0.734188 0.201923 0.235981
0.802121 0.353887 0.35642
0.870527 0.494606 0.472541
0.932464 0.588037 0.55967
0.981399 0.640055 0.60824
0.991608 0.65098 0.617517
0.991608 0.65098 0.617517
0.991333 0.656229 0.617136
0.990921 0.665019 0.617258
0.990021 0.683207 0.616281
0.988403 0.715419 0.61326
0.985977 0.761593 0.606027
0.983185 0.810895 0.59266
0.980484 0.852842 0.571588
0.977981 0.887297 0.548486
0.975982 0.914717 0.574441
0.974578 0.93669 0.637247
0.973526 0.954787 0.698985
0.0361944 0.106111 0.0624247
0.0356603 0.108888 0.0621805
0.0351568 0.111559 0.0619364
0.0346838 0.114153 0.0617075
0.0344854 0.11516 0.0616159
0.105089 0.115038 0.0623178
0.153292 0.113069 0.0631418
0.203006 0.108263 0.06421
0.260685 0.0972915 0.0657206
0.329519 0.0589303 0.0700847
0.396216 0.0608072 0.0714733
0.468513 0.0637369 0.074876
0.542077 0.06981 0.082002
0.605554 0.083772 0.0985122
0.668452 0.118288 0.139483
0.735073 0.203632 0.237598
0.80264 0.355016 0.357305
0.870726 0.494972 0.472862
0.932342 0.587915 0.559518
0.981018 0.639658 0.607904
0.991608 0.65098 0.617517
0.991562 0.651942 0.617441
0.991302 0.657084 0.617075
0.99086 0.666346 0.617044
0.989929 0.685115 0.616053
0.988281 0.717708 0.612924
0.98587 0.763729 0.605478
0.983093 0.812406 0.591913
0.980423 0.853758 0.570199
0.97792 0.887861 0.546609
0.975937 0.915038 0.573312
0.974548 0.936889 0.636896
0.97351 0.954894 0.698833
0.0304265 0.136721 0.0596933
0.0299992 0.138918 0.0594949
0.0296025 0.1411 0.0592966
0.0292668 0.142809 0.059144
0.0291295 0.143648 0.0590677
0.0784009 0.14406 0.0594492
0.139879 0.143282 0.0603952
0.193103 0.141207 0.0613565
0.252552 0.13724 0.0623178
0.321691 0.129946 0.063798
0.39205 0.115648 0.0665446
0.47097 0.0638743 0.0750286
0.544472 0.0700999 0.0823529
0.607279 0.0843977 0.0992599
0.669871 0.119448 0.140856
0.736034 0.205493 0.239368
0.803174 0.356176 0.358236
0.870939 0.495354 0.473213
0.932189 0.587762 0.55935
0.980606 0.6392 0.607523
0.991608 0.65098 0.617517
0.991485 0.653452 0.617334
0.991257 0.658045 0.616999
0.990784 0.667796 0.6168
0.989822 0.687175 0.615808
0.988174 0.720104 0.612573
0.985748 0.765942 0.604913
0.983001 0.813962 0.591119
0.980346 0.854719 0.568704
0.977874 0.888441 0.54464
0.975906 0.915373 0.572091
0.974533 0.937087 0.6365
0.973495 0.955032 0.698695
0.0260624 0.168948 0.0567941
0.0259861 0.170779 0.056611
0.0258946 0.172625 0.0564431
0.0258488 0.173648 0.0563516
0.0258183 0.174304 0.0562905
0.025803 0.174548 0.0562753
0.11548 0.175067 0.0570382
0.17644 0.174228 0.057847
0.239094 0.172168 0.0587472
0.313893 0.168597 0.0601053
0.387274 0.162661 0.0622873
0.46659 0.152316 0.0671702
0.544305 0.132738 0.0771649
0.609506 0.0852369 0.100237
0.671717 0.120989 0.142672
0.737255 0.207919 0.241611
0.803891 0.357717 0.359457
0.871199 0.495827 0.47364
0.931991 0.587549 0.559091
0.980056 0.638621 0.607019
0.991608 0.65098 0.617517
0.99144 0.654429 0.617273
0.991196 0.659358 0.616892
0.990677 0.669734 0.616358
0.9897 0.68986 0.615488
0.988006 0.723217 0.612085
0.98558 0.768765 0.60415
0.982864 0.81593 0.590082
0.980255 0.855924 0.566735
0.977813 0.889174 0.542
0.975845 0.915801 0.57052
0.974487 0.937362 0.635996
0.97348 0.955184 0.698497
0.0243381 0.205463 0.0534829
0.0242618 0.207065 0.0533303
0.0242008 0.20827 0.0532082
0.0241703 0.209064 0.0531624
0.0241398 0.209613 0.0531014
0.0241245 0.209934 0.0530556
0.0514076 0.2103 0.0533913
0.150973 0.210697 0.0542153
0.220584 0.209384 0.0552529
0.302663 0.206821 0.0566567
0.383215 0.203006 0.0590219
0.463951 0.199268 0.062974
0.544335 0.194003 0.0720989
0.609201 0.188602 0.092195
0.672541 0.180484 0.139895
0.738903 0.211231 0.244633
0.804837 0.359777 0.361105
0.87155 0.496452 0.474235
0.931685 0.587259 0.558724
0.979278 0.637781 0.606317
0.991516 0.652705 0.617395
0.991363 0.655726 0.617166
0.991104 0.661265 0.616754
0.990555 0.67248 0.615824
0.989517 0.693538 0.615015
0.987793 0.727337 0.611414
0.985382 0.772412 0.603128
0.982712 0.818463 0.588678
0.980133 0.857496 0.564065
0.977707 0.890166 0.538384
0.975784 0.91635 0.568368
0.974441 0.937728 0.635355
0.973449 0.955398 0.698238
0.0220188 0.254276 0.049012
0.0219425 0.255833 0.0488594
0.021912 0.256703 0.0487678
0.0218662 0.257588 0.0486915
0.0218357 0.258198 0.0486305
0.0218204 0.258625 0.0486
0.0218051 0.258885 0.0485695
0.0986954 0.259388 0.0493935
0.187991 0.258198 0.0502937
0.279255 0.254887 0.0518654
0.369284 0.251591 0.0542153
0.457145 0.249042 0.0582742
0.543725 0.246509 0.0676738
0.610468 0.24921 0.0882277
0.673243 0.268025 0.135195
0.73846 0.314656 0.240208
0.805264 0.395102 0.360937
0.872007 0.497292 0.474983
0.931243 0.586786 0.558175
0.978058 0.638773 0.605142
0.991424 0.654612 0.617258
0.991272 0.65771 0.617029
0.990951 0.664103 0.616526
0.990356 0.676417 0.615473
0.989242 0.698528 0.614343
0.987503 0.732799 0.610483
0.985122 0.777142 0.601709
0.982513 0.821744 0.586725
0.97998 0.859541 0.560357
0.9776 0.891417 0.533364
0.975708 0.917082 0.565438
0.974395 0.938186 0.634455
0.973419 0.955673 0.697902
0.0190738 0.316106 0.0419318
0.0190433 0.316594 0.0418555
0.0190127 0.317067 0.0417945
0.0189975 0.317464 0.0417487
0.0189822 0.317693 0.0417029
0.0189822 0.317754 0.0417029
0.0189975 0.317632 0.0417334
0.0190127 0.317205 0.0417792
0.132265 0.316732 0.043183
0.235279 0.31516 0.0442969
0.343175 0.312123 0.0466468
0.442634 0.309758 0.0509346
0.539147 0.307149 0.0607309
0.610941 0.308263 0.0827802
0.675166 0.322576 0.132479
0.740108 0.360388 0.240299
0.806149 0.429618 0.361166
0.871839 0.521721 0.473899
0.93019 0.592889 0.556603
0.976318 0.639857 0.603479
0.991302 0.656962 0.617075
0.991119 0.660853 0.616785
0.990738 0.66836 0.616175
0.990066 0.682078 0.614939
0.988907 0.705364 0.613352
0.987121 0.740032 0.60914
0.984771 0.783185 0.599756
0.982238 0.825879 0.583932
0.979782 0.86215 0.5552
0.977432 0.893034 0.526268
0.975616 0.918029 0.561364
0.974319 0.938781 0.633295
0.973373 0.956039 0.697459
0.0158236 0.383215 0.030808
0.0157931 0.383688 0.0307164
0.0157778 0.384192 0.0306249
0.0157626 0.384527 0.0305486
0.0157473 0.384802 0.0305028
0.0157321 0.38497 0.030457
0.0157321 0.385031 0.030457
0.0157473 0.384894 0.0304723
0.0157626 0.38439 0.0305791
0.16054 0.383551 0.032639
0.295735 0.38175 0.0344396
0.415946 0.379263 0.0386816
0.527428 0.376516 0.0485237
0.608499 0.376318 0.0718242
0.675837 0.385214 0.124727
0.741695 0.411917 0.238071
0.807294 0.465675 0.361303
0.871916 0.53785 0.473304
0.928801 0.59762 0.55462
0.973785 0.641535 0.601038
0.991119 0.660975 0.61677
0.990875 0.665904 0.616373
0.990417 0.674861 0.61561
0.989654 0.690181 0.61413
0.988434 0.714656 0.611749
0.986618 0.749538 0.607202
0.984329 0.790814 0.597009
0.981888 0.831098 0.579675
0.979522 0.865476 0.547784
0.977218 0.895094 0.515908
0.975464 0.919249 0.555734
0.974227 0.939559 0.631739
0.973312 0.956512 0.69688
0.0119936 0.462867 0.022858
0.0119631 0.463371 0.0228428
0.0119478 0.463798 0.0228428
0.0119326 0.464164 0.0228275
0.0119173 0.464439 0.0228275
0.011902 0.464652 0.0228122
0.011902 0.46482 0.0228122
0.011902 0.464881 0.0228122
0.011902 0.464714 0.0228122
0.0119173 0.464317 0.0228275
0.187701 0.463004 0.0218357
0.363912 0.460853 0.0208591
0.502541 0.458564 0.0255283
0.600046 0.457435 0.0487221
0.672236 0.46157 0.103319
0.741299 0.478355 0.225208
0.807691 0.512398 0.357931
0.871321 0.561837 0.47071
0.926436 0.606821 0.55108
0.970092 0.64593 0.597406
0.990784 0.667872 0.616205
0.990463 0.674159 0.615671
0.989929 0.684794 0.614679
0.989075 0.701808 0.612833
0.987778 0.727245 0.609339
0.985962 0.76173 0.604303
0.98378 0.800549 0.593271
0.98146 0.837476 0.57322
0.979171 0.869688 0.536782
0.976944 0.897704 0.500145
0.97528 0.920821 0.547616
0.974105 0.940581 0.629633
0.97322 0.957122 0.696101
0.0074464 0.546593 0.020737
0.00743114 0.546929 0.020737
0.00740063 0.547234 0.0207218
0.00738537 0.547478 0.0207218
0.00737011 0.547662 0.0207065
0.00737011 0.547845 0.0207065
0.00735485 0.547997 0.0207065
0.00735485 0.548135 0.0206912
0.00733959 0.548257 0.0206912
0.00733959 0.548348 0.0206912
0.00733959 0.548348 0.0206912
0.219532 0.547387 0.0194858
0.444877 0.545876 0.0182193
0.5823 0.544228 0.017319
0.661204 0.544427 0.0524758
0.735531 0.550454 0.177493
0.805432 0.566995 0.343374
0.869291 0.592721 0.463264
0.922866 0.623652 0.545083
0.965087 0.655894 0.592447
0.990188 0.679637 0.615167
0.989807 0.687434 0.614404
0.989181 0.699763 0.613077
0.988251 0.718151 0.610712
0.986893 0.74406 0.606348
0.985122 0.776776 0.6
0.983078 0.812024 0.588098
0.980926 0.845182 0.563668
0.978714 0.874876 0.519585
0.976577 0.900954 0.473915
0.975036 0.922835 0.535531
0.973938 0.941878 0.62681
0.973114 0.957916 0.695064
0.00224308 0.614054 0.0183261
0.00222782 0.614252 0.0183108
0.00221256 0.61442 0.0183108
0.0021973 0.614572 0.0182956
0.0021973 0.614694 0.0182956
0.00218204 0.614816 0.0182956
0.00216678 0.614923 0.0182956
0.00216678 0.615045 0.0182803
0.00215152 0.615122 0.0182803
0.00215152 0.615152 0.0182803
0.00216678 0.615045 0.0182803
0.00218204 0.61474 0.0182956
0.278248 0.613474 0.0167544
0.536522 0.611811 0.015259
0.640803 0.610559 0.0142977
0.722622 0.6112 0.066041
0.797955 0.617105 0.297551
0.864622 0.630579 0.444572
0.917494 0.651225 0.534249
0.958358 0.675212 0.585214
0.989227 0.698848 0.613184
0.988769 0.707927 0.612085
0.988083 0.721416 0.610224
0.987091 0.740414 0.60705
0.985733 0.76553 0.601419
0.9841 0.794705 0.59353
0.982238 0.825467 0.579507
0.980255 0.854353 0.548882
0.978134 0.881163 0.49041
0.976074 0.904875 0.425971
0.974716 0.925322 0.516579
0.973739 0.943511 0.622965
0.972976 0.958938 0.693721
0 0.676951 0.0157931
0 0.677073 0.0157778
0 0.67718 0.0157778
0 0.677256 0.0157778
0 0.677333 0.0157778
0 0.677378 0.0157626
0 0.67744 0.0157626
0 0.677485 0.0157626
0 0.677501 0.0157626
0 0.677455 0.0157626
0 0.677287 0.0157778
0 0.67689 0.0157931
0 0.676127 0.0158236
0.381338 0.674128 0.0136721
0.605631 0.672206 0.0121614
0.701091 0.670939 0.0112001
0.783536 0.672114 0.102113
0.85478 0.678843 0.393957
0.909041 0.690791 0.51104
0.949371 0.706706 0.570336
0.981384 0.725124 0.603006
0.987259 0.73724 0.60763
0.986526 0.750851 0.604929
0.98555 0.768872 0.600504
0.984314 0.790646 0.593484
0.982849 0.815366 0.583703
0.981216 0.840604 0.563195
0.979416 0.865095 0.523644
0.977386 0.888533 0.436439
0.975296 0.909392 0.319966
0.974273 0.92842 0.483116
0.97348 0.945586 0.6177
0.972808 0.960235 0.691905
0 0.740917 0.0132143
0 0.740963 0.0131991
0 0.741009 0.0131991
0 0.741039 0.0131991
0 0.741054 0.0131991
0 0.741054 0.0131991
0 0.74107 0.0131991
0 0.741054 0.0131991
0 0.741009 0.0131991
0 0.740871 0.0132143
0 0.740627 0.0132143
0 0.740139 0.0132448
0 0.7393 0.0132753
0 0.738094 0.0133211
0.49543 0.735531 0.0104829
0.666102 0.733425 0.00901808
0.761151 0.732174 0.00805676
0.837522 0.733837 0.116655
0.895338 0.740383 0.441016
0.937057 0.74995 0.536507
0.968963 0.762356 0.583535
0.985214 0.774853 0.598764
0.984558 0.786374 0.594995
0.983719 0.801083 0.589517
0.982651 0.818189 0.580148
0.981414 0.837171 0.562432
0.979995 0.856947 0.534463
0.978347 0.877256 0.471565
0.976242 0.896742 0.29955
0.973709 0.913924 0
0.973632 0.932082 0.411078
0.973144 0.948135 0.610346
0.972595 0.961837 0.68954
0 0.803937 0.0106813
0 0.803922 0.0106813
0 0.803922 0.0106813
0 0.803876 0.0106813
0 0.803876 0.0106813
0 0.80383 0.0106813
0 0.803784 0.0106813
0 0.803693 0.0106813
0 0.80354 0.0106966
0 0.803326 0.0106966
0 0.802945 0.0107118
0 0.802335 0.0107424
0 0.801373 0.0107881
0 0.800061 0.0108339
0 0.798123 0.0108949
0.592905 0.794827 0.00729381
0.728527 0.79237 0.00595102
0.814038 0.791226 0.00508125
0.875242 0.792477 0.00437934
0.921065 0.798138 0.418814
0.954772 0.805508 0.530861
0.979004 0.814572 0.575936
0.982345 0.823178 0.576074
0.981659 0.833356 0.565621
0.980819 0.845441 0.548608
0.979782 0.859129 0.518074
0.978515 0.874388 0.467811
0.976791 0.890181 0.312413
0.974426 0.905257 0
0.973114 0.920562 0
0.972152 0.935622 0.109804
0.972717 0.951217 0.599847
0.972305 0.963836 0.686366
0 0.857237 0.00852979
0 0.857176 0.00852979
0 0.857114 0.00852979
0 0.857038 0.00852979
0 0.856962 0.00852979
0 0.856886 0.00854505
0 0.856764 0.00854505
0 0.856596 0.00854505
0 0.856352 0.00856031
0 0.856016 0.00857557
0 0.855482 0.00860609
0 0.854688 0.00863661
0 0.85359 0.00866712
0 0.85214 0.00872816
0 0.850263 0.00880446
0 0.847974 0.00889601
0.682719 0.843748 0.00434882
0.787472 0.841352 0.00332647
0.854536 0.840436 0.00265507
0.902785 0.841321 0.00210575
0.939315 0.844938 0.219028
0.965805 0.850553 0.47715
0.97998 0.856565 0.525154
0.979461 0.863005 0.505333
0.978744 0.871168 0.466346
0.977722 0.880827 0.379477
0.975875 0.891096 0.0856031
0.974609 0.903044 0
0.973541 0.915511 0
0.972396 0.928145 0
0.971206 0.940658 0
0.972168 0.954833 0.584985
0.971939 0.966278 0.682109
0 0.898222 0.00688182
0 0.898116 0.00688182
0 0.898009 0.00688182
0 0.897917 0.00688182
0 0.897795 0.00689708
0 0.897673 0.00689708
0 0.897505 0.00689708
0 0.897276 0.00691234
0 0.896956 0.0069276
0 0.896513 0.00694286
0 0.895857 0.00697337
0 0.894987 0.00700389
0 0.893812 0.00704967
0 0.892271 0.0071107
0 0.890303 0.007187
0 0.887892 0.00729381
0.601923 0.883772 0.00357061
0.760433 0.88072 0.00201419
0.83447 0.878859 0.00129702
0.886213 0.878157 0.00077821
0.924422 0.878798 0.000335698
0.951949 0.880888 0
0.973434 0.884825 0.117662
0.975921 0.888685 0.0452277
0.975341 0.893874 0
0.974807 0.900511 0
0.974151 0.908278 0
0.973388 0.916884 0
0.972519 0.92636 0
0.971557 0.936492 0
0.970535 0.946807 0
0.971527 0.958968 0.55819
0.971511 0.969192 0.676387
0 0.930266 0.0055848
0 0.930129 0.0055848
0 0.930007 0.0055848
0 0.929854 0.00560006
0 0.929717 0.00560006
0 0.929564 0.00561532
0 0.929351 0.00561532
0 0.929076 0.00563058
0 0.928695 0.00564584
0 0.928191 0.0056611
0 0.927504 0.00569161
0 0.926604 0.00572213
0 0.925414 0.00578317
0 0.923858 0.00584421
0 0.921904 0.0059205
0 0.919493 0.00601205
0 0.916808 0.00611887
0.730922 0.912398 0.00102235
0.815549 0.910109 0.000228885
0.870451 0.908629 0
0.910475 0.90808 0
0.939925 0.908568 0
0.962661 0.910018 0
0.973785 0.912306 0
0.973526 0.915267 0
0.973159 0.91928 0
0.972686 0.924376 0
0.972107 0.93051 0
0.971405 0.937591 0
0.970611 0.945327 0
0.969787 0.95346 0
0.970901 0.963714 0.546258
0.970977 0.972564 0.668559
0 0.953933 0.00462348
0 0.953765 0.00463874
0 0.953613 0.00463874
0 0.953445 0.00463874
0 0.953292 0.004654
0 0.953109 0.00466926
0 0.952895 0.00466926
0 0.95259 0.00468452
0 0.952193 0.00469978
0 0.95169 0.00471504
0 0.951003 0.00474556
0 0.950103 0.00477607
0 0.948928 0.00482185
0 0.947417 0.00489815
0 0.94551 0.00495918
0 0.943206 0.005066
0 0.940703 0.00515755
0.703456 0.936492 0.000335698
0.800473 0.934112 0
0.857847 0.932296 0
0.898497 0.931167 0
0.929122 0.930739 0
0.953185 0.931044 0
0.971206 0.932143 0
0.971756 0.9337 0
0.971511 0.936141 0
0.97116 0.939498 0
0.970733 0.943679 0
0.970199 0.948653 0
0.969589 0.954284 0
0.968963 0.960388 0
0.970199 0.968948 0.534813
0.970474 0.976455 0.668116
0 0.971878 0.00390631
0 0.97171 0.00390631
0 0.971557 0.00392157
0 0.971389 0.00392157
0 0.971206 0.00393683
0 0.971054 0.00393683
0 0.97084 0.00395209
0 0.97052 0.00395209
0 0.970138 0.00396735
0 0.96965 0.00399786
0 0.968978 0.00401312
0 0.968139 0.0040589
0 0.967025 0.00410468
0 0.965591 0.00415045
0 0.963821 0.00422675
0 0.961761 0.0043183
0 0.959564 0.0043946
0.682139 0.955718 0
0.789471 0.953384 0
0.848142 0.951522 0
0.888487 0.950179 0
0.919402 0.949355 0
0.944106 0.949004 0
0.963012 0.949248 0
0.970016 0.94992 0
0.969879 0.951171 0
0.96965 0.95314 0
0.969345 0.955779 0
0.968978 0.959045 0
0.968536 0.962966 0
0.968078 0.967483 0
0.969451 0.974517 0.529931
0.96994 0.980697 0.669932
0 0.985229 0.00337224
0 0.985077 0.00337224
0 0.984909 0.00337224
0 0.984756 0.0033875
0 0.984604 0.0033875
0 0.984436 0.00340276
0 0.984237 0.00340276
0 0.983963 0.00341802
0 0.983597 0.00343328
0 0.983124 0.00344854
0 0.982528 0.00347906
0 0.98172 0.00350958
0 0.980697 0.00355535
0 0.9794 0.00360113
0 0.97789 0.00366217
0 0.976165 0.00373846
0 0.974334 0.0037995
0.6804 0.97081 0
0.785824 0.968658 0
0.842374 0.966873 0
0.881254 0.965484 0
0.911757 0.964431 0
0.936263 0.963729 0
0.955505 0.963455 0
0.968368 0.963546 0
0.968307 0.963958 0
0.9682 0.96495 0
0.968002 0.966506 0
0.967758 0.968627 0
0.967468 0.971313 0
0.967147 0.974502 0
0.96875 0.98027 0.539895
0.96939 0.985138 0.673732
0 0.994629 0.00299077
0 0.994507 0.00299077
0 0.994369 0.00299077
0 0.994217 0.00300603
0 0.994079 0.00300603
0 0.993942 0.00300603
0 0.993744 0.00302129
0 0.9935 0.00303655
0 0.993164 0.00303655
0 0.992737 0.00306706
0 0.992203 0.00308232
0 0.991531 0.00311284
0 0.990692 0.00314336
0 0.98967 0.00318914
0 0.988464 0.00323491
0 0.987121 0.00329595
0 0.985687 0.00334173
0.705852 0.982361 0
0.790951 0.980545 0
0.84126 0.978958 0
0.877272 0.977646 0
0.906447 0.976547 0
0.930129 0.975692 0
0.94902 0.975143 0
0.96434 0.974899 0
0.966842 0.974884 0
0.966812 0.975235 0
0.96672 0.976028 0
0.966583 0.977295 0
0.966415 0.979019 0
0.966247 0.98114 0
0.968139 0.985916 0.567849
0.968841 0.989593 0.680278
0 1 0.00273136
0 1 0.00273136
0 1 0.00273136
0 1 0.00274662
0 1 0.00274662
0 1 0.00274662
0 1 0.00274662
0 1 0.00276188
0 0.999985 0.00277714
0 0.99968 0.00277714
0 0.999268 0.0027924
0 0.998779 0.00282292
0 0.998169 0.00283818
0 0.997421 0.0028687
0 0.996551 0.00291447
0 0.995575 0.00294499
0.607217 0.993011 0
0.743832 0.991287 0
0.803815 0.989822 0
0.844526 0.98851 0
0.876692 0.987305 0
0.903517 0.986221 0
0.925658 0.985351 0
0.943847 0.98468 0
0.958801 0.984237 0
0.965515 0.983948 0
0.96556 0.983902 0
0.965545 0.984161 0
0.965499 0.984771 0
0.965454 0.985779 0
0.965423 0.987091 0
0.967636 0.991257 0.600565
0.968338 0.993942 0.690013
0 1 0.00267033
0 1 0.00267033
0 1 0.00267033
0 1 0.00267033
0 1 0.00267033
0 1 0.00267033
0 1 0.00267033
0 1 0.00267033
0 1 0.00267033
0 1 0.00267033
0 1 0.00267033
0 1 0.00267033
0 1 0.00267033
0 1 0.00267033
0 1 0.00267033
0.631098 1 0
0.729122 0.998932 0
0.782254 0.997818 0
0.821134 0.996735 0
0.852461 0.995666 0
0.879683 0.994629 0
0.903227 0.993637 0
0.923171 0.992782 0
0.940169 0.992096 0
0.954482 0.991547 0
0.964401 0.99115 0
0.964492 0.990875 0
0.964538 0.990814 0
0.964584 0.991043 0
0.96463 0.991547 0
0.964721 0.99234 0
0.967239 0.99617 0.634791
0.96791 0.998047 0.702846
0 1 0.00267033
0 1 0.00267033
0 1 0.00267033
0 1 0.00267033
0 1 0.00267033
0 1 0.00267033
0 1 0.00267033
0 1 0.00267033
0 1 0.00267033
0 1 0.00265507
0.447044 1 0
0.602853 1 0
0.658366 1 0
0.699458 1 0
0.733837 1 0
0.764248 1 0
0.791867 1 0
0.817426 1 0
0.841382 1 0
0.864179 1 0
0.885634 1 0
0.905272 0.999283 0
0.922576 0.998535 0
0.937957 0.997848 0
0.951171 0.997269 0
0.962051 0.996841 0
0.963592 0.996475 0
0.963714 0.996246 0
0.963821 0.996231 0
0.963958 0.996429 0
0.96614 0.999146 0.569345
0.96698 1 0.668498
0.96762 1 0.718288
0.74725 1 0
0.748974 1 0
0.750683 1 0
0.752331 1 0
0.753964 1 0
0.755627 1 0
0.757717 1 0
0.760403 1 0
0.763821 1 0
