BBLuts/BB_102_0340_LUT.cube
TITLE "Generated by Resolve"
LUT_3D_SIZE 9
0.0371252 0.0477607 0.0481727
0.0371252 0.0477607 0.0481727
0.309499 0.0469215 0.0482185
0.656092 0.0422065 0.0571908
0.932876 0.0364233 0.591669
1 0.0341497 0.823499
1 0.567926 0.717906
0.996948 0.843198 0.532982
0.979339 0.933761 0.753811
0.0281834 0.106447 0.0377508
0.0260166 0.12311 0.0351873
0.316136 0.0845045 0.0399634
0.663645 0.042237 0.0613413
0.935164 0.0363775 0.595911
1 0.0341497 0.823499
1 0.600443 0.711376
0.997513 0.847501 0.493675
0.979309 0.934203 0.75259
0.00198367 0.351232 0.00518807
0.00151064 0.356786 0.00454719
0.216464 0.347814 0.000793469
0.5093 0.337606 0
0.933333 0.0562905 0.592905
1 0.0341497 0.823117
1 0.640879 0.702327
1 0.857954 0.216617
0.979263 0.934905 0.750546
0 0.641901 0
0 0.642649 0
0 0.643046 0
0.522637 0.622934 0
0.781659 0.611551 0.378286
1 0.576272 0.713985
1 0.723293 0.674327
1 0.877821 0
0.97911 0.936904 0.744244
0 0.868498 0
0 0.868437 0
0 0.868162 0
0 0.86627 0
0.76788 0.825635 0
0.974792 0.805493 0.48571
1 0.846754 0.0823529
1 0.907271 0
0.978866 0.94229 0.723156
0 0.998413 0
0 0.997864 0
0 0.996933 0
0 0.994125 0
0.707942 0.954925 0
0.932067 0.935393 0
1 0.932448 0
1 0.945647 0
0.978805 0.954177 0.661524
0 1 0
0 1 0
0 1 0
0.649607 1 0
0.803235 0.994781 0
0.917952 0.983948 0
0.990387 0.976837 0
0.99678 0.976989 0
0.976043 0.968353 0.701564
0.883818 0.997421 0
0.885298 0.99733 0
0.887648 0.997192 0
0.894377 0.996811 0
0.911467 0.995834 0
0.94374 0.994003 0
0.982055 0.991913 0
0.995727 0.991592 0
0.97293 0.976135 0.820813
0.943969 0.976959 0.867903
0.944137 0.976944 0.867933
0.944381 0.976928 0.867964
0.945174 0.976883 0.868116
0.947433 0.976745 0.868513
0.953124 0.976379 0.869749
0.96408 0.975677 0.873426
0.973587 0.974929 0.883101
0.97438 0.974456 0.906752
0.0446632 0.0463874 0.143801
0.04477 0.0463722 0.144457
0.326024 0.044831 0.155352
0.654307 0.0400244 0.189334
0.932357 0.0362402 0.611002
1 0.0341497 0.825025
1 0.562982 0.720104
0.996124 0.841886 0.567773
0.979156 0.933639 0.765576
0.0352636 0.083238 0.107362
0.0945754 0.101808 0.09897
0.351949 0.0447242 0.13579
0.658549 0.0404517 0.163439
0.933593 0.0363165 0.602701
1 0.0341497 0.824552
1 0.596292 0.713405
0.996216 0.845899 0.545785
0.979126 0.934066 0.764508
0.00326543 0.336965 0.00688182
0.00283818 0.341741 0.00630198
0.244251 0.33257 0.00190738
0.500648 0.327153 0
0.93637 0.0363775 0.595621
1 0.0341497 0.823133
1 0.637919 0.704326
0.997116 0.852598 0.483421
0.979065 0.934752 0.762722
0 0.639094 0
0 0.639796 0
0 0.64007 0
0.535286 0.619135 0
0.786328 0.607263 0.3832
1 0.573037 0.714595
1 0.721767 0.676097
1 0.877333 0
0.978912 0.936751 0.757229
0 0.867567 0
0 0.867491 0
0 0.867201 0
0 0.865263 0
0.770718 0.824521 0
0.974807 0.804669 0.493324
1 0.845457 0.135897
1 0.907118 0
0.978561 0.942092 0.739254
0 0.99823 0
0 0.997665 0
0 0.99675 0
0 0.993927 0
0.710445 0.95462 0
0.932372 0.935271 0
1 0.932372 0
1 0.945602 0
0.978729 0.954101 0.664591
0 1 0
0 1 0
0 1 0
0.653056 1 0
0.804044 0.99469 0
0.918151 0.983917 0
0.990417 0.976822 0
0.996796 0.976974 0
0.976043 0.968353 0.701473
0.884047 0.997406 0
0.885527 0.997314 0
0.887877 0.997177 0
0.894575 0.996796 0
0.91162 0.995834 0
0.943801 0.994003 0
0.982086 0.991897 0
0.995727 0.991592 0
0.97293 0.976135 0.820798
0.943984 0.976959 0.867903
0.944137 0.976944 0.867933
0.944411 0.976928 0.867964
0.945205 0.976883 0.868086
0.947448 0.976745 0.868513
0.953124 0.976379 0.869749
0.964096 0.975677 0.873426
0.973587 0.974929 0.883101
0.97438 0.974456 0.906752
0.0825055 0.0888075 0.422629
0.0825666 0.0889143 0.42295
0.322042 0.0838788 0.424125
0.64976 0.0725414 0.436103
0.931548 0.0359655 0.644556
1 0.0341344 0.827375
1 0.552148 0.725429
0.994293 0.840406 0.610864
0.978943 0.933471 0.781949
0.0813153 0.0869764 0.416617
0.0814374 0.0871443 0.417166
0.355062 0.0812238 0.418341
0.649088 0.0709544 0.430976
0.933776 0.0359503 0.645548
1 0.0341344 0.827192
1 0.588464 0.718273
0.99498 0.843946 0.598657
0.978897 0.933913 0.781033
0.0373236 0.345266 0.321798
0.0368658 0.347875 0.320348
0.273671 0.330953 0.313848
0.603403 0.295216 0.341756
0.932525 0.0359808 0.641779
1 0.0341497 0.826642
1 0.631724 0.708995
0.994888 0.850019 0.572595
0.978821 0.9346 0.779538
0 0.632074 0
0 0.632868 0
0 0.63328 0
0.53962 0.611978 0
0.830747 0.58146 0.475105
1 0.564126 0.718669
1 0.71783 0.682246
1 0.8766 0
0.978637 0.936584 0.775006
0 0.865629 0
0 0.865553 0
0 0.865248 0
0 0.863279 0
0.773373 0.822446 0
0.974578 0.802884 0.505638
1 0.840482 0.360082
1 0.906676 0
0.978195 0.941833 0.760769
0 0.997909 0
0 0.997345 0
0 0.996429 0
0 0.993622 0
0.714397 0.954147 0
0.932891 0.935042 0
1 0.932235 0
1 0.945525 0
0.977768 0.953429 0.708278
0 1 0
0 1 0
0 1 0
0.658427 1 0
0.80531 0.994553 0
0.918441 0.983871 0
0.990478 0.976806 0
0.996796 0.976974 0
0.976059 0.968338 0.701305
0.884398 0.997375 0
0.885878 0.997299 0
0.888197 0.997162 0
0.894881 0.99678 0
0.911849 0.995819 0
0.943923 0.994003 0
0.982116 0.991897 0
0.995727 0.991592 0
0.97293 0.976135 0.820768
0.94403 0.976944 0.867887
0.944183 0.976944 0.867903
0.944457 0.976928 0.867964
0.945235 0.976867 0.868086
0.947494 0.97673 0.868498
0.953155 0.976379 0.869734
0.964111 0.975662 0.873411
0.973587 0.974929 0.883101
0.97438 0.974456 0.906752
0.303319 0.367453 0.648753
0.303609 0.367727 0.648814
0.303731 0.367895 0.648844
0.591592 0.351827 0.639933
0.893782 0.277684 0.677043
1 0.0340887 0.842405
1 0.54316 0.749599
0.945571 0.854109 0.663325
0.978592 0.933288 0.818082
0.299596 0.363531 0.647913
0.299916 0.363897 0.64799
0.367514 0.360891 0.645945
0.6009 0.346883 0.638895
0.89279 0.273014 0.676143
1 0.0341039 0.842023
1 0.577752 0.742702
0.952743 0.855024 0.664958
0.978546 0.933715 0.817472
0.282704 0.413489 0.637034
0.282383 0.417243 0.636545
0.374777 0.41001 0.634134
0.605615 0.339162 0.637293
0.887938 0.268269 0.673411
1 0.0341039 0.841337
1 0.619242 0.733745
0.969284 0.854398 0.670237
0.978469 0.934386 0.816464
0.185504 0.604837 0.585534
0.185702 0.605753 0.585534
0.18674 0.606378 0.585931
0.539071 0.589349 0.576257
0.821393 0.565423 0.603769
1 0.535134 0.737484
1 0.706294 0.710491
0.991043 0.86125 0.658274
0.978241 0.936355 0.813443
0 0.857374 0
0 0.857343 0
0 0.85713 0
0 0.855344 0
0.771191 0.814832 0
0.956374 0.800793 0.566766
0.996567 0.832654 0.582559
1 0.905592 0
0.977661 0.941512 0.804364
0 0.997024 0
0 0.99646 0
0 0.995529 0
0 0.992737 0
0.714702 0.953246 0
0.932387 0.934249 0
1 0.931563 0
1 0.945144 0
0.976562 0.952621 0.776486
0 1 0
0 1 0
0.184817 1 0
0.673243 1 0
0.80914 0.994141 0
0.919417 0.983703 0
0.990677 0.976715 0
0.996811 0.976928 0
0.976074 0.968322 0.700679
0.885512 0.997314 0
0.886946 0.997238 0
0.88925 0.997101 0
0.895827 0.996719 0
0.912566 0.995773 0
0.944289 0.993973 0
0.982208 0.991897 0
0.995727 0.991592 0
0.97293 0.976135 0.820661
0.944152 0.976944 0.867872
0.944305 0.976928 0.867887
0.944564 0.976913 0.867933
0.945357 0.976867 0.86807
0.947585 0.97673 0.868482
0.953231 0.976379 0.869718
0.964141 0.975662 0.873381
0.973587 0.974929 0.883085
0.97438 0.974456 0.906752
0.657282 0.69839 0.838956
0.657343 0.698451 0.839002
0.65745 0.698543 0.839109
0.661875 0.697536 0.838163
0.822721 0.685542 0.83003
1 0.669474 0.841489
1 0.685405 0.850111
0.992203 0.832029 0.845808
0.978698 0.933639 0.877226
0.656748 0.697902 0.838468
0.656809 0.697963 0.838529
0.656931 0.69807 0.838636
0.662348 0.69688 0.837491
0.827192 0.684718 0.829435
1 0.668864 0.841093
1 0.686717 0.848783
0.991699 0.835782 0.84416
0.978714 0.934035 0.876936
0.655879 0.697108 0.837674
0.655955 0.697185 0.837736
0.656077 0.697292 0.837842
0.663279 0.695796 0.836439
0.829969 0.683604 0.828504
1 0.667781 0.840375
1 0.690669 0.846357
0.9906 0.841688 0.840696
0.978668 0.934691 0.876417
0.650309 0.696376 0.832471
0.650324 0.696468 0.832486
0.650309 0.696574 0.832471
0.658778 0.695125 0.831342
0.828779 0.681788 0.824384
1 0.666453 0.83595
1 0.71696 0.83653
0.988571 0.856794 0.833143
0.978393 0.936629 0.874769
0.599863 0.79942 0.783581
0.599954 0.799619 0.783658
0.600092 0.79968 0.78378
0.600763 0.798688 0.784436
0.754696 0.785199 0.780865
0.961654 0.780529 0.78941
0.993652 0.82182 0.796002
0.955993 0.899413 0.788678
0.977691 0.941741 0.870024
0 0.994919 0
0 0.994385 0
0 0.993469 0
0 0.990692 0
0.702449 0.951797 0
0.925444 0.932418 0
0.983856 0.916518 0.653513
0.979873 0.929839 0.752361
0.976196 0.952544 0.857389
0 1 0
0 1 0
0.307774 1 0
0.669276 1 0
0.804395 0.993957 0
0.914992 0.98352 0
0.986511 0.976654 0
0.997635 0.977157 0
0.974304 0.967147 0.826505
0.888747 0.997116 0
0.890135 0.99704 0
0.892332 0.996918 0
0.898619 0.996567 0
0.914702 0.995651 0
0.945403 0.993912 0
0.982589 0.991867 0
0.995727 0.991592 0
0.97293 0.97615 0.820371
0.944518 0.976928 0.867811
0.944671 0.976913 0.867826
0.94493 0.976898 0.867872
0.945693 0.976852 0.868009
0.947906 0.976715 0.868406
0.953475 0.976364 0.869657
0.964263 0.975662 0.873335
0.973587 0.974945 0.88304
0.97438 0.974456 0.906752
0.812833 0.838407 0.981414
0.812833 0.838407 0.98143
0.812863 0.838437 0.981445
0.812894 0.838468 0.981491
0.82594 0.833494 0.976577
0.997192 0.819196 0.967132
0.997147 0.819944 0.967849
0.994156 0.837644 0.957443
0.981216 0.934493 0.940932
0.812772 0.838346 0.981353
0.812787 0.838361 0.981369
0.812787 0.838361 0.981384
0.812833 0.838407 0.981414
0.827207 0.83328 0.976364
0.997177 0.81915 0.967071
0.997162 0.819867 0.967788
0.993774 0.840085 0.956436
0.981155 0.934936 0.940719
0.812665 0.838254 0.981262
0.81268 0.83827 0.981277
0.81268 0.83827 0.981277
0.812711 0.8383 0.981308
0.829404 0.832898 0.976013
0.997192 0.819028 0.966964
0.997162 0.819776 0.967697
0.993164 0.84419 0.954849
0.981033 0.935653 0.940383
0.812329 0.837964 0.980957
0.812345 0.83798 0.980972
0.81236 0.83798 0.980987
0.812085 0.837751 0.980728
0.835172 0.831952 0.975128
0.997208 0.818692 0.966628
0.997238 0.818204 0.966155
0.991302 0.856779 0.95024
0.980728 0.937697 0.939406
0.801419 0.833173 0.970871
0.801373 0.833188 0.97084
0.801297 0.833219 0.970764
0.800793 0.832959 0.970291
0.823377 0.828946 0.966842
0.994217 0.816327 0.958083
0.994873 0.829221 0.952209
0.986862 0.887373 0.93933
0.975692 0.944839 0.93164
0.751263 0.941039 0.922332
0.751324 0.940749 0.922393
0.751446 0.940169 0.92253
0.751919 0.937896 0.923003
0.768475 0.930343 0.923659
0.902846 0.916121 0.919738
0.979202 0.915084 0.918746
0.978286 0.931197 0.917372
0.978195 0.954101 0.930373
0.713573 0.989578 0.878752
0.716106 0.989029 0.87895
0.720821 0.988144 0.879194
0.738994 0.985428 0.879622
0.796231 0.978698 0.879713
0.887114 0.969146 0.880705
0.956115 0.962493 0.886244
0.975723 0.96257 0.897658
0.97586 0.968597 0.918929
0.866514 0.982574 0.810254
0.867735 0.982498 0.810361
0.869703 0.982376 0.810498
0.87538 0.98204 0.810987
0.890043 0.981155 0.812512
0.918746 0.97937 0.817472
0.954406 0.97702 0.830991
0.973144 0.975402 0.85922
0.974136 0.974578 0.900938
0.945602 0.976867 0.867597
0.945754 0.976852 0.867643
0.945998 0.976837 0.867674
0.946731 0.976791 0.867796
0.948837 0.976654 0.868223
0.954192 0.976318 0.869459
0.964645 0.975647 0.873167
0.973571 0.974945 0.882902
0.97438 0.974456 0.906737
0.857755 0.877974 1
0.857755 0.877974 1
0.857755 0.877974 1
0.857755 0.877974 1
0.857755 0.877974 1
0.984268 0.870359 0.995789
0.99263 0.869703 0.995331
0.99263 0.869703 0.995331
0.985107 0.92726 0.987808
0.857755 0.877974 1
0.857755 0.877974 1
0.857755 0.877974 1
0.857755 0.877974 1
0.857755 0.877974 1
0.98526 0.870298 0.995743
0.99263 0.869703 0.995331
0.99263 0.869703 0.995331
0.985031 0.927886 0.987732
0.857755 0.877974 1
0.857755 0.877974 1
0.857755 0.877974 1
0.857755 0.877974 1
0.857755 0.877974 1
0.986877 0.870192 0.995666
0.99263 0.869703 0.995331
0.99263 0.869703 0.995331
0.984894 0.928908 0.987594
0.857755 0.877974 1
0.857755 0.877974 1
0.857755 0.877974 1
0.857755 0.877974 1
0.857755 0.877974 1
0.991653 0.869886 0.995438
0.99263 0.869703 0.995331
0.99263 0.869703 0.995331
0.984527 0.931807 0.987228
0.857755 0.877974 1
0.857755 0.877974 1
0.857755 0.877974 1
0.857755 0.877974 1
0.858366 0.877928 1
0.99263 0.869703 0.995331
0.99263 0.869703 0.995331
0.99266 0.869383 0.995361
0.983612 0.939361 0.985565
0.843046 0.906615 0.9991
0.84303 0.906706 0.9991
0.842985 0.906844 0.999084
0.842817 0.907256 0.999039
0.841932 0.905104 0.999374
0.927626 0.895277 0.995621
0.988876 0.898238 0.991562
0.985718 0.922545 0.988418
0.981888 0.953735 0.97995
0.80885 0.983032 0.975402
0.808881 0.983032 0.975433
0.808942 0.983017 0.975494
0.809079 0.983017 0.975662
0.82237 0.980987 0.975799
0.89134 0.97142 0.973617
0.958572 0.964706 0.971664
0.980285 0.964981 0.971191
0.979873 0.970855 0.972137
0.873411 0.9794 0.963989
0.874449 0.979339 0.963943
0.876097 0.979232 0.963851
0.880949 0.978958 0.963623
0.893935 0.978195 0.963027
0.92076 0.976623 0.961913
0.954955 0.974624 0.961059
0.97818 0.973236 0.961975
0.978637 0.973129 0.966232
0.947646 0.975311 0.946624
0.947799 0.975296 0.946639
0.947997 0.97528 0.946624
0.948699 0.97525 0.946639
0.950652 0.975128 0.94667
0.955642 0.974838 0.946822
0.965484 0.974243 0.947463
0.97702 0.973526 0.94992
0.977691 0.973358 0.957015
0.857755 0.878019 1
0.857755 0.878019 1
0.857755 0.878019 1
0.857755 0.878019 1
0.857755 0.878019 1
0.857755 0.878019 1
0.99263 0.869703 0.995331
0.99263 0.869703 0.995331
0.991882 0.875364 0.994583
0.857755 0.878019 1
0.857755 0.878019 1
0.857755 0.878019 1
0.857755 0.878019 1
0.857755 0.878019 1
0.857755 0.878019 1
0.99263 0.869703 0.995331
0.99263 0.869703 0.995331
0.991882 0.875364 0.994583
0.857755 0.878019 1
0.857755 0.878019 1
0.857755 0.878019 1
0.857755 0.878019 1
0.857755 0.878019 1
0.857755 0.878019 1
0.99263 0.869703 0.995331
0.99263 0.869703 0.995331
0.991882 0.875364 0.994583
0.857755 0.878019 1
0.857755 0.878019 1
0.857755 0.878019 1
0.857755 0.878019 1
0.857755 0.878019 1
0.857755 0.877989 1
0.99263 0.869703 0.995331
0.99263 0.869703 0.995331
0.991882 0.875364 0.994583
0.857755 0.878019 1
0.857755 0.878019 1
0.857755 0.878019 1
0.857755 0.878019 1
0.857755 0.878019 1
0.858534 0.877928 1
0.99263 0.869703 0.995331
0.99263 0.869703 0.995331
0.991882 0.875334 0.994583
0.857755 0.878019 1
0.857755 0.878019 1
0.857755 0.878019 1
0.857755 0.878019 1
0.857755 0.878019 1
0.89015 0.876081 1
0.99263 0.869703 0.995331
0.992615 0.869764 0.995315
0.986755 0.914473 0.989456
0.840192 0.971496 0.990799
0.840192 0.971511 0.990799
0.840177 0.971542 0.990799
0.840146 0.971649 0.990784
0.840085 0.971939 0.990753
0.865629 0.95903 0.99086
0.967803 0.949294 0.985916
0.981765 0.953521 0.984451
0.980117 0.966506 0.982803
0.847044 0.980514 0.988968
0.848051 0.980453 0.988922
0.849729 0.980346 0.98883
0.855192 0.980026 0.988525
0.872496 0.979019 0.987594
0.910124 0.976822 0.985565
0.954299 0.974258 0.983185
0.979416 0.973022 0.982086
0.979416 0.973022 0.982086
0.947463 0.974655 0.983551
0.947631 0.97464 0.983551
0.94789 0.974624 0.983536
0.948684 0.974578 0.98349
0.950957 0.974441 0.983368
0.95668 0.974121 0.983063
0.967422 0.97348 0.982483
0.979416 0.973022 0.982086
0.979416 0.973022 0.982086
0.85771 0.878294 1
0.85771 0.878294 1
0.85771 0.878294 1
0.85771 0.878294 1
0.85771 0.878294 1
0.85771 0.878294 1
0.85771 0.878294 1
0.992584 0.870008 0.995285
0.991424 0.878813 0.994125
0.85771 0.878294 1
0.85771 0.878294 1
0.85771 0.878294 1
0.85771 0.878294 1
0.85771 0.878294 1
0.85771 0.878294 1
0.85771 0.878294 1
0.992584 0.870008 0.995285
0.991424 0.878813 0.994125
0.85771 0.878294 1
0.85771 0.878294 1
0.85771 0.878294 1
0.85771 0.878294 1
0.85771 0.878294 1
0.85771 0.878294 1
0.85771 0.878294 1
0.992584 0.870024 0.995285
0.991424 0.878813 0.994125
0.85771 0.878294 1
0.85771 0.878294 1
0.85771 0.878294 1
0.85771 0.878294 1
0.85771 0.878294 1
0.85771 0.878294 1
0.85771 0.878294 1
0.992584 0.870024 0.995285
0.991409 0.878843 0.99411
0.85771 0.878294 1
0.85771 0.878294 1
0.85771 0.878294 1
0.85771 0.878294 1
0.85771 0.878294 1
0.85771 0.878294 1
0.858503 0.878202 1
0.992584 0.870024 0.995285
0.991409 0.878904 0.99411
0.85771 0.878294 1
0.85771 0.878294 1
0.85771 0.878294 1
0.85771 0.878294 1
0.85771 0.878294 1
0.85771 0.878294 1
0.898253 0.875685 1
0.992584 0.870054 0.995285
0.991394 0.879011 0.994095
0.85771 0.878294 1
0.85771 0.878294 1
0.85771 0.878294 1
0.85771 0.878294 1
0.85771 0.878294 1
0.85771 0.878294 1
0.99263 0.869703 0.995331
0.992569 0.870115 0.99527
0.991363 0.879179 0.994064
0.835645 0.98117 0.989593
0.835645 0.98117 0.989593
0.835645 0.98117 0.989593
0.835645 0.98117 0.989593
0.835645 0.98117 0.989593
0.835645 0.98117 0.989593
0.927169 0.97583 0.984649
0.979416 0.973022 0.982086
0.979416 0.973022 0.982086
0.914611 0.976562 0.985321
0.915084 0.976532 0.98529
0.915831 0.976486 0.98526
0.918059 0.976364 0.985138
0.924117 0.976013 0.984802
0.937987 0.975204 0.98407
0.959533 0.973953 0.98291
0.977874 0.972885 0.981918
0.979416 0.973022 0.982086
