BBLuts/BB_102_0330_LUT.cube
TITLE "Generated by Resolve"
LUT_3D_SIZE 9
0.0383764 0.0494545 0.0496376
0.0383764 0.0494545 0.0496376
0.32723 0.0482643 0.0493477
0.675181 0.0438849 0.059144
0.970031 0.0374914 0.615122
1 0.0349889 0.850935
1 0.58204 0.742428
1 0.873625 0.546899
1 0.96936 0.780896
0.0289616 0.111498 0.0386816
0.0267033 0.129107 0.0359808
0.334279 0.0879683 0.0406653
0.684031 0.0438697 0.063508
0.972473 0.0374456 0.619242
1 0.0349889 0.850935
1 0.61677 0.735485
1 0.878096 0.510689
1 0.969818 0.779599
0.00164797 0.369696 0.00466926
0.00115969 0.37554 0.00399786
0.229084 0.365881 0
0.533028 0.35111 0
0.97055 0.0584878 0.616007
1 0.0349889 0.850523
1 0.65977 0.726207
1 0.888975 0.230411
1 0.970565 0.777447
0 0.660822 0
0 0.661601 0
0 0.662043 0
0.545617 0.640497 0
0.82855 0.622568 0.410132
1 0.591226 0.738216
1 0.746899 0.696269
1 0.910018 0
1 0.972686 0.770779
0 0.900435 0
0 0.900359 0
0 0.900069 0
0 0.898054 0
0.798566 0.855055 0
1 0.833661 0.50457
1 0.877134 0.0886854
1 0.941161 0
1 0.978378 0.748775
0 1 0
0 1 0
0 1 0
0 1 0
0.73492 0.991791 0
0.972534 0.970962 0
1 0.967773 0
1 0.981735 0
1 0.990967 0.683101
0 1 0
0 1 0
0 1 0
0.672816 1 0
0.835904 1 0
0.957626 1 0
1 1 0
1 1 0
1 1 0.725902
0.921416 1 0
0.922972 1 0
0.925475 1 0
0.932616 1 0
0.950774 1 0
0.985 1 0
1 1 0
1 1 0
1 1 0.851896
0.985534 1 0.901778
0.985702 1 0.901823
0.985977 1 0.901854
0.986816 1 0.902007
0.989197 1 0.902419
0.995239 1 0.903731
1 1 0.907607
1 1 0.917845
1 1 0.942901
0.0463417 0.0479744 0.150881
0.0464637 0.0479591 0.151583
0.344686 0.0460212 0.162783
0.673396 0.0415656 0.199115
0.969512 0.0373236 0.633906
1 0.0349889 0.852552
1 0.576288 0.744808
1 0.872251 0.583719
1 0.969238 0.793362
0.0364233 0.0869459 0.112352
0.0993973 0.106523 0.103426
0.372122 0.0458686 0.142046
0.678325 0.0419776 0.171679
0.97081 0.0373846 0.625834
1 0.0349889 0.852064
1 0.61239 0.737636
1 0.876478 0.560464
1 0.96968 0.792218
0.00297551 0.354696 0.00643931
0.002533 0.359716 0.00582895
0.258473 0.349798 0.000946059
0.519081 0.341787 0
0.973739 0.0374456 0.618952
1 0.0350042 0.850568
1 0.656626 0.728298
1 0.883467 0.501701
1 0.970413 0.790341
0 0.657862 0
0 0.658595 0
0 0.658885 0
0.557473 0.63653 0
0.835035 0.617151 0.417395
1 0.587793 0.738872
1 0.745281 0.698146
1 0.909499 0
1 0.972534 0.784527
0 0.899443 0
0 0.899351 0
0 0.899046 0
0 0.897002 0
0.801556 0.853895 0
1 0.832807 0.511925
1 0.875761 0.145205
1 0.940993 0
1 0.978164 0.76582
0 1 0
0 1 0
0 1 0
0 1 0
0.737591 0.99147 0
0.972885 0.970825 0
1 0.967697 0
1 0.981689 0
1 0.99089 0.686351
0 1 0
0 1 0
0 1 0
0.676478 1 0
0.836744 1 0
0.957824 1 0
1 1 0
1 1 0
1 1 0.725795
0.92166 1 0
0.923217 1 0
0.925719 1 0
0.93283 1 0
0.950927 1 0
0.985077 1 0
1 1 0
1 1 0
1 1 0.851881
0.98555 1 0.901778
0.985718 1 0.901808
0.985992 1 0.901854
0.986831 1 0.901976
0.989227 1 0.902434
0.995254 1 0.903731
1 1 0.907607
1 1 0.917845
1 1 0.942901
0.0865339 0.0927596 0.445014
0.0866102 0.0928817 0.445335
0.340475 0.0872816 0.446067
0.669444 0.0758679 0.4589
0.968872 0.0371405 0.661082
1 0.0349737 0.855039
1 0.566186 0.750256
1 0.870665 0.629358
1 0.969055 0.810697
0.0852827 0.0908217 0.438956
0.0854047 0.0910048 0.439506
0.375387 0.0844434 0.440101
0.668696 0.0742046 0.453468
0.971237 0.0371405 0.661967
1 0.0349889 0.854856
1 0.60412 0.742779
1 0.874418 0.616419
1 0.969528 0.809735
0.0390326 0.363378 0.339391
0.0385595 0.366125 0.33785
0.289555 0.348013 0.330678
0.619638 0.310933 0.360388
0.969894 0.0371557 0.658778
1 0.0349889 0.854276
1 0.649866 0.732998
1 0.880827 0.58883
1 0.97026 0.808148
0 0.650431 0
0 0.65127 0
0 0.651698 0
0.561166 0.629007 0
0.869581 0.593835 0.503624
1 0.577585 0.743267
1 0.741115 0.704677
1 0.908721 0
1 0.972335 0.803342
0 0.897398 0
0 0.897307 0
0 0.896986 0
0 0.894911 0
0.804364 0.851698 0
1 0.830961 0.521859
1 0.870497 0.381949
1 0.940536 0
1 0.977905 0.788281
0 1 0
0 1 0
0 1 0
0 1 0
0.741787 0.990951 0
0.973434 0.970596 0
1 0.967559 0
1 0.981613 0
1 0.990158 0.732738
0 1 0
0 1 0
0 1 0
0.68217 1 0
0.838117 1 0
0.95816 1 0
1 1 0
1 1 0
1 1 0.725612
0.922026 1 0
0.923583 1 0
0.926055 1 0
0.93315 1 0
0.951171 1 0
0.985199 1 0
1 1 0
1 1 0
1 1 0.85185
0.98558 1 0.901778
0.985763 1 0.901793
0.986053 1 0.901839
0.986877 1 0.901976
0.989258 1 0.902403
0.99527 1 0.903716
1 1 0.907591
1 1 0.917845
1 1 0.942901
0.32134 0.386603 0.666651
0.32163 0.386892 0.666712
0.321782 0.38706 0.666743
0.608133 0.370687 0.657725
0.929244 0.292241 0.696574
1 0.0348821 0.87155
1 0.559625 0.775769
0.987045 0.885206 0.685191
1 0.968856 0.848951
0.317388 0.382483 0.665751
0.317739 0.382879 0.665843
0.388571 0.379644 0.6636
0.618616 0.365469 0.656596
0.928176 0.287327 0.695628
1 0.0348821 0.871153
1 0.592752 0.768963
0.994598 0.886183 0.686839
1 0.969299 0.84831
0.299672 0.434501 0.654444
0.299321 0.438499 0.653925
0.39646 0.430747 0.651286
0.62359 0.357336 0.654871
0.923018 0.282353 0.692714
1 0.0348821 0.87042
1 0.636637 0.759487
1 0.885451 0.692302
1 0.970016 0.847242
0.198917 0.6206 0.601984
0.19913 0.621576 0.601968
0.200229 0.622278 0.602304
0.557794 0.604547 0.59202
0.854978 0.580896 0.621622
1 0.553429 0.762539
1 0.728801 0.735027
1 0.892699 0.679561
1 0.972091 0.844038
0 0.888655 0
0 0.88864 0
0 0.888395 0
0 0.886519 0
0.80206 0.843641 0
0.998627 0.828809 0.582712
1 0.86247 0.599374
1 0.939391 0
1 0.977554 0.83444
0 1 0
0 1 0
0 1 0
0 1 0
0.742138 0.990005 0
0.9729 0.969757 0
1 0.966842 0
1 0.981216 0
1 0.989303 0.804929
0 1 0
0 1 0
0.198001 1 0
0.697887 1 0
0.842145 1 0
0.959167 1 0
1 1 0
1 1 0
1 1 0.724941
0.923186 1 0
0.924743 1 0
0.927153 1 0
0.934157 1 0
0.951934 1 0
0.985611 1 0
1 1 0
1 1 0
1 1 0.851728
0.985718 1 0.901762
0.985885 1 0.901762
0.98616 1 0.901808
0.986999 1 0.901961
0.989364 1 0.902388
0.995361 1 0.9037
1 1 0.907561
1 1 0.917845
1 1 0.942901
0.680964 0.720699 0.871138
0.681025 0.72076 0.871199
0.681132 0.720867 0.87129
0.685832 0.719799 0.870283
0.856825 0.707179 0.861738
1 0.689876 0.873549
1 0.706706 0.882689
1 0.861784 0.878202
1 0.969223 0.911574
0.680385 0.720195 0.870619
0.680461 0.720256 0.87068
0.680583 0.720378 0.870787
0.686336 0.719097 0.869581
0.861585 0.706294 0.861112
1 0.689219 0.873121
1 0.70811 0.8813
1 0.865751 0.876448
1 0.969635 0.911269
0.679469 0.719356 0.86978
0.679545 0.719448 0.869856
0.679667 0.719554 0.869963
0.687312 0.717952 0.868467
0.864515 0.705119 0.860121
1 0.688075 0.872374
1 0.712276 0.878721
1 0.871992 0.872786
1 0.970336 0.910735
0.673548 0.718593 0.864286
0.673564 0.718685 0.864286
0.673564 0.718791 0.864286
0.682536 0.71725 0.863066
0.863249 0.703197 0.855741
1 0.686671 0.867689
1 0.740169 0.868132
1 0.887984 0.86482
1 0.972381 0.90898
0.620172 0.82771 0.812665
0.620264 0.827924 0.812741
0.620417 0.827985 0.812863
0.621118 0.826932 0.81355
0.784833 0.812497 0.809598
1 0.80737 0.818463
1 0.850996 0.825452
0.99823 0.933059 0.817807
1 0.977783 0.90396
0 1 0
0 1 0
0 1 0
0 1 0
0.729091 0.988479 0
0.96553 0.967819 0
1 0.951141 0.674571
1 0.965209 0.779355
1 0.989212 0.890593
0 1 0
0 1 0
0.32752 1 0
0.69369 1 0
0.83711 1 0
0.954482 1 0
1 1 0
1 1 0
1 1 0.857908
0.926635 1 0
0.92813 1 0
0.930434 1 0
0.937133 1 0
0.954177 1 0
0.98677 1 0
1 1 0
1 1 0
1 1 0.851423
0.986114 1 0.901686
0.986267 1 0.901701
0.986542 1 0.901762
0.987366 1 0.9019
0.9897 1 0.902327
0.995605 1 0.903639
1 1 0.90753
1 1 0.917769
1 1 0.942901
0.846204 0.868696 1
0.84622 0.868696 1
0.84625 0.868711 1
0.846281 0.868757 1
0.860121 0.863478 1
1 0.848203 1
1 0.848981 1
1 0.867704 0.996399
1 0.970123 0.979034
0.846143 0.868635 1
0.846159 0.868635 1
0.846174 0.86865 1
0.846204 0.868696 1
0.861463 0.863249 1
1 0.848142 1
1 0.84892 1
1 0.870283 0.995361
1 0.970581 0.978805
0.846036 0.868528 1
0.846052 0.868544 1
0.846067 0.868559 1
0.846098 0.868589 1
0.863798 0.862852 1
1 0.84802 1
1 0.848814 1
1 0.874617 0.993667
1 0.971344 0.978454
0.845685 0.868223 1
0.845701 0.868238 1
0.845716 0.868238 1
0.845426 0.867994 1
0.869917 0.861845 1
1 0.847654 1
1 0.84715 1
1 0.887938 0.9888
1 0.97351 0.977417
0.834104 0.863172 1
0.834043 0.863188 1
0.833967 0.863218 1
0.833432 0.862943 1
0.857404 0.858686 1
1 0.845167 0.99707
1 0.858808 0.99086
1 0.920287 0.977295
1 0.981064 0.969207
0.780987 0.977264 0.959564
0.781048 0.976959 0.959625
0.781186 0.976349 0.959762
0.781674 0.973953 0.960281
0.799237 0.965927 0.960937
0.941817 0.950774 0.956664
1 0.949599 0.955535
1 0.966628 0.954086
1 0.99086 0.96788
0.741375 1 0.913481
0.74406 1 0.91368
0.749065 1 0.913939
0.768017 1 0.914397
0.828733 1 0.914427
0.925185 1 0.915389
0.998413 0.999741 0.921172
1 0.999817 0.933257
1 1 0.955764
0.903319 1 0.840833
0.904631 1 0.840925
0.906722 1 0.841077
0.912749 1 0.841596
0.928313 1 0.843198
0.958755 1 0.848402
0.996612 1 0.862699
1 1 0.892561
1 1 0.936736
0.987259 1 0.901457
0.987427 1 0.901503
0.987686 1 0.901534
0.988464 1 0.901671
0.990692 1 0.902113
0.996368 1 0.903426
1 1 0.907332
1 1 0.917632
1 1 0.94287
0.893919 0.910475 1
0.893919 0.910475 1
0.893919 0.910475 1
0.893919 0.910475 1
0.893919 0.910475 1
1 0.902296 1
1 0.90161 1
1 0.90161 1
1 0.962448 1
0.893919 0.910475 1
0.893919 0.910475 1
0.893919 0.910475 1
0.893919 0.910475 1
0.893919 0.910475 1
1 0.902235 1
1 0.90161 1
1 0.90161 1
1 0.963119 1
0.893919 0.910475 1
0.893919 0.910475 1
0.893919 0.910475 1
0.893919 0.910475 1
0.893919 0.910475 1
1 0.902113 1
1 0.90161 1
1 0.90161 1
1 0.964202 1
0.893919 0.910475 1
0.893919 0.910475 1
0.893919 0.910475 1
0.893919 0.910475 1
0.893919 0.910475 1
1 0.901793 1
1 0.90161 1
1 0.90161 1
1 0.967269 1
0.893919 0.910475 1
0.893919 0.910475 1
0.893919 0.910475 1
0.893919 0.910475 1
0.89456 0.91043 1
1 0.90161 1
1 0.90161 1
1 0.901259 1
1 0.97525 1
0.87834 0.94078 1
0.878325 0.940871 1
0.878264 0.941009 1
0.878096 0.941451 1
0.877165 0.939178 1
0.968093 0.928695 1
1 0.931777 1
1 0.957473 1
1 0.990463 1
0.84213 1 1
0.842161 1 1
0.842222 1 1
0.842374 1 1
0.856474 1 1
0.929656 1 1
1 1 1
1 1 1
1 1 1
0.910643 1 1
0.911742 1 1
0.913481 1 1
0.918639 1 1
0.932418 1 1
0.960876 1 1
0.997177 1 1
1 1 1
1 1 1
0.989425 1 0.985138
0.989578 1 0.985153
0.989807 1 0.985138
0.990539 1 0.985153
0.992615 1 0.985183
0.997909 1 0.985336
1 1 0.986007
1 1 0.988586
1 1 0.996109
0.893919 0.910521 1
0.893919 0.910521 1
0.893919 0.910521 1
0.893919 0.910521 1
0.893919 0.910521 1
0.893919 0.910521 1
1 0.90161 1
1 0.90161 1
1 0.907591 1
0.893919 0.910521 1
0.893919 0.910521 1
0.893919 0.910521 1
0.893919 0.910521 1
0.893919 0.910521 1
0.893919 0.910521 1
1 0.90161 1
1 0.90161 1
1 0.907591 1
0.893919 0.910521 1
0.893919 0.910521 1
0.893919 0.910521 1
0.893919 0.910521 1
0.893919 0.910521 1
0.893919 0.910521 1
1 0.90161 1
1 0.90161 1
1 0.907591 1
0.893919 0.910521 1
0.893919 0.910521 1
0.893919 0.910521 1
0.893919 0.910521 1
0.893919 0.910521 1
0.893919 0.910506 1
1 0.90161 1
1 0.90161 1
1 0.907576 1
0.893919 0.910521 1
0.893919 0.910521 1
0.893919 0.910521 1
0.893919 0.910521 1
0.893919 0.910521 1
0.894759 0.91043 1
1 0.90161 1
1 0.90161 1
1 0.907546 1
0.893919 0.910521 1
0.893919 0.910521 1
0.893919 0.910521 1
0.893919 0.910521 1
0.893919 0.910521 1
0.928298 0.908446 1
1 0.90161 1
1 0.901656 1
1 0.948943 1
0.875364 1 1
0.875364 1 1
0.875364 1 1
0.875334 1 1
0.875257 1 1
0.902342 0.99617 1
1 0.985779 1
1 0.990234 1
1 1 1
0.882643 1 1
0.883711 1 1
0.885496 1 1
0.891295 1 1
0.909667 1 1
0.949599 1 1
0.996475 1 1
1 1 1
1 1 1
0.989212 1 1
0.98941 1 1
0.98967 1 1
0.990524 1 1
0.99292 1 1
0.998993 1 1
1 1 1
1 1 1
1 1 1
0.893874 0.910811 1
0.893874 0.910811 1
0.893874 0.910811 1
0.893874 0.910811 1
0.893874 0.910811 1
0.893874 0.910811 1
0.893874 0.910811 1
1 0.901915 1
1 0.911223 1
0.893874 0.910811 1
0.893874 0.910811 1
0.893874 0.910811 1
0.893874 0.910811 1
0.893874 0.910811 1
0.893874 0.910811 1
0.893874 0.910811 1
1 0.901915 1
1 0.911238 1
0.893874 0.910811 1
0.893874 0.910811 1
0.893874 0.910811 1
0.893874 0.910811 1
0.893874 0.910811 1
0.893874 0.910811 1
0.893874 0.910811 1
1 0.90193 1
1 0.911238 1
0.893874 0.910811 1
0.893874 0.910811 1
0.893874 0.910811 1
0.893874 0.910811 1
0.893874 0.910811 1
0.893874 0.910811 1
0.893874 0.910811 1
1 0.90193 1
1 0.911254 1
0.893874 0.910811 1
0.893874 0.910811 1
0.893874 0.910811 1
0.893874 0.910811 1
0.893874 0.910811 1
0.893874 0.910811 1
0.894713 0.910719 1
1 0.901946 1
1 0.91133 1
0.893874 0.910811 1
0.893874 0.910811 1
0.893874 0.910811 1
0.893874 0.910811 1
0.893874 0.910811 1
0.893874 0.910811 1
0.936904 0.908019 1
1 0.901976 1
1 0.911437 1
0.893874 0.910811 1
0.893874 0.910811 1
0.893874 0.910811 1
0.893874 0.910811 1
0.893874 0.910811 1
0.893874 0.910811 1
1 0.90161 1
1 0.902037 1
1 0.91162 1
0.870558 1 1
0.870558 1 1
0.870558 1 1
0.870558 1 1
0.870558 1 1
0.870558 1 1
0.967697 1 1
1 1 1
1 1 1
0.95436 1 1
0.954864 1 1
0.955657 1 1
0.958007 1 1
0.964446 1 1
0.979171 1 1
1 1 1
1 1 1
1 1 1
