BBLuts/BB_101_0210_LUT.cube
TITLE "Generated by Resolve"
LUT_3D_SIZE 9
0.0221561 0.0221408 0.0221561
0.0221561 0.0221408 0.0221561
0.235096 0.0233463 0.0233463
0.482719 0.0258335 0.0258488
0.783597 0.030457 0.030457
0.995651 0.0341039 0.0341192
0.989273 0.533272 0.174548
0.988037 0.823087 0.48394
0.987671 0.934554 0.781491
0.0223239 0.084123 0.0223239
0.022385 0.0953231 0.022385
0.245899 0.072282 0.0228428
0.493217 0.0259556 0.0259709
0.785962 0.0305028 0.0305028
0.995651 0.0341039 0.0341192
0.989197 0.563729 0.160098
0.988037 0.827375 0.481804
0.987671 0.935073 0.781262
0.0730602 0.235401 0.0730602
0.0738537 0.238697 0.0738689
0.213748 0.248493 0.085008
0.500862 0.235615 0.0233463
0.787869 0.130846 0.0275731
0.991623 0.252308 0.0281529
0.98912 0.603601 0.13135
0.988037 0.833967 0.47837
0.987671 0.935927 0.78088
0.133669 0.470985 0.133684
0.133944 0.472007 0.133959
0.134096 0.472572 0.134096
0.451606 0.493462 0.160494
0.791363 0.498207 0.0242008
0.989731 0.543221 0.02533
0.989334 0.689219 0.0247349
0.988052 0.851316 0.468116
0.987671 0.938354 0.779736
0.0289464 0.786831 0.0289464
0.0289464 0.78677 0.0289464
0.0289464 0.786419 0.0289464
0.0289158 0.784161 0.0289158
0.738933 0.773022 0.0241093
0.959991 0.776638 0.0245365
0.989273 0.819471 0.0246433
0.988037 0.887068 0.471748
0.987671 0.944778 0.776303
0.0309758 0.943618 0.0309758
0.0309606 0.942946 0.0309758
0.0309606 0.941833 0.0309606
0.0309148 0.938415 0.0309148
0.718257 0.925765 0.0248417
0.918746 0.917403 0.0246891
0.989364 0.918914 0.0247807
0.988006 0.933333 0.512749
0.987686 0.958358 0.772366
0.614755 0.987671 0.258289
0.631388 0.987137 0.259144
0.655482 0.986358 0.260639
0.712322 0.984298 0.265324
0.808255 0.980163 0.280201
0.911711 0.974792 0.322896
0.981933 0.970977 0.428992
0.987869 0.971054 0.617227
0.987671 0.976364 0.798642
0.878782 0.987778 0.68368
0.880171 0.987778 0.683833
0.882414 0.987778 0.684047
0.889174 0.987762 0.684733
0.905577 0.987762 0.686824
0.93695 0.987732 0.693217
0.974655 0.987716 0.711849
0.987701 0.987671 0.762188
0.98764 0.98761 0.852201
0.956298 0.987594 0.881483
0.956466 0.987594 0.881514
0.956756 0.987594 0.881544
0.957595 0.987594 0.881636
0.960006 0.987594 0.881895
0.966079 0.987594 0.882704
0.977722 0.987594 0.885527
0.987625 0.987594 0.892378
0.987625 0.987594 0.910491
0.0222171 0.0222171 0.0827344
0.0222171 0.0222171 0.0830549
0.23534 0.0233005 0.0850538
0.483238 0.0257267 0.0889143
0.783352 0.0302586 0.0973831
0.995422 0.0337682 0.138247
0.989151 0.527321 0.248341
0.987991 0.82211 0.517327
0.987671 0.934417 0.78761
0.0222171 0.0575113 0.0724193
0.0706951 0.0706951 0.0706951
0.254032 0.0234531 0.0754101
0.48864 0.025803 0.075288
0.784466 0.0303655 0.0615702
0.995468 0.0338445 0.107195
0.989044 0.558831 0.235691
0.987991 0.826444 0.515557
0.987671 0.934936 0.787396
0.0710002 0.226978 0.0710002
0.0716869 0.22977 0.0716869
0.226581 0.24123 0.0842145
0.499062 0.225803 0.0233768
0.785641 0.0969558 0.0283207
0.991806 0.235767 0.0284123
0.988937 0.600259 0.212696
0.987991 0.833082 0.512688
0.987671 0.93579 0.787045
0.132631 0.467063 0.132631
0.132891 0.46804 0.132891
0.132998 0.468437 0.132998
0.458869 0.48986 0.160082
0.790921 0.494392 0.0242008
0.989746 0.540383 0.0253452
0.989075 0.68719 0.0852674
0.987991 0.850599 0.504219
0.987671 0.938231 0.785946
0.0289311 0.785718 0.0289311
0.0289311 0.785626 0.0289311
0.0289158 0.785275 0.0289311
0.0288853 0.782956 0.0289006
0.741527 0.771893 0.0241093
0.960098 0.775845 0.0245365
0.989273 0.819028 0.0246433
0.988037 0.886854 0.48014
0.987671 0.944686 0.782666
0.0309758 0.943389 0.0309758
0.0309606 0.942702 0.0309606
0.0309453 0.941588 0.0309606
0.0308995 0.938186 0.0309148
0.720027 0.925582 0.0248264
0.919051 0.917266 0.0246738
0.989364 0.918822 0.0247807
0.988006 0.933272 0.512551
0.987686 0.958328 0.772931
0.617319 0.987564 0.258045
0.633722 0.987045 0.258946
0.657511 0.986267 0.260426
0.713726 0.984222 0.26511
0.808896 0.980117 0.280034
0.911879 0.974777 0.322774
0.981979 0.970962 0.428977
0.987869 0.971054 0.617151
0.987671 0.976349 0.798611
0.878996 0.987778 0.683665
0.880385 0.987778 0.683803
0.882612 0.987778 0.684016
0.889357 0.987762 0.684703
0.905715 0.987762 0.686793
0.937026 0.987732 0.693187
0.97467 0.987716 0.711818
0.987701 0.987671 0.762173
0.98764 0.98761 0.852186
0.956329 0.987594 0.881483
0.956497 0.987594 0.881514
0.956771 0.987594 0.881544
0.957626 0.987594 0.881621
0.960037 0.987594 0.881895
0.966094 0.987594 0.882704
0.977737 0.987594 0.885527
0.987625 0.987594 0.892378
0.987625 0.987594 0.910491
0.0227054 0.0226902 0.237812
0.0227054 0.0226902 0.238056
0.211902 0.0233768 0.238407
0.494423 0.0258946 0.237324
0.783139 0.0301213 0.24741
0.995315 0.0336156 0.281529
0.989044 0.515511 0.354116
0.98793 0.820508 0.561913
0.987671 0.934188 0.796872
0.0226749 0.0226749 0.233463
0.0226749 0.0226749 0.233875
0.24062 0.0235752 0.234089
0.492958 0.0258793 0.233036
0.785367 0.0301518 0.242786
0.995315 0.0336156 0.273991
0.988907 0.548836 0.346944
0.98793 0.824903 0.560479
0.987671 0.934722 0.796674
0.0702373 0.206989 0.207523
0.0707408 0.209171 0.207767
0.21471 0.214694 0.214725
0.484047 0.197223 0.218647
0.78407 0.0301366 0.229892
0.992081 0.177722 0.254215
0.988739 0.593011 0.335058
0.98793 0.831647 0.558145
0.987671 0.935576 0.796338
0.132097 0.457572 0.20296
0.132418 0.458732 0.20412
0.132616 0.459312 0.205417
0.458473 0.480797 0.23447
0.785779 0.482383 0.139834
0.989288 0.52961 0.17554
0.988525 0.68188 0.296407
0.98793 0.849409 0.551369
0.987671 0.938033 0.795331
0.0289006 0.783398 0.0289006
0.0289006 0.783307 0.0289006
0.0288853 0.78294 0.0289006
0.0288701 0.780591 0.0288701
0.743786 0.769589 0.024094
0.959976 0.773983 0.0245365
0.9888 0.817319 0.135973
0.987945 0.886122 0.532616
0.987671 0.944503 0.792294
0.0309606 0.943008 0.0309758
0.0309606 0.942321 0.0309606
0.0309453 0.941207 0.0309453
0.0308995 0.937804 0.0308995
0.722866 0.925246 0.0248264
0.919539 0.917037 0.0246738
0.989364 0.918654 0.0247807
0.988006 0.933196 0.512245
0.987671 0.958206 0.783337
0.621439 0.987411 0.257694
0.637476 0.986908 0.258595
0.660761 0.98613 0.260075
0.715984 0.9841 0.26479
0.809949 0.980041 0.279759
0.912184 0.974731 0.322545
0.98204 0.970932 0.428946
0.987869 0.971038 0.617044
0.987671 0.976333 0.798566
0.879332 0.987778 0.683619
0.88072 0.987778 0.683772
0.883299 0.987778 0.683986
0.889662 0.987762 0.684672
0.905943 0.987762 0.686748
0.937133 0.987732 0.693156
0.974716 0.987716 0.711803
0.987701 0.987671 0.762173
0.98764 0.98761 0.852186
0.956359 0.987594 0.881483
0.956542 0.987594 0.881498
0.956832 0.987594 0.881544
0.957656 0.987594 0.881621
0.960067 0.987594 0.88188
0.966125 0.987594 0.882704
0.977752 0.987594 0.885512
0.987625 0.987594 0.892378
0.987625 0.987594 0.910491
0.0238804 0.0238804 0.477913
0.0238804 0.0238804 0.47805
0.0238804 0.0238804 0.478141
0.471901 0.026215 0.478752
0.801144 0.0306554 0.485527
0.995392 0.0337377 0.506493
0.989136 0.47361 0.548913
0.987823 0.815549 0.652705
0.987655 0.933532 0.82034
0.0238651 0.0238651 0.475746
0.0238651 0.0238651 0.475944
0.11577 0.0238499 0.475853
0.48719 0.0263523 0.476585
0.799222 0.0306096 0.483146
0.995392 0.0337377 0.503929
0.988907 0.514717 0.545617
0.987823 0.820172 0.651774
0.987655 0.934066 0.820172
0.0233005 0.103914 0.471138
0.0232853 0.110002 0.47129
0.150179 0.104265 0.470832
0.493248 0.0264134 0.47277
0.793393 0.030518 0.479194
0.995392 0.0337377 0.499092
0.988632 0.566659 0.540368
0.987823 0.827237 0.650278
0.987655 0.934936 0.819898
0.130297 0.424811 0.422873
0.130709 0.426368 0.423468
0.131014 0.427451 0.424201
0.448173 0.448142 0.448188
0.769863 0.439551 0.45272
0.989059 0.492531 0.470695
0.988251 0.666194 0.524895
0.987808 0.845808 0.645991
0.987655 0.937438 0.819074
0.0275731 0.772381 0.364828
0.0275731 0.772351 0.36553
0.0275578 0.772076 0.366629
0.0275273 0.769924 0.369696
0.738933 0.758923 0.374441
0.956558 0.764736 0.403708
0.988037 0.811429 0.484489
0.987808 0.883986 0.634668
0.987655 0.943999 0.816648
0.0309606 0.941939 0.0309606
0.0309453 0.941253 0.0309453
0.03093 0.940124 0.03093
0.0308843 0.936721 0.0308843
0.722744 0.924178 0.0248112
0.918135 0.915267 0.219501
0.98819 0.916594 0.400244
0.987854 0.932326 0.607446
0.987655 0.957855 0.809628
0.633448 0.986954 0.256596
0.648463 0.986465 0.257527
0.670359 0.985718 0.259037
0.722652 0.983764 0.263828
0.813077 0.979812 0.278935
0.913085 0.974594 0.32192
0.982238 0.97084 0.42884
0.987869 0.970977 0.616724
0.987671 0.976318 0.798398
0.880369 0.987778 0.683513
0.881743 0.987778 0.68365
0.884291 0.987778 0.683879
0.890562 0.987762 0.68455
0.906645 0.987762 0.686641
0.937499 0.987732 0.693049
0.974823 0.987716 0.711696
0.987701 0.987671 0.762158
0.98764 0.98761 0.85211
0.956497 0.987594 0.881483
0.956664 0.987594 0.881483
0.956939 0.987594 0.881514
0.957794 0.987594 0.881605
0.960174 0.987594 0.881865
0.966217 0.987594 0.882689
0.977798 0.987594 0.885496
0.987625 0.987594 0.892363
0.987625 0.987594 0.910491
0.0261082 0.0261082 0.75996
0.0261082 0.0261082 0.760021
0.0261082 0.0261082 0.760143
0.315511 0.0265507 0.759548
0.789487 0.0314183 0.75964
0.99588 0.0344549 0.765225
0.99147 0.237568 0.774731
0.987778 0.798703 0.800687
0.98764 0.931548 0.866743
0.0261082 0.0260929 0.75935
0.0261082 0.0261082 0.759426
0.0261082 0.0261082 0.759564
0.344167 0.0267185 0.758892
0.79472 0.0314794 0.75906
0.99588 0.0344549 0.764584
0.990219 0.346532 0.772152
0.987762 0.804318 0.800076
0.98764 0.932128 0.866621
0.0260929 0.0260929 0.758358
0.0260929 0.0260929 0.758434
0.0260929 0.0260929 0.758572
0.381994 0.0269474 0.757839
0.797909 0.0315251 0.758007
0.99588 0.0344549 0.763485
0.989364 0.44918 0.769116
0.987747 0.812726 0.799146
0.98764 0.933043 0.866438
0.0245823 0.280751 0.751644
0.0245823 0.28365 0.751659
0.0245823 0.287373 0.751675
0.384329 0.276997 0.749737
0.793667 0.173053 0.750271
0.990845 0.285054 0.75256
0.988388 0.60972 0.761685
0.987716 0.834195 0.796551
0.98764 0.935683 0.865888
0.0269932 0.73547 0.725444
0.0269932 0.735744 0.725551
0.0269932 0.735821 0.725704
0.0269932 0.734371 0.726024
0.723644 0.723613 0.723659
0.948348 0.734997 0.728161
0.987793 0.792981 0.744884
0.987686 0.877073 0.790204
0.98764 0.94255 0.864302
0.0290074 0.937057 0.687221
0.0289921 0.936385 0.687373
0.0289921 0.935271 0.687617
0.0289464 0.931853 0.688365
0.694881 0.918837 0.686625
0.908553 0.910155 0.695674
0.987716 0.91252 0.721492
0.987671 0.929702 0.777173
0.98764 0.956893 0.859937
0.623026 0.985534 0.606378
0.638483 0.985031 0.606577
0.661006 0.984298 0.606943
0.714519 0.98233 0.608148
0.806455 0.978378 0.612314
0.907546 0.97322 0.62594
0.977218 0.969604 0.664515
0.987701 0.970092 0.746578
0.98764 0.975845 0.848386
0.883833 0.987778 0.683146
0.885145 0.987778 0.683299
0.887236 0.987778 0.683513
0.893248 0.987762 0.684199
0.908705 0.987762 0.68629
0.938582 0.987732 0.692714
0.975174 0.987716 0.711421
0.987701 0.987671 0.762097
0.98764 0.98761 0.851957
0.956893 0.987594 0.881437
0.957061 0.987594 0.881437
0.957336 0.987594 0.881483
0.95816 0.987594 0.881559
0.960525 0.987594 0.881819
0.966461 0.987594 0.882643
0.97792 0.987594 0.885466
0.987625 0.987594 0.892332
0.987625 0.987594 0.910491
0.0277714 0.0277562 0.939986
0.0277714 0.0277562 0.940002
0.0277714 0.0277562 0.940017
0.0277714 0.0277714 0.940063
0.687739 0.0309911 0.937072
0.996368 0.035172 0.9355
0.996368 0.0351873 0.936385
0.987991 0.720607 0.92015
0.987625 0.925307 0.924941
0.0277714 0.0277562 0.93991
0.0277714 0.0277562 0.939925
0.0277714 0.0277562 0.939941
0.0277714 0.0277562 0.939986
0.695064 0.0310826 0.93695
0.996368 0.035172 0.935424
0.996368 0.0351873 0.936309
0.987945 0.731624 0.919509
0.987625 0.925978 0.924865
0.0277562 0.0277562 0.939788
0.0277562 0.0277562 0.939803
0.0277714 0.0277562 0.939818
0.0277714 0.0277562 0.939849
0.706661 0.0312352 0.936751
0.996368 0.035172 0.935271
0.996368 0.0351873 0.936187
0.9879 0.747845 0.918547
0.987625 0.927062 0.924743
0.0277562 0.0277562 0.939406
0.0277562 0.0277562 0.939422
0.0277562 0.0277562 0.939437
0.0277562 0.0277562 0.939116
0.732021 0.0315404 0.936202
0.996353 0.035172 0.934874
0.996353 0.035172 0.934279
0.987808 0.786923 0.916045
0.987625 0.93019 0.924392
0.0261082 0.56347 0.926452
0.0261234 0.564691 0.926421
0.0261234 0.566644 0.92636
0.0261387 0.569696 0.925811
0.705791 0.556756 0.920577
0.985672 0.575311 0.917601
0.988052 0.702296 0.913115
0.987686 0.853162 0.911192
0.987625 0.938216 0.923445
0.0289158 0.924422 0.902174
0.0289158 0.923995 0.902144
0.0289006 0.923186 0.902068
0.0288701 0.919951 0.901808
0.62298 0.906325 0.897032
0.896406 0.896376 0.896437
0.984161 0.90135 0.898192
0.987625 0.922606 0.904463
0.987625 0.954284 0.921187
0.481346 0.985336 0.883467
0.517601 0.984665 0.883284
0.56318 0.983658 0.882704
0.648112 0.98117 0.882322
0.771054 0.97644 0.882048
0.890303 0.970687 0.883177
0.966705 0.967071 0.886854
0.987625 0.968154 0.896468
0.987625 0.974762 0.916548
0.874189 0.987655 0.84889
0.875532 0.987655 0.848936
0.877684 0.987655 0.848997
0.884215 0.98764 0.849226
0.900053 0.98764 0.849912
0.930648 0.987625 0.852064
0.9682 0.98761 0.858518
0.98764 0.987594 0.875319
0.987625 0.987594 0.905898
0.958083 0.987594 0.881285
0.958236 0.987594 0.881315
0.958495 0.987594 0.881331
0.959289 0.987594 0.881422
0.961532 0.987594 0.881697
0.967239 0.987594 0.882506
0.978347 0.987594 0.885328
0.987625 0.987594 0.892226
0.987625 0.987594 0.910475
0.0282597 0.0282597 0.991745
0.0282597 0.0282597 0.991745
0.0282597 0.0282597 0.991745
0.0282597 0.0282597 0.991745
0.0282597 0.0282597 0.991745
0.979446 0.0352178 0.996429
0.996551 0.035462 0.996597
0.996551 0.035462 0.996597
0.987655 0.898054 0.971206
0.0282597 0.0282597 0.991745
0.0282597 0.0282597 0.991745
0.0282597 0.0282597 0.991745
0.0282597 0.0282597 0.991745
0.0282597 0.0282597 0.991745
0.980758 0.0352483 0.996445
0.996551 0.035462 0.996597
0.996551 0.035462 0.996597
0.987655 0.899306 0.971115
0.0282597 0.0282597 0.991745
0.0282597 0.0282597 0.991745
0.0282597 0.0282597 0.991745
0.0282597 0.0282597 0.991745
0.0282597 0.0282597 0.991745
0.982849 0.0352789 0.99646
0.996551 0.035462 0.996597
0.996551 0.035462 0.996597
0.98764 0.901289 0.970977
0.0282597 0.0282597 0.991745
0.0282597 0.0282597 0.991745
0.0282597 0.0282597 0.991745
0.0282597 0.0282597 0.991745
0.0282597 0.0282597 0.991745
0.988968 0.0353552 0.996521
0.996551 0.035462 0.996597
0.996551 0.035462 0.996597
0.98764 0.906889 0.970565
0.0282597 0.0282597 0.991745
0.0282597 0.0282597 0.991745
0.0282597 0.0282597 0.991745
0.0282597 0.0282597 0.991745
0.39855 0.0287175 0.99205
0.996551 0.035462 0.996597
0.996551 0.035462 0.996597
0.988525 0.612741 0.983734
0.98764 0.920714 0.969512
0.0281529 0.827344 0.981811
0.0281529 0.827619 0.981811
0.0281529 0.828061 0.981781
0.0281682 0.829404 0.981689
0.0281224 0.824521 0.980453
0.900954 0.809918 0.973709
0.987732 0.83328 0.971374
0.987655 0.890669 0.968353
0.987625 0.945205 0.967514
0.0295872 0.990784 0.968231
0.0295872 0.990127 0.96817
0.029572 0.989059 0.968063
0.0295415 0.985946 0.967773
0.672541 0.97406 0.962615
0.86862 0.96556 0.961624
0.961471 0.96144 0.961501
0.98761 0.963668 0.962203
0.98761 0.972045 0.964828
0.846159 0.987671 0.956191
0.847959 0.987655 0.956191
0.850797 0.987655 0.956176
0.8589 0.987655 0.956161
0.879286 0.987625 0.956115
0.917433 0.987594 0.9561
0.960449 0.987579 0.95642
0.98761 0.987579 0.9579
0.98761 0.987579 0.961791
0.953994 0.987594 0.943404
0.954162 0.987594 0.94342
0.954421 0.987594 0.94342
0.95523 0.987594 0.94345
0.957534 0.987579 0.943526
0.963348 0.987579 0.943786
0.974655 0.987579 0.944579
0.987564 0.987579 0.947021
0.98761 0.987579 0.953399
0.0269932 0.0933089 0.99089
0.0269932 0.0933089 0.99089
0.0269932 0.0933089 0.99089
0.0269932 0.0933394 0.99089
0.0269932 0.0934157 0.990875
0.0269932 0.0935988 0.990875
0.996551 0.035462 0.996597
0.996551 0.035462 0.996597
0.988312 0.655619 0.988342
0.0269932 0.0932784 0.99089
0.0269932 0.0932784 0.99089
0.0269932 0.0932937 0.99089
0.0269932 0.0933089 0.99089
0.0269932 0.0933852 0.990875
0.0269932 0.0935836 0.990875
0.996551 0.035462 0.996597
0.996551 0.035462 0.996597
0.988312 0.655589 0.988342
0.0269932 0.0932174 0.99089
0.0269932 0.0932174 0.99089
0.0269932 0.0932326 0.99089
0.0269932 0.0932631 0.99089
0.0269932 0.0933089 0.99089
0.0269932 0.0935225 0.990875
0.996551 0.035462 0.996597
0.996551 0.035462 0.996597
0.988312 0.655558 0.988342
0.0269932 0.0930648 0.99089
0.0269932 0.0930495 0.99089
0.0269932 0.0930648 0.99089
0.0269932 0.09308 0.99089
0.0269932 0.0931563 0.99089
0.027512 0.0607309 0.991226
0.996551 0.035462 0.996597
0.996551 0.035462 0.996597
0.988312 0.655421 0.988342
0.0269932 0.0925307 0.99089
0.0269932 0.0925307 0.99089
0.0269932 0.092546 0.99089
0.0269932 0.0925612 0.99089
0.0269932 0.0926223 0.99089
0.433341 0.0289464 0.992203
0.996551 0.035462 0.996597
0.996551 0.035462 0.996597
0.988312 0.655024 0.988342
0.0270237 0.0908827 0.990906
0.0270237 0.0908827 0.990906
0.0270237 0.0908827 0.990906
0.0270237 0.090898 0.990906
0.0270237 0.0909743 0.990906
0.807324 0.0328527 0.994827
0.996551 0.035462 0.996597
0.994598 0.0975509 0.994629
0.987701 0.856794 0.987732
0.0293278 0.95877 0.992447
0.0293278 0.958801 0.992447
0.0293278 0.958846 0.992447
0.0293278 0.959014 0.992447
0.0293278 0.959503 0.992462
0.760876 0.935271 0.987793
0.963729 0.928512 0.987655
0.987625 0.937697 0.987655
0.987625 0.959518 0.987655
0.691997 0.987991 0.987945
0.699886 0.987961 0.9879
0.711742 0.98793 0.987839
0.742641 0.987854 0.987655
0.805631 0.987732 0.987305
0.886381 0.987625 0.986893
0.952071 0.987579 0.986587
0.986496 0.986465 0.986526
0.98761 0.986984 0.98674
0.943664 0.987594 0.984497
0.943893 0.987594 0.984497
0.944244 0.987594 0.984497
0.945312 0.987594 0.984497
0.948363 0.987594 0.984482
0.955901 0.987579 0.984466
0.969711 0.987579 0.984451
0.984558 0.987579 0.984558
0.98761 0.987579 0.985046
0.025803 0.340566 0.990097
0.025803 0.340566 0.990097
0.025803 0.340566 0.990097
0.025803 0.340581 0.990097
0.025803 0.340581 0.990097
0.025803 0.340642 0.990097
0.025803 0.340749 0.990097
0.990799 0.327123 0.990829
0.988113 0.698344 0.988144
0.025803 0.340566 0.990097
0.025803 0.340566 0.990097
0.025803 0.340566 0.990097
0.025803 0.340566 0.990097
0.025803 0.340581 0.990097
0.025803 0.340627 0.990097
0.025803 0.340749 0.990097
0.990784 0.327398 0.990829
0.988113 0.69839 0.988144
0.025803 0.340551 0.990097
0.025803 0.340551 0.990097
0.025803 0.340551 0.990097
0.025803 0.340566 0.990097
0.025803 0.340566 0.990097
0.025803 0.340627 0.990097
0.025803 0.340734 0.990097
0.990784 0.32784 0.990814
0.988113 0.698451 0.988144
0.025803 0.340536 0.990097
0.025803 0.340536 0.990097
0.025803 0.340536 0.990097
0.025803 0.340536 0.990097
0.025803 0.340551 0.990097
0.025803 0.340581 0.990097
0.025803 0.340688 0.990097
0.990768 0.329198 0.990799
0.988113 0.69868 0.988144
0.025803 0.340429 0.990097
0.025803 0.340429 0.990097
0.025803 0.340429 0.990097
0.025803 0.340429 0.990097
0.025803 0.340444 0.990097
0.025803 0.340475 0.990097
0.429206 0.317357 0.988815
0.990723 0.333333 0.990753
0.988113 0.699306 0.988144
0.025803 0.340124 0.990097
0.025803 0.340124 0.990097
0.025803 0.340124 0.990097
0.025803 0.340139 0.990097
0.025803 0.340139 0.990097
0.025803 0.340169 0.990097
0.828443 0.126268 0.992584
0.9906 0.345525 0.990631
0.988113 0.700236 0.988144
0.025803 0.339193 0.990097
0.025803 0.339193 0.990097
0.025803 0.339193 0.990097
0.025803 0.339208 0.990097
0.025803 0.339208 0.990097
0.025803 0.339254 0.990097
0.996551 0.035462 0.996597
0.990356 0.3691 0.990387
0.988098 0.702007 0.988128
0.029633 0.992599 0.99266
0.029633 0.992599 0.99266
0.029633 0.992599 0.99266
0.029633 0.992599 0.99266
0.029633 0.992599 0.99266
0.029633 0.992599 0.99266
0.912657 0.977066 0.987671
0.987579 0.974258 0.987655
0.98761 0.977722 0.987655
0.893324 0.987625 0.987686
0.894102 0.98761 0.987686
0.895338 0.98761 0.987686
0.898955 0.98761 0.987686
0.908553 0.98761 0.987671
0.929183 0.987594 0.987655
0.958633 0.987579 0.987655
0.981949 0.987579 0.987655
0.98761 0.987579 0.98764
