BBLuts/BB_106_0030_LUT.cube
TITLE "Generated by Resolve"
LUT_3D_SIZE 33
0 0 0
0 0 0
0 0 0
0 0 0
0 0 0
0.0496834 0 0
0.131151 0 0
0.189914 0 0
0.245182 0 0
0.307134 0 0
0.375357 0 0
0.441047 0 0
0.512154 0 0
0.582635 0 0
0.646082 0 0.00134279
0.713695 0.00419623 0.00665293
0.782238 0.00929274 0.0121004
0.850263 0.014374 0.0175631
0.9093 0.0188602 0.0223697
0.95436 0.0222934 0.0260624
0.954696 0.0223087 0.0260929
0.954696 0.0223087 0.0260929
0.933394 0.33727 0.120043
0.924804 0.504814 0.188724
0.918883 0.6056 0.263355
0.913924 0.681163 0.345739
0.909468 0.74905 0.441886
0.90576 0.802441 0.550179
0.902861 0.841901 0.635615
0.900526 0.872526 0.71426
0.89868 0.894835 0.790845
0.897185 0.912459 0.86096
0.896056 0.926116 0.915679
0 0 0
0 0 0
0 0 0
0 0 0
0 0 0
0.0681468 0 0
0.13756 0 0
0.194507 0 0
0.252018 0 0
0.314733 0 0
0.382528 0 0
0.446693 0 0
0.515389 0 0
0.584329 0 0
0.647334 0 0.00143435
0.714565 0.00427253 0.00671397
0.782742 0.00932326 0.0121462
0.850462 0.0143893 0.0175784
0.909178 0.0188449 0.0223697
0.954025 0.0222629 0.0260319
0.954696 0.0223087 0.0260929
0.954696 0.0223087 0.0260929
0.932174 0.366613 0.100908
0.9243 0.51635 0.180804
0.918608 0.611002 0.259571
0.913741 0.68484 0.343923
0.909361 0.751385 0.440192
0.905699 0.803754 0.549462
0.902831 0.842649 0.635309
0.900511 0.872938 0.714061
0.898665 0.895079 0.790722
0.897185 0.912596 0.860899
0.896056 0.926192 0.915648
0 0 0
0 0 0
0 0 0
0 0 0
0 0 0
0.0790265 0 0
0.140307 0 0
0.198901 0 0
0.259083 0 0
0.321981 0 0
0.387701 0 0
0.449851 0 0
0.517876 0 0
0.586114 0 0
0.648615 0 0.00154116
0.715419 0.00433356 0.00677501
0.783246 0.00936904 0.012192
0.850645 0.0144045 0.0175937
0.909041 0.0188296 0.0223545
0.953658 0.0222324 0.0260166
0.954696 0.0223087 0.0260929
0.954696 0.0223087 0.0260929
0.931258 0.391165 0.0734112
0.923858 0.527092 0.172335
0.918334 0.616266 0.255711
0.913558 0.688441 0.342092
0.909255 0.753674 0.438514
0.905653 0.805035 0.548745
0.9028 0.843381 0.634989
0.900481 0.87335 0.713878
0.898665 0.895308 0.7906
0.897169 0.912749 0.860822
0.896056 0.926284 0.915602
0 0 0
0 0 0
0 0 0
0 0 0
0.0125887 0 0
0.0870832 0 0
0.14168 0 0
0.199542 0 0
0.26041 0 0
0.324727 0 0
0.390768 0 0
0.452598 0 0
0.520256 0 0
0.587854 0 0
0.649912 0 0.00163272
0.716274 0.0043946 0.0068513
0.783734 0.00939956 0.0122225
0.850813 0.0144198 0.0176089
0.908888 0.0188144 0.0223392
0.953277 0.0222019 0.0259861
0.954696 0.0223087 0.0260929
0.943679 0.163912 0.0131228
0.930968 0.412421 0.0055848
0.92343 0.537148 0.16321
0.918059 0.621408 0.251759
0.913375 0.691981 0.340261
0.909163 0.755917 0.43682
0.905592 0.806302 0.548043
0.902754 0.844114 0.634668
0.900465 0.873762 0.713695
0.89865 0.895552 0.790478
0.897169 0.912886 0.860761
0.89604 0.92636 0.915572
0 0.0648966 0
0 0.0697185 0
0 0.0743877 0
0 0.0788434 0
0 0.0805524 0
0.0688487 0.0790112 0
0.128527 0.0762951 0
0.18883 0.0697337 0
0.253056 0.0545357 0
0.325765 0 0
0.39266 0 0
0.455009 0 0
0.522545 0 0
0.589563 0 0
0.65124 0 0.00173953
0.717144 0.00445563 0.00691234
0.784222 0.00944533 0.0122683
0.850965 0.0144198 0.0176242
0.908721 0.0188144 0.0223239
0.95288 0.0221714 0.0259403
0.954696 0.0223087 0.0260929
0.939406 0.240558 0.00959792
0.930068 0.431037 0.00541695
0.923064 0.546624 0.153277
0.917815 0.626413 0.247715
0.913207 0.695445 0.33843
0.909072 0.758114 0.435142
0.905531 0.807538 0.547341
0.902724 0.845151 0.634363
0.90045 0.874174 0.713497
0.898634 0.895781 0.790372
0.897169 0.913024 0.860685
0.89604 0.926452 0.915526
0 0.115831 0
0 0.119585 0
0 0.123278 0
0 0.126207 0
0 0.127581 0
0.0379797 0.126543 0
0.115282 0.125322 0
0.179767 0.122744 0
0.246265 0.117128 0
0.315938 0.105714 0
0.386206 0.0824903 0
0.457053 0 0
0.524742 0 0
0.591241 0 0
0.652583 0 0.00184634
0.718044 0.00453193 0.00698863
0.78471 0.00947585 0.012314
0.851102 0.014435 0.0176394
0.908537 0.0187991 0.0223087
0.952468 0.0221408 0.0259098
0.954696 0.0223087 0.0260929
0.936934 0.288594 0.00801099
0.929259 0.448432 0.00529488
0.922713 0.555627 0.142184
0.917571 0.631327 0.243565
0.913039 0.698878 0.336583
0.908965 0.760281 0.433463
0.905486 0.808774 0.546624
0.902693 0.845869 0.634043
0.900435 0.874571 0.713314
0.898634 0.896025 0.790249
0.897154 0.913161 0.860609
0.89604 0.926528 0.915496
0 0.16582 0
0 0.168933 0
0 0.17203 0
0 0.173831 0
0 0.17496 0
0 0.175326 0
0.09131 0.173098 0
0.166537 0.171695 0
0.237858 0.16878 0
0.31043 0.162905 0
0.381826 0.151385 0
0.447913 0.131823 0
0.519554 0.0923171 0
0.59324 0 0
0.654246 0 0.00198367
0.719142 0.00460822 0.00708019
0.785306 0.00952163 0.0123598
0.85127 0.0144503 0.0176547
0.908293 0.0187686 0.0222934
0.951934 0.0221103 0.025864
0.954696 0.0223087 0.0260929
0.934783 0.332937 0.00689708
0.928359 0.468421 0.00520333
0.922332 0.566049 0.126436
0.917281 0.637186 0.238315
0.91284 0.703014 0.33431
0.908858 0.762875 0.431388
0.905409 0.810254 0.545769
0.902663 0.846738 0.633661
0.900404 0.875074 0.713085
0.898619 0.896315 0.790097
0.897154 0.913329 0.860533
0.89604 0.926619 0.91545
0 0.221942 0
0 0.224506 0
0 0.226566 0
0 0.227817 0
0 0.228702 0
0 0.22916 0
0.0135042 0.227893 0
0.142138 0.226017 0
0.223819 0.224414 0
0.300969 0.220706 0
0.375479 0.21323 0
0.444846 0.202136 0
0.51725 0.18468 0
0.586938 0.153063 0
0.65127 0.0739147 0
0.720623 0.00471504 0.007187
0.78613 0.00958267 0.0124208
0.851499 0.0144656 0.0176699
0.907942 0.0187533 0.0222629
0.951171 0.0220493 0.025803
0.940749 0.215473 0.010605
0.932601 0.379431 0.00604257
0.927291 0.491936 0.00515755
0.92195 0.579095 0.0986343
0.916915 0.64477 0.231037
0.912581 0.7084 0.331273
0.908705 0.766232 0.429862
0.905333 0.812177 0.54461
0.902602 0.847883 0.633158
0.900389 0.875715 0.712779
0.898604 0.896696 0.789899
0.897139 0.913558 0.86041
0.896025 0.926757 0.915373
0 0.283833 0
0 0.285817 0
0 0.286839 0
0 0.287892 0
0 0.288594 0
0 0.289067 0
0 0.289357 0
0.0845655 0.286397 0
0.196796 0.283803 0
0.283696 0.280537 0
0.364675 0.275776 0
0.439384 0.268803 0
0.515572 0.258442 0
0.586313 0.24242 0
0.647227 0.218997 0
0.71162 0.182193 0
0.779492 0.114778 0.00366217
0.851804 0.0144961 0.0177005
0.907423 0.0187076 0.0222171
0.937804 0.185962 0.0116274
0.935576 0.316182 0.00727855
0.930388 0.424369 0.00546273
0.92604 0.518349 0.00518807
0.922179 0.5944 0.0059205
0.916472 0.65449 0.220752
0.912245 0.715373 0.327199
0.908492 0.77055 0.428763
0.905226 0.814664 0.543084
0.902541 0.849378 0.632471
0.900343 0.87657 0.712383
0.898573 0.8972 0.789654
0.897124 0.913863 0.860258
0.896025 0.92694 0.915297
0 0.350454 0
0 0.350973 0
0 0.351461 0
0 0.351904 0
0 0.352148 0
0 0.352193 0
0 0.352087 0
0 0.351644 0
0.14136 0.346563 0
0.255085 0.344015 0
0.346853 0.340841 0
0.42945 0.336187 0
0.51136 0.329198 0
0.585824 0.318883 0
0.647044 0.306859 0
0.709499 0.292073 0
0.773083 0.275334 0
0.836179 0.26183 0.00248722
0.889982 0.273533 0.00547799
0.929107 0.323781 0.00674449
0.931807 0.395438 0.00579843
0.928145 0.473472 0.00518807
0.924605 0.547829 0.00535592
0.921218 0.610498 0.00624094
0.915938 0.666804 0.205692
0.911833 0.724208 0.321843
0.908232 0.776059 0.427405
0.905089 0.817868 0.541054
0.902464 0.851316 0.631571
0.900298 0.877684 0.711833
0.898543 0.897856 0.789303
0.897108 0.91426 0.860059
0.89601 0.927169 0.915175
0 0.414054 0
0 0.414496 0
0 0.414939 0
0 0.41529 0
0 0.415518 0
0 0.415656 0
0 0.415702 0
0 0.415595 0
0 0.415152 0
0.201831 0.4094 0
0.317189 0.407187 0
0.412406 0.404303 0
0.502144 0.399954 0
0.583093 0.393973 0
0.646601 0.387533 0
0.708827 0.380804 0
0.770748 0.374807 0
0.831556 0.373114 0.00077821
0.883589 0.385611 0.00335698
0.922423 0.416846 0.00511177
0.928496 0.465522 0.00520333
0.925826 0.522805 0.00521859
0.922972 0.580255 0.00569161
0.920073 0.630747 0.00669871
0.915328 0.682185 0.1823
0.91133 0.735164 0.314885
0.907897 0.782956 0.425772
0.904906 0.821942 0.538354
0.902342 0.853834 0.630381
0.900236 0.879118 0.711116
0.898512 0.898741 0.78883
0.897078 0.914778 0.859785
0.895994 0.927474 0.915038
0 0.484352 0
0 0.484764 0
0 0.48513 0
0 0.485451 0
0 0.485679 0
0 0.485847 0
0 0.485969 0
0 0.48603 0
0 0.485893 0
0 0.485466 0
0.261982 0.478477 0
0.383734 0.476219 0
0.484657 0.473426 0
0.574762 0.469642 0
0.64303 0.465217 0
0.707225 0.461372 0
0.76878 0.459709 0
0.827634 0.462348 0.000595102
0.877592 0.474525 0.00283818
0.915526 0.498253 0.00463874
0.925429 0.530953 0.0052491
0.923445 0.570947 0.0055848
0.921172 0.611261 0.0062562
0.91873 0.654917 0.00733959
0.914733 0.701152 0.141878
0.910735 0.748486 0.30602
0.9075 0.79144 0.423926
0.904692 0.8271 0.534752
0.902205 0.857023 0.628794
0.90016 0.880964 0.710155
0.898451 0.89987 0.78822
0.897047 0.91548 0.859403
0.895979 0.927886 0.914824
0 0.556466 0.00263981
0 0.556786 0.00265507
0 0.557061 0.00268559
0 0.557275 0.00270085
0 0.557473 0.00271611
0 0.55761 0.00273136
0 0.557763 0.00273136
0 0.55787 0.00274662
0 0.557961 0.00276188
0 0.558053 0.00276188
0.101488 0.553811 0
0.325643 0.550958 0
0.452827 0.549294 0
0.557641 0.547051 0
0.633692 0.544442 0
0.701686 0.542168 0
0.765377 0.54136 0
0.82327 0.54374 0.00131228
0.871305 0.551919 0.00325017
0.908034 0.567452 0.00492866
0.922484 0.589319 0.00582895
0.921004 0.614267 0.00631724
0.919219 0.646021 0.00709544
0.91722 0.683207 0.00817884
0.915068 0.724758 0.00961318
0.910048 0.764218 0.295018
0.907012 0.801602 0.422019
0.904402 0.833432 0.533089
0.902037 0.861036 0.626719
0.900053 0.883299 0.708904
0.89839 0.901335 0.787396
0.897017 0.916365 0.858915
0.895949 0.92842 0.914565
0 0.621683 0.00874342
0 0.621881 0.00875868
0 0.622049 0.00877394
0 0.622202 0.0087892
0 0.622324 0.00880446
0 0.622431 0.00881971
0 0.622553 0.00883497
0 0.622644 0.00883497
0 0.622736 0.00885023
0 0.622766 0.00885023
0 0.62266 0.00883497
0.194034 0.617212 0
0.402152 0.614862 0
0.529931 0.613062 0
0.617945 0.61117 0
0.690898 0.609354 0
0.758572 0.60824 0.000961318
0.817578 0.609232 0.00270085
0.86421 0.614191 0.00434882
0.899596 0.623987 0.00581369
0.919631 0.638712 0.00689708
0.918517 0.658885 0.0074464
0.917144 0.684596 0.00822461
0.915541 0.715557 0.00927749
0.913802 0.749966 0.0105745
0.90927 0.782177 0.282124
0.906447 0.813382 0.420432
0.904021 0.841077 0.533928
0.901823 0.865965 0.623972
0.899931 0.886229 0.70724
0.898314 0.903227 0.786313
0.896956 0.917525 0.858274
0.895918 0.929122 0.914199
0 0.68452 0.0153048
0 0.684642 0.0153201
0 0.684733 0.0153353
0 0.684825 0.0153353
0 0.684886 0.0153506
0 0.684947 0.0153506
0 0.684993 0.0153658
0 0.685023 0.0153658
0 0.685039 0.0153658
0 0.685008 0.0153658
0 0.684855 0.0153353
0 0.684459 0.0153048
0.310231 0.676555 0.00251774
0.488029 0.674159 0.00102235
0.596323 0.672206 0.00112917
0.674311 0.670298 0.00192264
0.746777 0.668727 0.00317388
0.808331 0.668727 0.00460822
0.855299 0.671946 0.00596628
0.889876 0.679149 0.00721752
0.916838 0.690455 0.00840772
0.916014 0.706127 0.00894179
0.914977 0.726467 0.00967422
0.913771 0.750546 0.010605
0.912474 0.776944 0.0116884
0.908446 0.801785 0.268635
0.905821 0.826535 0.419821
0.903563 0.850431 0.535439
0.901579 0.871855 0.621134
0.899779 0.889891 0.705043
0.898207 0.905592 0.784878
0.896895 0.91899 0.857404
0.895888 0.930037 0.913725
0 0.747723 0.0224765
0 0.747784 0.0224765
0 0.747814 0.0224918
0 0.747845 0.0224918
0 0.74786 0.0224918
0 0.74786 0.0224918
0 0.74786 0.0224918
0 0.747845 0.0224918
0 0.747799 0.0224765
0 0.747677 0.0224613
0 0.747433 0.022446
0 0.74699 0.0224002
0 0.746166 0.0223087
0.422629 0.735653 0.00569161
0.564797 0.733303 0.00480659
0.652476 0.731228 0.00502022
0.729595 0.729351 0.00582895
0.794247 0.728573 0.00691234
0.842557 0.73022 0.00802625
0.878187 0.734981 0.00906386
0.904799 0.742992 0.0100557
0.913588 0.754208 0.0107424
0.912886 0.768383 0.0113222
0.912062 0.785321 0.0120394
0.911162 0.804334 0.0128786
0.907576 0.822049 0.258198
0.905104 0.841138 0.420874
0.903044 0.8607 0.538064
0.901228 0.878599 0.62324
0.899596 0.894347 0.702144
0.898085 0.908537 0.782956
0.896819 0.920821 0.856245
0.895827 0.931182 0.913085
0 0.808225 0.0289921
0 0.808209 0.0289921
0 0.808179 0.0289921
0 0.808164 0.0289921
0 0.808118 0.0289769
0 0.808087 0.0289769
0 0.808026 0.0289769
0 0.80795 0.0289616
0 0.807813 0.0289464
0 0.807584 0.0289311
0 0.807233 0.0288853
0 0.806638 0.0288243
0 0.805722 0.0287327
0.323125 0.795102 0.0116121
0.522774 0.791669 0.00892653
0.628031 0.789105 0.00843824
0.709392 0.786709 0.00875868
0.776562 0.785031 0.00946059
0.82707 0.784939 0.0102846
0.86482 0.786877 0.0110933
0.892424 0.79115 0.0118715
0.911467 0.797925 0.0125887
0.91104 0.806806 0.0129854
0.910521 0.817746 0.013489
0.909926 0.83035 0.0140688
0.906645 0.842466 0.255787
0.904326 0.857023 0.42501
0.902464 0.8719 0.542443
0.900832 0.886122 0.626337
0.899351 0.899611 0.70074
0.897932 0.912093 0.780438
0.896727 0.923095 0.854719
0.895766 0.932647 0.91223
0 0.85832 0.0342718
0 0.858259 0.0342565
0 0.858183 0.0342565
0 0.858106 0.0342412
0 0.85803 0.0342412
0 0.857954 0.034226
0 0.857847 0.0342107
0 0.857679 0.0341955
0 0.857466 0.0341802
0 0.85713 0.0341497
0 0.856626 0.0340887
0 0.855879 0.0340124
0 0.854841 0.0339055
0.193851 0.845273 0.0186465
0.48539 0.839612 0.0127565
0.608759 0.836469 0.0115816
0.69276 0.83357 0.0114595
0.760388 0.831235 0.0118257
0.811917 0.829923 0.0123751
0.851621 0.829862 0.0129854
0.88072 0.831357 0.0135653
0.901747 0.834638 0.0141146
0.909499 0.839658 0.0145113
0.909178 0.846738 0.014847
0.908782 0.855177 0.015259
0.905592 0.862882 0.267369
0.903502 0.872755 0.434195
0.901854 0.883497 0.549416
0.900389 0.894469 0.630823
0.899016 0.905623 0.70425
0.897765 0.916289 0.777111
0.896605 0.925826 0.852689
0.895689 0.934462 0.911086
0 0.895827 0.0382239
0 0.89572 0.0382086
0 0.895613 0.0381933
0 0.895506 0.0381933
0 0.895384 0.0381781
0 0.895277 0.0381628
0 0.895125 0.0381476
0 0.894911 0.038117
0 0.894621 0.0381018
0 0.894194 0.038056
0 0.893599 0.0379797
0 0.89279 0.0379034
0 0.891691 0.0377813
0.140291 0.882704 0.0235752
0.471855 0.876234 0.015671
0.600931 0.872831 0.0140993
0.683467 0.869749 0.0137026
0.749126 0.86717 0.0138247
0.799573 0.865339 0.0141756
0.83949 0.864332 0.0146181
0.869902 0.864408 0.0150607
0.89218 0.865721 0.0154879
0.908186 0.868345 0.0158999
0.908003 0.872282 0.0160983
0.907774 0.877501 0.0163729
0.904433 0.881422 0.297871
0.902632 0.887648 0.450889
0.901183 0.895109 0.559792
0.899886 0.903487 0.637171
0.89865 0.912306 0.709102
0.89752 0.920989 0.779812
0.896468 0.929091 0.849989
0.895582 0.936645 0.909575
0 0.924666 0.0412451
0 0.924529 0.0412451
0 0.924392 0.0412299
0 0.924254 0.0412146
0 0.924117 0.0411994
0 0.923964 0.0411841
0 0.923781 0.0411536
0 0.923522 0.0411383
0 0.923186 0.0410925
0 0.922728 0.0410468
0 0.922103 0.0409857
0 0.921279 0.0408942
0 0.920165 0.0407874
0.251408 0.908995 0.0226444
0.490349 0.904128 0.0175631
0.6056 0.900816 0.0160372
0.681941 0.897826 0.0155337
0.743114 0.895232 0.0155184
0.790982 0.893187 0.0157168
0.829862 0.891691 0.016022
0.860258 0.890913 0.0163577
0.883543 0.890929 0.0166781
0.901549 0.891814 0.0170138
0.907042 0.89366 0.0171969
0.906905 0.896513 0.0173495
0.903227 0.897597 0.345602
0.901747 0.901595 0.476768
0.900481 0.906767 0.574289
0.899336 0.91281 0.646082
0.898238 0.919402 0.715801
0.897215 0.926116 0.784817
0.896284 0.932815 0.85034
0.895476 0.939239 0.907576
0 0.945495 0.0434424
0 0.945327 0.0434272
0 0.945174 0.0433967
0 0.945022 0.0433967
0 0.944869 0.0433814
0 0.944701 0.0433509
0 0.944518 0.0433356
0 0.944259 0.0433051
0 0.943908 0.0432746
0 0.94345 0.0432288
0 0.942824 0.0431525
0 0.942016 0.0430762
0 0.940948 0.0429541
0.391608 0.927611 0.021088
0.536065 0.924269 0.0184939
0.62356 0.92134 0.0173495
0.689158 0.918654 0.016907
0.743221 0.916243 0.0168307
0.787152 0.914214 0.0169528
0.823774 0.912551 0.0171664
0.852934 0.911437 0.0174105
0.876295 0.910826 0.0176699
0.894835 0.910842 0.0179294
0.906233 0.911574 0.0181277
0.903731 0.91107 0.234287
0.902007 0.912184 0.401877
0.900816 0.914595 0.509789
0.899748 0.917906 0.592615
0.898756 0.921965 0.658335
0.897795 0.926604 0.724941
0.89688 0.93164 0.791592
0.896056 0.936919 0.854719
0.895338 0.942184 0.906706
0 0.961227 0.0450904
0 0.961074 0.0450752
0 0.960922 0.0450599
0 0.960769 0.0450446
0 0.960616 0.0450294
0 0.960464 0.0450141
0 0.960266 0.0449989
0 0.960021 0.0449683
0 0.959686 0.0449226
0 0.959243 0.0448768
0 0.958648 0.0448157
0.182712 0.948974 0.0281224
0.391196 0.944732 0.0224918
0.507439 0.942077 0.0202487
0.590951 0.939651 0.0189822
0.650034 0.937301 0.0183108
0.702892 0.935042 0.0179904
0.748119 0.932952 0.0179141
0.787259 0.93106 0.0179751
0.820584 0.929427 0.0181277
0.847776 0.928191 0.0183108
0.870329 0.927306 0.0185092
0.888777 0.926802 0.0187228
0.902068 0.925917 0.104326
0.90193 0.924468 0.353826
0.900816 0.924849 0.462852
0.89987 0.926085 0.547936
0.899016 0.927993 0.613779
0.898161 0.930571 0.674708
0.897337 0.933745 0.737179
0.896529 0.937362 0.800641
0.895781 0.941299 0.860471
0.895155 0.945357 0.910048
0 0.972519 0.0462806
0 0.972381 0.0462654
0 0.972229 0.0462501
0 0.972091 0.0462348
0 0.971954 0.0462196
0 0.971801 0.0462043
0.0785382 0.964904 0.0335088
0.203342 0.96199 0.0286564
0.287785 0.96025 0.0261387
0.360662 0.958785 0.0242924
0.424796 0.957382 0.0228275
0.488045 0.955947 0.021622
0.545785 0.954437 0.0206455
0.596231 0.952819 0.0198825
0.639261 0.95111 0.0193484
0.681712 0.94931 0.0189975
0.721553 0.947524 0.0188144
0.757885 0.945785 0.0187686
0.791302 0.944091 0.0188144
0.820447 0.942596 0.0189212
0.845136 0.94136 0.0190585
0.866331 0.940337 0.0192264
0.882155 0.938109 0.172045
0.894728 0.936385 0.343893
0.900526 0.935637 0.442588
0.899702 0.9355 0.523873
0.89897 0.935958 0.588769
0.898253 0.936996 0.640955
0.897551 0.938552 0.695827
0.896849 0.940581 0.753231
0.896147 0.943008 0.812467
0.895506 0.945739 0.867979
0.894957 0.948699 0.914427
0.47602 0.966842 0.0226902
0.486412 0.966598 0.0224918
0.495995 0.966354 0.0223087
0.504967 0.96614 0.0221561
0.513405 0.965911 0.0220035
0.521401 0.965698 0.0218662
0.530632 0.965454 0.0216983
0.542062 0.965133 0.0215152
0.556008 0.964736 0.0212863
0.572702 0.964218 0.0210269
0.591424 0.963607 0.0207523
0.610452 0.962844 0.0204623
0.633112 0.961944 0.0201724
0.658503 0.960891 0.0198978
0.685954 0.959716 0.0196994
0.71313 0.957397 0.120348
0.741192 0.955657 0.162982
0.769299 0.953933 0.201251
0.796063 0.952224 0.238376
0.819959 0.950637 0.276295
0.841184 0.949172 0.316075
0.860426 0.947845 0.358312
0.876417 0.946715 0.401541
0.889494 0.945708 0.460075
0.89929 0.944945 0.522713
0.898695 0.944503 0.578958
0.8981 0.944457 0.625666
0.89752 0.944839 0.672953
0.896941 0.945632 0.721935
0.896345 0.946807 0.773709
0.89575 0.948272 0.82739
0.895216 0.950027 0.877562
0.894743 0.952071 0.920043
0.626795 0.9664 0.436332
0.629633 0.966384 0.436515
0.63241 0.966354 0.436698
0.635142 0.966323 0.436896
0.637812 0.966293 0.437079
0.640436 0.966278 0.437263
0.643595 0.966217 0.437491
0.6477 0.966033 0.437812
0.652979 0.96582 0.438224
0.659709 0.965515 0.438804
0.668162 0.965148 0.439582
0.678553 0.964675 0.440635
0.691051 0.964111 0.4421
0.705638 0.963424 0.444083
0.722301 0.962615 0.446815
0.74107 0.961669 0.450523
0.761425 0.960601 0.455528
0.782528 0.959457 0.462211
0.80325 0.958282 0.470985
0.822644 0.957122 0.4822
0.841123 0.955978 0.495995
0.85832 0.954894 0.51281
0.872953 0.953918 0.532937
0.885542 0.953094 0.556527
0.895827 0.952346 0.590646
0.897765 0.951766 0.626139
0.897292 0.951415 0.665949
0.896819 0.951354 0.708324
0.89633 0.951598 0.752575
0.895842 0.952163 0.79884
0.895354 0.952972 0.845869
0.894911 0.954055 0.889418
0.89453 0.955383 0.927214
0.703517 0.964889 0.577478
0.704875 0.964874 0.577569
0.706218 0.964874 0.577661
0.707546 0.964858 0.577768
0.708858 0.964858 0.577859
0.71017 0.964843 0.577951
0.711742 0.964843 0.578073
0.713817 0.964828 0.578225
0.716533 0.964813 0.578439
0.720058 0.964797 0.578729
0.724605 0.964767 0.57911
0.730358 0.964736 0.579629
0.73756 0.964691 0.580331
0.746395 0.96466 0.581277
0.75697 0.964614 0.582544
0.769253 0.964553 0.584207
0.782986 0.964508 0.586358
0.797665 0.963928 0.58912
0.812711 0.963058 0.592584
0.828199 0.962127 0.597009
0.843519 0.961181 0.602747
0.858228 0.960266 0.610605
0.871153 0.959411 0.620829
0.882673 0.958633 0.633844
0.892454 0.957977 0.650187
0.896895 0.957382 0.676295
0.896544 0.956924 0.709392
0.896162 0.956634 0.746456
0.89575 0.956573 0.786328
0.895338 0.956725 0.827283
0.894972 0.957092 0.866865
0.894621 0.957671 0.903502
0.894301 0.95845 0.936172
0.75552 0.964004 0.665644
0.756268 0.964004 0.66569
0.757 0.964004 0.665751
0.757733 0.964004 0.665812
0.75845 0.964004 0.665873
0.759182 0.963989 0.665934
0.760052 0.963989 0.665995
0.761212 0.963989 0.666102
0.762737 0.963973 0.666224
0.764721 0.963973 0.666392
0.7673 0.963958 0.666621
0.770611 0.963943 0.666926
0.774792 0.963928 0.667353
0.780011 0.963912 0.667903
0.786374 0.963897 0.66865
0.793912 0.963867 0.669657
0.802594 0.963836 0.671
0.812543 0.963806 0.672816
0.823606 0.963775 0.675227
0.835447 0.963745 0.678431
0.847852 0.963714 0.682673
0.859541 0.963684 0.688258
0.870619 0.963516 0.695537
0.880812 0.962814 0.704952
0.889677 0.962203 0.716991
0.896071 0.961669 0.732174
0.895842 0.961181 0.756558
0.895537 0.9608 0.787655
0.895216 0.960555 0.822034
0.894896 0.960464 0.856794
0.894606 0.960525 0.889479
0.894331 0.960739 0.919295
0.894087 0.961105 0.947005
0.792218 0.963424 0.746609
0.792615 0.963424 0.746639
0.792996 0.963424 0.746685
0.793378 0.963424 0.746731
0.793759 0.963424 0.746777
0.794156 0.963409 0.746807
0.794614 0.963409 0.746868
0.795239 0.963409 0.746929
0.796048 0.963409 0.747036
