BBLuts/BB_102_0160_LUT.cube
TITLE "Generated by Resolve"
LUT_3D_SIZE 33
0.00782788 0.00891127 0.0037232
0.00782788 0.00891127 0.0037232
0.00782788 0.00891127 0.0037232
0.00782788 0.00891127 0.0037232
0.00782788 0.00891127 0.0037232
0.0595407 0.00794995 0.00263981
0.120195 0.00695811 0.00164797
0.164431 0.00628672 0.00102235
0.209003 0.00564584 0.000457771
0.261631 0.00491341 0
0.322499 0.00408942 0
0.388785 0.00323491 0
0.463844 0.00227359 0
0.53872 0.00111391 0
0.600458 0 0
0.661753 0 0
0.725185 0 0
0.789517 0 0
0.847822 0 0
0.893935 0 0
0.902464 0 0
0.902464 0 0
0.893065 0.189639 0.0267643
0.879606 0.407248 0.061265
0.870115 0.554818 0.0988479
0.864515 0.644724 0.144945
0.859907 0.717906 0.204852
0.855863 0.780987 0.292607
0.852552 0.829541 0.39472
0.849775 0.867247 0.481804
0.847593 0.895842 0.543526
0.845823 0.917678 0.605188
0.844327 0.935134 0.659998
0.00782788 0.00891127 0.0037232
0.00782788 0.00891127 0.0037232
0.00782788 0.00891127 0.0037232
0.00782788 0.00891127 0.0037232
0.00782788 0.00891127 0.0037232
0.0717021 0.00773632 0.00242618
0.124437 0.00689708 0.00158694
0.167926 0.00624094 0.000976577
0.214511 0.00556954 0.000396735
0.268025 0.00482185 0
0.328908 0.00399786 0
0.394217 0.00315862 0
0.46717 0.00222782 0
0.540475 0.00108339 0
0.601587 0 0
0.662562 0 0
0.725673 0 0
0.789746 0 0
0.847761 0 0
0.893629 0 0
0.902464 0 0
0.902464 0 0
0.890089 0.230426 0.015198
0.878355 0.424186 0.0564736
0.869474 0.563485 0.0961166
0.864195 0.648936 0.143343
0.859678 0.720851 0.203006
0.855726 0.782773 0.291569
0.852476 0.830549 0.394156
0.849729 0.867857 0.481559
0.847578 0.896193 0.543389
0.845808 0.917891 0.605097
0.844312 0.935256 0.659937
0.00782788 0.00891127 0.0037232
0.00782788 0.00891127 0.0037232
0.00782788 0.00891127 0.0037232
0.00782788 0.00891127 0.0037232
0.00782788 0.00891127 0.0037232
0.0789654 0.00762951 0.00230411
0.125902 0.00688182 0.00157168
0.171267 0.00619516 0.0009308
0.220264 0.00547799 0.000320439
0.27396 0.0047303 0
0.333791 0.00393683 0
0.397131 0.00311284 0
0.469917 0.0021973 0
0.542336 0.00105287 0
0.602731 0 0
0.66334 0 0
0.726177 0 0
0.789975 0 0
0.847669 0 0
0.893324 0 0
0.902464 0 0
0.902464 0 0
0.886931 0.262959 0
0.877134 0.440223 0.0512245
0.868864 0.571679 0.0933089
0.86389 0.653071 0.141726
0.859464 0.723751 0.201236
0.855589 0.784527 0.290517
0.852399 0.831571 0.393606
0.849683 0.868467 0.481285
0.847547 0.896529 0.543252
0.845792 0.918105 0.605005
0.844297 0.935378 0.659892
0.00782788 0.00891127 0.0037232
0.00782788 0.00891127 0.0037232
0.00782788 0.00891127 0.0037232
0.00727855 0.0150149 0.00367742
0.0312352 0.0201114 0.00308232
0.0845197 0.00753796 0.00221256
0.126589 0.00686656 0.00155642
0.171557 0.0061799 0.0009308
0.221241 0.00546273 0.000320439
0.276356 0.00469978 0
0.33695 0.00390631 0
0.399786 0.00308232 0
0.472526 0.00216678 0
0.544228 0.00102235 0
0.603876 0 0
0.664149 0 0
0.726665 0 0
0.790173 0 0
0.847547 0 0
0.892973 0 0
0.902464 0 0
0.902464 0 0
0.885023 0.292241 0
0.875944 0.455467 0.0453346
0.868269 0.579461 0.090425
0.863584 0.65713 0.140108
0.859251 0.726589 0.200397
0.855467 0.786252 0.289479
0.852323 0.832563 0.393042
0.849638 0.869062 0.481025
0.847532 0.896864 0.54313
0.845777 0.918318 0.604929
0.844297 0.9355 0.659846
0.00239567 0.0664988 0.00325017
0.00207523 0.0697948 0.00321965
0.00175479 0.0729992 0.00318914
0.00144961 0.0760815 0.00317388
0.00132753 0.0772869 0.00315862
0.0705272 0.0758679 0.00199893
0.116869 0.0729686 0.00144961
0.164538 0.0665751 0.000961318
0.217395 0.0523384 0.000457771
0.277424 0.00468452 0
0.338781 0.00387579 0
0.402182 0.0030518 0
0.475029 0.00213626 0
0.54612 0.000976577 0
0.605066 0 0
0.664958 0 0
0.727138 0 0
0.790356 0 0
0.847425 0 0
0.892622 0 0
0.902464 0 0
0.89955 0.0529946 0
0.883299 0.318288 0
0.874769 0.47013 0.0385443
0.86772 0.586831 0.0874647
0.863294 0.661112 0.138491
0.859052 0.729366 0.199573
0.855344 0.787961 0.288457
0.852247 0.833539 0.392477
0.849607 0.869657 0.480766
0.847501 0.8972 0.542992
0.845762 0.918517 0.604837
0.844282 0.935637 0.659785
0 0.103182 0.00297551
0 0.105852 0.00296025
0 0.108476 0.00292973
0 0.110552 0.00291447
0 0.111543 0.00291447
0.0469368 0.11107 0.00198367
0.105974 0.109819 0.00131228
0.156878 0.107027 0.000823987
0.211521 0.101427 0.000381476
0.271992 0.0906844 0
0.336049 0.06981 0
0.404318 0.00302129 0
0.477501 0.00209049 0
0.548119 0.000946059 0
0.606332 0 0
0.665843 0 0
0.727626 0 0
0.790539 0 0
0.847303 0 0
0.892241 0 0
0.902464 0 0
0.893919 0.15201 0
0.881666 0.342794 0
0.873503 0.484871 0.0298772
0.867155 0.594171 0.0842756
0.862989 0.665202 0.136767
0.858839 0.732189 0.198734
0.855207 0.7897 0.287373
0.852155 0.834836 0.391882
0.849561 0.870268 0.480507
0.847471 0.897536 0.542855
0.845747 0.91873 0.604746
0.844282 0.935775 0.659739
0 0.142321 0.00263981
0 0.144579 0.00262455
0 0.146822 0.00260929
0 0.148074 0.00259403
0 0.148882 0.00259403
0 0.149172 0.00259403
0.0859083 0.148302 0.0011902
0.145098 0.146914 0.000671397
0.203418 0.143893 0.000244144
0.26656 0.13814 0
0.331884 0.127565 0
0.40029 0.110475 0
0.476539 0.07776 0
0.550668 0.000900282 0
0.60798 0 0
0.666957 0 0
0.728283 0 0
0.790784 0 0
0.847105 0 0
0.891722 0 0
0.902464 0 0
0.890013 0.215106 0
0.879744 0.371313 0
0.871687 0.502022 0.0119631
0.866453 0.603037 0.0800031
0.862593 0.670344 0.134554
0.858579 0.735775 0.197665
0.855039 0.791913 0.286
0.852064 0.836133 0.391135
0.8495 0.871046 0.480156
0.84744 0.897978 0.542687
0.845731 0.91902 0.604623
0.844266 0.935927 0.659663
0 0.187213 0.00224308
0 0.189212 0.00222782
0 0.190692 0.00221256
0 0.191669 0.00221256
0 0.19237 0.0021973
0 0.192752 0.0021973
0.0252537 0.192493 0.00144961
0.123934 0.191806 0.000488289
0.190036 0.190219 4.57771e-05
0.256809 0.186328 0
0.3252 0.179156 0
0.397086 0.168826 0
0.474678 0.153323 0
0.546548 0.126726 0
0.606149 0.0698405 0
0.668467 0 0
0.729183 0 0
0.791119 0 0
0.84683 0 0
0.891005 0 0
0.896819 0.102693 0
0.886198 0.274327 0
0.87747 0.404807 0
0.869413 0.521599 0
0.865705 0.612329 0.0740215
0.862089 0.676966 0.131609
0.858228 0.740353 0.196277
0.854826 0.794736 0.284199
0.851942 0.837797 0.390143
0.849424 0.872068 0.479698
0.847395 0.898573 0.542458
0.845701 0.919371 0.604471
0.844251 0.936156 0.659571
0 0.240162 0.00178531
0 0.241672 0.00177005
0 0.242527 0.00175479
0 0.243381 0.00175479
0 0.243977 0.00173953
0 0.244388 0.00173953
0 0.244648 0.00173953
0.0768444 0.244144 0.000411994
0.16553 0.24239 0
0.239673 0.239307 0
0.313542 0.234516 0
0.390417 0.227451 0
0.472114 0.217105 0
0.544854 0.201556 0
0.601648 0.179767 0
0.661601 0.148547 0
0.724727 0.0996109 0
0.791531 0 0
0.846418 0 0
0.883848 0.110735 0
0.889387 0.224918 0
0.882185 0.334936 0
0.87483 0.443503 0
0.867765 0.545342 0
0.86482 0.622889 0.0653697
0.861448 0.685405 0.127672
0.857801 0.746197 0.194522
0.854551 0.798367 0.281819
0.851774 0.839979 0.3888
0.849332 0.873381 0.479088
0.847349 0.899321 0.542153
0.84567 0.91986 0.604257
0.844236 0.936431 0.659434
0 0.299825 0.00125124
0 0.300282 0.00125124
0 0.30074 0.00125124
0 0.301122 0.00123598
0 0.30135 0.00123598
0 0.301411 0.00123598
0 0.301289 0.00123598
0 0.300877 0.00125124
0.119219 0.299733 0
0.212375 0.297978 0
0.294774 0.294911 0
0.378241 0.290028 0
0.465995 0.282582 0
0.542382 0.271595 0
0.599161 0.25861 0
0.657771 0.243015 0
0.718212 0.225467 0
0.779583 0.209598 0
0.833326 0.212238 0
0.873793 0.249134 0
0.883543 0.314687 0
0.877913 0.398291 0
0.871672 0.489128 0
0.865904 0.572076 0
0.863554 0.63679 0.051957
0.860624 0.696086 0.122393
0.857252 0.753536 0.192325
0.854215 0.80293 0.278737
0.851575 0.842741 0.387045
0.84921 0.87509 0.478309
0.847272 0.900313 0.541741
0.845624 0.92047 0.603998
0.844205 0.936812 0.659281
0 0.363867 0.000717174
0 0.364324 0.000717174
0 0.364797 0.000717174
0 0.365133 0.000717174
0 0.365393 0.000701915
0 0.365545 0.000701915
0 0.365606 0.000701915
0 0.365484 0.000701915
0 0.364996 0.000717174
0.164904 0.364096 0
0.26482 0.362402 0
0.35787 0.359274 0
0.453773 0.35404 0
0.536812 0.346456 0
0.595712 0.337606 0
0.654444 0.32845 0
0.713603 0.320089 0
0.773083 0.314961 0
0.82504 0.322271 0
0.864897 0.350774 0
0.877791 0.400229 0
0.873396 0.464317 0
0.868376 0.536522 0
0.863859 0.601358 0
0.861662 0.653498 0.0258488
0.859586 0.709407 0.115236
0.85658 0.762615 0.189593
0.853788 0.808637 0.274723
0.851316 0.846281 0.384756
0.849042 0.877256 0.477272
0.847181 0.901595 0.541207
0.845563 0.921279 0.603632
0.844175 0.937301 0.659068
0 0.43827 0.000213626
0 0.438712 0.000198367
0 0.439124 0.000198367
0 0.439445 0.000198367
0 0.439704 0.000198367
0 0.439887 0.000198367
0 0.44004 0.000198367
0 0.440101 0.000198367
0 0.439948 0.000198367
0.0234531 0.439384 0
0.212848 0.439033 0
0.324285 0.437446 0
0.431861 0.434592 0
0.525063 0.429984 0
0.588434 0.423987 0
0.649363 0.418173 0
0.708553 0.414267 0
0.766445 0.414237 0
0.816403 0.423621 0
0.855268 0.446662 0
0.871992 0.484565 0
0.868666 0.532372 0
0.865156 0.582864 0
0.862058 0.627466 0
0.858839 0.673152 0
0.858289 0.725551 0.10576
0.855756 0.773632 0.186343
0.853269 0.815595 0.274037
0.850996 0.850721 0.38172
0.848844 0.880003 0.475898
0.847059 0.903227 0.540505
0.845487 0.922332 0.603159
0.844129 0.937926 0.658778
0 0.524269 0
0 0.52462 0
0 0.524941 0
0 0.5252 0
0 0.525399 0
0 0.525582 0
0 0.52575 0
0 0.525887 0
0 0.526009 0
0 0.526101 0
0.086717 0.526024 0
0.266514 0.526253 0
0.394141 0.525368 0
0.503929 0.523003 0
0.57499 0.519417 0
0.639628 0.515648 0
0.701244 0.513146 0
0.758801 0.513924 0
0.807126 0.521324 0
0.844938 0.537331 0
0.866651 0.561395 0
0.864485 0.592386 0
0.862364 0.623148 0
0.859907 0.658183 0
0.857038 0.698253 0
0.856733 0.744335 0.0933852
0.85478 0.786679 0.182666
0.852659 0.823911 0.273579
0.850584 0.856199 0.377752
0.8486 0.883436 0.474098
0.846906 0.905333 0.53959
0.845396 0.923674 0.602548
0.844068 0.93875 0.658396
0 0.601923 0
0 0.602121 0
0 0.602289 0
0 0.602441 0
0 0.602564 0
0 0.60267 0
0 0.602792 0
0 0.602899 0
0 0.602991 0
0 0.603006 0
0 0.602899 0
0.154986 0.602228 0
0.338704 0.602228 0
0.47306 0.601511 0
0.556542 0.599817 0
0.625803 0.597498 0
0.691371 0.595483 0
0.750607 0.595529 0
0.798032 0.600061 0
0.834821 0.608789 0
0.862501 0.62118 0
0.861204 0.639673 0
0.85951 0.663691 0
0.85742 0.693034 0
0.854963 0.727047 0
0.854917 0.765484 0.0773938
0.853651 0.801633 0.178882
0.851926 0.834028 0.273472
0.850095 0.862837 0.373251
0.848295 0.887633 0.471778
0.846723 0.907958 0.538384
0.845273 0.925368 0.601724
0.843992 0.939803 0.657908
0 0.660273 0
0 0.66038 0
0 0.660471 0
0 0.660548 0
0 0.660624 0
0 0.66067 0
0 0.660731 0
0 0.660777 0
0 0.660777 0
0 0.660731 0
0 0.660594 0
0 0.660197 0
0.251591 0.659678 0
0.428763 0.659495 0
0.533715 0.658518 0
0.607919 0.656931 0
0.678065 0.655299 0
0.740108 0.654826 0
0.788342 0.657252 0
0.824399 0.663508 0
0.85301 0.673747 0
0.857755 0.68838 0
0.856367 0.707698 0
0.854658 0.731289 0
0.85272 0.757809 0
0.852827 0.788296 0.0567636
0.852415 0.818097 0.175647
0.851087 0.845472 0.273945
0.849515 0.870649 0.374838
0.847929 0.892653 0.468742
0.846479 0.911238 0.536812
0.845121 0.927504 0.600656
0.8439 0.941131 0.657267
0 0.720684 0
0 0.720729 0
0 0.720775 0
0 0.720806 0
0 0.720821 0
0 0.720821 0
0 0.720836 0
0 0.720821 0
0 0.720775 0
0 0.720653 0
0 0.720409 0
0 0.719951 0
0.0374304 0.718807 0
0.35874 0.719142 0
0.504356 0.718685 0
0.584817 0.717372 0
0.659358 0.715801 0
0.724544 0.7149 0
0.774624 0.716121 0
0.811536 0.720363 0
0.839857 0.727901 0
0.854109 0.738766 0
0.853101 0.752743 0
0.851865 0.76965 0
0.850431 0.789014 0
0.850385 0.811536 0.0298314
0.851102 0.835904 0.174044
0.850141 0.858366 0.275593
0.848859 0.879622 0.377371
0.847501 0.898497 0.46569
0.846189 0.915236 0.534783
0.844938 0.930144 0.599252
0.843778 0.942779 0.656413
0 0.780331 0
0 0.780316 0
0 0.780301 0
0 0.780285 0
0 0.780255 0
0 0.780224 0
0 0.780163 0
0 0.780087 0
0 0.77995 0
0 0.779736 0
0 0.77937 0
0 0.77879 0
0 0.777874 0
0.259968 0.777356 0
0.460288 0.777264 0
0.558785 0.776135 0
0.637369 0.774456 0
0.704768 0.773022 0
0.757336 0.772869 0
0.796368 0.774716 0
0.82591 0.778836 0
0.847257 0.78555 0
0.850019 0.794537 0
0.849195 0.805707 0
0.848234 0.818784 0
0.84712 0.833692 0
0.849744 0.854444 0.175113
0.849134 0.872343 0.27921
0.848142 0.889509 0.381384
0.846998 0.905226 0.468376
0.845853 0.919997 0.532128
0.844709 0.933333 0.597406
0.843626 0.944854 0.655299
0 0.83154 0
0 0.831479 0
0 0.831418 0
0 0.831357 0
0 0.831281 0
0 0.831189 0
0 0.831083 0
0 0.83093 0
0 0.830701 0
0 0.830365 0
0 0.829847 0
0 0.829099 0
0 0.828046 0
0.142794 0.826795 0
0.41767 0.827008 0
0.537118 0.82562 0
0.618585 0.823758 0
0.68658 0.821881 0
0.740154 0.820752 0
0.781186 0.820768 0
0.812421 0.822293 0
0.834989 0.82562 0
0.847318 0.830976 0
0.846815 0.837827 0
0.846159 0.84651 0
0.846036 0.857557 0.00595102
0.848402 0.873259 0.180896
0.848096 0.886778 0.285969
0.847379 0.899947 0.387472
0.846433 0.912902 0.472129
0.845441 0.925505 0.532052
0.844434 0.937118 0.595026
0.843458 0.947372 0.653834
0 0.870848 0
0 0.870756 0
0 0.870649 0
0 0.870558 0
0 0.870436 0
0 0.870314 0
0 0.870161 0
0 0.869932 0
0 0.869642 0
0 0.8692 0
0 0.868574 0
0 0.86775 0
0 0.866606 0
0.0750744 0.86508 0
0.397177 0.865415 0
0.526024 0.864347 0
0.60708 0.862425 0
0.673518 0.860395 0
0.72604 0.858824 0
0.767697 0.857923 0
0.800031 0.858015 0
0.823865 0.859403 0
0.842329 0.862135 0
0.844694 0.866239 0
0.844282 0.871717 0
0.84593 0.880964 0.0546426
0.847181 0.891279 0.193698
0.847105 0.900893 0.297215
0.846571 0.910933 0.396139
0.845808 0.921324 0.477348
0.844984 0.93167 0.535271
0.844114 0.941451 0.59292
0.843244 0.950378 0.651911
0 0.901686 0
0 0.901549 0
0 0.901427 0
0 0.901274 0
0 0.901152 0
0 0.900999 0
0 0.900801 0
0 0.900526 0
0 0.90016 0
0 0.899672 0
0 0.899031 0
0 0.898146 0
0 0.897002 0
0.150469 0.895872 0
0.409659 0.896056 0
0.526986 0.894942 0
0.60325 0.893065 0
0.665766 0.891066 0
0.715785 0.889342 0
0.756512 0.888014 0
0.788876 0.887312 0
0.813672 0.887449 0
0.833219 0.888441 0
0.842863 0.890455 0
0.842649 0.893462 0
0.845335 0.90103 0.100404
0.846128 0.90779 0.215366
0.846128 0.914748 0.313588
0.845747 0.922271 0.407813
0.845151 0.93022 0.484413
0.84448 0.938354 0.539696
0.843763 0.946242 0.596323
0.843 0.953872 0.649378
0 0.924498 0
0 0.924346 0
0 0.924178 0
0 0.924025 0
0 0.923873 0
0 0.923705 0
0 0.923491 0
0 0.923201 0
0 0.922835 0
0 0.922332 0
0 0.92166 0
0 0.92079 0
0 0.919661 0
0.279942 0.9196 0
0.452003 0.919341 0
0.541344 0.91809 0
0.608286 0.916335 0
0.664454 0.914427 0
0.710552 0.912703 0
0.749187 0.911208 0
0.780285 0.91014 0
0.805173 0.909606 0
0.82536 0.909667 0
0.840757 0.91046 0
0.841245 0.912016 0
0.844694 0.918837 0.149828
0.845182 0.923293 0.246235
0.845197 0.928115 0.336416
0.844923 0.933425 0.423346
0.84448 0.939208 0.492515
0.843961 0.945281 0.545724
0.843351 0.951522 0.600855
0.842695 0.957763 0.651698
0 0.941833 0
0 0.941665 0
0 0.941512 0
0 0.94136 0
0 0.941192 0
0 0.941039 0
0 0.940826 0
0 0.940536 0
0 0.940154 0
0 0.939681 0
0 0.93904 0
0 0.938216 0
0.253193 0.938354 0
0.406973 0.938354 0
0.503136 0.937667 0
0.564981 0.93637 0
0.620356 0.934783 0
0.668269 0.93312 0
0.70956 0.931502 0
0.745068 0.930022 0
0.774105 0.928862 0
0.798184 0.928038 0
0.818296 0.927596 0
0.834089 0.927672 0
0.843091 0.931884 0.104402
0.844038 0.934569 0.203387
0.844358 0.93727 0.286519
0.844358 0.940368 0.367102
0.844144 0.943877 0.443107
0.843824 0.947906 0.502297
0.843412 0.952361 0.553811
0.842924 0.957107 0.606851
0.842374 0.961975 0.655528
0 0.954742 0
0 0.954589 0
0 0.954437 0
0 0.954299 0
0 0.954131 0
0 0.953979 0
0 0.95378 0
0 0.953521 0
0 0.953155 0
0.143359 0.95317 0
0.260304 0.953445 0
0.354879 0.953521 0
0.438834 0.953338 0
0.501656 0.952789 0
0.548745 0.951873 0
0.594705 0.950698 0
0.637858 0.949325 0
0.676768 0.94789 0
0.712673 0.946426 0
0.744167 0.945037 0
0.770535 0.943877 0
0.793286 0.942916 0
0.812604 0.942199 0
0.831205 0.945235 0.092134
0.842969 0.9467 0.184558
0.843442 0.947875 0.26099
0.84361 0.949355 0.333196
0.843595 0.951217 0.4047
0.843427 0.95349 0.466926
0.843198 0.956237 0.515999
0.842878 0.95935 0.564523
0.842481 0.962753 0.614633
0.842023 0.966339 0.660517
0.283848 0.965408 0
0.302144 0.965438 0
0.318807 0.965454 0
0.334478 0.965454 0
0.349279 0.965454 0
0.364004 0.965454 0
0.382254 0.965438 0
0.403784 0.965408 0
0.427649 0.965347 0
0.45391 0.965209 0
0.481926 0.965011 0
0.507271 0.96466 0
0.534096 0.964172 0
0.563516 0.963516 0
0.594858 0.962676 0
0.626993 0.961685 0
0.658579 0.960586 0
0.689555 0.959365 0
0.719402 0.958114 0
0.746197 0.956893 0
0.771649 0.958251 0.0521401
0.7935 0.958404 0.101488
0.812146 0.958328 0.143801
0.82768 0.958495 0.198795
0.840543 0.958785 0.259388
0.842847 0.959182 0.321355
0.842924 0.959838 0.385214
0.842893 0.960815 0.443259
0.842771 0.962173 0.492576
0.842603 0.963897 0.533516
0.842359 0.965942 0.578424
0.842039 0.968215 0.624598
0.841672 0.970687 0.666926
0.520653 0.978744 0.166278
0.524269 0.978668 0.166537
0.52781 0.978607 0.166781
0.531273 0.978546 0.167041
0.534661 0.978485 0.167285
0.538094 0.978408 0.167559
0.542428 0.978332 0.167895
0.547967 0.978225 0.168353
0.554986 0.978073 0.168933
0.563775 0.97789 0.169711
0.574609 0.97763 0.170718
0.587732 0.97731 0.172045
0.603235 0.976898 0.173816
0.621073 0.976394 0.176089
0.640879 0.975769 0.179095
0.662348 0.975067 0.183047
0.68542 0.974243 0.18822
0.709499 0.973327 0.194903
0.732937 0.972381 0.203571
0.754726 0.971481 0.214679
0.775067 0.970626 0.228809
0.793866 0.969863 0.24654
0.810452 0.969253 0.268376
0.824674 0.968795 0.29485
0.836759 0.968582 0.335393
0.842283 0.968521 0.385885
0.842313 0.968627 0.435508
0.842268 0.968994 0.481178
0.842206 0.96965 0.517143
0.842069 0.970626 0.555062
0.841871 0.971817 0.595926
0.841611 0.97322 0.636973
0.841337 0.974884 0.674983
0.61117 0.982467 0.311849
0.612955 0.982483 0.311971
0.61471 0.982513 0.312123
0.616434 0.982528 0.312261
0.618128 0.982544 0.312413
0.619883 0.982574 0.312551
0.62208 0.982589 0.312749
0.624933 0.98262 0.313008
0.628595 0.982666 0.313344
0.633234 0.982727 0.313787
0.639048 0.982788 0.314366
0.646281 0.982879 0.315145
0.655207 0.982986 0.316152
0.66601 0.983108 0.31751
0.678737 0.983078 0.319265
0.693401 0.982513 0.321614
0.70988 0.981842 0.324681
0.727123 0.981109 0.32871
0.744549 0.980331 0.334005
0.761776 0.979522 0.340917
0.778866 0.978714 0.349874
0.795041 0.977935 0.361532
0.809613 0.977234 0.376638
0.822568 0.976654 0.395087
0.833829 0.976196 0.416144
0.841764 0.975875 0.447242
0.841779 0.975677 0.48246
0.841764 0.975662 0.512444
0.841688 0.975875 0.54522
0.841581 0.976318 0.580209
0.841428 0.976959 0.616388
0.841215 0.977768 0.651759
0.841001 0.978775 0.684764
0.671412 0.983658 0.429892
0.672389 0.983673 0.429984
0.673335 0.983688 0.430076
0.674281 0.983688 0.430152
0.675227 0.983703 0.430228
0.676188 0.983719 0.430335
0.677424 0.983734 0.430442
0.679042 0.983749 0.430579
0.681132 0.983764 0.430777
0.683833 0.983795 0.431052
0.687282 0.983841 0.431388
0.691646 0.983886 0.43183
0.697108 0.983948 0.432441
0.704067 0.984024 0.433234
0.712139 0.984115 0.434272
0.721584 0.984207 0.43563
0.73228 0.984329 0.43743
0.743954 0.984451 0.43978
0.756634 0.984604 0.442832
0.770123 0.984741 0.446784
0.783886 0.984527 0.451896
0.797314 0.983841 0.458412
0.809796 0.983169 0.466621
0.821332 0.982559 0.476829
0.831571 0.98204 0.488731
0.840162 0.981643 0.500542
0.841337 0.981292 0.520775
0.841306 0.981064 0.546548
0.841245 0.981003 0.575906
0.841138 0.981094 0.607492
0.841016 0.981323 0.638727
0.840864 0.981704 0.668528
0.840681 0.982223 0.696147
0.715648 0.984344 0.509285
0.716182 0.984344 0.509331
0.716716 0.98436 0.509377
0.71725 0.98436 0.509422
0.717769 0.98436 0.509453
0.718318 0.984375 0.509499
0.719005 0.984375 0.50956
0.719905 0.98439 0.509621
0.721096 0.984405 0.509728
