BBLuts/BB_102_0580_LUT.cube
TITLE "Generated by Resolve"
LUT_3D_SIZE 9
0 0 0
0 0 0
0.152163 0 0
0.387045 0 0
0.730724 0 0
0.990494 0 0
0.942763 0.456641 0.0529488
0.903822 0.831388 0.298848
0.889143 0.981506 0.609689
0 0 0
0 0.00917067 0
0.158709 0 0
0.396658 0 0
0.733608 0 0
0.990494 0 0
0.939178 0.490517 0.0369726
0.903197 0.837064 0.296452
0.889067 0.982208 0.609354
0 0.165927 0
0 0.169528 0
0.110033 0.168963 0
0.389456 0.148135 0
0.730541 0.0457313 0
0.971786 0.16611 0
0.934051 0.538766 0.00675975
0.90222 0.845792 0.292546
0.88893 0.983337 0.608774
0 0.425208 0
0 0.426291 0
0 0.426871 0
0.314717 0.42652 0
0.702083 0.417838 0
0.941573 0.466835 0
0.922042 0.651423 0
0.899641 0.868803 0.280888
0.888563 0.986572 0.607111
0 0.770947 0
0 0.770855 0
0 0.770413 0
0 0.767422 0
0.601526 0.76022 0
0.872892 0.766766 0
0.903365 0.823758 0
0.894453 0.915892 0.279377
0.887587 0.995117 0.602228
0 0.977752 0
0 0.976867 0
0 0.975372 0
0 0.970855 0
0.553475 0.962127 0
0.801266 0.952865 0
0.888838 0.955474 0
0.88777 0.977783 0.310048
0.885527 1 0.595773
0.418219 1 0.0660868
0.438682 1 0.0671244
0.468406 1 0.0688792
0.538537 1 0.0740063
0.657267 1 0.0890974
0.785534 1 0.130037
0.873625 1 0.228824
0.882673 1 0.413321
0.883009 1 0.623926
0.745678 1 0.487404
0.747402 1 0.487587
0.750164 1 0.487861
0.758083 1 0.488716
0.778363 1 0.491279
0.817197 1 0.499001
0.863996 1 0.521019
0.881025 1 0.579797
0.881636 1 0.684779
0.842573 1 0.7187
0.842786 1 0.71873
0.843137 1 0.718761
0.84419 1 0.718883
0.847166 1 0.719219
0.854688 1 0.720211
0.869123 1 0.723171
0.88191 1 0.731258
0.882048 1 0.752422
0 0 0.00588998
0 0 0.0061799
0.152514 0 0.00894179
0.387671 0 0.0127108
0.730617 0 0.0200809
0.990555 0 0.0564584
0.943618 0.450614 0.119493
0.904112 0.830304 0.329366
0.889204 0.981384 0.616846
0 0 0
0 0 0
0.169924 0 0.000106813
0.392538 0 0.000198367
0.731884 0 0
0.990509 0 0.0285954
0.939941 0.485374 0.104906
0.903471 0.836042 0.327123
0.889128 0.982086 0.61651
0 0.156756 0
0 0.159808 0
0.128801 0.159792 0
0.388586 0.138369 0
0.729641 0.0127413 0
0.973373 0.149432 0
0.934691 0.534676 0.0797589
0.902495 0.844831 0.323552
0.888991 0.9832 0.615976
0 0.421103 0
0 0.422126 0
0 0.422538 0
0.325475 0.421881 0
0.70193 0.413962 0
0.941909 0.463691 0
0.922271 0.649058 0
0.899886 0.868055 0.313375
0.888624 0.986465 0.614374
0 0.769482 0
0 0.76936 0
0 0.768887 0
0 0.765835 0
0.604868 0.758755 0
0.873137 0.765713 0
0.903426 0.823178 0
0.894514 0.915663 0.287022
0.887648 0.995041 0.609674
0 0.977447 0
0 0.976547 0
0 0.975067 0
0 0.970535 0
0.555688 0.961883 0
0.801678 0.952697 0
0.888853 0.955352 0
0.887785 0.977707 0.309865
0.885542 1 0.596429
0.421363 1 0.065919
0.441611 1 0.0670176
0.470924 1 0.0687266
0.540261 1 0.0738384
0.658076 1 0.0889601
0.785763 1 0.129931
0.873686 1 0.228809
0.882673 1 0.41326
0.883024 1 0.623896
0.745937 1 0.487373
0.747662 1 0.487556
0.750423 1 0.487831
0.758312 1 0.488685
0.778531 1 0.491249
0.817273 1 0.498985
0.864027 1 0.520989
0.881025 1 0.579782
0.881636 1 0.684764
0.842603 1 0.7187
0.842817 1 0.71873
0.843168 1 0.718761
0.844205 1 0.718868
0.847196 1 0.719219
0.854704 1 0.720211
0.869139 1 0.723171
0.88191 1 0.731258
0.882048 1 0.752422
0 0 0.14464
0 0 0.144854
0.131289 0 0.145876
0.398383 0 0.145281
0.730907 0 0.154162
0.991028 0 0.184863
0.945312 0.438605 0.217304
0.90454 0.828473 0.372976
0.889296 0.98114 0.627665
0 0 0.140734
0 0 0.1411
0.157778 0 0.142061
0.396994 0 0.141421
0.733608 0 0.149981
0.990997 0 0.177966
0.941497 0.474815 0.207538
0.903899 0.834302 0.370947
0.88922 0.981857 0.627344
0 0.130144 0.116258
0 0.132479 0.115755
0.120394 0.126772 0.112932
0.37763 0.110979 0.118944
0.731975 0 0.138384
0.979034 0.092958 0.153368
0.93608 0.525811 0.19202
0.902907 0.843244 0.367712
0.889097 0.983001 0.626841
0 0.408911 0.00943008
0 0.410086 0.0103914
0 0.410651 0.0117952
0.32668 0.409567 0.0167239
0.697261 0.402518 0.0257572
0.943175 0.452674 0.0541848
0.92343 0.643259 0.145449
0.900267 0.866804 0.358572
0.888716 0.986267 0.62533
0 0.766415 0
0 0.766293 0
0 0.76582 0
0 0.762722 0
0.607996 0.755718 0
0.873243 0.763256 0
0.903609 0.8215 0
0.894835 0.915038 0.335332
0.887739 0.994888 0.620905
0 0.976944 0
0 0.976028 0
0 0.974548 0
0 0.970047 0
0.559243 0.961471 0
0.802304 0.952407 0
0.888884 0.955139 0
0.887785 0.9776 0.30959
0.885634 1 0.608591
0.426444 1 0.0656596
0.446235 1 0.0667582
0.474937 1 0.0684672
0.543053 1 0.0735943
0.659373 1 0.0887312
0.786145 1 0.129732
0.873777 1 0.228779
0.882673 1 0.413138
0.883024 1 0.623835
0.746349 1 0.487343
0.748074 1 0.487511
0.75082 1 0.487785
0.758679 1 0.488655
0.77882 1 0.491218
0.817426 1 0.498939
0.864057 1 0.520974
0.881025 1 0.579782
0.881636 1 0.684749
0.842649 1 0.7187
0.842878 1 0.718715
0.843229 1 0.718761
0.844251 1 0.718868
0.847242 1 0.719203
0.854734 1 0.720195
0.869154 1 0.723156
0.88191 1 0.731258
0.882048 1 0.752422
0 0 0.363851
0 0 0.363973
0 0 0.36405
0.378271 0 0.365988
0.753841 0 0.372168
0.992111 0 0.390997
0.950622 0.396933 0.400961
0.905791 0.822583 0.4757
0.889555 0.980453 0.655116
0 0 0.361883
0 0 0.362066
0.0440375 0 0.362387
0.392462 0 0.364019
0.751507 0 0.370077
0.992096 0 0.388663
0.946242 0.43888 0.394003
0.905119 0.828717 0.474006
0.889479 0.98117 0.654841
0 0.0186618 0.353323
0 0.0245212 0.35314
0.0704967 0.0198062 0.353735
0.398077 0 0.36054
0.74435 0 0.366476
0.992081 0 0.384253
0.94023 0.496086 0.383703
0.904082 0.838087 0.471321
0.889342 0.98233 0.654398
0 0.365988 0.303395
0 0.367727 0.303532
0 0.368933 0.304036
0.321233 0.367346 0.307301
0.683574 0.36054 0.314092
0.948272 0.415473 0.32665
0.926558 0.623957 0.356802
0.901335 0.862745 0.463844
0.888975 0.985672 0.653101
0 0.753719 0.187671
0 0.753689 0.188312
0 0.753338 0.189334
0 0.75053 0.192416
0.605371 0.743618 0.204913
0.872374 0.753246 0.23299
0.905531 0.815915 0.300862
0.895705 0.912963 0.445579
0.887968 0.9944 0.649378
0 0.975525 0
0 0.974609 0
0 0.973114 0
0 0.968612 0
0.559243 0.960052 0
0.801816 0.951171 0.0440681
0.889815 0.954726 0.209613
0.88838 0.977142 0.407156
0.885863 1 0.639277
0.441291 1 0.0649119
0.45977 1 0.0659648
0.486748 1 0.067689
0.551293 1 0.0728313
0.663264 1 0.0880293
0.787259 1 0.129198
0.874022 1 0.228702
0.882673 1 0.412757
0.883024 1 0.623636
0.747631 1 0.487221
0.749325 1 0.487388
0.752041 1 0.487663
0.759777 1 0.488518
0.779675 1 0.491096
0.817868 1 0.498817
0.864195 1 0.520851
0.881025 1 0.579751
0.881636 1 0.684688
0.842817 1 0.7187
0.84303 1 0.718715
0.843366 1 0.718746
0.844419 1 0.718853
0.847364 1 0.719188
0.854856 1 0.720195
0.869215 1 0.72314
0.88191 1 0.731243
0.882048 1 0.752422
0 0 0.668528
0 0 0.668605
0 0 0.668757
0.229999 0 0.669337
0.74078 0 0.670283
0.993957 0 0.676905
0.976486 0.1552 0.677409
0.909224 0.801358 0.650294
0.890181 0.97818 0.709514
0 0 0.667826
0 0 0.667903
0 0 0.668055
0.25713 0 0.668681
0.747173 0 0.669612
0.993957 0 0.676158
0.96553 0.266789 0.665919
0.908415 0.80882 0.648829
0.890089 0.978943 0.7093
0 0 0.666667
0 0 0.666758
0 0 0.666926
0.29279 0 0.667552
0.751064 0 0.668391
0.993942 0 0.674876
0.954665 0.373495 0.653513
0.907179 0.819959 0.646647
0.889952 0.980163 0.708965
0 0.193423 0.642023
0 0.196384 0.641794
0 0.200183 0.641474
0.27747 0.192538 0.642634
0.738018 0.0906081 0.652644
0.971649 0.203387 0.648051
0.935988 0.551125 0.628946
0.904021 0.848478 0.640757
0.889555 0.983688 0.707958
0 0.707378 0.562539
0 0.707744 0.562646
0 0.707851 0.562799
0 0.705943 0.563363
0.593851 0.699168 0.568399
0.868559 0.716075 0.573846
0.909682 0.793347 0.586007
0.897673 0.90547 0.627604
0.888518 0.992844 0.705165
0 0.973144 0.490166
0 0.972274 0.49044
0 0.970794 0.490883
0 0.966262 0.492226
0.529747 0.956985 0.498802
0.79379 0.947601 0.512398
0.892027 0.951644 0.542763
0.88983 0.975021 0.60531
0.886351 1 0.6981
0.430884 1 0.395178
0.449912 1 0.395666
0.477638 1 0.396429
0.543664 1 0.398688
0.65742 1 0.405051
0.782589 1 0.422507
0.869596 1 0.468482
0.883604 1 0.564095
0.883436 1 0.682017
0.751461 1 0.486824
0.753079 1 0.487007
0.755673 1 0.487266
0.763104 1 0.488121
0.782223 1 0.4907
0.819211 1 0.498421
0.864637 1 0.520516
0.881025 1 0.57969
0.881636 1 0.684504
0.843305 1 0.718639
0.843519 1 0.718654
0.843854 1 0.7187
0.844877 1 0.718807
0.847791 1 0.719142
0.855161 1 0.72015
0.869368 1 0.72311
0.88191 1 0.731212
0.882048 1 0.752422
0 0 0.877287
0 0 0.877302
0 0 0.877333
0 0 0.877379
0.617395 0 0.876204
0.995361 0 0.874693
0.995377 0 0.875746
0.921401 0.698741 0.79939
0.891524 0.970291 0.777905
0 0 0.877195
0 0 0.877211
0 0 0.877226
0 0 0.877287
0.626337 0 0.876081
0.995361 0 0.874617
0.995377 0 0.875639
0.919814 0.713298 0.797238
0.891417 0.971206 0.777737
0 0 0.877058
0 0 0.877073
0 0 0.877089
0 0 0.877134
0.640452 0 0.875868
0.995361 0 0.874449
0.995377 0 0.875502
0.917464 0.734783 0.794018
0.891264 0.972641 0.777447
0 0 0.876616
0 0 0.876631
0 0 0.876646
0 0 0.87628
0.671366 0 0.875257
0.995361 0 0.873976
0.995361 0 0.873289
0.911772 0.786603 0.786007
0.890791 0.976791 0.776623
0 0.486778 0.818479
0 0.488151 0.818296
0 0.490364 0.818006
0 0.493843 0.817029
0.595728 0.485542 0.817914
0.937575 0.508629 0.814282
0.92398 0.674449 0.793515
0.902052 0.874571 0.771557
0.889586 0.987503 0.774411
0 0.957946 0.742046
0 0.957382 0.742061
0 0.956298 0.742107
0 0.95201 0.742245
0.444953 0.941131 0.744671
0.782315 0.930709 0.747829
0.890105 0.938109 0.749905
0.891768 0.966537 0.754376
0.887175 1 0.769558
0.281941 1 0.716442
0.316579 1 0.71667
0.363439 1 0.716976
0.464332 1 0.717769
0.616144 1 0.719326
0.763577 1 0.722087
0.858625 1 0.727535
0.884916 1 0.738781
0.884077 1 0.761334
0.741268 1 0.679942
0.742916 1 0.680018
0.745586 1 0.68011
0.753201 1 0.68043
0.772778 1 0.681361
0.81062 1 0.684138
0.85713 1 0.691981
0.881804 1 0.711757
0.882017 1 0.747051
0.84477 1 0.718486
0.844968 1 0.718517
0.845289 1 0.718547
0.846265 1 0.718639
0.849058 1 0.71899
0.856123 1 0.719982
0.869886 1 0.722957
0.88191 1 0.731075
0.882048 1 0.752392
0 0 0.937972
0 0 0.937972
0 0 0.937972
0 0 0.937972
0 0 0.937972
0.974365 0 0.946197
0.995895 0 0.946395
0.995895 0 0.946395
0.895918 0.934325 0.835691
0 0 0.937972
0 0 0.937972
0 0 0.937972
0 0 0.937972
0 0 0.937972
0.975982 0 0.946212
0.995895 0 0.946395
0.995895 0 0.946395
0.89572 0.935988 0.835416
0 0 0.937972
0 0 0.937972
0 0 0.937972
0 0 0.937972
0 0 0.937972
0.978561 0 0.946227
0.995895 0 0.946395
0.995895 0 0.946395
0.89543 0.938628 0.834974
0 0 0.937972
0 0 0.937972
0 0 0.937972
0 0 0.937972
0 0 0.937972
0.986084 0 0.946303
0.995895 0 0.946395
0.995895 0 0.946395
0.894591 0.946075 0.833738
0 0 0.937972
0 0 0.937972
0 0 0.937972
0 0 0.937972
0.309712 0 0.940093
0.995895 0 0.946395
0.995895 0 0.946395
0.93724 0.55671 0.88719
0.892531 0.964508 0.83064
0 0.830335 0.848524
0 0.830686 0.848478
0 0.831281 0.848386
0 0.833066 0.848096
0 0.826596 0.847318
0.801053 0.816831 0.849683
0.905409 0.848585 0.844541
0.896986 0.924453 0.833341
0.888869 0.997177 0.824948
0 1 0.80972
0 1 0.80975
0 1 0.809827
0 1 0.809934
0.495979 1 0.812375
0.738613 1 0.814252
0.853544 1 0.815473
0.886061 1 0.816205
0.884825 1 0.818112
0.707454 1 0.804593
0.709682 1 0.804608
0.713176 1 0.804608
0.723186 1 0.804669
0.748363 1 0.804791
0.795041 1 0.805112
0.848264 1 0.805875
0.882383 1 0.807813
0.882414 1 0.812375
0.840192 1 0.790585
0.840391 1 0.7906
0.840711 1 0.790616
0.841703 1 0.790661
0.844556 1 0.790753
0.851759 1 0.791119
0.865766 1 0.792142
0.882246 1 0.795102
0.882353 1 0.802548
0 0.0100862 0.933562
0 0.0100862 0.933562
0 0.0100862 0.933562
0 0.0101015 0.933562
0 0.0101778 0.933562
0 0.0103609 0.933547
0.995895 0 0.946395
0.995895 0 0.946395
0.931212 0.613306 0.887724
0 0.0100404 0.933562
0 0.0100404 0.933562
0 0.0100557 0.933562
0 0.0100862 0.933562
0 0.0101625 0.933562
0 0.0103456 0.933547
0.995895 0 0.946395
0.995895 0 0.946395
0.931212 0.613275 0.887724
0 0.00999466 0.933562
0 0.00999466 0.933562
0 0.0100099 0.933562
0 0.0100252 0.933562
0 0.0100862 0.933562
0 0.0102846 0.933547
0.995895 0 0.946395
0.995895 0 0.946395
0.931228 0.61323 0.887724
0 0.00984207 0.933562
0 0.00982681 0.933562
0 0.00984207 0.933562
0 0.00985733 0.933562
0 0.00993362 0.933562
0 0 0.935347
0.995895 0 0.946395
0.995895 0 0.946395
0.931243 0.613046 0.887739
0 0.00933852 0.933577
0 0.00933852 0.933577
0 0.00935378 0.933577
0 0.00936904 0.933577
0 0.00943008 0.933577
0.34345 0 0.940368
0.995895 0 0.946395
0.995895 0 0.946395
0.931304 0.612528 0.8878
0 0.00776684 0.933608
0 0.00776684 0.933608
0 0.00776684 0.933608
0 0.0077821 0.933608
0 0.0078584 0.933608
0.763622 0 0.944152
0.995895 0 0.946395
0.990463 0.0179904 0.941573
0.902083 0.879973 0.860975
0 1 0.843091
0 1 0.843091
0 1 0.843076
0 1 0.843061
0 1 0.842985
0.610574 0.981888 0.848508
0.861448 0.974838 0.851026
0.890135 0.98732 0.849973
0.886885 1 0.846983
0.517891 1 0.84065
0.527581 1 0.840665
0.542153 1 0.840711
0.580163 1 0.840818
0.65771 1 0.841031
0.756909 1 0.841291
0.838132 1 0.841505
0.881392 1 0.841886
0.882689 1 0.842069
0.827695 1 0.838544
0.82797 1 0.838544
0.828412 1 0.838544
0.82974 1 0.83856
0.833509 1 0.838575
0.842847 1 0.838621
0.859937 1 0.838712
0.878325 1 0.838956
0.882582 1 0.839551
0 0.255482 0.914549
0 0.255482 0.914549
0 0.255482 0.914549
0 0.255497 0.914549
0 0.255497 0.914549
0 0.255543 0.914549
0 0.25565 0.914534
0.969284 0.248234 0.922499
0.925124 0.669764 0.882124
0 0.255482 0.914549
0 0.255482 0.914549
0 0.255482 0.914549
0 0.255482 0.914549
0 0.255497 0.914549
0 0.255528 0.914549
0 0.25565 0.914534
0.969253 0.248524 0.922484
0.925109 0.669841 0.882124
0 0.255467 0.914565
0 0.255467 0.914565
0 0.255467 0.914565
0 0.255482 0.914549
0 0.255482 0.914549
0 0.255528 0.914549
0 0.255634 0.914549
0.969223 0.248966 0.922438
0.925109 0.669917 0.882109
0 0.255436 0.914565
0 0.255436 0.914565
0 0.255436 0.914565
0 0.255436 0.914565
0 0.255467 0.914565
0 0.255497 0.914549
0 0.255604 0.914549
0.96907 0.25037 0.922316
0.925078 0.670207 0.882078
0 0.255329 0.914565
0 0.255329 0.914565
0 0.255329 0.914565
0 0.255329 0.914565
0 0.255344 0.914565
0 0.25539 0.914565
0.318776 0.235416 0.91809
0.968658 0.254597 0.92192
0.924987 0.671031 0.882002
0 0.255024 0.914595
0 0.255024 0.914595
0 0.255024 0.914595
0 0.255039 0.914595
0 0.255039 0.914595
0 0.255085 0.914595
0.784909 0.0458076 0.937713
0.967407 0.267094 0.92079
0.924849 0.672282 0.88188
0 0.254093 0.914672
0 0.254093 0.914672
0 0.254093 0.914672
0 0.254108 0.914672
0 0.254108 0.914672
0 0.254139 0.914672
0.995895 0 0.946395
0.964965 0.291218 0.918578
0.92459 0.674601 0.881651
0 1 0.838468
0 1 0.838468
0 1 0.838468
0 1 0.838468
0 1 0.838468
0 1 0.838468
0.791012 1 0.843946
0.884627 1 0.844938
0.884153 1 0.844465
0.765484 1 0.842283
0.766445 1 0.842283
0.767987 1 0.842298
0.772442 1 0.842329
0.784298 1 0.842405
0.809827 1 0.842573
0.84625 1 0.842802
0.87512 1 0.843
0.882612 1 0.843046
