BBLuts/BB_104_0180_LUT.cube
TITLE "Generated by Resolve"
LUT_3D_SIZE 9
0.0100099 0.0194705 0.0323644
0.0100099 0.0194705 0.0323644
0.167712 0.0213779 0.0347906
0.415702 0.0217899 0.0382086
0.698634 0.260639 0.319005
0.83415 0.600473 0.630182
0.832227 0.623621 0.629587
0.819364 0.762158 0.587549
0.810788 0.834363 0.711147
0.00256352 0.0582437 0.0294347
0.0011902 0.0653086 0.0289006
0.171847 0.0523232 0.0324712
0.427832 0.0222019 0.0390173
0.700359 0.265171 0.323522
0.83415 0.600473 0.630182
0.831662 0.629984 0.628687
0.819181 0.765011 0.583719
0.810758 0.834699 0.710628
0 0.174929 0.0192569
0 0.178088 0.0188907
0.115373 0.179736 0.0222171
0.432898 0.165576 0.0334325
0.703151 0.304692 0.33109
0.833906 0.603632 0.629938
0.83061 0.641413 0.626856
0.818906 0.76939 0.575769
0.810697 0.835264 0.709773
0 0.442847 0
0 0.444205 0
0 0.444953 0
0.328847 0.456275 0
0.7028 0.492195 0.319387
0.83209 0.625284 0.627817
0.826902 0.679454 0.618204
0.818357 0.781323 0.535088
0.810529 0.836866 0.707149
0 0.715679 0
0 0.715618 0
0 0.715328 0
0 0.713466 0
0.640391 0.714855 0.0034638
0.803433 0.728481 0.544564
0.819944 0.759136 0.563851
0.818708 0.806287 0.0151827
0.810086 0.841093 0.699046
0 0.841108 0.0229801
0 0.840589 0.0228275
0 0.839719 0.0225681
0 0.837095 0.0218204
0 0.830472 0.0198978
0.767422 0.824079 0.0149233
0.816922 0.826566 0.0158846
0.815885 0.83711 0.0162203
0.80911 0.850156 0.681804
0 0.878294 0.0325933
0 0.877943 0.032517
0 0.877424 0.0323949
0 0.876005 0.0320745
0.536538 0.871748 0.0275273
0.75288 0.863615 0.0164645
0.808148 0.861936 0.0167544
0.812634 0.862348 0.0167697
0.807126 0.861891 0.703166
0.717205 0.872923 0.0169375
0.718822 0.872923 0.0169223
0.72134 0.872908 0.0168765
0.728313 0.872892 0.0167849
0.744625 0.872923 0.0166629
0.771908 0.873121 0.0166934
0.801297 0.873503 0.0168307
0.807614 0.871 0.581018
0.805737 0.86923 0.762371
0.783703 0.869215 0.789364
0.783825 0.869215 0.78938
0.784024 0.86923 0.789425
0.784634 0.86923 0.789548
0.786404 0.869245 0.789899
0.790799 0.869322 0.790921
0.799161 0.869459 0.793729
0.806271 0.869657 0.800259
0.806699 0.870024 0.815473
0.014847 0.0229343 0.0708782
0.0148928 0.0229648 0.0710613
0.172457 0.0248264 0.0739757
0.416953 0.0254063 0.0784772
0.698573 0.262715 0.334813
0.834134 0.60061 0.631251
0.832319 0.62266 0.630533
0.819303 0.761501 0.595087
0.810758 0.834257 0.717678
0.00979629 0.044358 0.062562
0.0427863 0.0530709 0.0614633
0.187259 0.0242924 0.0677653
0.42298 0.0248264 0.0700236
0.699336 0.263478 0.328298
0.83415 0.600565 0.63093
0.831754 0.628946 0.629648
0.81912 0.764355 0.591226
0.810727 0.834607 0.717205
0 0.166903 0.0200809
0 0.169543 0.0198215
0.132845 0.171832 0.0233005
0.430961 0.157458 0.0334783
0.701213 0.289998 0.325963
0.833936 0.603357 0.629953
0.830716 0.640345 0.627894
0.81883 0.768765 0.585031
0.810666 0.835157 0.716426
0 0.437781 0
0 0.439033 0
0 0.439551 0
0.346181 0.450309 0
0.702602 0.48867 0.319387
0.832151 0.62472 0.627878
0.826993 0.678538 0.619135
0.818204 0.780758 0.553368
0.810483 0.836759 0.714046
0 0.714748 0
0 0.714672 0
0 0.714382 0
0 0.712474 0
0.643 0.713985 0.00341802
0.80354 0.727947 0.545739
0.819959 0.758846 0.564477
0.818723 0.806165 0.0151827
0.810025 0.841001 0.706737
0 0.840925 0.0229191
0 0.840406 0.0227817
0 0.839536 0.0225223
0 0.836912 0.0217594
0 0.83032 0.019852
0.767666 0.823987 0.0149233
0.816938 0.826505 0.0158694
0.815885 0.837079 0.0162051
0.809094 0.850141 0.682689
0 0.878218 0.032578
0 0.877882 0.0325017
0 0.877363 0.0323796
0 0.875944 0.0320592
0.545373 0.871489 0.027039
0.753048 0.8636 0.0164645
0.808179 0.861921 0.0167544
0.812634 0.862333 0.0167697
0.807126 0.861875 0.703136
0.717464 0.872923 0.0169375
0.719066 0.872923 0.016907
0.721569 0.872908 0.0168765
0.728496 0.872892 0.0167849
0.744747 0.872923 0.0166629
0.771954 0.873121 0.0166934
0.801312 0.873503 0.0168307
0.80763 0.871 0.580957
0.805737 0.86923 0.762371
0.783719 0.869215 0.789364
0.783841 0.869215 0.78938
0.784039 0.86923 0.789425
0.784665 0.86923 0.789548
0.786419 0.869245 0.789899
0.790814 0.869322 0.790921
0.799161 0.869459 0.793729
0.806271 0.869657 0.800259
0.806699 0.870024 0.815473
0.0276493 0.0320592 0.175814
0.0276799 0.0320897 0.176013
0.166262 0.0336156 0.177691
0.430793 0.0346075 0.179019
0.698497 0.267704 0.367132
0.834119 0.600809 0.632898
0.832441 0.620935 0.633036
0.819196 0.760403 0.608911
0.810727 0.834119 0.727153
0.0272374 0.0317693 0.17229
0.0272679 0.0317845 0.172625
0.186709 0.033341 0.174228
0.429068 0.0342565 0.175845
0.70013 0.271611 0.369268
0.834119 0.600793 0.632776
0.831922 0.626993 0.632166
0.818998 0.763287 0.60557
0.810681 0.834455 0.726726
0.0012665 0.157275 0.151369
0.000869764 0.158953 0.150958
0.143893 0.156832 0.1514
0.416312 0.148913 0.162295
0.699184 0.268711 0.364477
0.833967 0.602808 0.632395
0.830915 0.638102 0.630442
0.818692 0.767742 0.599786
0.81062 0.835019 0.726055
0 0.424125 0.0149081
0 0.425544 0.0149233
0 0.426246 0.0156252
0.352743 0.436439 0.044831
0.699504 0.477028 0.340673
0.832288 0.622965 0.629664
0.827207 0.676127 0.622614
0.817975 0.779812 0.579965
0.810437 0.836622 0.723995
0 0.71284 0
0 0.712764 0
0 0.712459 0
0 0.710521 0
0.645457 0.712184 0.00329595
0.803555 0.726696 0.547494
0.819974 0.758007 0.569558
0.818357 0.805753 0.268879
0.809964 0.840848 0.717723
0 0.840635 0.0228428
0 0.840101 0.0226902
0 0.839246 0.022446
0 0.836622 0.0216831
0 0.830076 0.0197757
0.768032 0.82385 0.0149233
0.816938 0.826398 0.0158694
0.815885 0.837018 0.0162051
0.808942 0.849928 0.697749
0 0.878126 0.0325628
0 0.877775 0.0324865
0 0.877256 0.0323644
0 0.875868 0.0320439
0.557778 0.871122 0.0263218
0.753307 0.863584 0.0164797
0.808225 0.861906 0.0167544
0.812634 0.862333 0.0167697
0.807126 0.861875 0.703059
0.717845 0.872923 0.0169375
0.719448 0.872923 0.016907
0.721935 0.872908 0.0168612
0.728817 0.872892 0.0167697
0.744976 0.872923 0.0166629
0.772061 0.873121 0.0166934
0.801343 0.873503 0.0168307
0.80763 0.871 0.580957
0.805737 0.86923 0.762356
0.783734 0.869215 0.789364
0.783871 0.86923 0.78938
0.784085 0.869215 0.789425
0.784695 0.86923 0.789548
0.78645 0.869245 0.789883
0.790829 0.869322 0.790921
0.799176 0.869459 0.793713
0.806271 0.869657 0.800259
0.806699 0.870024 0.815473
0.106447 0.0865644 0.424292
0.106569 0.0866407 0.424475
0.10663 0.0866865 0.424582
0.413916 0.0891127 0.418463
0.711177 0.324819 0.501457
0.833967 0.602243 0.643641
0.8327 0.617258 0.649454
0.818891 0.757183 0.653376
0.810727 0.833814 0.749462
0.104707 0.0853742 0.421683
0.104875 0.0854658 0.421912
0.170993 0.0860914 0.42179
0.429297 0.0886091 0.415473
0.70985 0.321263 0.498527
0.833967 0.602213 0.643366
0.832258 0.622415 0.648493
0.818647 0.760159 0.651316
0.810681 0.83415 0.749172
0.0919966 0.134707 0.416342
0.0913863 0.138811 0.41651
0.182071 0.136614 0.416831
0.435447 0.0868391 0.410727
0.705745 0.311208 0.491783
0.833982 0.602121 0.642863
0.831357 0.632349 0.646677
0.818265 0.764706 0.647822
0.81062 0.834714 0.748684
0 0.386282 0.36759
0 0.388067 0.367727
0 0.389364 0.368399
0.365957 0.399313 0.385
0.689204 0.440742 0.459709
0.832654 0.618326 0.639673
0.827802 0.668956 0.63917
0.817334 0.777066 0.636378
0.810422 0.836332 0.747234
0 0.704509 0
0 0.704479 0
0 0.704265 0
0 0.702495 0
0.643748 0.704509 0.00268559
0.802319 0.720958 0.57232
0.819928 0.754498 0.596094
0.815824 0.802258 0.590585
0.809903 0.840558 0.742885
0 0.839811 0.0225986
0 0.839277 0.022446
0 0.838407 0.0222019
0 0.835782 0.0214389
0 0.829252 0.0195468
0.767681 0.823133 0.0148775
0.817014 0.825818 0.0158541
0.815991 0.836606 0.0161898
0.808759 0.849577 0.729961
0 0.877806 0.0324865
0 0.877485 0.0324102
0 0.876966 0.0323033
0 0.875624 0.0319829
0.583703 0.870176 0.024567
0.754116 0.863493 0.0164797
0.808377 0.861845 0.0167544
0.812634 0.862287 0.0167697
0.807141 0.86186 0.702846
0.71902 0.872923 0.016907
0.720592 0.872908 0.0168917
0.723033 0.872908 0.016846
0.729747 0.872892 0.0167697
0.745617 0.872923 0.0166476
0.772351 0.873121 0.0166934
0.801419 0.873503 0.0168307
0.80763 0.871 0.580804
0.805737 0.86923 0.76228
0.783841 0.869215 0.789349
0.783963 0.86923 0.78938
0.784161 0.86923 0.78941
0.784772 0.86923 0.789532
0.786526 0.869261 0.789883
0.79089 0.869322 0.790906
0.799207 0.869459 0.793713
0.806271 0.869657 0.800259
0.806699 0.870024 0.815473
0.512261 0.508476 0.710384
0.512367 0.508568 0.710445
0.51252 0.508751 0.710552
0.524483 0.507698 0.709834
0.701213 0.529686 0.710842
0.832029 0.625925 0.735134
0.831571 0.63151 0.74345
0.819089 0.74963 0.752544
0.811154 0.83328 0.78883
0.511482 0.507561 0.709895
0.511574 0.507668 0.709957
0.511742 0.507866 0.710063
0.526238 0.506615 0.709224
0.704662 0.530465 0.710582
0.832044 0.625772 0.734752
0.831403 0.633036 0.742519
0.818753 0.752911 0.75172
0.811124 0.833646 0.788663
0.510185 0.506065 0.709102
0.510307 0.506188 0.709178
0.510475 0.506416 0.709285
0.529351 0.504906 0.708247
0.706737 0.530205 0.709865
0.832059 0.625498 0.734096
0.831006 0.636805 0.740948
0.81825 0.75787 0.750439
0.811032 0.834226 0.788388
0.500099 0.513787 0.704417
0.500099 0.514092 0.704448
0.500023 0.514443 0.704448
0.52256 0.512825 0.703716
0.705653 0.531365 0.706127
0.831907 0.62681 0.730434
0.828702 0.65864 0.735409
0.816983 0.770794 0.746715
0.810834 0.835874 0.787594
0 0.681712 0.669337
0 0.681941 0.669429
0 0.682002 0.669566
0 0.680903 0.669932
0.643122 0.683101 0.679103
0.797757 0.703883 0.701045
0.819623 0.744091 0.715297
0.814466 0.79765 0.736355
0.810269 0.840208 0.785306
0 0.837339 0.0218967
0 0.83682 0.0217441
0 0.835966 0.0215
0 0.833341 0.020737
0 0.826566 0.0187533
0.759655 0.81854 0.558968
0.81297 0.820279 0.657877
0.811185 0.831205 0.70901
0.808988 0.849302 0.779034
0 0.877256 0.0323644
0 0.876921 0.0322881
0 0.876417 0.032166
0 0.875059 0.0318608
0.547387 0.87071 0.0268559
0.750301 0.862974 0.0164492
0.805295 0.861341 0.0167239
0.809216 0.858991 0.599573
0.807034 0.861479 0.762966
0.722499 0.872908 0.0168612
0.723949 0.872908 0.0168307
0.726223 0.872892 0.0168002
0.732525 0.872892 0.0167391
0.747539 0.872938 0.0166476
0.773465 0.873137 0.0166934
0.801678 0.873518 0.0168307
0.80763 0.871015 0.580453
0.805722 0.86923 0.762127
0.784131 0.86923 0.789334
0.784253 0.86923 0.789349
0.784451 0.86923 0.789395
0.785046 0.86923 0.789502
0.78677 0.869261 0.789853
0.791074 0.869322 0.79089
0.799298 0.869459 0.793683
0.806271 0.869657 0.800214
0.806699 0.870024 0.815473
0.66743 0.684916 0.843015
0.66743 0.684932 0.843015
0.667445 0.684947 0.84303
0.667491 0.684993 0.843076
0.68687 0.681514 0.839765
0.827131 0.699123 0.841901
0.8271 0.699641 0.842466
0.823117 0.731487 0.835142
0.812787 0.831586 0.832395
0.667384 0.684855 0.842969
0.667384 0.684871 0.842969
0.667399 0.684871 0.842985
0.66743 0.684916 0.843015
0.688441 0.681437 0.839673
0.827131 0.699062 0.841856
0.8271 0.699596 0.84242
0.822721 0.734936 0.834516
0.812741 0.831998 0.832303
0.667292 0.684764 0.842878
0.667308 0.684779 0.842893
0.667308 0.684779 0.842893
0.667338 0.68481 0.842924
0.691112 0.681315 0.839521
0.827131 0.698985 0.841764
0.8271 0.699519 0.842344
0.822065 0.74049 0.83357
0.812665 0.832639 0.832151
0.667033 0.684443 0.842618
0.667048 0.684459 0.842634
0.667048 0.684474 0.842634
0.666835 0.684215 0.84242
0.697856 0.681041 0.839109
0.827146 0.698741 0.84152
0.827161 0.69839 0.841138
0.820294 0.756115 0.830991
0.812421 0.834501 0.831724
0.657053 0.684977 0.834257
0.657008 0.685054 0.834226
0.656916 0.685191 0.83418
0.656458 0.6851 0.833783
0.686976 0.682994 0.832059
0.824537 0.701656 0.83476
0.823758 0.723629 0.830869
0.816815 0.78909 0.825818
0.811795 0.839353 0.830549
0 0.832395 0.817548
0 0.832105 0.817533
0 0.831525 0.817487
0 0.829267 0.817288
0.508019 0.821714 0.815457
0.755352 0.811093 0.811276
0.811505 0.815686 0.814496
0.812451 0.828946 0.817792
0.810407 0.84918 0.82768
0 0.87718 0.798795
0 0.876814 0.798901
0 0.876249 0.799054
0 0.874739 0.799496
0.476219 0.868467 0.796979
0.736751 0.857832 0.792477
0.794034 0.856077 0.798474
0.808484 0.857221 0.807065
0.808316 0.861936 0.82208
0.713008 0.868742 0.751995
0.714412 0.868727 0.752071
0.716655 0.868711 0.752209
0.722866 0.868681 0.752621
0.737682 0.868666 0.753964
0.763272 0.868772 0.757885
0.791867 0.869078 0.767315
0.805982 0.869429 0.785351
0.806577 0.869917 0.811688
0.784985 0.86923 0.789242
0.785092 0.86923 0.789273
0.78529 0.86923 0.789303
0.785855 0.869245 0.789425
0.787503 0.869261 0.789776
0.791623 0.869322 0.790799
0.799588 0.869459 0.793591
0.806271 0.869657 0.800137
0.806699 0.870008 0.815457
0.701961 0.725841 0.878202
0.701961 0.725841 0.878202
0.701961 0.725841 0.878202
0.701961 0.725841 0.878202
0.701961 0.725841 0.878202
0.816571 0.734951 0.880583
0.8262 0.736553 0.880812
0.8262 0.736553 0.880812
0.816373 0.81976 0.865827
0.701961 0.725841 0.878202
0.701961 0.725841 0.878202
0.701961 0.725841 0.878202
0.701961 0.725841 0.878202
0.701961 0.725841 0.878202
0.817288 0.735058 0.880598
0.8262 0.736553 0.880812
0.8262 0.736553 0.880812
0.816281 0.820417 0.865721
0.701961 0.725841 0.878202
0.701961 0.725841 0.878202
0.701961 0.725841 0.878202
0.701961 0.725841 0.878202
0.701961 0.725841 0.878202
0.818463 0.735256 0.880629
0.8262 0.736553 0.880812
0.8262 0.736553 0.880812
0.816175 0.821469 0.865568
0.701961 0.725841 0.878202
0.701961 0.725841 0.878202
0.701961 0.725841 0.878202
0.701961 0.725841 0.878202
0.701961 0.725841 0.878202
0.821881 0.735821 0.880705
0.8262 0.736553 0.880812
0.8262 0.736553 0.880812
0.815808 0.824475 0.865156
0.701961 0.725841 0.878202
0.701961 0.725841 0.878202
0.701961 0.725841 0.878202
0.701961 0.725841 0.878202
0.702785 0.725856 0.878218
0.8262 0.736553 0.880812
0.8262 0.736553 0.880812
0.825391 0.740444 0.877287
0.814893 0.832074 0.864042
0.681025 0.781506 0.870436
0.680964 0.781628 0.87042
0.680873 0.781826 0.870405
0.680583 0.782406 0.870344
0.680339 0.779904 0.86952
0.772015 0.776043 0.86807
0.819608 0.788083 0.867155
0.816648 0.815457 0.863996
0.813031 0.846082 0.861784
0 0.881193 0.867338
0 0.880766 0.867323
0 0.880034 0.867277
0 0.877943 0.86717
0.530846 0.867918 0.86128
0.733852 0.857145 0.855375
0.794568 0.855161 0.856291
0.811185 0.85684 0.857114
0.810544 0.862119 0.858534
0.706813 0.870863 0.849775
0.708309 0.870848 0.84976
0.710658 0.870832 0.849744
0.717235 0.870787 0.849699
0.733043 0.870741 0.849668
0.760433 0.870832 0.849897
0.790204 0.871153 0.850721
0.80853 0.871473 0.852323
0.808728 0.871641 0.855238
0.784909 0.870619 0.84065
0.785016 0.870619 0.840665
0.785199 0.870619 0.840665
0.785763 0.870634 0.840711
0.78735 0.870649 0.840818
0.791348 0.870726 0.841123
0.799115 0.870848 0.841978
0.80798 0.871061 0.844129
0.808301 0.87129 0.848936
0.701946 0.725963 0.878202
0.701946 0.725963 0.878202
0.701946 0.725963 0.878202
0.701946 0.725963 0.878202
0.701946 0.725963 0.878202
0.701946 0.725963 0.878202
0.8262 0.736553 0.880812
0.8262 0.736553 0.880812
0.824994 0.747036 0.880232
0.701946 0.725963 0.878202
0.701946 0.725963 0.878202
0.701946 0.725963 0.878202
0.701946 0.725963 0.878202
0.701946 0.725963 0.878202
0.701946 0.725963 0.878202
0.8262 0.736553 0.880812
0.8262 0.736553 0.880812
0.824994 0.747036 0.880232
0.701946 0.725963 0.878202
0.701946 0.725963 0.878202
0.701946 0.725963 0.878202
0.701946 0.725963 0.878202
0.701946 0.725963 0.878202
0.701946 0.725963 0.878202
0.8262 0.736553 0.880812
0.8262 0.736553 0.880812
0.824994 0.747036 0.880232
0.701946 0.725963 0.878202
0.701946 0.725963 0.878202
0.701946 0.725963 0.878202
0.701946 0.725963 0.878202
0.701946 0.725963 0.878202
0.701946 0.725902 0.878202
0.8262 0.736553 0.880812
0.8262 0.736553 0.880812
0.824994 0.747021 0.880232
0.701946 0.725948 0.878202
0.701946 0.725948 0.878202
0.701946 0.725948 0.878202
0.701946 0.725948 0.878202
0.701946 0.725948 0.878202
0.703029 0.725856 0.878218
0.8262 0.736553 0.880812
0.8262 0.736553 0.880812
0.82501 0.746975 0.880232
0.701946 0.725948 0.878202
0.701946 0.725948 0.878202
0.701946 0.725948 0.878202
0.701946 0.725948 0.878202
0.701946 0.725948 0.878202
0.739223 0.727337 0.878721
0.8262 0.736553 0.880812
0.826185 0.736645 0.880812
0.819333 0.801907 0.877943
0.627146 0.853834 0.877134
0.627085 0.853864 0.877134
0.627024 0.853895 0.877134
0.626764 0.854017 0.877134
0.625971 0.854322 0.87715
0.697368 0.840986 0.875731
0.801038 0.837873 0.876295
0.814771 0.843351 0.87631
0.813062 0.85597 0.875593
0.60911 0.875044 0.876326
0.615061 0.874784 0.876036
0.623972 0.874434 0.875624
0.64683 0.87361 0.874693
0.691463 0.872496 0.873365
0.74493 0.872175 0.872816
0.787366 0.872511 0.873075
0.809644 0.872129 0.873533
0.810315 0.87248 0.873671
0.78172 0.872343 0.871458
0.781872 0.872343 0.871458
0.782101 0.872343 0.871458
0.782788 0.872358 0.871473
0.784756 0.872374 0.871489
0.789609 0.872435 0.871565
0.798505 0.872541 0.871733
0.808118 0.872694 0.872007
0.810132 0.872755 0.872404
0.701839 0.726604 0.878187
0.701839 0.726604 0.878187
0.701839 0.726604 0.878187
0.701839 0.726604 0.878187
0.701839 0.726604 0.878187
0.701839 0.726604 0.878187
0.701839 0.726604 0.878187
0.826123 0.737133 0.880781
0.824353 0.752926 0.879927
0.701839 0.726604 0.878187
0.701839 0.726604 0.878187
0.701839 0.726604 0.878187
0.701839 0.726604 0.878187
0.701839 0.726604 0.878187
0.701839 0.726604 0.878187
0.701839 0.726604 0.878187
0.826123 0.737133 0.880781
0.824353 0.752941 0.879927
0.701839 0.726604 0.878187
0.701839 0.726604 0.878187
0.701839 0.726604 0.878187
0.701839 0.726604 0.878187
0.701839 0.726604 0.878187
0.701839 0.726604 0.878187
0.701839 0.726604 0.878187
0.826123 0.737133 0.880781
0.824353 0.752956 0.879927
0.701839 0.726604 0.878187
0.701839 0.726604 0.878187
0.701839 0.726604 0.878187
0.701839 0.726604 0.878187
0.701839 0.726604 0.878187
0.701839 0.726604 0.878187
0.701839 0.726604 0.878187
0.826123 0.737133 0.880781
0.824338 0.752987 0.879927
0.701839 0.726604 0.878187
0.701839 0.726604 0.878187
0.701839 0.726604 0.878187
0.701839 0.726604 0.878187
0.701839 0.726604 0.878187
0.701839 0.726604 0.878187
0.702937 0.726528 0.878202
0.826123 0.737148 0.880781
0.824323 0.753094 0.879911
0.701839 0.726604 0.878187
0.701839 0.726604 0.878187
0.701839 0.726604 0.878187
0.701839 0.726604 0.878187
0.701839 0.726604 0.878187
0.701839 0.726604 0.878187
0.747097 0.727962 0.878874
0.826123 0.737209 0.880781
0.824308 0.753246 0.879896
0.701839 0.726604 0.878187
0.701839 0.726604 0.878187
0.701839 0.726604 0.878187
0.701839 0.726604 0.878187
0.701839 0.726604 0.878187
0.701839 0.726604 0.878187
0.8262 0.736553 0.880812
0.826108 0.737331 0.880766
0.824277 0.753552 0.879896
0 0.883787 0.885863
0 0.883787 0.885863
0 0.883787 0.885863
0 0.883787 0.885863
0 0.883787 0.885863
0 0.883787 0.885863
0.764218 0.865858 0.874098
0.811688 0.864759 0.874983
0.811368 0.866865 0.874815
0.749615 0.872236 0.873426
0.750118 0.872236 0.873426
0.750912 0.872236 0.873442
0.753231 0.872251 0.873457
0.759396 0.872297 0.873503
0.77261 0.872404 0.873655
0.791684 0.872633 0.873945
0.806653 0.872847 0.874235
0.810315 0.872892 0.874311
