BBLuts/BB_104_0080_LUT.cube
TITLE "Generated by Resolve"
LUT_3D_SIZE 9
0.0176242 0.0282902 0.0462654
0.0176242 0.0282902 0.0462654
0.206043 0.0321508 0.0513161
0.483833 0.0369116 0.0606241
0.838071 0.299886 0.383856
1 0.66302 0.739559
1 0.697154 0.738506
1 0.899962 0.672557
1 1 0.864775
0.00985733 0.0751812 0.0432288
0.00843824 0.0835279 0.04271
0.210986 0.0683757 0.0476539
0.496681 0.0375982 0.0618601
0.840757 0.304677 0.388846
1 0.66302 0.739559
1 0.706508 0.737102
1 0.904097 0.665919
1 1 0.863981
0 0.20824 0.0330968
0 0.211749 0.0327153
0.151431 0.210819 0.0346685
0.502373 0.196506 0.0508888
0.845457 0.34609 0.39678
1 0.667689 0.739147
1 0.723323 0.734203
1 0.910491 0.654185
1 1 0.862654
0 0.499504 0
0 0.500847 0
0 0.501595 0
0.400244 0.505333 0.00444038
0.848219 0.53817 0.382498
1 0.699611 0.735744
1 0.779095 0.720699
1 0.927581 0.609445
1 1 0.858671
0 0.84538 0.00991836
0 0.845289 0.0099031
0 0.844877 0.00982681
0 0.842115 0.009308
0.765408 0.83415 0.0172427
1 0.850843 0.61886
1 0.895674 0.640177
1 0.966857 0.0348516
1 1 0.84625
0.00976577 1 0.0579995
0.00959792 1 0.0578012
0.00933852 1 0.0574655
0.00852979 1 0.0564431
0.00648508 1 0.0538491
0.96286 0.992615 0.0346075
1 0.996139 0.0360418
1 1 0.0366522
1 1 0.819806
0.0206149 1 0.0708019
0.0205386 1 0.0706951
0.0204013 1 0.0705272
0.0200504 1 0.0700999
0.633677 1 0.0525216
0.943404 1 0.0372931
1 1 0.0377203
1 1 0.0377661
1 1 0.85272
0.890608 1 0.0381018
0.893019 1 0.0380713
0.896803 1 0.0380102
0.907225 1 0.0378882
0.931594 1 0.0377203
0.97229 1 0.0377813
1 1 0.0380255
1 1 0.662272
1 1 0.943618
0.985718 1 0.984268
0.985901 1 0.984314
0.986206 1 0.98436
0.987121 1 0.984558
0.989731 1 0.985092
0.996277 1 0.986648
1 1 0.99089
1 1 1
1 1 1
0.0242466 0.032639 0.0939803
0.0242924 0.0326696 0.0942092
0.211414 0.0362402 0.0994736
0.484886 0.0409094 0.109575
0.837995 0.302037 0.401404
1 0.663203 0.741207
1 0.695735 0.739986
1 0.89897 0.684855
1 1 0.87512
0.0186465 0.0585336 0.0840467
0.0603037 0.0684825 0.0825208
0.228214 0.0358282 0.0922255
0.491371 0.0403754 0.0995651
0.83917 0.302876 0.394156
1 0.663157 0.740703
1 0.704997 0.738582
1 0.903136 0.678798
1 1 0.874403
7.62951e-05 0.199344 0.0339818
6.10361e-05 0.202274 0.0337224
0.170977 0.20209 0.0359503
0.500206 0.187701 0.0509957
0.842329 0.330678 0.391226
1 0.667262 0.739178
1 0.721736 0.735821
1 0.909545 0.668177
1 1 0.873213
0 0.494377 0
0 0.495644 0
0 0.496178 0
0.41883 0.49955 0.00447089
0.847837 0.53463 0.382513
1 0.698772 0.735851
1 0.777752 0.722164
1 0.92668 0.628626
1 1 0.86923
0 0.844022 0.00967422
0 0.843915 0.0096437
0 0.843473 0.00956741
0 0.84065 0.0090486
0.769329 0.832868 0.0171664
1 0.850065 0.620111
1 0.895247 0.640894
1 0.966674 0.0348363
1 1 0.858061
0.00970474 1 0.0579232
0.00955215 1 0.0577249
0.00927749 1 0.0573892
0.00846876 1 0.0563821
0.00643931 1 0.0537881
0.963211 0.992477 0.0346075
1 0.996048 0.0360418
1 1 0.0366369
1 1 0.821164
0.0205997 1 0.0707866
0.0205234 1 0.0706645
0.0203861 1 0.0705119
0.0200198 1 0.0700694
0.642573 1 0.0518349
0.943633 1 0.0372931
1 1 0.0377203
1 1 0.0377661
1 1 0.852659
0.89099 1 0.0381018
0.893385 1 0.0380713
0.897139 1 0.0380102
0.9075 1 0.0378882
0.931792 1 0.0377203
0.972366 1 0.0377813
1 1 0.0380102
1 1 0.662181
1 1 0.943603
0.985748 1 0.984268
0.985931 1 0.984314
0.986236 1 0.984375
0.987152 1 0.984543
0.989761 1 0.985092
0.996292 1 0.986648
1 1 0.990906
1 1 1
1 1 1
0.041474 0.0441444 0.217487
0.0415045 0.0441596 0.217716
0.204654 0.0466621 0.220706
0.499214 0.0515297 0.226642
0.837934 0.30721 0.437217
1 0.663508 0.74377
1 0.693187 0.743877
1 0.897322 0.706401
1 1 0.889632
0.0409094 0.0437781 0.213458
0.0409552 0.0437934 0.213825
0.227832 0.0465705 0.217029
0.497429 0.0511177 0.223011
0.840452 0.31133 0.439582
1 0.663478 0.743572
1 0.702113 0.742504
1 0.901518 0.701198
1 1 0.888991
0.0138094 0.187472 0.190875
0.0133822 0.189349 0.190433
0.182437 0.185046 0.189319
0.484169 0.177615 0.203845
0.838972 0.308293 0.434272
1 0.666453 0.742977
1 0.718456 0.739788
1 0.907988 0.692226
1 1 0.887953
0 0.479469 0.033753
0 0.480995 0.033814
0 0.481727 0.0347295
0.424598 0.484916 0.0654154
0.842863 0.523217 0.406134
1 0.696178 0.738643
1 0.774212 0.72755
1 0.925216 0.660029
1 1 0.88481
0 0.841199 0.00915541
0 0.841077 0.0091249
0 0.840635 0.0090486
0 0.837781 0.00854505
0.772961 0.830213 0.016968
1 0.848219 0.621958
1 0.894026 0.646754
1 0.963989 0.32903
1 1 0.875227
0.00961318 1 0.0578164
0.00946059 1 0.0576181
0.00920119 1 0.0572824
0.00839246 1 0.05626
0.00636301 1 0.0536812
0.96376 0.992279 0.0346075
1 0.995895 0.0360418
1 1 0.0366369
1 1 0.844312
0.0205692 1 0.0707408
0.0204929 1 0.0706493
0.0203708 1 0.0704814
0.0200046 1 0.0700542
0.655619 1 0.0508278
0.94403 1 0.0373083
1 1 0.0377203
1 1 0.0377661
1 1 0.852552
0.891554 1 0.0381018
0.89395 1 0.038056
0.897673 1 0.037995
0.907973 1 0.0378729
0.932128 1 0.0377203
0.972519 1 0.0377813
1 1 0.0380255
1 1 0.662181
1 1 0.943572
0.985779 1 0.984268
0.985977 1 0.984298
0.986282 1 0.984375
0.987198 1 0.984558
0.989807 1 0.985077
0.996307 1 0.986633
1 1 0.99089
1 1 1
1 1 1
0.138384 0.107973 0.496651
0.138537 0.108064 0.496849
0.138598 0.10811 0.496956
0.481437 0.112551 0.492882
0.857893 0.366979 0.575967
1 0.665614 0.760433
1 0.687724 0.769375
1 0.892485 0.775433
1 1 0.92372
0.136339 0.10663 0.493889
0.136538 0.106737 0.494133
0.211917 0.107454 0.494194
0.497688 0.112154 0.489906
0.855817 0.363256 0.572946
1 0.665553 0.760006
1 0.695338 0.767849
1 0.896788 0.772244
1 1 0.923262
0.123079 0.161486 0.487968
0.122515 0.166018 0.488151
0.225483 0.163256 0.488411
0.504005 0.110277 0.484932
0.849454 0.352697 0.566064
1 0.665431 0.759228
1 0.709941 0.765011
1 0.90341 0.766857
1 1 0.922515
0 0.436133 0.439155
0 0.438148 0.439399
0 0.439582 0.440208
0.436225 0.443534 0.453132
0.826398 0.488334 0.533852
1 0.689326 0.754208
1 0.763668 0.753277
1 0.920974 0.749172
1 1 0.920317
0 0.828885 0.00703441
0 0.828855 0.00703441
0 0.828534 0.00697337
0 0.82591 0.00656138
0.76994 0.818967 0.0159915
1 0.83978 0.64976
1 0.888808 0.686397
1 0.95761 0.677958
1 1 0.91371
0.00936904 1 0.057496
0.00920119 1 0.0572976
0.00894179 1 0.0569619
0.00813306 1 0.0559396
0.00610361 1 0.0533608
0.96318 0.991241 0.0345312
1 0.995071 0.0360113
1 1 0.0366217
1 1 0.894026
0.0204929 1 0.0706493
0.0204166 1 0.0705425
0.0202945 1 0.0703899
0.0199435 1 0.0699779
0.687236 1 0.0483864
0.94522 1 0.0372931
1 1 0.0377356
1 1 0.0377661
1 1 0.852216
0.893339 1 0.0380713
0.895674 1 0.0380255
0.899321 1 0.0379797
0.909377 1 0.0378576
0.933089 1 0.0377203
0.972946 1 0.0377966
1 1 0.0380255
1 1 0.661952
1 1 0.943481
0.985931 1 0.984253
0.986114 1 0.984298
0.986419 1 0.984344
0.98732 1 0.984543
0.989914 1 0.985077
0.996414 1 0.986633
1 1 0.990875
1 1 1
1 1 1
0.588739 0.553872 0.861875
0.588846 0.553979 0.861967
0.588998 0.554162 0.862119
0.600198 0.553048 0.861036
0.846662 0.576577 0.863355
1 0.700404 0.901595
1 0.708583 0.91429
1 0.8813 0.928054
1 1 0.983246
0.58793 0.552926 0.861128
0.588022 0.553048 0.861219
0.588205 0.553246 0.861387
0.60177 0.551919 0.860105
0.851881 0.577432 0.862989
1 0.700175 0.901015
1 0.710842 0.912871
1 0.886061 0.926818
1 1 0.982986
0.586587 0.551385 0.859907
0.586709 0.551522 0.860014
0.586892 0.551736 0.860182
0.604593 0.550149 0.85861
0.855024 0.577173 0.861906
1 0.699763 0.900008
1 0.716381 0.910445
1 0.893233 0.924865
1 1 0.982589
0.576532 0.559426 0.852705
0.576547 0.559747 0.852735
0.576486 0.560143 0.852735
0.598535 0.558389 0.851621
0.853407 0.578424 0.856138
1 0.701686 0.894408
1 0.748394 0.901884
1 0.91194 0.919219
1 1 0.981399
0 0.792096 0.807797
0 0.792416 0.807935
0 0.792508 0.808148
0 0.79089 0.808698
0.765118 0.784268 0.814359
0.998459 0.814496 0.848646
1 0.87332 0.870726
1 0.950423 0.903502
1 1 0.977935
0.00860609 1 0.0565499
0.0084535 1 0.0563516
0.00819409 1 0.0560159
0.00738537 1 0.0549783
0.00527962 1 0.0522774
0.948089 0.981353 0.634943
1 0.983291 0.782696
1 0.998856 0.861479
1 1 0.968475
0.0203555 1 0.0704814
0.0202792 1 0.0703746
0.0201419 1 0.070222
0.0198062 1 0.06981
0.644602 1 0.0515755
0.939498 1 0.0372625
1 1 0.0376745
1 1 0.692485
1 1 0.944457
0.898528 1 0.037995
0.90071 1 0.0379644
0.904097 1 0.0379187
0.913542 1 0.0378271
0.935943 1 0.0377203
0.974243 1 0.0377966
1 1 0.0380255
1 1 0.661402
1 1 0.943236
0.986358 1 0.984222
0.986542 1 0.984253
0.986847 1 0.984329
0.987732 1 0.984497
0.99028 1 0.985016
0.996689 1 0.986603
1 1 0.990829
1 1 1
1 1 1
0.802213 0.786786 1
0.802228 0.786801 1
0.802258 0.786831 1
0.802304 0.786877 1
0.831403 0.78175 1
1 0.807462 1
1 0.808225 1
1 0.854536 1
1 0.99913 1
0.802136 0.786694 1
0.802152 0.786709 1
0.802167 0.786725 1
0.802213 0.786786 1
0.833753 0.781643 1
1 0.807401 1
1 0.808164 1
1 0.859541 1
1 0.99971 1
0.801999 0.786557 1
0.802029 0.786572 1
0.802029 0.786587 1
0.802075 0.786633 1
0.837797 0.78146 1
1 0.807279 1
1 0.808057 1
1 0.867582 1
1 1 1
0.801587 0.786099 1
0.801602 0.786114 1
0.801617 0.78613 1
0.801282 0.785748 1
0.847944 0.781033 1
1 0.806928 1
1 0.806424 1
1 0.890593 1
1 1 1
0.786496 0.786892 1
0.786419 0.787015 1
0.786297 0.787213 1
0.785611 0.787076 1
0.831601 0.783917 1
1 0.811154 1
1 0.843122 1
1 0.937911 1
1 1 1
0.000534066 1 1
0.00047303 1 1
0.000350958 1 1
7.62951e-05 1 1
0.601144 0.986923 1
0.940871 0.969818 1
1 0.976287 1
1 0.995361 1
1 1 1
0.00851453 1 1
0.00846876 1 1
0.00839246 1 1
0.00817884 1 1
0.575692 1 0.997375
0.915557 1 0.988968
1 1 0.998016
1 1 1
1 1 1
0.880674 1 0.927886
0.88278 1 0.928008
0.886122 1 0.928206
0.895415 1 0.928832
0.917556 1 0.930831
0.955703 1 0.936782
0.997864 1 0.951125
1 1 0.97818
1 1 1
0.987625 1 0.9841
0.987793 1 0.984146
0.988083 1 0.984207
0.988937 1 0.984375
0.991363 1 0.984909
0.997497 1 0.986465
1 1 0.990692
1 1 1
1 1 1
0.856367 0.846433 1
0.856367 0.846433 1
0.856367 0.846433 1
0.856367 0.846433 1
0.856367 0.846433 1
1 0.859541 1
1 0.861875 1
1 0.861875 1
1 0.982071 1
0.856367 0.846433 1
0.856367 0.846433 1
0.856367 0.846433 1
0.856367 0.846433 1
0.856367 0.846433 1
1 0.859709 1
1 0.861875 1
1 0.861875 1
1 0.983032 1
0.856367 0.846433 1
0.856367 0.846433 1
0.856367 0.846433 1
0.856367 0.846433 1
0.856367 0.846433 1
1 0.859983 1
1 0.861875 1
1 0.861875 1
1 0.984543 1
0.856367 0.846433 1
0.856367 0.846433 1
0.856367 0.846433 1
0.856367 0.846433 1
0.856367 0.846433 1
1 0.860807 1
1 0.861875 1
1 0.861875 1
1 0.988876 1
0.856367 0.846433 1
0.856367 0.846433 1
0.856367 0.846433 1
0.856367 0.846433 1
0.857603 0.846464 1
1 0.861875 1
1 0.861875 1
1 0.867506 1
1 0.999802 1
0.827649 0.927337 1
0.827588 0.927504 1
0.827451 0.927794 1
0.827039 0.928649 1
0.826551 0.925017 1
0.963989 0.919097 1
1 0.936431 1
1 0.975891 1
1 1 1
0.00936904 1 1
0.00932326 1 1
0.00923171 1 1
0.00898756 1 1
0.624842 1 1
0.911192 1 1
1 1 1
1 1 1
1 1 1
0.871122 1 1
0.873716 1 1
0.877241 1 1
0.887083 1 1
0.910704 1 1
0.951553 1 1
0.995468 1 1
1 1 1
1 1 1
0.987564 1 1
0.987732 1 1
0.988006 1 1
0.988846 1 1
0.991196 1 1
0.997131 1 1
1 1 1
1 1 1
1 1 1
0.856336 0.846616 1
0.856336 0.846616 1
0.856336 0.846616 1
0.856336 0.846616 1
0.856336 0.846616 1
0.856336 0.846616 1
1 0.861875 1
1 0.861875 1
1 0.877424 1
0.856336 0.846616 1
0.856336 0.846616 1
0.856336 0.846616 1
0.856336 0.846616 1
0.856336 0.846616 1
0.856336 0.846616 1
1 0.861875 1
1 0.861875 1
1 0.877409 1
0.856336 0.846616 1
0.856336 0.846616 1
0.856336 0.846616 1
0.856336 0.846616 1
0.856336 0.846616 1
0.856336 0.846616 1
1 0.861875 1
1 0.861875 1
1 0.877409 1
0.856336 0.846616 1
0.856336 0.846616 1
0.856336 0.846616 1
0.856336 0.846616 1
0.856336 0.846616 1
0.856352 0.846525 1
1 0.861875 1
1 0.861875 1
1 0.877394 1
0.856336 0.846601 1
0.856336 0.846601 1
0.856336 0.846601 1
0.856336 0.846601 1
0.856336 0.846601 1
0.857969 0.846464 1
1 0.861875 1
1 0.861875 1
1 0.877333 1
0.856336 0.846601 1
0.856336 0.846601 1
0.856336 0.846601 1
0.856336 0.846601 1
0.856336 0.846601 1
0.912688 0.848524 1
1 0.861875 1
1 0.862013 1
1 0.956359 1
0.750271 1 1
0.750179 1 1
0.750072 1 1
0.749691 1 1
0.748516 1 1
0.855375 1 1
1 1 1
1 1 1
1 1 1
0.724147 1 1
0.73315 1 1
0.746624 1 1
0.781109 1 1
0.848219 1 1
0.928512 1 1
0.991333 1 1
1 1 1
1 1 1
0.98294 1 1
0.983154 1 1
0.98349 1 1
0.984512 1 1
0.987427 1 1
0.994644 1 1
1 1 1
1 1 1
1 1 1
0.856214 0.847547 1
0.856214 0.847547 1
0.856214 0.847547 1
0.856214 0.847547 1
0.856214 0.847547 1
0.856214 0.847547 1
0.856214 0.847547 1
1 0.862715 1
1 0.885954 1
0.856214 0.847547 1
0.856214 0.847547 1
0.856214 0.847547 1
0.856214 0.847547 1
0.856214 0.847547 1
0.856214 0.847547 1
0.856214 0.847547 1
1 0.862715 1
1 0.885954 1
0.856214 0.847547 1
0.856214 0.847547 1
0.856214 0.847547 1
0.856214 0.847547 1
0.856214 0.847547 1
0.856214 0.847547 1
0.856214 0.847547 1
1 0.862715 1
1 0.885985 1
0.856214 0.847547 1
0.856214 0.847547 1
0.856214 0.847547 1
0.856214 0.847547 1
0.856214 0.847547 1
0.856214 0.847547 1
0.856214 0.847547 1
1 0.862715 1
1 0.88603 1
0.856214 0.847547 1
0.856214 0.847547 1
0.856214 0.847547 1
0.856214 0.847547 1
0.856214 0.847547 1
0.856214 0.847547 1
0.857862 0.84744 1
1 0.862745 1
1 0.886183 1
0.856214 0.847547 1
0.856214 0.847547 1
0.856214 0.847547 1
0.856214 0.847547 1
0.856214 0.847547 1
0.856214 0.847547 1
0.924498 0.849424 1
1 0.862837 1
1 0.886412 1
0.856214 0.847547 1
0.856214 0.847547 1
0.856214 0.847547 1
0.856214 0.847547 1
0.856214 0.847547 1
0.856214 0.847547 1
1 0.861875 1
1 0.863005 1
1 0.886854 1
0.00976577 1 1
0.00976577 1 1
0.00976577 1 1
0.00976577 1 1
0.00976577 1 1
0.00976577 1 1
0.956939 1 1
1 1 1
1 1 1
0.9355 1 1
0.936248 1 1
0.937438 1 1
0.940902 1 1
0.950088 1 1
0.969757 1 1
0.997742 1 1
1 1 1
1 1 1
