BBLuts/BB_103_0230_LUT.cube
TITLE "Generated by Resolve"
LUT_3D_SIZE 33
0.00782788 0.0089723 0.00369268
0.00782788 0.0089723 0.00369268
0.00782788 0.0089723 0.00369268
0.00782788 0.0089723 0.00369268
0.0104677 0.00856031 0.00343328
0.0496223 0.00799573 0.00270085
0.0914778 0.00761425 0.00213626
0.122713 0.00726329 0.00172427
0.155047 0.00672923 0.00125124
0.194415 0.00570687 0.000503548
0.242145 0.00395209 0
0.297322 0.00132753 0
0.361593 0 0
0.43537 0 0
0.517327 0 0
0.5879 0 0
0.647684 0 0
0.704082 0 0
0.753048 0 0
0.791943 0 0
0.801678 0 0
0.802457 0 0
0.803388 0.22121 0.00315862
0.795132 0.388952 0.027924
0.786511 0.524651 0.0589151
0.779187 0.621744 0.0942855
0.773358 0.689509 0.137987
0.769192 0.740078 0.20032
0.765972 0.775555 0.287358
0.763165 0.801694 0.381613
0.760662 0.820569 0.467414
0.75819 0.835218 0.532921
0.756588 0.846784 0.585504
0.00782788 0.0089723 0.00369268
0.00782788 0.0089723 0.00369268
0.00782788 0.0089723 0.00369268
0.00782788 0.0089723 0.00369268
0.0108797 0.00856031 0.00343328
0.057496 0.00791943 0.00257877
0.0941176 0.00758373 0.00210575
0.124926 0.00723278 0.00169375
0.158709 0.00665293 0.0011902
0.198871 0.00556954 0.000411994
0.246983 0.00375372 0
0.301335 0.00111391 0
0.362905 0 0
0.436927 0 0
0.518593 0 0
0.588464 0 0
0.648157 0 0
0.704082 0 0
0.752987 0 0
0.791699 0 0
0.801663 0 0
0.802548 0.00302129 0
0.80267 0.246632 0.00407416
0.793683 0.402152 0.0176394
0.785885 0.531563 0.0563363
0.778866 0.624796 0.0929122
0.77319 0.691173 0.137499
0.769131 0.740871 0.200214
0.765942 0.775952 0.287098
0.763149 0.801907 0.38146
0.760662 0.820661 0.467353
0.75819 0.835279 0.532876
0.756588 0.846815 0.585473
0.00782788 0.0089723 0.00369268
0.00782788 0.0089723 0.00369268
0.00782788 0.0089723 0.00369268
0.00782788 0.0089723 0.00369268
0.0110018 0.00869764 0.00349432
0.0616159 0.00788891 0.00251774
0.0944533 0.00758373 0.00209049
0.12665 0.00720226 0.00167849
0.162173 0.00657664 0.00112917
0.201984 0.00546273 0.000350958
0.249042 0.00366217 0
0.302266 0.00106813 0
0.36466 0 0
0.438865 0 0
0.519844 0 0
0.589273 0 0
0.648402 0 0
0.70428 0 0
0.752926 0 0
0.791409 0 0
0.801633 0 0
0.802563 0.0585184 0
0.801663 0.271946 0.00474556
0.79237 0.414328 0.00996414
0.78529 0.538094 0.0539712
0.778561 0.627558 0.0916915
0.773053 0.692714 0.137057
0.76907 0.741604 0.200137
0.765927 0.776318 0.286854
0.763134 0.80209 0.381292
0.760647 0.820768 0.467277
0.75819 0.83534 0.532845
0.756588 0.846845 0.585473
0.00766003 0.00941482 0.00363165
0.00766003 0.00947585 0.00363165
0.00762951 0.00976577 0.00361639
0.00749218 0.0144961 0.00363165
0.0245212 0.0180514 0.00320439
0.0627756 0.00952163 0.00265507
0.0929122 0.00918593 0.00227359
0.125002 0.00885023 0.00184634
0.161135 0.00796521 0.00129702
0.202853 0.00552377 0.000366217
0.250996 0.00357061 0
0.30396 0.000976577 0
0.366827 0 0
0.440848 0 0
0.521126 0 0
0.589853 0 0
0.648875 0 0
0.704463 0 0
0.752834 0 0
0.791135 0 0
0.801602 0 0
0.803326 0.120439 0
0.800626 0.292271 0.005066
0.791287 0.424582 0.00486763
0.784772 0.543664 0.0519417
0.778286 0.630076 0.0906081
0.772915 0.694148 0.136645
0.769009 0.742321 0.200031
0.765896 0.776699 0.28661
0.763134 0.802289 0.38114
0.760647 0.820874 0.467201
0.75819 0.835386 0.532815
0.756588 0.846876 0.585458
0.00389105 0.0518807 0.00337224
0.00367742 0.0542153 0.00335698
0.00347906 0.0565042 0.00334173
0.00326543 0.058732 0.00334173
0.00318914 0.0596628 0.00332647
0.0502785 0.0585794 0.00241093
0.0844434 0.0567025 0.00196841
0.118471 0.0524758 0.00155642
0.156786 0.0429847 0.00105287
0.202731 0.0115511 0.000427253
0.252064 0.00698863 0
0.306004 0.00111391 0
0.368902 0 0
0.442878 0 0
0.522744 0 0
0.590707 0 0
0.649348 0 0
0.704646 0 0
0.752743 0 0
0.790814 0 0
0.801587 0 0
0.803662 0.156786 0
0.799558 0.309987 0.00521859
0.790509 0.435447 0.00482185
0.784207 0.549477 0.0493324
0.778012 0.632731 0.0893721
0.772778 0.695506 0.136248
0.768948 0.743008 0.199954
0.765866 0.777066 0.286366
0.763119 0.802472 0.381003
0.760632 0.820966 0.46714
0.75819 0.835447 0.532769
0.756573 0.846906 0.585428
0.00146487 0.078294 0.00323491
0.00128176 0.0801862 0.00321965
0.00108339 0.0821393 0.00320439
0.000946059 0.0836652 0.00318914
0.000869764 0.0844434 0.00318914
0.0322576 0.0840009 0.00248722
0.0747692 0.0831617 0.00187686
0.111925 0.0813306 0.00144961
0.151812 0.0775311 0.000915541
0.197543 0.0698711 0.000137331
0.248646 0.0551156 0
0.3066 0.0117189 0
0.37084 0.00399786 0
0.445365 0 0
0.524254 0 0
0.591424 0 0
0.649882 0 0
0.704845 0 0
0.752636 0 0
0.790463 0 0
0.801602 0.00894179 0
0.803601 0.18735 0.00158694
0.79852 0.325521 0.00523384
0.789837 0.444816 0.00480659
0.783673 0.554818 0.0468147
0.777707 0.635462 0.088014
0.772641 0.697032 0.135805
0.768902 0.743679 0.199863
0.765835 0.777417 0.286122
0.763104 0.80267 0.38085
0.760632 0.821073 0.467048
0.758175 0.835508 0.532738
0.756573 0.846937 0.585412
0 0.106172 0.0030518
0 0.107774 0.00302129
0 0.109346 0.00302129
0 0.110307 0.00300603
0 0.110994 0.00299077
0 0.111223 0.00299077
0.0563516 0.11046 0.0018616
0.102083 0.10956 0.00134279
0.144854 0.107454 0.000854505
0.192706 0.102983 0.000122072
0.245136 0.094728 0
0.303273 0.0815442 0
0.369848 0.0581674 0
0.447196 0.0078584 0
0.526238 0 0
0.592721 0 0
0.650278 0 0
0.704875 0 0
0.752316 0 0
0.790051 0 0
0.801663 0.0623484 0
0.803449 0.218433 0.00303655
0.797314 0.342672 0.00521859
0.789059 0.455848 0.00479133
0.783093 0.560616 0.0440528
0.777371 0.638544 0.0864881
0.772473 0.698833 0.135286
0.768826 0.744625 0.199786
0.76582 0.777829 0.285847
0.763088 0.802884 0.380667
0.760616 0.821195 0.466957
0.758175 0.835569 0.532692
0.756573 0.846967 0.585397
0 0.13817 0.00265507
0 0.13959 0.00262455
0 0.140627 0.00260929
0 0.141451 0.00259403
0 0.141939 0.00259403
0 0.142367 0.00257877
0.0164797 0.142061 0.00201419
0.0818341 0.141619 0.0011902
0.133425 0.140444 0.000732433
0.184314 0.137591 0.000122072
0.23949 0.131624 0
0.30074 0.122789 0
0.369436 0.110063 0
0.446952 0.0904097 0
0.526177 0.0519265 0
0.593118 0.00497444 0
0.650797 0 0
0.705333 0 0
0.752117 0 0
0.789197 0.0279088 0
0.802502 0.13431 0
0.802365 0.255375 0.00433356
0.795697 0.36495 0.00512703
0.788022 0.47097 0.00479133
0.782208 0.56878 0.0385138
0.776928 0.642618 0.0844434
0.772244 0.701244 0.134585
0.768719 0.745876 0.19968
0.765759 0.778546 0.28542
0.763073 0.803204 0.380407
0.760616 0.821363 0.46685
0.758175 0.83566 0.532631
0.756573 0.847013 0.585367
0 0.176303 0.00187686
0 0.177401 0.00184634
0 0.178149 0.00183108
0 0.178729 0.00181582
0 0.179156 0.00180056
0 0.179629 0.00180056
0 0.179828 0.00178531
0.0455482 0.179385 0.000808728
0.11133 0.178668 0.000381476
0.169345 0.176547 0
0.229114 0.172473 0
0.295048 0.165957 0
0.368139 0.156985 0
0.448997 0.144472 0
0.527276 0.127947 0
0.591775 0.106233 0
0.649668 0.0762493 0
0.70489 0.0187686 0
0.751369 0.0277104 0
0.788937 0.112383 0
0.802289 0.204044 0.00241093
0.800351 0.296895 0.00511177
0.793667 0.392432 0.00500496
0.786633 0.490532 0.00476081
0.780957 0.579355 0.0299687
0.776287 0.648417 0.0813764
0.771954 0.704448 0.133654
0.768582 0.747616 0.199527
0.765698 0.779507 0.284825
0.763027 0.803738 0.380026
0.760601 0.821607 0.466667
0.75816 0.835798 0.532555
0.756573 0.847089 0.585321
0 0.220706 0.00062562
0 0.221241 0.000610361
0 0.221561 0.000595102
0 0.221836 0.000595102
0 0.222217 0.000579843
0 0.222278 0.000579843
0 0.222232 0.000579843
0 0.221973 0.000579843
0.0673686 0.22182 0
0.144045 0.221332 0
0.211704 0.219074 0
0.283497 0.214527 0
0.362722 0.207721 0
0.44889 0.19855 0
0.528588 0.188312 0
0.591989 0.17731 0
0.649638 0.167697 0
0.704067 0.162478 0
0.750805 0.173053 0
0.787625 0.210773 0.00202945
0.800519 0.270588 0.00471504
0.797192 0.344244 0.00520333
0.791119 0.426825 0.00485237
0.784894 0.514092 0.00463874
0.779278 0.592905 0.0184176
0.775448 0.656092 0.0771954
0.771542 0.708919 0.132372
0.768383 0.74992 0.199329
0.765606 0.780835 0.284016
0.762982 0.804456 0.379477
0.760571 0.822019 0.466346
0.758144 0.835996 0.532433
0.756558 0.847196 0.585245
0 0.270863 0
0 0.271412 0
0 0.271763 0
0 0.272053 0
0 0.272251 0
0 0.272389 0
0 0.272465 0
0 0.272663 0
0 0.272328 0
0.0916457 0.273503 0
0.182467 0.273701 0
0.26302 0.27126 0
0.349966 0.266453 0
0.443595 0.26009 0
0.527474 0.253559 0
0.59147 0.247593 0
0.648783 0.244419 0
0.702358 0.246509 0
0.74786 0.260182 0.00175479
0.782696 0.291188 0.00419623
0.796277 0.338003 0.00521859
0.793271 0.397772 0.00497444
0.788205 0.468116 0.00479133
0.782696 0.542153 0.00440986
0.777081 0.609064 0.00424201
0.77438 0.66601 0.0722362
0.771008 0.714794 0.130709
0.768139 0.753094 0.19913
0.765484 0.782589 0.282933
0.762921 0.805447 0.378744
0.76054 0.822599 0.465919
0.758129 0.836316 0.532204
0.756558 0.847349 0.585153
0 0.332967 0
0 0.333227 0
0 0.333577 0
0 0.334157 0
0 0.334386 0
0 0.334569 0
0 0.334722 0
0 0.334813 0
0 0.334722 0
0 0.3355 0
0.123919 0.338582 0
0.228412 0.339132 0
0.326284 0.336873 0
0.428962 0.333242 0
0.52015 0.32874 0
0.587243 0.325368 0
0.645274 0.325841 0
0.697673 0.331228 0.000244144
0.741253 0.345418 0.00234989
0.77467 0.371313 0.00408942
0.790814 0.408621 0.00491341
0.788983 0.456855 0.00479133
0.784802 0.515236 0.00463874
0.780072 0.573922 0.00401312
0.775326 0.627237 0.0030518
0.773114 0.678172 0.0666819
0.770352 0.722301 0.128618
0.767803 0.757336 0.198947
0.765301 0.785046 0.282597
0.762829 0.80676 0.377768
0.760494 0.823362 0.465339
0.758099 0.836774 0.531884
0.756527 0.847608 0.585
0 0.409949 0
0 0.410117 0
0 0.410437 0
0 0.410712 0
0 0.410941 0
0 0.41149 0
0 0.411688 0
0 0.411856 0
0 0.412024 0
0 0.412116 0
0.0317693 0.414908 0
0.165225 0.419989 0
0.287343 0.420172 0
0.401602 0.41825 0
0.503548 0.415396 0
0.576959 0.413169 0
0.637598 0.413581 0
0.690181 0.419028 0
0.732555 0.431754 0.00173953
0.765225 0.452903 0.00357061
0.785214 0.483391 0.0047303
0.78439 0.520653 0.00460822
0.780972 0.563195 0.00416571
0.777066 0.608484 0.00344854
0.773251 0.64947 0.00257877
0.771572 0.69308 0.0585794
0.769574 0.731426 0.126162
0.767376 0.762737 0.198856
0.765057 0.788281 0.283207
0.762707 0.808576 0.376532
0.760418 0.824399 0.464546
0.758053 0.8374 0.531456
0.756512 0.847974 0.584756
0 0.50016 0
0 0.500237 0
0 0.500496 0
0 0.500725 0
0 0.500908 0
0 0.501091 0
0 0.501274 0
0 0.501503 0
0 0.502007 0
0 0.502083 0
0 0.501976 0
0.067216 0.506691 0
0.224125 0.51046 0
0.361227 0.508904 0
0.477272 0.506813 0
0.560723 0.504662 0
0.6262 0.504997 0
0.680949 0.509102 0
0.723201 0.518685 0.00140383
0.754925 0.53431 0.00306706
0.778775 0.555215 0.00418097
0.779248 0.580591 0.00396735
0.776852 0.610712 0.00340276
0.77406 0.640757 0.00276188
0.770993 0.674464 0.00210575
0.769863 0.710063 0.0486152
0.768658 0.742382 0.123156
0.766873 0.76939 0.198947
0.764736 0.792401 0.284184
0.762554 0.810987 0.375006
0.760327 0.825849 0.463493
0.758007 0.838209 0.530907
0.756481 0.848463 0.584436
0 0.583108 0
0 0.583108 0
0 0.583215 0
0 0.583337 0
0 0.583429 0
0 0.58352 0
0 0.583597 0
0 0.583703 0
0 0.583749 0
0 0.583734 0
0 0.583871 0
0 0.583429 0
0.121309 0.588403 0
0.303319 0.589303 0
0.441215 0.5879 0
0.539284 0.586389 0
0.610346 0.585992 0
0.66836 0.58854 0
0.711925 0.594553 0.000534066
0.743389 0.604608 0.00198367
0.76788 0.617411 0.00296025
0.774136 0.632486 0.00297551
0.773007 0.652155 0.00251774
0.770901 0.675547 0.00209049
0.76875 0.701091 0.00175479
0.768032 0.72842 0.0356451
0.767681 0.754726 0.120562
0.766278 0.777539 0.199405
0.76437 0.797436 0.285588
0.762341 0.814038 0.374975
0.76022 0.827771 0.462104
0.757931 0.839368 0.530129
0.756436 0.849104 0.584009
0 0.649256 0
0 0.649256 0
0 0.649256 0
0 0.649302 0
0 0.649332 0
0 0.649363 0
0 0.649378 0
0 0.649393 0
0 0.649378 0
0 0.649287 0
0 0.649073 0
0 0.64889 0
0 0.649729 0
0.209415 0.653132 0
0.392981 0.652583 0
0.512596 0.651102 0
0.590829 0.650202 0
0.652857 0.651118 0
0.698375 0.654505 0
0.731044 0.660304 0.000885023
0.755367 0.668864 0.00172427
0.768872 0.680186 0.00202945
0.769116 0.693675 0.00189212
0.768063 0.709682 0.00167849
0.766705 0.727611 0.00157168
0.766079 0.74725 0.018143
0.766674 0.768215 0.11841
0.765591 0.786908 0.201144
0.763912 0.803525 0.287724
0.762036 0.817761 0.377127
0.760052 0.830243 0.461311
0.757839 0.840909 0.529076
0.756374 0.850004 0.583398
0 0.710277 0
0 0.710277 0
0 0.710277 0
0 0.710277 0
0 0.710262 0
0 0.710246 0
0 0.710216 0
0 0.71017 0
0 0.710063 0
0 0.709865 0
0 0.709529 0
0 0.70898 0
0 0.708293 0
0.117861 0.711727 0
0.333227 0.711589 0
0.479652 0.709728 0
0.569177 0.707485 0
0.635065 0.706859 0
0.683055 0.708019 0
0.717479 0.710979 0.000366217
0.743099 0.715633 0.00108339
0.761456 0.722332 0.0015259
0.765942 0.7308 0.0016022
0.765743 0.740871 0.00154116
0.76495 0.752636 0.00154116
0.764172 0.765713 0.00270085
0.765667 0.78262 0.118395
0.764858 0.797192 0.204501
0.763378 0.810437 0.291432
0.761669 0.822385 0.380102
0.759823 0.833265 0.461448
0.757717 0.842847 0.527993
0.756298 0.851225 0.582559
0 0.761044 0.00117494
0 0.761044 0.00117494
0 0.761044 0.00117494
0 0.761044 0.00117494
0 0.761044 0.00117494
0 0.761013 0.00117494
0 0.760937 0.00115969
0 0.760815 0.00115969
0 0.760601 0.00114443
0 0.760281 0.00111391
0 0.759823 0.00108339
0 0.759091 0.00102235
0 0.758053 0.000946059
0.0476844 0.759106 0.00151064
0.270497 0.760098 0.00222782
0.450446 0.75697 0.000579843
0.550958 0.753521 0
0.619226 0.751492 0
0.668681 0.751064 0
0.704906 0.751827 0.00047303
0.731853 0.753841 0.00103761
0.751369 0.757137 0.00141909
0.762936 0.761776 0.0016022
0.763714 0.76788 0.00164797
0.76347 0.775372 0.00163272
0.763409 0.784878 0.0130465
0.764706 0.797162 0.12372
0.76408 0.80798 0.210468
0.762798 0.818021 0.296941
0.761242 0.827771 0.38471
0.759518 0.836957 0.464042
0.757565 0.845243 0.526894
0.756191 0.852781 0.581506
0 0.799176 0.00483711
0 0.799176 0.00483711
0 0.799176 0.00483711
0 0.799176 0.00483711
0 0.799176 0.00483711
0 0.799176 0.00483711
0 0.799176 0.00483711
0 0.799039 0.00482185
0 0.798779 0.00479133
0 0.798337 0.00474556
0 0.797742 0.00468452
0 0.796918 0.00460822
0 0.795789 0.00448615
0.00944533 0.795483 0.00476081
0.226734 0.796429 0.00564584
0.432593 0.792447 0.00300603
0.539208 0.788205 0.00106813
0.607843 0.785168 0.000289921
0.657221 0.783795 0.000411994
0.694026 0.783429 0.000839246
0.72192 0.783871 0.00123598
0.742382 0.785336 0.00151064
0.758083 0.787793 0.00170901
0.76202 0.791302 0.00175479
0.762188 0.795895 0.00173953
0.763119 0.803174 0.0435645
0.763836 0.811276 0.136263
0.763302 0.818677 0.219684
0.762142 0.8262 0.304952
0.760723 0.833799 0.391028
0.759136 0.841215 0.468132
0.757305 0.848127 0.528939
0.756069 0.854704 0.580255
0 0.828336 0.00799573
0 0.828336 0.00799573
0 0.828336 0.00799573
0 0.828336 0.00799573
0 0.828336 0.00799573
0 0.828336 0.00799573
0 0.828336 0.00799573
0 0.828336 0.00799573
0 0.828199 0.00798047
0 0.827741 0.00793469
0 0.826978 0.00784314
0 0.826047 0.00775158
0 0.824918 0.00762951
0.0138552 0.824323 0.00776684
0.235554 0.824338 0.00798047
0.430503 0.819577 0.00471504
0.534524 0.814984 0.00233463
0.600732 0.811536 0.00115969
0.648722 0.809537 0.000961318
0.685054 0.808515 0.00115969
0.713008 0.808148 0.00143435
0.734249 0.808392 0.00164797
0.75079 0.809369 0.00180056
0.760128 0.811063 0.0018616
0.761074 0.813519 0.00183108
0.762631 0.818982 0.0712902
0.763012 0.824216 0.154025
0.762478 0.829328 0.234043
0.76144 0.834623 0.315892
0.760159 0.840299 0.399573
0.758709 0.845914 0.473655
0.757 0.851469 0.532235
0.755871 0.857038 0.581521
0 0.849485 0.010193
0 0.849485 0.010193
0 0.849485 0.010193
0 0.849485 0.010193
0 0.849485 0.010193
0 0.849485 0.010193
0 0.849485 0.010193
0 0.849485 0.010193
0 0.849485 0.010193
0 0.849454 0.010193
0 0.848661 0.0101167
0 0.847608 0.0100099
0 0.846387 0.00988785
0 0.845396 0.00999466
0.285054 0.844236 0.00874342
0.446372 0.839307 0.00543221
0.538338 0.834592 0.00294499
0.599069 0.831174 0.00167849
0.644083 0.829007 0.00132753
0.678981 0.827619 0.00140383
0.706127 0.826825 0.00157168
0.727382 0.826474 0.00173953
0.744457 0.826566 0.0018616
0.75787 0.827268 0.00192264
0.75996 0.828702 0.00459297
0.762081 0.833005 0.101427
0.762188 0.83624 0.178775
0.761608 0.839521 0.253773
0.760678 0.843046 0.331579
0.759533 0.846906 0.410605
0.758221 0.850965 0.481086
0.756664 0.855207 0.536614
0.755642 0.859739 0.584024
0 0.865309 0.0117189
0 0.865309 0.0117189
0 0.865309 0.0117189
0 0.865309 0.0117189
0 0.865309 0.0117189
0 0.865309 0.0117189
0 0.865309 0.0117189
0 0.865309 0.0117189
0 0.865309 0.0117189
0 0.865309 0.0117189
0 0.865309 0.0117189
0 0.864271 0.0116274
0 0.863066 0.0115969
0.107378 0.862943 0.0118105
0.350454 0.858747 0.00830091
0.475151 0.854017 0.00529488
0.548623 0.849683 0.0030518
0.60174 0.846525 0.00190738
0.642603 0.844419 0.0015259
0.675288 0.843 0.0015259
0.70103 0.841993 0.00164797
0.721706 0.841367 0.00177005
0.73872 0.841031 0.00187686
0.752255 0.841184 0.00344854
0.760189 0.84361 0.0720378
0.761501 0.845365 0.144457
0.761318 0.847013 0.211292
0.760723 0.848814 0.280186
0.759884 0.850935 0.352193
0.758846 0.853407 0.425467
0.757687 0.856153 0.490501
0.756268 0.859266 0.542397
0.755367 0.86273 0.587503
0 0.877104 0.0128176
0 0.877104 0.0128176
0 0.877104 0.0128176
0 0.877104 0.0128176
0 0.877104 0.0128176
0 0.877104 0.0128176
0 0.877104 0.0128176
0 0.877104 0.0128176
0 0.877104 0.0128176
0 0.877104 0.0128176
0 0.877104 0.0128176
0 0.877104 0.0128176
0 0.875898 0.012726
0.277455 0.873884 0.0105745
0.420096 0.869169 0.00715648
0.508873 0.864836 0.00457771
0.564279 0.861173 0.00282292
0.608728 0.858503 0.0019379
0.644541 0.856596 0.0016022
0.674022 0.855177 0.00158694
0.697841 0.854185 0.00207523
0.717662 0.853422 0.0028687
0.734157 0.852888 0.00378424
0.748989 0.854307 0.0626078
0.759365 0.855161 0.129595
0.76054 0.855695 0.190158
0.760418 0.856199 0.25066
0.759823 0.857008 0.313237
0.75906 0.858167 0.379141
0.758129 0.859617 0.443885
0.757092 0.861341 0.501534
0.75584 0.863401 0.549661
0.755077 0.865919 0.592035
0.244526 0.885451 0.0135653
0.244526 0.885451 0.0135653
0.244526 0.885451 0.0135653
0.244526 0.885451 0.0135653
0.244511 0.885451 0.0135653
0.244511 0.885451 0.0135653
0.244511 0.885451 0.0135653
0.244511 0.885451 0.0135653
0.244495 0.885451 0.0135653
0.24448 0.885451 0.0135653
0.24448 0.885451 0.0135653
0.24445 0.885451 0.0135653
0.244419 0.885451 0.0135653
0.378195 0.881163 0.0102541
0.480507 0.876768 0.00738537
0.538796 0.87277 0.00541695
0.582986 0.869932 0.00422675
0.618921 0.867811 0.00366217
0.649516 0.866178 0.00349432
0.675349 0.864897 0.00357061
0.697643 0.864897 0.0328222
0.71667 0.864942 0.0716869
0.732692 0.864713 0.103349
0.745785 0.864576 0.142306
0.75671 0.864393 0.188861
0.759457 0.864179 0.240238
0.759457 0.864042 0.295094
0.758892 0.864195 0.351949
0.75819 0.864637 0.41091
0.757366 0.865278 0.466255
0.756176 0.866209 0.514885
0.755383 0.867475 0.559197
0.754772 0.869154 0.59765
0.473121 0.887785 0.133028
0.473121 0.887785 0.133028
0.473121 0.887785 0.133028
0.473121 0.887785 0.133028
0.473121 0.887785 0.133028
0.473121 0.887785 0.133028
0.473121 0.887785 0.133028
0.473121 0.887785 0.133028
0.473121 0.887785 0.133028
0.473121 0.887785 0.133028
0.473121 0.887785 0.133028
0.473121 0.887785 0.133028
0.473106 0.887785 0.133028
0.473091 0.887785 0.133028
0.524224 0.884733 0.132906
0.569772 0.881743 0.134356
0.604166 0.879301 0.137392
0.633173 0.877653 0.141863
0.658732 0.87631 0.148348
0.680552 0.875227 0.156756
0.699474 0.874296 0.16762
0.716106 0.873472 0.181384
0.730495 0.872786 0.198978
0.742626 0.872129 0.220295
0.752697 0.871565 0.253285
0.758068 0.871015 0.295705
0.75848 0.870481 0.343435
0.757946 0.870222 0.395422
0.757305 0.8701 0.445014
0.756588 0.870207 0.491951
0.755566 0.870542 0.531914
0.75494 0.87126 0.570703
0.754452 0.872328 0.604898
0.565255 0.885771 0.241901
0.565255 0.885771 0.241901
0.565255 0.885771 0.241901
0.565255 0.885771 0.241901
0.565255 0.885771 0.241901
0.565255 0.885771 0.241901
0.565255 0.885771 0.241901
0.565255 0.885771 0.241901
0.565255 0.885771 0.241901
0.565255 0.885771 0.241901
0.565255 0.885771 0.241901
0.565255 0.885771 0.241901
0.56524 0.885771 0.241901
0.56524 0.885771 0.241901
0.565225 0.885771 0.241901
0.592889 0.885023 0.242954
0.622339 0.884321 0.24564
0.646143 0.883085 0.249042
0.666743 0.881971 0.253513
0.684855 0.880674 0.259663
0.701045 0.879789 0.267445
0.715816 0.87895 0.27744
0.72874 0.878172 0.290105
0.73991 0.877485 0.30634
0.749462 0.876829 0.326085
0.756619 0.876204 0.356832
0.757504 0.875532 0.396872
0.757015 0.874983 0.43859
0.75642 0.874556 0.480125
0.75552 0.874327 0.516335
0.754971 0.874357 0.551385
0.754498 0.874678 0.584207
0.754131 0.875319 0.613428
0.618647 0.883818 0.344762
0.618647 0.883818 0.344762
0.618647 0.883818 0.344762
0.618647 0.883818 0.344762
0.618647 0.883818 0.344762
0.618647 0.883818 0.344762
0.618647 0.883818 0.344762
0.618647 0.883818 0.344762
0.618647 0.883818 0.344762
0.618647 0.883818 0.344762
0.618647 0.883818 0.344762
0.618647 0.883818 0.344762
0.618647 0.883818 0.344762
0.618647 0.883818 0.344762
0.618631 0.883818 0.344762
0.618631 0.883818 0.344762
0.637385 0.883619 0.346441
0.658015 0.883528 0.34931
0.674632 0.883528 0.35285
0.689403 0.883574 0.357259
0.703487 0.883452 0.363439
0.716243 0.882963 0.370962
0.727687 0.88191 0.380529
0.73785 0.881239 0.392462
0.746654 0.880613 0.407156
0.753964 0.880018 0.424414
0.756115 0.879393 0.450217
0.756069 0.878676 0.481666
0.755306 0.878126 0.511879
0.754833 0.877745 0.542702
0.754421 0.877592 0.572122
0.754101 0.877668 0.599161
0.753841 0.877974 0.62327
0.654871 0.882597 0.439811
0.654871 0.882597 0.439811
0.654871 0.882597 0.439811
0.654871 0.882597 0.439811
0.654871 0.882597 0.439811
0.654871 0.882597 0.439811
0.654871 0.882597 0.439811
0.654871 0.882597 0.439811
0.654871 0.882597 0.439811
