BBLuts/BB_103_0940_LUT.cube
TITLE "Generated by Resolve"
LUT_3D_SIZE 5
0.0699626 0.0676738 0.0522469
0.309163 0.0696422 0.0527657
0.843275 0.0879072 0.0652323
0.977188 0.685313 0.234806
0.937087 1 0.904646
0.0425269 0.352041 0.0542
0.252064 0.353094 0.0509346
0.839933 0.186267 0.0607767
0.972091 0.740291 0.199863
0.937011 1 0.904219
0 0.90576 0.0654154
0 0.905303 0.0654002
0.740368 0.88719 0.0509651
0.953841 0.938903 0.0520333
0.936446 1 0.900832
0.645167 1 0.381567
0.673228 1 0.383581
0.790326 1 0.401877
0.935805 1 0.560998
0.933867 1 0.916472
0.910338 1 0.992721
0.910613 1 0.992752
0.912688 1 0.993027
0.925444 1 0.995804
0.931868 1 1
0.0715038 0.0705272 0.28011
0.283589 0.071519 0.280049
0.84329 0.0890669 0.297246
0.97731 0.672633 0.434485
0.93698 1 0.915618
0.0471199 0.308858 0.260655
0.265705 0.301915 0.252079
0.844053 0.0890516 0.276951
0.971923 0.730739 0.412146
0.936904 1 0.915221
0 0.90251 0.0653391
0 0.901991 0.0653239
0.745007 0.884016 0.0509651
0.953918 0.937926 0.220645
0.936324 1 0.912169
0.649699 1 0.381064
0.676951 1 0.383093
0.791638 1 0.401495
0.935882 1 0.560937
0.933867 1 0.916411
0.910384 1 0.992721
0.910658 1 0.992737
0.912718 1 0.993027
0.925475 1 0.995789
0.931868 1 1
0.0730144 0.0756085 0.851423
0.0730144 0.0756085 0.851637
0.845121 0.0904402 0.854505
0.989593 0.49305 0.868849
0.936477 1 0.972992
0.0730144 0.0755932 0.849821
0.0730144 0.0755932 0.850019
0.852583 0.0907454 0.852964
0.978149 0.623484 0.863386
0.936385 1 0.972747
0 0.853773 0.821225
0 0.854093 0.821515
0.727016 0.837751 0.812222
0.950652 0.913695 0.837674
0.93576 1 0.970993
0.651484 1 0.680491
0.677287 1 0.681178
0.787655 1 0.687526
0.930312 1 0.749218
0.933425 1 0.956313
0.910719 1 0.99266
0.910994 1 0.992706
0.913024 1 0.992981
0.925582 1 0.995758
0.931868 1 1
0.0736095 0.0778668 1
0.0736095 0.0778668 1
0.0736095 0.0778668 1
1 0.0986038 1
0.93756 1 1
0.0736095 0.0778668 1
0.0736095 0.0778668 1
0.0736095 0.0778668 1
1 0.0986038 1
0.937377 1 1
0.0736095 0.0778668 1
0.0736095 0.0778668 1
0.359365 0.0779278 1
1 0.0986038 1
0.936156 1 1
0 1 1
0 1 1
0.665904 1 1
0.913436 1 1
0.932372 1 1
0.908431 1 1
0.90869 1 1
0.910643 1 1
0.92285 1 1
0.931441 1 1
0.0222171 0.515587 1
0.0222171 0.515587 1
0.0222019 0.515618 1
0.0221866 0.515785 1
0.95314 0.854902 1
0.0222171 0.515572 1
0.0222171 0.515572 1
0.0222171 0.515587 1
0.0221866 0.51577 1
0.95314 0.854994 1
0.0222324 0.51545 1
0.0222324 0.51545 1
0.0222324 0.515465 1
0.0222019 0.515633 1
0.953079 0.855604 1
0.0224002 0.514107 1
0.0224002 0.514107 1
0.0224002 0.514138 1
1 0.0986038 1
0.952865 0.857847 1
0.861891 1 1
0.863111 1 1
0.871748 1 1
0.909209 1 1
0.931044 1 1
