BBLuts/BB_104_0240_LUT.cube
TITLE "Generated by Resolve"
LUT_3D_SIZE 5
0 0 0
0.126635 0 0
0.633234 0 0.366094
0.722988 0.438025 0.638804
0.706081 0.725948 0.691035
0 0.160723 0
0.0887007 0.162112 0
0.635691 0 0.374594
0.719997 0.545098 0.636072
0.706081 0.726558 0.689143
0 0.65774 0
0 0.657511 0
0.600412 0.651896 0
0.713848 0.676295 0.124636
0.706096 0.730648 0.67303
0 0.763439 0.0448615
0 0.762875 0.0446174
0.626734 0.750317 0.0105745
0.708476 0.745998 0.00933852
0.705577 0.744564 0.661692
0.692515 0.749004 0.758541
0.692699 0.749004 0.758602
0.693996 0.749004 0.758984
0.701167 0.749004 0.762158
0.705821 0.748974 0.78024
0 0 0.232456
0.140673 0 0.235813
0.632898 0 0.428031
0.723598 0.412802 0.642084
0.705959 0.725887 0.707851
0 0.159533 0.1888
0.125856 0.155413 0.18584
0.633371 0 0.424475
0.720394 0.534432 0.639643
0.705943 0.726482 0.706523
0 0.655879 0
0 0.65565 0
0.60296 0.650126 0
0.712901 0.674861 0.337575
0.705791 0.73048 0.695872
0 0.763333 0.0448157
0 0.762798 0.0445563
0.62771 0.750225 0.0104829
0.708537 0.745968 0.00933852
0.705577 0.744564 0.661524
0.692546 0.749004 0.758541
0.691707 0.749416 0.757733
0.69395 0.749035 0.758907
0.701183 0.749004 0.762142
0.705821 0.748974 0.78024
0.574304 0.566751 0.698131
0.574563 0.566857 0.698192
0.635737 0.579171 0.646342
0.713588 0.587732 0.710567
0.706294 0.726558 0.761501
0.572274 0.565759 0.697581
0.572641 0.565881 0.697627
0.637552 0.579049 0.642664
0.71191 0.591943 0.704067
0.706233 0.727138 0.76109
0.49189 0.630442 0.730816
0.49218 0.63061 0.731075
0.582803 0.638834 0.689311
0.709545 0.665461 0.707683
0.70605 0.731029 0.75816
0 0.762829 0.0445869
0.181933 0.760967 0.0428321
0.627237 0.749889 0.0104982
0.706813 0.745769 0.009308
0.705074 0.744335 0.736187
0.692699 0.74902 0.758541
0.692866 0.74902 0.758602
0.694148 0.74902 0.758968
0.701152 0.74905 0.762097
0.705715 0.749004 0.78027
0.67042 0.689204 0.809491
0.670451 0.689204 0.809461
0.670451 0.689204 0.809476
0.706905 0.699016 0.778103
0.700084 0.728405 0.808118
0.670451 0.689204 0.809461
0.670451 0.689204 0.809461
0.670451 0.689204 0.809461
0.706905 0.699031 0.778042
0.700145 0.729183 0.808927
0.670451 0.689204 0.809476
0.670451 0.689204 0.809461
0.670619 0.68925 0.809323
0.706905 0.699031 0.778073
0.700969 0.733959 0.813413
0.634577 0.744289 0.8533
0.634638 0.744289 0.853376
0.638926 0.744579 0.849012
0.692378 0.745556 0.81471
0.7084 0.747814 0.814984
0.69456 0.748913 0.800519
0.694682 0.748928 0.800549
0.695827 0.748928 0.800656
0.70222 0.748943 0.801526
0.70753 0.748943 0.806973
0.670359 0.689387 0.809628
0.67039 0.689372 0.809598
0.67039 0.689372 0.809598
0.670375 0.689372 0.809613
0.705043 0.703975 0.781872
0.67039 0.689372 0.809598
0.67039 0.689372 0.809598
0.67039 0.689372 0.809598
0.67039 0.689372 0.809598
0.705028 0.703975 0.781826
0.67039 0.689372 0.809598
0.67039 0.689372 0.809598
0.67039 0.689372 0.809598
0.670604 0.689418 0.8094
0.705013 0.704021 0.781872
0.67039 0.689372 0.809598
0.67039 0.689372 0.809598
0.670375 0.689372 0.809613
0.706905 0.699031 0.778088
0.704967 0.704173 0.781994
0.675685 0.749508 0.826886
0.676219 0.749538 0.826673
0.679881 0.749676 0.825223
0.696544 0.749752 0.821271
0.70605 0.749523 0.820401
