BBLuts/BB_106_0350_LUT.cube
TITLE "Generated by Resolve"
LUT_3D_SIZE 5
0.0195773 0.0195773 0.0195773
0.169635 0.0189822 0.0189822
0.692164 0 0
0.885893 0.514672 0.152941
0.883116 0.849882 0.744579
0.0178073 0.185977 0.0178073
0.14966 0.189364 0.0187991
0.703746 0.0593271 0
0.870619 0.583215 0.125124
0.884184 0.850233 0.744976
0.00250248 0.720546 0.0121767
0 0.727092 0.00987259
0.67599 0.714656 0.0198062
0.858442 0.769818 0.0229343
0.880964 0.856809 0.740063
0.611261 0.894636 0.263172
0.637613 0.894194 0.262226
0.751888 0.886763 0.271717
0.880507 0.878523 0.398642
0.884123 0.876966 0.754665
0.863722 0.883879 0.813092
0.863966 0.883879 0.813107
0.860777 0.886198 0.809567
0.877424 0.883894 0.815335
0.883818 0.883833 0.832776
0.0191348 0.0191958 0.170932
0.15108 0.0191196 0.171939
0.700664 0 0.151324
0.894469 0.497795 0.300145
0.880079 0.850782 0.751202
0.0179446 0.158846 0.158083
0.152636 0.157656 0.153338
0.699168 0 0.136156
0.892973 0.566674 0.282795
0.884138 0.850019 0.753719
0.0012665 0.717693 0.0116426
0 0.723033 0.00973526
0.680812 0.711528 0.0197299
0.871992 0.764401 0.137728
0.879942 0.856992 0.748409
0.615961 0.894453 0.262531
0.642069 0.89366 0.261936
0.753262 0.886595 0.271458
0.880659 0.878462 0.398642
0.884108 0.876966 0.754604
0.861967 0.884565 0.811765
0.863981 0.883879 0.813092
0.862303 0.885618 0.810681
0.87744 0.883894 0.815335
0.878859 0.886091 0.829023
0.0113222 0.0115053 0.680461
0.0115663 0.0118715 0.671183
0.697017 0 0.659236
0.894362 0.2934 0.722072
0.875959 0.850706 0.792325
0.0113527 0.0115358 0.678782
0.0117342 0.0121004 0.664576
0.705913 0 0.66212
0.893599 0.436988 0.718318
0.877119 0.851072 0.793011
0 0.6757 0.652186
0 0.680781 0.641825
0.65182 0.674739 0.655039
0.883803 0.736599 0.689693
0.884047 0.854093 0.796796
0.617777 0.890486 0.544961
0.63975 0.890486 0.54168
0.751293 0.881376 0.547997
0.879774 0.873213 0.610559
0.884031 0.876616 0.78558
0.858976 0.886198 0.809293
0.859129 0.886229 0.809247
0.862486 0.885649 0.810575
0.877577 0.883879 0.815335
0.875441 0.887404 0.826444
0.0106355 0.0110018 0.859541
0.0109865 0.0116426 0.844236
0.0109407 0.0115511 0.846235
0.859022 0.00462348 0.840894
0.872587 0.83183 0.862898
0.0110018 0.0116732 0.843259
0.0111696 0.0120089 0.835157
0.0111543 0.0119783 0.836164
0.856809 0.00518807 0.835492
0.86569 0.836149 0.857053
0.0108644 0.0114443 0.849042
0.0111849 0.0120394 0.834714
0.191775 0.01178 0.835584
0.861326 0.00402838 0.84654
0.870619 0.845151 0.860426
0.0261387 0.906569 0.870314
0 0.916197 0.848325
0.595331 0.895689 0.835218
0.83447 0.877821 0.840558
0.881132 0.87512 0.866011
0.857237 0.886336 0.846586
0.849607 0.889372 0.840467
0.851514 0.889311 0.840665
0.870527 0.886259 0.84773
0.874601 0.88777 0.851865
0 0.309209 0.828016
0 0.309209 0.828016
0 0.309209 0.828016
0 0.309361 0.828016
0.83035 0.708309 0.831998
0 0.309178 0.828016
0 0.309194 0.828016
0 0.309209 0.828016
0 0.309346 0.828016
0.83035 0.70837 0.831998
0 0.309071 0.828016
0 0.309071 0.828016
0 0.309087 0.828016
0 0.309239 0.828016
0.830274 0.708934 0.831968
0 0.307881 0.828031
0 0.307881 0.828031
0 0.307897 0.828031
0.850858 0.00672923 0.82092
0.83003 0.710948 0.831846
0.752178 0.91133 0.826688
0.753231 0.91133 0.826688
0.760723 0.911376 0.826688
0.793347 0.911559 0.826703
0.813107 0.91191 0.826932
