BBLuts/BB_103_0440_LUT.cube
TITLE "Generated by Resolve"
LUT_3D_SIZE 9
0.0136416 0.0166781 0.00749218
0.0174563 0.0160983 0.00709544
0.222568 0.0152285 0.00517281
0.490669 0.0055848 0
0.78027 0 0
0.963058 0 0
0.937362 0.656718 0.0954147
0.914015 0.932799 0.410925
0.902876 1 0.722332
0.0077821 0.0794995 0.00688182
0.00679026 0.0907454 0.00682078
0.224048 0.0678264 0.00444038
0.498848 0.00511177 0
0.782254 0 0
0.962951 0 0
0.935241 0.678721 0.081178
0.913893 0.934569 0.409751
0.902861 1 0.722255
0 0.256748 0.00480659
0 0.2607 0.00469978
0.160067 0.259785 0.00291447
0.491463 0.231373 0
0.778332 0.120897 0
0.956008 0.299519 0.0101778
0.932067 0.706783 0.0522164
0.91371 0.937469 0.40795
0.902846 1 0.722103
0 0.553979 0
0 0.555016 0
0 0.556146 0
0.394736 0.563226 0
0.75964 0.557656 0.00141909
0.935027 0.622843 0.0131228
0.923644 0.785092 0.0102693
0.913008 0.947799 0.406088
0.902785 1 0.721431
0 0.858503 0.00170901
0 0.858488 0.00170901
0 0.858244 0.00167849
0 0.856153 0.00151064
0.683543 0.853407 0.00256352
0.888838 0.863325 0.00819409
0.914275 0.907378 0.00920119
0.911131 0.973816 0.4159
0.902571 1 0.718791
0 1 0.0250706
0 1 0.0250706
0 1 0.0250706
0 1 0.0245212
0.648005 1 0.0124208
0.846036 0.994675 0.00987259
0.908858 0.996933 0.014725
0.907958 1 0.46006
0.901839 1 0.720607
0.576471 1 0.206912
0.576471 1 0.206912
0.576471 1 0.206912
0.576455 1 0.206912
0.725322 1 0.212589
0.837568 1 0.254765
0.899519 1 0.368811
0.903853 1 0.561502
0.900465 1 0.746197
0.812711 1 0.634623
0.812711 1 0.634623
0.812711 1 0.634623
0.812711 1 0.634623
0.812696 1 0.634638
0.849195 1 0.641382
0.887007 1 0.661204
0.899962 1 0.710552
0.899031 1 0.795422
0.872953 1 0.822766
0.872953 1 0.822766
0.872953 1 0.822766
0.872953 1 0.822766
0.872953 1 0.822766
0.872953 1 0.822766
0.886595 1 0.825055
0.898772 1 0.831357
0.898665 1 0.84712
0.0142061 0.01738 0.0511482
0.0142214 0.0173953 0.0515602
0.220447 0.0165255 0.0501869
0.490883 0.00701915 0.0435187
0.781109 0 0.0319524
0.964797 0 0.0396429
0.938048 0.655192 0.121019
0.914015 0.932769 0.410941
0.902876 1 0.722347
0.0116121 0.0485695 0.0448005
0.0494392 0.0632486 0.0431373
0.235523 0.0172274 0.0441749
0.493431 0.00666819 0.0343938
0.781003 0 0.00395209
0.963836 0 0.0109712
0.935836 0.677501 0.102113
0.913893 0.934554 0.409766
0.902861 1 0.722255
0 0.245075 0.00889601
0 0.248646 0.00892653
0.179538 0.248112 0.00709544
0.489525 0.218845 0.00166323
0.776577 0.0842451 0
0.956436 0.282155 0.00926223
0.932647 0.705867 0.0701457
0.91371 0.937469 0.40795
0.902861 1 0.722103
0 0.548608 0
0 0.549569 0
0 0.550576 0
0.407446 0.557336 0
0.759335 0.552651 0.00144961
0.935073 0.620203 0.0131228
0.92372 0.784268 0.0102998
0.913008 0.947799 0.406088
0.902785 1 0.721431
0 0.856931 0.00157168
0 0.856916 0.00157168
0 0.856641 0.00155642
0 0.85452 0.00138857
0.68571 0.852201 0.00251774
0.888899 0.862547 0.00819409
0.91429 0.907118 0.00920119
0.911131 0.973816 0.4159
0.902571 1 0.718791
0 1 0.0250248
0 1 0.0250248
0 1 0.0250248
0 1 0.0244907
0.649821 1 0.0123445
0.846189 0.994553 0.00985733
0.908858 0.996872 0.014725
0.907958 1 0.46006
0.901839 1 0.720607
0.579553 1 0.20647
0.579553 1 0.20647
0.579538 1 0.20647
0.579538 1 0.20647
0.726116 1 0.212329
0.83769 1 0.254566
0.899535 1 0.368795
0.903853 1 0.561502
0.900465 1 0.746197
0.812879 1 0.634607
0.812879 1 0.634607
0.812879 1 0.634607
0.812879 1 0.634607
0.812863 1 0.634607
0.849271 1 0.641382
0.887022 1 0.661173
0.899962 1 0.710552
0.899031 1 0.795422
0.872969 1 0.822766
0.872969 1 0.822766
0.872969 1 0.822766
0.872969 1 0.822766
0.872969 1 0.822766
0.872969 1 0.822766
0.886595 1 0.825055
0.898772 1 0.831357
0.898665 1 0.84712
0.0155642 0.0191806 0.18468
0.0155642 0.0191806 0.18497
0.189471 0.0183261 0.182849
0.50164 0.00805676 0.170901
0.78262 0 0.162753
0.966857 0.00209049 0.189548
0.940459 0.647532 0.266972
0.91368 0.931853 0.44303
0.902876 1 0.722347
0.0155642 0.0191653 0.182071
0.0155642 0.0191806 0.182498
0.213107 0.018143 0.179706
0.500572 0.00810254 0.16759
0.783612 0 0.158648
0.966628 0.00198367 0.181674
0.938506 0.671046 0.259037
0.913558 0.933654 0.441932
0.902861 1 0.722255
0 0.214054 0.168826
0 0.21709 0.168765
0.166949 0.211261 0.163424
0.47718 0.186023 0.158968
0.780941 0.0145266 0.147814
0.961654 0.222324 0.185199
0.935805 0.701076 0.247166
0.913375 0.936599 0.44007
0.902861 1 0.722103
0 0.536049 0.0852216
0 0.53753 0.0854963
0 0.538537 0.0866865
0.408927 0.545266 0.0950179
0.758404 0.541085 0.100099
0.938643 0.613718 0.127443
0.927626 0.783581 0.202045
0.912718 0.947082 0.432898
0.902785 1 0.721431
0 0.853925 0.00134279
0 0.853925 0.00134279
0 0.853651 0.00132753
0 0.851545 0.00117494
0.687617 0.84918 0.00239567
0.888899 0.860258 0.00819409
0.915358 0.907012 0.0472114
0.911116 0.973693 0.41738
0.902571 1 0.718791
0 1 0.0249638
0 1 0.0249638
0 1 0.0249638
0 1 0.0245212
0.652964 1 0.0122072
0.846586 0.994324 0.00985733
0.908873 0.996719 0.0147097
0.907958 1 0.459876
0.901839 1 0.720607
0.583658 1 0.205844
0.583658 1 0.205844
0.583658 1 0.205844
0.583658 1 0.205859
0.727169 1 0.211948
0.837995 1 0.254337
0.899565 1 0.368536
0.903853 1 0.56144
0.900465 1 0.746197
0.813123 1 0.634577
0.813123 1 0.634577
0.813123 1 0.634577
0.813123 1 0.634577
0.813123 1 0.634577
0.849363 1 0.641321
0.887053 1 0.661158
0.899962 1 0.710536
0.899031 1 0.795422
0.872984 1 0.822766
0.872984 1 0.822766
0.872984 1 0.822766
0.872984 1 0.822766
0.872984 1 0.822766
0.872984 1 0.822766
0.88661 1 0.825055
0.898772 1 0.831357
0.898665 1 0.84712
0.0125277 0.0166934 0.448539
0.0125277 0.0166934 0.448631
0.0125277 0.0166934 0.44889
0.455085 0.00758373 0.439261
0.798398 0 0.430213
0.966552 0.00175479 0.453178
0.942931 0.612909 0.508049
0.911849 0.92546 0.581094
0.902754 1 0.732967
0.0125734 0.0167239 0.446952
0.0125734 0.0167239 0.447089
0.0368048 0.0164034 0.446784
0.47216 0.00682078 0.436576
0.797086 0 0.428122
0.966445 0.00177005 0.450401
0.940932 0.639704 0.505531
0.911696 0.927382 0.58053
0.902739 1 0.732891
0.00766003 0.0695506 0.442649
0.00740063 0.072221 0.442741
0.0374304 0.0725414 0.442145
0.479789 0.0065156 0.432731
0.792493 0 0.42414
0.965743 0.0158694 0.446387
0.938048 0.674006 0.501579
0.911482 0.930465 0.579583
0.902724 1 0.732769
0 0.478508 0.4094
0 0.479606 0.409461
0 0.482048 0.410101
0.38938 0.48957 0.41706
0.749844 0.483513 0.423072
0.943496 0.570336 0.449729
0.928908 0.765774 0.485512
0.910704 0.941497 0.57612
0.902663 1 0.732189
0 0.84802 0.3252
0 0.84802 0.3252
0 0.848234 0.326085
0 0.846204 0.329244
0.685267 0.843168 0.340124
0.889921 0.854765 0.373739
0.915938 0.902678 0.441321
0.908919 0.969375 0.564614
0.902434 1 0.729915
0 1 0.106844
0 1 0.106844
0 1 0.106844
0 1 0.107866
0.650416 1 0.0958572
0.8477 0.995819 0.204639
0.909834 0.997543 0.35256
0.906737 1 0.534859
0.901808 1 0.723308
0.596048 1 0.203357
0.596048 1 0.203357
0.596048 1 0.203357
0.596048 1 0.203357
0.730404 1 0.210788
0.838773 1 0.253498
0.899733 1 0.368139
0.903868 1 0.561059
0.900465 1 0.74612
0.813947 1 0.634455
0.813947 1 0.634455
0.813947 1 0.634455
0.813947 1 0.634455
0.813947 1 0.634455
0.849668 1 0.641199
0.887175 1 0.661051
0.899962 1 0.71043
0.899031 1 0.795392
0.873075 1 0.822766
0.873075 1 0.822766
0.873075 1 0.822766
0.873075 1 0.822766
0.873075 1 0.822766
0.873075 1 0.822766
0.886641 1 0.82504
0.898772 1 0.831357
0.898665 1 0.84712
0.00567636 0.0102998 0.727779
0.00567636 0.0102998 0.727779
0.00567636 0.0102846 0.727855
0.11368 0.0091249 0.725963
0.769482 0 0.70959
0.965911 0.000167849 0.718364
0.959854 0.350729 0.746563
0.910552 0.909209 0.751308
0.902144 1 0.801755
0.00567636 0.0102998 0.727703
0.00567636 0.0102998 0.727703
0.00567636 0.0102846 0.727764
0.120882 0.00909438 0.72549
0.772732 0 0.709209
0.965927 0.000167849 0.718029
0.954635 0.4448 0.74638
0.910338 0.911589 0.750973
0.902144 1 0.801709
0.00569161 0.0102998 0.726802
0.00569161 0.0102998 0.726802
0.00569161 0.0102998 0.726864
0.217395 0.00843824 0.72343
0.777569 0 0.708247
0.965927 0.00015259 0.717067
0.947646 0.542687 0.74406
0.910033 0.91519 0.750439
0.902113 1 0.801648
0 0.217258 0.720607
0 0.217258 0.720607
0 0.221668 0.720592
0.210163 0.214191 0.71841
0.773098 0.105516 0.707835
0.961913 0.221164 0.724544
0.934783 0.695201 0.735134
0.908934 0.928298 0.748455
0.902052 1 0.801358
0 0.801648 0.690806
0 0.801648 0.690806
0 0.801709 0.690837
0 0.801495 0.691188
0.660502 0.79913 0.692607
0.883391 0.816907 0.699931
0.913878 0.87924 0.710872
0.906493 0.960403 0.742824
0.901778 1 0.800259
0 1 0.673777
0 1 0.673777
0 1 0.673732
0 1 0.674022
0.603296 0.998459 0.663615
0.833661 0.986267 0.666651
0.904051 0.988754 0.688182
0.903532 1 0.730724
0.901091 1 0.796323
0.572976 1 0.595529
0.572976 1 0.595529
0.572976 1 0.595529
0.572976 1 0.595529
0.712489 1 0.593759
0.828168 1 0.604593
0.890806 1 0.637629
0.901442 1 0.702724
0.900084 1 0.785061
0.816602 1 0.633783
0.816602 1 0.633783
0.816602 1 0.633783
0.816602 1 0.633783
0.816602 1 0.633783
0.85066 1 0.640742
0.88748 1 0.66067
0.899962 1 0.710262
0.899046 1 0.795224
0.873396 1 0.822721
0.873396 1 0.822721
0.873396 1 0.822721
0.873396 1 0.822721
0.873396 1 0.822721
0.873381 1 0.822721
0.886763 1 0.824994
0.898772 1 0.831327
0.898665 1 0.847105
0.00460822 0.00962844 0.880949
0.00460822 0.00962844 0.881025
0.00460822 0.00962844 0.881025
0.00460822 0.00962844 0.881056
0.586297 0 0.86717
0.962539 0.00292973 0.866011
0.966354 0.00317388 0.866636
0.917296 0.839414 0.863539
0.902037 1 0.861311
0.00460822 0.00962844 0.881025
0.00460822 0.00962844 0.881025
0.00460822 0.00962844 0.881025
0.00460822 0.00962844 0.881056
0.585702 0 0.867201
0.962539 0.00292973 0.866011
0.966354 0.00315862 0.866575
0.91664 0.844907 0.862913
0.902022 1 0.861295
0.00460822 0.00962844 0.880995
0.00460822 0.00962844 0.880995
0.00460822 0.00962844 0.880995
0.00460822 0.00962844 0.880995
0.595026 0 0.866758
0.962829 0.00294499 0.86595
0.966354 0.00315862 0.866468
0.915663 0.853223 0.861997
0.902007 1 0.86125
0.00460822 0.00962844 0.880644
0.00460822 0.00962844 0.880644
0.00460822 0.00962844 0.880644
0.00460822 0.00962844 0.880659
0.646754 0 0.864393
0.963561 0.00302129 0.865614
0.966506 0.00508125 0.865568
0.912612 0.880476 0.859083
0.901915 1 0.861097
0 0.540307 0.868299
0 0.540307 0.868299
0 0.540307 0.868299
0 0.544732 0.868177
0.610468 0.548653 0.86923
0.93611 0.58764 0.87715
0.926772 0.764675 0.865965
0.907439 0.935454 0.853666
0.901595 1 0.860502
0 1 0.861738
0 1 0.861738
0 1 0.861738
0 1 0.861738
0.386007 0.991989 0.855558
0.819287 0.970382 0.842145
0.899794 0.97583 0.843442
0.902922 0.996231 0.847517
0.900786 1 0.858717
0.407736 1 0.845045
0.407736 1 0.845045
0.408835 1 0.844984
0.408835 1 0.844984
0.637247 1 0.834409
0.80827 1 0.831098
0.879957 1 0.833982
0.90016 1 0.840909
0.899641 1 0.854856
0.804608 1 0.806592
0.804608 1 0.806592
0.804608 1 0.806592
0.804608 1 0.806592
0.804608 1 0.806592
0.839368 1 0.808118
0.879011 1 0.812879
0.898543 1 0.824735
0.898665 1 0.845731
0.874434 1 0.822599
0.874434 1 0.822599
0.874434 1 0.822599
0.874434 1 0.822599
0.874434 1 0.822599
0.874434 1 0.822599
0.887144 1 0.824857
0.898772 1 0.831205
0.898665 1 0.847059
0.00442512 0.00955215 0.92192
0.00442512 0.00955215 0.92192
0.00442512 0.00955215 0.92192
0.00442512 0.00955215 0.92192
0.00442512 0.00955215 0.92192
0.891814 0 0.912245
0.966583 0.00444038 0.916075
0.966583 0.00444038 0.916075
0.903334 0.984054 0.903029
0.00442512 0.00955215 0.92192
0.00442512 0.00955215 0.92192
0.00442512 0.00955215 0.92192
0.00442512 0.00955215 0.92192
0.00442512 0.00955215 0.92192
0.891814 0 0.912245
0.966583 0.00444038 0.916075
0.966583 0.00444038 0.916075
0.903304 0.984451 0.903014
0.00442512 0.00955215 0.92192
0.00442512 0.00955215 0.92192
0.00442512 0.00955215 0.92192
0.00442512 0.00955215 0.92192
0.00442512 0.00955215 0.92192
0.891814 0 0.912245
0.966583 0.00444038 0.916075
0.966583 0.00444038 0.916075
0.903258 0.985153 0.902953
0.00442512 0.00955215 0.92192
0.00442512 0.00955215 0.92192
0.00442512 0.00955215 0.92192
0.00442512 0.00955215 0.92192
0.00442512 0.00955215 0.92192
0.895979 0 0.912444
0.966583 0.00444038 0.916075
0.966583 0.00444038 0.916075
0.903075 0.987823 0.902739
0.00442512 0.00955215 0.92192
0.00442512 0.00955215 0.92192
0.00442512 0.00955215 0.92192
0.00442512 0.00955215 0.92192
0.00442512 0.00955215 0.92192
0.924941 0.000198367 0.913924
0.966583 0.00444038 0.916075
0.951537 0.513924 0.933196
0.902434 0.996963 0.902007
0 0.835294 0.915373
0 0.835294 0.915373
0 0.835294 0.915373
0 0.835294 0.915373
0 0.838682 0.915511
0.818784 0.832517 0.911452
0.912444 0.879561 0.908583
0.905211 0.958938 0.902495
0.901106 1 0.900389
0 1 0.920714
0 1 0.920714
0 1 0.920714
0 1 0.920714
0 1 0.920714
0.768963 1 0.896071
0.874434 1 0.895903
0.900099 1 0.89633
0.899519 1 0.898085
0.778988 1 0.891066
0.778988 1 0.891066
0.778988 1 0.891066
0.778988 1 0.891066
0.778988 1 0.891066
0.818326 1 0.890944
0.871183 1 0.891371
0.897398 1 0.892576
0.898344 1 0.895338
0.869856 1 0.882124
0.869856 1 0.882124
0.869856 1 0.882124
0.869856 1 0.882124
0.869856 1 0.882124
0.869856 1 0.882124
0.882673 1 0.882734
0.896803 1 0.884581
0.89839 1 0.88896
0 0.0955673 0.920913
0 0.0955673 0.920913
0 0.0955673 0.920913
0 0.0955673 0.920913
0 0.0955673 0.920913
0 0.0956741 0.920913
0.966583 0.00444038 0.916075
0.965957 0.0349584 0.917601
0.930282 0.738689 0.929305
0 0.0955673 0.920913
0 0.0955673 0.920913
0 0.0955673 0.920913
0 0.0955673 0.920913
0 0.0955673 0.920913
0 0.0956741 0.920913
0.966583 0.00444038 0.916075
0.965957 0.0349584 0.917601
0.930282 0.738689 0.929305
0 0.0955673 0.920913
0 0.0955673 0.920913
0 0.0955673 0.920913
0 0.0955673 0.920913
0 0.0955673 0.920913
0 0.0956741 0.920913
0.966583 0.00444038 0.916075
0.965957 0.0349584 0.917601
0.930282 0.738643 0.929305
0 0.0955673 0.920913
0 0.0955673 0.920913
0 0.0955673 0.920913
0 0.0955673 0.920913
0 0.0955673 0.920913
0 0.0956741 0.920913
0.966583 0.00444038 0.916075
0.965957 0.0349584 0.917601
0.930297 0.738552 0.92932
0 0.0954452 0.920913
0 0.0954452 0.920913
0 0.0954452 0.920913
0 0.0954452 0.920913
0 0.0954452 0.920913
0 0.0955367 0.920913
0.966583 0.00444038 0.916075
0.965911 0.0374304 0.917723
0.930343 0.738247 0.929335
0 0.0937514 0.920913
0 0.0937514 0.920913
0 0.0937514 0.920913
0 0.0937514 0.920913
0 0.0937514 0.920913
0 0.0938277 0.920913
0.966583 0.00444038 0.916075
0.965286 0.0838331 0.920409
0.912596 0.877333 0.91989
0 1 0.935958
0 1 0.935958
0 1 0.935958
0 1 0.935958
0 1 0.935958
0 1 0.93611
0.875685 0.968353 0.917372
0.902358 0.995834 0.917205
0.900343 1 0.917128
0.50277 1 0.926772
0.50277 1 0.926772
0.50277 1 0.926772
0.50277 1 0.926772
0.50277 1 0.926772
0.50277 1 0.926772
0.856703 1 0.915923
0.895903 1 0.916091
0.898482 1 0.916152
0.860624 1 0.914382
0.860624 1 0.914382
0.860624 1 0.914382
0.860624 1 0.914382
0.860624 1 0.914382
0.860624 1 0.914382
0.874968 1 0.914443
0.893904 1 0.914595
0.898207 1 0.914824
0 0.350439 0.920607
0 0.350439 0.920607
0 0.350439 0.920607
0 0.350439 0.920607
0 0.350439 0.920607
0 0.350439 0.920607
0 0.35053 0.920607
0.964965 0.156878 0.925368
0.925887 0.771862 0.926879
0 0.350439 0.920607
0 0.350439 0.920607
0 0.350439 0.920607
0 0.350439 0.920607
0 0.350439 0.920607
0 0.350439 0.920607
0 0.35053 0.920607
0.964965 0.156878 0.925368
0.925887 0.771862 0.926879
0 0.350439 0.920607
0 0.350439 0.920607
0 0.350439 0.920607
0 0.350439 0.920607
0 0.350439 0.920607
0 0.350439 0.920607
0 0.35053 0.920607
0.964965 0.156878 0.925368
0.925887 0.771862 0.926879
0 0.350439 0.920607
0 0.350439 0.920607
0 0.350439 0.920607
0 0.350439 0.920607
0 0.350439 0.920607
0 0.350439 0.920607
0 0.35053 0.920607
0.964965 0.156878 0.925368
0.925887 0.771862 0.926879
0 0.350439 0.920607
0 0.350439 0.920607
0 0.350439 0.920607
0 0.350439 0.920607
0 0.350439 0.920607
0 0.350439 0.920607
0 0.35053 0.920607
0.964965 0.156878 0.925368
0.925887 0.771862 0.926879
0 0.350347 0.920607
0 0.350347 0.920607
0 0.350347 0.920607
0 0.350347 0.920607
0 0.350347 0.920607
0 0.350347 0.920607
0 0.350423 0.920607
0.964965 0.158038 0.925444
0.925719 0.77322 0.926772
0 0.349004 0.920623
0 0.349004 0.920623
0 0.349004 0.920623
0 0.349004 0.920623
0 0.349004 0.920623
0 0.349004 0.920623
0 0.349065 0.920623
0.962982 0.306142 0.934005
0.925383 0.775662 0.926589
0 1 0.940307
0 1 0.940307
0 1 0.940307
0 1 0.940307
0 1 0.940307
0 1 0.940307
0 1 0.940307
0.89453 1 0.917174
0.899107 1 0.917098
0.819165 1 0.916487
0.819165 1 0.916487
0.819165 1 0.916487
0.819165 1 0.916487
0.819165 1 0.916487
0.819165 1 0.916487
0.819165 1 0.916487
0.889647 1 0.916854
0.898451 1 0.917174
