BBLuts/BB_102_0570_LUT.cube
TITLE "Generated by Resolve"
LUT_3D_SIZE 9
0.00306706 0.0041352 0.00108339
0.00306706 0.0041352 0.00108339
0.211582 0.00271611 0
0.453285 0.00392157 0
0.756786 0.0068513 0
0.971237 0.00961318 0.00108339
0.932662 0.54107 0.103532
0.909773 0.86659 0.37966
0.899428 0.991714 0.686717
0 0.0658274 0.000579843
0 0.0770733 0.000640879
0.218875 0.0520485 0
0.463615 0.00393683 0
0.759136 0.00675975 0
0.971237 0.00961318 0.00108339
0.930159 0.574228 0.0919356
0.909361 0.871199 0.377432
0.899382 0.992325 0.686458
0 0.24242 7.62951e-05
0 0.24622 0.000228885
0.166705 0.243076 0
0.456519 0.219623 0
0.754726 0.11017 0
0.953307 0.237308 0
0.926436 0.618982 0.0692607
0.90898 0.878721 0.374304
0.899321 0.993317 0.68603
0 0.510887 4.57771e-05
0 0.512001 0.000137331
0 0.512596 0.000213626
0.384192 0.508431 0
0.731014 0.498451 0
0.929732 0.548684 0
0.917556 0.711482 0
0.907362 0.898085 0.364126
0.899123 0.996139 0.684749
0 0.814969 0
0 0.814878 0
0 0.814496 0
0 0.812146 0
0.655024 0.802747 0
0.880415 0.808545 0
0.906722 0.856672 0
0.904479 0.938338 0.367544
0.898192 1 0.68072
0 0.989654 0
0 0.988891 0
0 0.987655 0
0 0.983978 0
0.620615 0.973114 0
0.826535 0.96585 0
0.898573 0.96817 0
0.900725 0.990402 0.40737
0.897108 1 0.676295
0.512657 1 0.16878
0.529625 1 0.169741
0.554253 1 0.171099
0.612802 1 0.175479
0.711345 1 0.189044
0.818158 1 0.227695
0.890761 1 0.326223
0.896696 1 0.513054
0.895369 1 0.704479
0.783352 1 0.581338
0.784817 1 0.581506
0.787137 1 0.581765
0.794125 1 0.582589
0.810803 1 0.584772
0.842908 1 0.591608
0.881498 1 0.611399
0.89453 1 0.665141
0.893919 1 0.76231
0.861677 1 0.794278
0.86186 1 0.794293
0.862165 1 0.794308
0.863066 1 0.7944
0.865614 1 0.794644
0.871839 1 0.79559
0.883543 1 0.798657
0.894209 1 0.806806
0.894057 1 0.826856
0.0041352 0.0053254 0.0399786
0.0041352 0.0053254 0.0402075
0.213123 0.00418097 0.0387884
0.454856 0.00517281 0.0394446
0.757916 0.00825513 0.0435798
0.97293 0.0115816 0.0729076
0.93341 0.535302 0.165408
0.909865 0.86566 0.412772
0.899428 0.991562 0.693278
0.000869764 0.0402533 0.0324559
0.0483864 0.0527962 0.0302739
0.231205 0.00387579 0.031632
0.460136 0.00495918 0.0296788
0.758373 0.00755322 0.0185092
0.972503 0.0110628 0.0494087
0.931105 0.569863 0.154437
0.909483 0.870314 0.410849
0.899382 0.992172 0.693034
0 0.232883 0.000183108
0 0.236149 0.000167849
0.186496 0.23331 0
0.455283 0.209354 0
0.754696 0.0750591 0
0.954452 0.219623 0
0.927398 0.616236 0.134813
0.908995 0.877897 0.408194
0.899306 0.993149 0.692622
0 0.506462 4.57771e-05
0 0.507546 4.57771e-05
0 0.508003 4.57771e-05
0.395132 0.503487 0
0.730983 0.49427 0
0.929931 0.545495 0
0.918868 0.710781 0.0344091
0.907454 0.897444 0.399603
0.899107 0.996002 0.691402
0 0.813733 0
0 0.813642 0
0 0.813306 0
0 0.810849 0
0.657725 0.801511 0
0.880598 0.80763 0
0.906752 0.856184 0
0.904509 0.93814 0.375647
0.898177 1 0.687556
0 0.989395 0
0 0.988632 0
0 0.987396 0
0 0.983703 0
0.622446 0.972915 0
0.826886 0.965713 0
0.898604 0.968078 0
0.900725 0.990326 0.407156
0.897108 1 0.676921
0.515267 1 0.168582
0.532082 1 0.169574
0.556405 1 0.170916
0.614282 1 0.175296
0.712032 1 0.188891
0.818341 1 0.227588
0.890791 1 0.326207
0.896696 1 0.512993
0.895354 1 0.704433
0.783566 1 0.581308
0.785046 1 0.581476
0.78732 1 0.58175
0.794324 1 0.582559
0.810956 1 0.584756
0.842985 1 0.591577
0.881529 1 0.611368
0.89453 1 0.665125
0.893919 1 0.762295
0.861708 1 0.794278
0.861891 1 0.794293
0.862196 1 0.794324
0.863081 1 0.794385
0.865629 1 0.794644
0.871855 1 0.79559
0.883543 1 0.798672
0.894209 1 0.806806
0.894057 1 0.826856
0.00575265 0.00724804 0.163455
0.00575265 0.00724804 0.163684
0.191287 0.0059205 0.16112
0.467567 0.00714122 0.157641
0.759167 0.0100404 0.164034
0.973877 0.0129244 0.191989
0.935042 0.523384 0.259892
0.909712 0.863737 0.457206
0.899397 0.991287 0.703334
0.00572213 0.00720226 0.159655
0.00572213 0.00721752 0.15996
0.21944 0.00579843 0.157031
0.465995 0.00708019 0.15407
0.761456 0.0100252 0.159884
0.973938 0.0129549 0.185473
0.932372 0.559853 0.253178
0.909483 0.868757 0.455741
0.899351 0.991913 0.703105
0 0.207446 0.146731
0 0.209674 0.146319
0.17937 0.20116 0.140002
0.445457 0.183093 0.142107
0.759991 0.00985733 0.148928
0.961913 0.162615 0.170367
0.928435 0.608347 0.241917
0.908782 0.876265 0.453132
0.89929 0.992905 0.702724
0 0.495384 0.0696727
0 0.496712 0.0705577
0 0.497383 0.0716716
0.397726 0.492363 0.0704509
0.728923 0.483742 0.0760662
0.93286 0.537102 0.104295
0.921141 0.707759 0.207126
0.907546 0.8963 0.446494
0.899077 0.995758 0.701579
0 0.811337 0
0 0.811231 0
0 0.810834 0
0 0.808148 0
0.660136 0.798947 0
0.880613 0.805493 0
0.908782 0.856947 0.0713054
0.904356 0.937331 0.427253
0.898146 1 0.697993
0 0.988952 0
0 0.98822 0
0 0.98703 0
0 0.983276 0
0.62533 0.972595 0
0.82742 0.965469 0
0.898634 0.967926 0
0.90071 0.99025 0.406821
0.897063 1 0.688212
0.519524 1 0.168276
0.536004 1 0.169284
0.559853 1 0.170626
0.616663 1 0.175021
0.713146 1 0.188647
0.818662 1 0.227375
0.890867 1 0.326177
0.896696 1 0.512871
0.895369 1 0.704372
0.783932 1 0.581277
0.785412 1 0.581445
0.787594 1 0.581735
0.794629 1 0.582513
0.811185 1 0.58471
0.843107 1 0.591546
0.881559 1 0.611337
0.89453 1 0.665125
0.893919 1 0.76228
0.861753 1 0.794278
0.861936 1 0.794278
0.862242 1 0.794308
0.863127 1 0.794385
0.865675 1 0.794629
0.87187 1 0.795575
0.883558 1 0.798657
0.894209 1 0.806806
0.894057 1 0.826856
0.00640879 0.00854505 0.381811
0.00640879 0.00856031 0.381964
0.00640879 0.00856031 0.38204
0.445075 0.00808728 0.377646
0.777569 0.0112917 0.381704
0.97409 0.0137942 0.401373
0.938354 0.478157 0.445991
0.909773 0.858381 0.551431
0.899351 0.990509 0.728786
0.00640879 0.00854505 0.379675
0.00640879 0.00854505 0.379873
0.0971389 0.00730907 0.378073
0.460304 0.00828565 0.375586
0.775586 0.0112612 0.379309
0.974151 0.0138399 0.398779
0.934966 0.523125 0.442527
0.909575 0.863569 0.550484
0.899306 0.991135 0.728588
0 0.0893873 0.375036
0 0.095491 0.375036
0.125154 0.0886091 0.372869
0.466407 0.00836194 0.371939
0.76968 0.0111086 0.37557
0.974227 0.013901 0.394064
0.9308 0.57995 0.43711
0.909041 0.871458 0.548791
0.899229 0.992142 0.728283
0 0.450996 0.349813
0 0.45272 0.350027
0 0.453834 0.350515
0.391516 0.448768 0.348135
0.717647 0.441215 0.352026
0.93695 0.498634 0.36878
0.92256 0.691615 0.421256
0.907317 0.892271 0.544137
0.898985 0.99501 0.727291
0 0.803983 0.267613
0 0.803952 0.268284
0 0.803662 0.269306
0 0.801205 0.272251
0.66009 0.792187 0.2766
0.882139 0.800641 0.304784
0.910613 0.853529 0.380362
0.90425 0.934615 0.532052
0.898085 1 0.724163
0 0.987778 0
0 0.987076 0
0 0.985946 0
0 0.982025 0
0.625284 0.971374 0
0.829343 0.967315 0.13814
0.901839 0.971038 0.300481
0.900404 0.989441 0.503838
0.896986 1 0.716487
0.531807 1 0.167468
0.547021 1 0.168231
0.569589 1 0.169863
0.623392 1 0.174105
0.716258 1 0.187961
0.819593 1 0.22678
0.891081 1 0.326085
0.896712 1 0.512535
0.895369 1 0.704189
0.785031 1 0.581155
0.78648 1 0.581308
0.788586 1 0.581628
0.795438 1 0.582422
0.811826 1 0.584619
0.843488 1 0.59144
0.881682 1 0.611231
0.89453 1 0.665095
0.893904 1 0.762234
0.861891 1 0.794263
0.862074 1 0.794278
0.862364 1 0.794293
0.863264 1 0.794385
0.865782 1 0.794629
0.871977 1 0.79556
0.883604 1 0.798642
0.894209 1 0.80679
0.894057 1 0.826856
0.0055848 0.00857557 0.671397
0.0055848 0.00857557 0.671473
0.0055848 0.00857557 0.671611
0.290272 0.00747692 0.667933
0.764157 0.0111849 0.665461
0.97319 0.0137026 0.670268
0.956588 0.22623 0.682628
0.910338 0.83917 0.7084
0.899123 0.98822 0.779263
0.00560006 0.00857557 0.670741
0.0055848 0.00857557 0.670817
0.0055848 0.00857557 0.670954
0.318212 0.00753796 0.666987
0.769619 0.0112459 0.66479
0.97319 0.0137026 0.669566
0.947707 0.342367 0.679789
0.910048 0.845594 0.707866
0.899184 0.988846 0.779263
0.0055848 0.00859083 0.669642
0.0055848 0.00857557 0.669734
0.0055848 0.00857557 0.669886
0.355383 0.00766003 0.665553
0.772763 0.0113375 0.663676
0.97319 0.0137026 0.66836
0.939406 0.451987 0.676219
0.90927 0.854963 0.706767
0.899107 0.989822 0.77908
0 0.271199 0.661189
0 0.274159 0.661265
0 0.278187 0.661234
0.340566 0.266865 0.65658
0.760037 0.15819 0.656687
0.952514 0.276722 0.658686
0.926207 0.628977 0.66775
0.907668 0.879026 0.703853
0.898695 0.992691 0.778241
0 0.763394 0.628397
0 0.763714 0.628489
0 0.76379 0.628626
0 0.762142 0.628992
0.647059 0.753353 0.625788
0.875639 0.767758 0.631174
0.911086 0.832898 0.648692
0.904128 0.927214 0.696773
0.897948 1 0.776196
0 0.98822 0.585565
0 0.987457 0.585733
0 0.98616 0.586007
0 0.982452 0.586847
0.601297 0.971405 0.584894
0.820706 0.963851 0.595285
0.901518 0.967147 0.623026
0.899916 0.986404 0.682292
0.896574 1 0.770977
0.521828 1 0.500084
0.537789 1 0.500496
0.56083 1 0.500862
0.61593 1 0.50251
0.710262 1 0.507073
0.814176 1 0.521553
0.885725 1 0.562005
0.896193 1 0.648692
0.895094 1 0.758343
0.788098 1 0.580835
0.789487 1 0.581003
0.792081 1 0.581247
0.798077 1 0.581933
0.813916 1 0.584283
0.84448 1 0.591119
0.882063 1 0.610925
0.89453 1 0.665034
0.893904 1 0.762097
0.862318 1 0.794232
0.862486 1 0.794232
0.862791 1 0.794263
0.863645 1 0.794339
0.866148 1 0.794583
0.872236 1 0.795529
0.883711 1 0.798611
0.894209 1 0.806745
0.894057 1 0.826856
0.00445563 0.00801099 0.866575
0.00445563 0.00801099 0.86659
0.00445563 0.00801099 0.866621
0.00445563 0.00801099 0.866667
0.659556 0.00944533 0.858351
0.972244 0.0131685 0.855436
0.972213 0.0131533 0.856428
0.916014 0.751461 0.839521
0.89926 0.980865 0.843442
0.00445563 0.00799573 0.866499
0.00445563 0.00799573 0.866514
0.00445563 0.00799573 0.866529
0.00445563 0.00801099 0.866575
0.666987 0.00956741 0.858228
0.972244 0.0131685 0.855344
0.972213 0.0131533 0.856336
0.915343 0.763714 0.838804
0.899229 0.981643 0.843381
0.00447089 0.00801099 0.866361
0.00447089 0.00801099 0.866377
0.00447089 0.00801099 0.866392
0.00447089 0.00801099 0.866438
0.678859 0.00973526 0.858045
0.972244 0.0131685 0.855192
0.972213 0.0131533 0.856199
0.913832 0.781765 0.837446
0.899153 0.982895 0.843244
0.00447089 0.00801099 0.865934
0.00447089 0.00801099 0.86595
0.00447089 0.00801099 0.865965
0.00448615 0.00802625 0.865614
0.704372 0.00993362 0.857389
0.972259 0.0131838 0.854734
0.972274 0.0131991 0.854078
0.910414 0.825498 0.834394
0.898665 0.986252 0.842557
0 0.57113 0.848356
0 0.572503 0.84831
0 0.574701 0.848219
0 0.577829 0.847425
0.640681 0.566171 0.840208
0.924987 0.588571 0.837339
0.917708 0.73106 0.832013
0.905318 0.899809 0.828672
0.897993 0.995331 0.841413
0 0.973312 0.816785
0 0.972824 0.816739
0 0.971893 0.816678
0 0.968414 0.816663
0.527642 0.955917 0.811017
0.808164 0.947433 0.811399
0.897642 0.953872 0.813733
0.899413 0.977874 0.820523
0.896406 1 0.838453
0.375219 1 0.793667
0.41236 1 0.793622
0.458503 1 0.7935
0.546548 1 0.793545
0.67274 1 0.793927
0.795346 1 0.795377
0.87425 1 0.800519
0.895415 1 0.811124
0.894636 1 0.833173
0.777981 1 0.758251
0.779202 1 0.758358
0.781353 1 0.758328
0.787549 1 0.758541
0.804257 1 0.759503
0.835538 1 0.762005
0.874174 1 0.769223
0.893812 1 0.787488
0.894102 1 0.821653
0.863569 1 0.79411
0.863722 1 0.794125
0.863996 1 0.794156
0.864836 1 0.794217
0.867063 1 0.794522
0.87306 1 0.795377
0.884138 1 0.798077
0.894209 1 0.806622
0.894057 1 0.826825
0.00419623 0.00788891 0.923888
0.00419623 0.00788891 0.923888
0.00419623 0.00788891 0.923888
0.00419623 0.00788891 0.923888
0.00419623 0.00788891 0.923888
0.954208 0.0124819 0.923095
0.97171 0.0128023 0.923323
0.97171 0.0128023 0.923323
0.900969 0.949935 0.894896
0.00419623 0.00788891 0.923888
0.00419623 0.00788891 0.923888
0.00419623 0.00788891 0.923888
0.00419623 0.00788891 0.923888
0.00419623 0.00788891 0.923888
0.955505 0.0124971 0.92311
0.97171 0.0128023 0.923323
0.97171 0.0128023 0.923323
0.900862 0.9514 0.894774
0.00419623 0.00788891 0.923888
0.00419623 0.00788891 0.923888
0.00419623 0.00788891 0.923888
0.00419623 0.00788891 0.923888
0.00419623 0.00788891 0.923888
0.957565 0.0125582 0.923156
0.97171 0.0128023 0.923323
0.97171 0.0128023 0.923323
0.900694 0.953704 0.894591
0.00419623 0.00788891 0.923888
0.00419623 0.00788891 0.923888
0.00419623 0.00788891 0.923888
0.00419623 0.00788891 0.923888
0.00419623 0.00788891 0.923888
0.963821 0.0126802 0.923247
0.97171 0.0128023 0.923323
0.97171 0.0128023 0.923323
0.900145 0.959854 0.893996
0.00419623 0.00788891 0.923888
0.00419623 0.00788891 0.923888
0.00419623 0.00788891 0.923888
0.00419623 0.00788891 0.923888
0.368994 0.00683604 0.920897
0.97171 0.0128023 0.923323
0.97171 0.0128023 0.923323
0.924361 0.631266 0.910674
0.899153 0.975494 0.892775
0 0.864378 0.906493
0 0.864683 0.906477
0 0.865202 0.906447
0 0.866758 0.906325
0 0.861143 0.904967
0.819257 0.850187 0.897993
0.906355 0.877073 0.895491
0.901686 0.941726 0.891737
0.896773 1 0.890013
0 1 0.888563
0 1 0.888487
0 1 0.888365
0 1 0.888243
0.571542 1 0.882445
0.77319 1 0.882567
0.868681 1 0.88304
0.895338 1 0.883833
0.89453 1 0.886702
0.74815 1 0.87602
0.750057 1 0.87602
0.752987 1 0.876036
0.761257 1 0.876127
0.782116 1 0.876051
0.821195 1 0.876249
0.865431 1 0.876875
0.893706 1 0.879286
0.893675 1 0.883604
0.858686 1 0.862394
0.858854 1 0.862409
0.859129 1 0.862409
0.859968 1 0.862455
0.862409 1 0.862547
0.86836 1 0.862943
0.880583 1 0.864424
0.893736 1 0.867124
0.893721 1 0.874372
0 0.0741131 0.923156
0 0.0741131 0.923156
0 0.0741131 0.923156
0 0.0741283 0.923156
0 0.0742046 0.923156
0 0.0744182 0.923156
0.97171 0.0128023 0.923323
0.97171 0.0128023 0.923323
0.920745 0.678401 0.915358
0 0.0740673 0.923156
0 0.0740673 0.923156
0 0.0740826 0.923156
0 0.0741131 0.923156
0 0.0741894 0.923156
0 0.0743877 0.923156
0.97171 0.0128023 0.923323
0.97171 0.0128023 0.923323
0.920745 0.67837 0.915358
0 0.0740063 0.923156
0 0.0740063 0.923156
0 0.0740215 0.923156
0 0.074052 0.923156
0 0.0741131 0.923156
0 0.0743267 0.923156
0.97171 0.0128023 0.923323
0.97171 0.0128023 0.923323
0.920745 0.678325 0.915358
0 0.0738537 0.923156
0 0.0738231 0.923156
0 0.0738537 0.923156
0 0.0738689 0.923156
0 0.0739452 0.923156
0.000946059 0.0408789 0.923537
0.97171 0.0128023 0.923323
0.97171 0.0128023 0.923323
0.92076 0.678172 0.915358
0 0.0732738 0.923171
0 0.0732738 0.923171
0 0.0733043 0.923156
0 0.0733196 0.923156
0 0.0733806 0.923171
0.402884 0.00701915 0.920882
0.97171 0.0128023 0.923323
0.97171 0.0128023 0.923323
0.920836 0.67776 0.915404
0 0.0715343 0.923171
0 0.0715343 0.923171
0 0.0715343 0.923171
0 0.0715496 0.923171
0 0.0716411 0.923171
0.77969 0.0104372 0.921996
0.97171 0.0128023 0.923323
0.966323 0.0772564 0.922255
0.90428 0.903502 0.91371
0 1 0.916243
0 1 0.916243
0 1 0.916243
0 1 0.916259
0 1 0.916259
0.665599 0.989471 0.9122
0.873945 0.983871 0.912902
0.897581 0.994476 0.912871
0.89543 1 0.912352
0.590066 1 0.910719
0.598184 1 0.91075
0.610315 1 0.910842
0.641917 1 0.910765
0.706371 1 0.910613
0.789212 1 0.910597
0.85658 1 0.910521
0.892378 1 0.911223
0.893507 1 0.911467
0.847898 1 0.908034
0.848142 1 0.908019
0.848508 1 0.908034
0.849653 1 0.908034
0.852659 1 0.908095
0.860945 1 0.90866
0.875196 1 0.908705
0.890471 1 0.908904
0.893477 1 0.909499
0 0.332082 0.92105
0 0.332082 0.92105
0 0.332082 0.92105
0 0.332113 0.92105
0 0.332113 0.92105
0 0.332174 0.921035
0 0.33228 0.921035
0.94754 0.319966 0.919081
0.917174 0.72607 0.915099
0 0.332082 0.92105
0 0.332082 0.92105
0 0.332082 0.92105
0 0.332082 0.92105
0 0.332113 0.92105
0 0.332143 0.92105
0 0.33228 0.921035
0.947524 0.320287 0.919066
0.917159 0.726131 0.915099
0 0.332067 0.92105
0 0.332067 0.92105
0 0.332067 0.92105
0 0.332082 0.92105
0 0.332082 0.92105
0 0.332143 0.92105
0 0.332265 0.92105
0.947494 0.320775 0.919066
0.917159 0.726192 0.915099
0 0.332052 0.92105
0 0.332052 0.92105
0 0.332052 0.92105
0 0.332052 0.92105
0 0.332067 0.92105
0 0.332113 0.92105
0 0.332219 0.92105
0.947402 0.322255 0.919036
0.917144 0.726452 0.915084
0 0.33193 0.921035
0 0.33193 0.921035
0 0.33193 0.921035
0 0.33193 0.921035
0 0.331945 0.92105
0 0.331991 0.92105
0.379599 0.307774 0.917403
0.947219 0.326757 0.919066
0.917082 0.727169 0.915084
0 0.331609 0.92105
0 0.331609 0.92105
0 0.331609 0.92105
0 0.331624 0.92105
0 0.331624 0.92105
0 0.331655 0.92105
0.795773 0.107347 0.920607
0.946242 0.339818 0.918929
0.917006 0.728252 0.915084
0 0.330587 0.92105
0 0.330587 0.92105
0 0.330587 0.92105
0 0.330617 0.92105
0 0.330617 0.92105
0 0.330648 0.92105
0.97171 0.0128023 0.923323
0.944259 0.365026 0.918624
0.917037 0.730205 0.915251
0 1 0.915984
0 1 0.915984
0 1 0.915984
0 1 0.915984
0 1 0.915984
0 1 0.915984
0.81706 1 0.911665
0.89395 1 0.912047
0.893782 1 0.912093
0.796353 1 0.911604
0.797177 1 0.911604
0.798489 1 0.91162
0.802106 1 0.911681
0.811795 1 0.911528
0.833204 1 0.911742
0.863783 1 0.912322
0.887694 1 0.912459
0.893446 1 0.912505
