BBLuts/BB_104_0260_LUT.cube
TITLE "Generated by Resolve"
LUT_3D_SIZE 33
0 0 0
0 0 0
0 0 0
0 0 0
0 0 0
0.0487678 0 0
0.104921 0 0
0.145815 0 0
0.187594 0 0
0.238651 0 0
0.300694 0 0
0.371221 0 0
0.453117 0 0
0.546441 0 0
0.646601 0 0
0.72134 0 0
0.774502 0 0
0.825299 0 0
0.869841 0 0
0.905013 0 0
0.911742 0 0
0.911742 0 0
0.940307 0.139849 0.0255436
0.957687 0.359396 0.071809
0.962707 0.520836 0.106462
0.965301 0.64802 0.147097
0.965454 0.719692 0.200763
0.965362 0.769375 0.287404
0.965164 0.804852 0.395865
0.964889 0.830732 0.507607
0.964355 0.849744 0.598886
0.963806 0.863996 0.655253
0.9635 0.875532 0.699153
0 0 0
0 0 0
0 0 0
0 0 0
0 0 0
0.0601053 0 0
0.108827 0 0
0.149065 0 0
0.192828 0 0
0.245029 0 0
0.307378 0 0
0.377188 0 0
0.456825 0 0
0.548913 0 0
0.64831 0 0
0.721965 0 0
0.774899 0 0
0.825467 0 0
0.869795 0 0
0.904784 0 0
0.911742 0 0
0.911742 0 0
0.944244 0.179294 0.0187839
0.958129 0.377188 0.0674449
0.962905 0.532128 0.103914
0.965286 0.653529 0.145388
0.965393 0.722103 0.198779
0.965331 0.770748 0.286244
0.965164 0.8056 0.395193
0.964889 0.831159 0.507225
0.96437 0.849973 0.598718
0.963806 0.864149 0.655192
0.9635 0.875624 0.699107
0 0 0
0 0 0
0 0 0
0 0 0
0 0 0
0.0668345 0 0
0.110185 0 0
0.152163 0 0
0.198322 0 0
0.25098 0 0
0.312459 0 0
0.380392 0 0
0.459892 0 0
0.551568 0 0
0.650034 0 0
0.722576 0 0
0.775311 0 0
0.82565 0 0
0.869718 0 0
0.90454 0 0
0.911742 0 0
0.911742 0 0
0.94638 0.211414 0.002533
0.95848 0.394034 0.0625772
0.963073 0.543267 0.101274
0.965255 0.658808 0.143679
0.965331 0.724468 0.196872
0.965316 0.772091 0.285069
0.965179 0.806332 0.394568
0.964889 0.831601 0.506859
0.96437 0.850217 0.59855
0.963806 0.864286 0.655116
0.9635 0.8757 0.699062
0 0 0
0 0 0
0 0 0
0.000244144 0.00418097 0.000335698
0.0245212 0.00772107 0
0.0719921 0 0
0.110811 0 0
0.152438 0 0
0.199252 0 0
0.253391 0 0
0.31577 0 0
0.383307 0 0
0.462882 0 0
0.554284 0 0
0.651774 0 0
0.723217 0 0
0.775708 0 0
0.825803 0 0
0.869627 0 0
0.90428 0 0
0.911742 0 0
0.911742 0 0
0.949096 0.24097 0.00456245
0.958755 0.41004 0.057023
0.963211 0.55404 0.0985275
0.965209 0.663859 0.141955
0.965286 0.726772 0.195895
0.965301 0.773404 0.283925
0.965179 0.80705 0.393912
0.964889 0.832029 0.506477
0.96437 0.850446 0.598383
0.963821 0.864439 0.655039
0.9635 0.875792 0.699016
0.00395209 0.0454108 0.00247196
0.0041352 0.0480507 0.00256352
0.00430304 0.0505989 0.00263981
0.00447089 0.0530556 0.00271611
0.00453193 0.0540169 0.00274662
0.0693828 0.0517281 0.000900282
0.111711 0.0488746 1.5259e-05
0.15494 0.0431678 0
0.202853 0.0308843 0
0.254459 0 0
0.317693 0 0
0.385946 0 0
0.465766 0 0
0.557046 0 0
0.653544 0 0
0.723873 0 0
0.776104 0 0
0.82594 0 0
0.869535 0 0
0.904005 0 0
0.911742 0 0
0.92137 0.0127413 0
0.950988 0.267567 0.00595102
0.958938 0.425269 0.0505531
0.963333 0.564263 0.0956741
0.965179 0.668727 0.14023
0.96524 0.729015 0.194934
0.965301 0.774716 0.282795
0.965179 0.807767 0.39324
0.964889 0.832441 0.506096
0.96437 0.850675 0.598215
0.963821 0.864576 0.654963
0.9635 0.875868 0.698985
0.00573739 0.0746929 0.00331121
0.00585946 0.0768444 0.00335698
0.00596628 0.0789349 0.00340276
0.00604257 0.0806134 0.00343328
0.00608835 0.0814069 0.00344854
0.0519722 0.0802167 0.002121
0.106279 0.0784924 0.00108339
0.152895 0.0756695 0.000244144
0.203601 0.0702678 0
0.261753 0.0600748 0
0.325216 0.0409247 0
0.388296 0 0
0.468681 0 0
0.560006 0 0
0.655436 0 0
0.72459 0 0
0.776501 0 0
0.826093 0 0
0.869444 0 0
0.903716 0 0
0.911742 0 0
0.934554 0.103609 0
0.952529 0.292622 0.0068513
0.95903 0.44036 0.0421912
0.963409 0.574273 0.092607
0.965133 0.673594 0.138415
0.965194 0.731304 0.193957
0.965286 0.776028 0.281605
0.965179 0.808499 0.392584
0.964904 0.832868 0.50573
0.96437 0.850919 0.598032
0.963821 0.864729 0.654887
0.9635 0.875975 0.69894
0.00712596 0.106111 0.00383001
0.007187 0.107927 0.00384527
0.00724804 0.109728 0.00387579
0.00729381 0.11075 0.00387579
0.00730907 0.111391 0.00389105
0.00730907 0.111635 0.00389105
0.0922866 0.109743 0.00195315
0.146685 0.108019 0.00114443
0.201083 0.104768 0.000259403
0.26247 0.0986191 0
0.328847 0.0877241 0
0.400839 0.070634 0
0.480797 0.0401465 0
0.563806 0 0
0.657847 0 0
0.725521 0 0
0.777035 0 0
0.826276 0 0
0.869291 0 0
0.903304 0 0
0.911742 0 0
0.941741 0.164172 0
0.954009 0.321874 0.00761425
0.958801 0.458244 0.0244297
0.963485 0.586023 0.0884871
0.965072 0.679576 0.136095
0.965133 0.734188 0.192721
0.96527 0.777707 0.280095
0.965179 0.809445 0.391714
0.964904 0.833417 0.505211
0.964385 0.85124 0.597818
0.963821 0.864927 0.65478
0.9635 0.876081 0.698878
0.00802625 0.142535 0.0039826
0.0080415 0.144152 0.0039826
0.00805676 0.145373 0.00396735
0.00807202 0.146181 0.00396735
0.00805676 0.146746 0.00396735
0.00807202 0.147066 0.00396735
0.0408637 0.146441 0.00309758
0.13193 0.145052 0.00180056
0.193622 0.14313 0.00106813
0.25861 0.138689 1.5259e-05
0.328756 0.130663 0
0.40589 0.119066 0
0.490944 0.10248 0
0.583398 0.0764935 0
0.669917 0.0251316 0
0.726833 0 0
0.777752 0 0
0.82652 0 0
0.869093 0 0
0.902754 0 0
0.928298 0.0576181 0
0.947631 0.222843 0.00337224
0.955322 0.356497 0.00808728
0.958526 0.480247 0.0080415
0.963516 0.600351 0.0826886
0.964965 0.686442 0.133013
0.965072 0.737865 0.19115
0.96524 0.779858 0.278111
0.965179 0.810651 0.390585
0.964904 0.83415 0.504555
0.964385 0.851637 0.597528
0.963821 0.865171 0.654643
0.9635 0.876234 0.698802
0.00793469 0.186419 0.0034638
0.00790417 0.187701 0.00344854
0.00788891 0.188418 0.00343328
0.00787366 0.189151 0.00340276
0.00787366 0.189654 0.00340276
0.0078584 0.190005 0.0033875
0.0078584 0.190219 0.0033875
0.0932021 0.189258 0.00199893
0.175631 0.187503 0.00141909
0.247364 0.184146 0.000732433
0.323461 0.178408 0
0.406851 0.169726 0
0.498177 0.15761 0
0.596017 0.14107 0
0.684962 0.119005 0
0.744762 0.0892653 0
0.791547 0.0459144 0
0.826856 0 0
0.868772 0 0
0.919295 0.06421 0
0.942748 0.173739 0
0.952071 0.284581 0.00660716
0.956527 0.397223 0.00823987
0.959182 0.508751 0.00794995
0.963455 0.617472 0.0742657
0.964797 0.693339 0.128939
0.964996 0.742519 0.189151
0.965225 0.782589 0.275532
0.965194 0.812222 0.38909
0.96492 0.835081 0.503685
0.964385 0.852171 0.597131
0.963821 0.865507 0.654459
0.9635 0.876432 0.698695
0.00610361 0.238209 0.00195315
0.00608835 0.238621 0.0019379
0.00605783 0.239033 0.00192264
0.00604257 0.239353 0.00190738
0.00604257 0.239567 0.00190738
0.00604257 0.239628 0.00190738
0.00604257 0.239521 0.00190738
0.00605783 0.239155 0.00192264
0.136675 0.238392 0.000869764
0.225803 0.236988 0.000732433
0.310384 0.233341 9.15541e-05
0.401373 0.226917 0
0.500694 0.217548 0
0.605829 0.205188 0
0.696071 0.191257 0
0.754986 0.175723 0
0.80528 0.160418 0
0.853208 0.148974 0
0.896254 0.156146 0
0.933745 0.196384 0.000717174
0.950744 0.263874 0.00578317
0.955093 0.349599 0.00802625
0.957702 0.444694 0.00816358
0.95996 0.543954 0.00781262
0.963226 0.637369 0.0612192
0.964569 0.701579 0.123537
0.964904 0.748333 0.186694
0.965194 0.786038 0.27219
0.965194 0.814237 0.387137
0.964935 0.836271 0.502541
0.964401 0.852857 0.596613
0.963836 0.865934 0.654231
0.963516 0.876692 0.698573
0.00300603 0.296696 0
0.00299077 0.297124 0
0.00296025 0.297566 0
0.00294499 0.297871 0
0.00292973 0.298116 0
0.00291447 0.298253 0
0.00291447 0.298314 0
0.00292973 0.298207 0
0.00294499 0.297749 0
0.184405 0.299001 0
0.285069 0.297826 0
0.386221 0.293858 0
0.495537 0.287098 0
0.610437 0.278447 0
0.70457 0.268956 0
0.763165 0.260044 0
0.814099 0.253925 0
0.86247 0.253193 0
0.904799 0.265827 0.00299077
0.93959 0.299306 0.00640879
0.955169 0.351644 0.0080415
0.957092 0.419074 0.00822461
0.958923 0.497917 0.00798047
0.960647 0.584192 0.00741588
0.962493 0.65948 0.0356909
0.964279 0.712642 0.116274
0.964797 0.755474 0.183688
0.965164 0.790295 0.267857
0.965209 0.816785 0.384588
0.96495 0.837812 0.50103
0.964416 0.853758 0.595941
0.963836 0.866484 0.653925
0.963516 0.877028 0.698405
0 0.368765 0
0 0.369207 0
0 0.369619 0
0 0.36994 0
0 0.370199 0
0 0.370382 0
0 0.370535 0
0 0.370596 0
0 0.370443 0
0.054078 0.370718 0
0.23714 0.374609 0
0.356298 0.373587 0
0.478614 0.369863 0
0.604974 0.364599 0
0.707118 0.358282 0
0.768444 0.353002 0
0.820081 0.351553 0
0.86772 0.356023 0.00257877
0.908293 0.370718 0.0053254
0.94081 0.398825 0.00730907
0.957595 0.439933 0.00817884
0.958816 0.492927 0.00799573
0.96025 0.559045 0.00770581
0.961074 0.62501 0.00671397
0.961196 0.682933 0.00517281
0.963912 0.725872 0.106798
0.964706 0.76405 0.180148
0.965164 0.795453 0.266987
0.965225 0.819974 0.381277
0.964965 0.83975 0.499046
0.964431 0.854902 0.595026
0.963851 0.867216 0.653529
0.963516 0.877455 0.698177
0 0.457801 0
0 0.458213 0
0 0.458564 0
0 0.458854 0
0 0.459083 0
0 0.459297 0
0 0.45948 0
0 0.459632 0
0 0.459785 0
0 0.459892 0
0.119905 0.463783 0
0.301564 0.468482 0
0.445457 0.467628 0
0.585046 0.464561 0
0.700771 0.460426 0
0.768643 0.456764 0
0.822461 0.456275 0
0.869764 0.461204 0.0021973
0.908782 0.474098 0.00483711
0.939941 0.496834 0.00679026
0.959655 0.529351 0.00788891
0.960464 0.572183 0.00756847
0.961028 0.618738 0.00683604
0.961227 0.665721 0.00569161
0.961013 0.70338 0.00445563
0.963531 0.741009 0.094728
0.964614 0.774075 0.176196
0.965164 0.801572 0.266346
0.965255 0.823911 0.376989
0.964996 0.842161 0.496422
0.964446 0.856367 0.593851
0.963851 0.868147 0.652995
0.963516 0.878019 0.697871
0 0.560647 0
0 0.560983 0
0 0.561273 0
0 0.561517 0
0 0.561746 0
0 0.561944 0
0 0.562142 0
0 0.562341 0
0 0.562478 0
0 0.562509 0
0 0.562341 0
0.194202 0.56965 0
0.390539 0.571923 0
0.550973 0.569696 0
0.684291 0.566537 0
0.76347 0.563333 0
0.821241 0.562783 0
0.870069 0.566857 0.00144961
0.908171 0.577127 0.00404364
0.937789 0.593683 0.00582895
0.960998 0.615839 0.00689708
0.961166 0.641993 0.00631724
0.961212 0.672343 0.00549325
0.961044 0.699016 0.00460822
0.9608 0.727169 0.00354009
0.963119 0.757733 0.0794537
0.964553 0.785397 0.172198
0.965179 0.808728 0.266072
0.965286 0.828641 0.372168
0.965026 0.845106 0.493034
0.964477 0.858198 0.592294
0.963867 0.869322 0.652293
0.963531 0.878752 0.697475
0 0.652033 0
0 0.652171 0
0 0.652308 0
0 0.652415 0
0 0.652491 0
0 0.652567 0
0 0.652644 0
0 0.652689 0
0 0.652705 0
0 0.652659 0
0 0.652445 0
0 0.651942 0
0.299763 0.657511 0
0.500496 0.656947 0
0.656077 0.655512 0
0.752422 0.653605 0
0.814893 0.652888 0
0.866209 0.654948 0
0.904662 0.660685 0.00228885
0.933242 0.67039 0.00399786
0.956191 0.683345 0.00497444
0.961089 0.695354 0.00474556
0.960922 0.711254 0.00415045
0.960769 0.730602 0.00341802
0.960708 0.751827 0.00271611
0.962692 0.775387 0.06009
0.964553 0.797665 0.168811
0.965225 0.816983 0.266438
0.965316 0.83415 0.373754
0.965057 0.848646 0.488624
0.964508 0.860487 0.590234
0.963882 0.870802 0.651377
0.963531 0.879667 0.696956
0 0.713146 0
0 0.713191 0
0 0.713222 0
0 0.713252 0
0 0.713268 0
0 0.713268 0
0 0.713283 0
0 0.713268 0
0 0.713222 0
0 0.713115 0
0 0.712917 0
0 0.71252 0
0.0938735 0.712322 0
0.428214 0.714885 0
0.614939 0.714183 0
0.737575 0.713054 0
0.803708 0.712245 0
0.857893 0.712947 0
0.897597 0.715602 0.000488289
0.926421 0.720394 0.00207523
0.948684 0.727489 0.00303655
0.960739 0.73666 0.00320439
0.960708 0.747814 0.00283818
0.960723 0.76112 0.00247196
0.960784 0.776089 0.00210575
0.962173 0.792981 0.0347906
0.964614 0.810498 0.167086
0.965301 0.826185 0.268025
0.965362 0.840421 0.376394
0.965118 0.852735 0.484199
0.964538 0.863264 0.587549
0.963912 0.872633 0.650156
0.963546 0.880812 0.696284
0.0065156 0.764202 0
0.0065156 0.764187 0
0.00650034 0.764172 0
0.00650034 0.764157 0
0.00650034 0.764141 0
0.00650034 0.764111 0
0.00648508 0.764065 0
0.00646983 0.764004 0
0.00643931 0.763882 0
0.00640879 0.763699 0
0.00631724 0.763394 0
0.00621042 0.762905 0
0.00602731 0.762127 0
0.330022 0.765103 0
0.562264 0.764218 0
0.713848 0.762707 0
0.790326 0.761028 0
0.846891 0.760555 0
0.888167 0.761532 0
0.918227 0.763928 0.000762951
0.940993 0.767819 0.00166323
0.957687 0.773434 0.00215152
0.96083 0.780316 0.00202945
0.960906 0.788769 0.00187686
0.961044 0.79852 0.00175479
0.961212 0.809293 0.00163272
0.964752 0.82385 0.167987
0.965393 0.836072 0.271702
0.965408 0.847303 0.380591
0.965133 0.857359 0.488045
0.964599 0.86659 0.584009
0.963943 0.874846 0.648585
0.963561 0.882231 0.695384
0.0179904 0.806851 0
0.0179751 0.806806 0
0.0179599 0.806745 0
0.0179446 0.806699 0
0.0179141 0.806622 0
0.0178988 0.806561 0
0.0178683 0.80647 0
0.0178225 0.806348 0
0.0177768 0.806149 0
0.0176852 0.805875 0
0.0175631 0.805447 0
0.01738 0.804822 0
0.0171206 0.803952 0
0.222461 0.805676 0
0.520119 0.805158 0
0.693004 0.802899 0
0.779385 0.800275 0
0.836774 0.798733 0
0.878828 0.798428 0
0.91014 0.7991 0.000350958
0.933776 0.800717 0.00108339
0.951019 0.803494 0.00154116
0.961181 0.807309 0.00166323
0.961257 0.812314 0.0016022
0.961364 0.818616 0.00155642
0.961975 0.82649 0.01149
0.96495 0.837201 0.173434
0.965499 0.846159 0.278676
0.965454 0.854505 0.387091
0.965148 0.862623 0.493462
0.964614 0.870375 0.583886
0.963973 0.87747 0.646525
0.963577 0.88397 0.694224
0.0278782 0.839063 0
0.027863 0.838987 0
0.0278325 0.838895 0
0.0278019 0.838819 0
0.0277867 0.838727 0
0.0277562 0.838621 0
0.0277104 0.838499 0
0.0276493 0.838315 0
0.0275731 0.838071 0
0.0274662 0.83772 0
0.0273136 0.837217 0
0.0271 0.836545 0
0.0268101 0.835615 0
0.169299 0.836255 0.000854505
0.506477 0.835813 0.00241093
0.68484 0.832944 0.000976577
0.773831 0.829725 0
0.83003 0.827543 0
0.871321 0.826505 0
0.902937 0.826215 0.000381476
0.927169 0.826612 0.0009308
0.945068 0.827817 0.00128176
0.959365 0.829892 0.00151064
0.961624 0.832776 0.00144961
0.961685 0.836667 0.00141909
0.963439 0.842954 0.0577096
0.965194 0.849805 0.185733
0.965606 0.855909 0.290364
0.965484 0.862043 0.396643
0.965148 0.86836 0.500938
0.964599 0.874571 0.588098
0.964019 0.880476 0.644709
0.963592 0.886061 0.692683
0.0354314 0.863859 0.00195315
0.0354009 0.863752 0.00195315
0.0353552 0.863645 0.0019379
0.0353399 0.863539 0.00192264
0.0352941 0.863432 0.00190738
0.0352636 0.86331 0.00190738
0.0352178 0.863157 0.00187686
0.0351568 0.862943 0.0018616
0.0350652 0.862638 0.00183108
0.0349432 0.862257 0.00180056
0.0347906 0.861738 0.00175479
0.0345922 0.861036 0.00167849
0.0343175 0.860121 0.00158694
0.250843 0.861326 0.00517281
0.527901 0.859159 0.0043946
0.692546 0.85594 0.00233463
0.773983 0.852491 0.000595102
0.826734 0.850034 0
0.866056 0.8486 1.5259e-05
0.896925 0.847791 0.000411994
0.92105 0.847486 0.000823987
0.939467 0.84773 0.00111391
0.954101 0.848508 0.00131228
0.961929 0.849897 0.00131228
0.961959 0.852003 0.00129702
0.96437 0.856901 0.0991989
0.965454 0.861204 0.206928
0.965682 0.865385 0.307866
0.965499 0.869764 0.409842
0.965133 0.874388 0.510964
0.964584 0.879088 0.593774
0.964004 0.883726 0.647532
0.963623 0.888472 0.690654
0.0404517 0.88188 0.00408942
0.0404059 0.881758 0.00407416
0.0403754 0.881636 0.0040589
0.0403449 0.881514 0.00404364
0.0403143 0.881392 0.00402838
0.0402838 0.88127 0.00401312
0.040238 0.881102 0.0039826
0.040177 0.880873 0.00396735
0.0401007 0.880583 0.00392157
0.0399939 0.880186 0.00389105
0.0398566 0.879667 0.00381476
0.0396735 0.878981 0.00373846
0.0394446 0.878096 0.00363165
0.390387 0.87892 0.00737011
0.586358 0.875807 0.00500496
0.716457 0.872496 0.00270085
0.780819 0.8692 0.000869764
0.827802 0.866789 0.000198367
0.863951 0.865232 0.000137331
0.893217 0.864195 0.000396735
0.91632 0.863539 0.000701915
0.934722 0.863264 0.000946059
0.949691 0.863355 0.00112917
0.961501 0.863935 0.00122072
0.962158 0.864958 0.00115969
0.965072 0.869123 0.144228
0.965667 0.871763 0.237781
0.965728 0.874418 0.332433
0.965484 0.877287 0.428275
0.965103 0.880446 0.523934
0.964538 0.883757 0.601267
0.963973 0.887312 0.651286
0.963623 0.891142 0.692439
0.0437934 0.895399 0.00560006
0.0437629 0.895277 0.00560006
0.0437476 0.895155 0.0055848
0.0437171 0.895033 0.00556954
0.0436866 0.894896 0.00555428
0.0436561 0.894774 0.00553903
0.0436103 0.894606 0.00552377
0.0435492 0.894392 0.00549325
0.0434882 0.894102 0.00546273
0.0434119 0.893721 0.00543221
0.0432898 0.893233 0.00537118
0.043122 0.892592 0.00529488
0.366247 0.893355 0.0087129
0.533715 0.89073 0.00656138
0.663722 0.887922 0.0043946
0.745327 0.88484 0.00225834
0.792935 0.882033 0.000762951
0.832471 0.879942 0.000213626
0.864637 0.878462 0.000122072
0.891478 0.877363 0.00030518
0.913024 0.8766 0.000549325
0.930785 0.876081 0.000762951
0.945632 0.875807 0.0009308
0.957366 0.875868 0.00102235
0.96466 0.878279 0.102739
0.96556 0.879774 0.195041
0.965805 0.881117 0.279042
0.965713 0.882582 0.36524
0.965438 0.884276 0.453025
0.965026 0.886259 0.540688
0.964462 0.888502 0.610925
0.963928 0.891081 0.656229
0.963607 0.894011 0.695369
0.0459907 0.905364 0.00660716
0.0459602 0.905257 0.0065919
0.0459449 0.905135 0.00657664
0.0459144 0.905013 0.00657664
0.0458991 0.904906 0.00656138
0.0458686 0.904784 0.00654612
0.0458228 0.904616 0.00653086
0.0457923 0.904418 0.0065156
0.0457313 0.904143 0.00648508
0.258183 0.905196 0.00952163
0.376776 0.904479 0.00935378
0.479622 0.902861 0.00798047
0.575448 0.900938 0.00631724
0.663981 0.898833 0.004654
0.730602 0.896452 0.00289921
0.772198 0.89398 0.00134279
0.808865 0.891859 0.000411994
0.840406 0.890196 7.62951e-05
0.868086 0.888869 3.0518e-05
0.891814 0.887831 0.000167849
0.91136 0.887022 0.000366217
0.928115 0.886397 0.000564584
0.942336 0.885924 0.000701915
0.95613 0.887587 0.0916457
0.965484 0.888212 0.176715
0.96582 0.888609 0.252628
0.96582 0.889052 0.328801
0.965621 0.889708 0.406043
0.965331 0.890608 0.485725
0.964889 0.891752 0.561334
0.964355 0.893156 0.620935
0.963882 0.894896 0.662608
0.963592 0.897002 0.699199
0.403876 0.913191 0.00944533
0.423468 0.912886 0.00917067
0.441825 0.912581 0.00889601
0.459098 0.912261 0.00860609
0.475425 0.911955 0.00833143
0.491569 0.91165 0.0080415
0.51107 0.911238 0.00769055
0.534569 0.91075 0.00723278
0.563226 0.910124 0.00669871
0.597696 0.909392 0.00608835
0.636606 0.908492 0.00535592
0.675364 0.907347 0.00444038
0.713512 0.905684 0.00340276
0.746395 0.904097 0.00228885
0.773312 0.902403 0.00123598
0.800732 0.900771 0.00047303
0.826703 0.899321 7.62951e-05
0.851286 0.898039 0
0.873991 0.896971 0
0.894072 0.89604 1.5259e-05
0.912902 0.896681 0.0550546
0.929061 0.896651 0.0998703
0.94284 0.896468 0.138445
0.95433 0.896345 0.190448
0.964096 0.896178 0.250965
0.96585 0.895918 0.315923
0.965698 0.895811 0.384253
0.965469 0.895918 0.453071
0.965148 0.896239 0.523919
0.964706 0.896757 0.58555
0.964218 0.897505 0.632044
0.963821 0.898558 0.670695
0.963577 0.899962 0.704082
0.69424 0.916152 0.168109
0.699397 0.915969 0.168093
0.704326 0.915785 0.168078
0.709056 0.915602 0.168078
0.713603 0.915419 0.168078
0.718135 0.915236 0.168078
0.72372 0.915022 0.168109
0.730663 0.914717 0.168154
0.73901 0.914351 0.168231
0.747143 0.913863 0.168368
0.755932 0.913268 0.168597
0.767483 0.912551 0.169024
0.780972 0.911727 0.169787
0.796231 0.910842 0.171038
0.812802 0.90988 0.173037
0.830335 0.90866 0.176089
0.848692 0.907698 0.180468
0.867155 0.906813 0.186587
0.884901 0.905974 0.194858
0.901137 0.905241 0.205753
0.916152 0.904555 0.219821
0.929946 0.903914 0.237705
0.942092 0.903349 0.260014
0.952514 0.902831 0.287526
0.961318 0.902342 0.33106
0.965698 0.901793 0.384863
0.965499 0.901366 0.443061
0.965255 0.901106 0.506065
0.964889 0.900969 0.562844
0.964477 0.901045 0.612116
0.96405 0.901335 0.646891
0.963729 0.901915 0.680598
0.963546 0.902831 0.71017
0.787717 0.914595 0.308751
0.789242 0.914565 0.308797
0.790753 0.914519 0.308858
0.792218 0.914488 0.308904
0.793667 0.914443 0.30898
0.795148 0.914412 0.309026
0.797024 0.914366 0.309133
0.799435 0.914305 0.309239
0.802518 0.914229 0.309422
0.806409 0.914137 0.309682
0.811261 0.914031 0.310048
0.817243 0.913924 0.310567
0.824567 0.913787 0.311299
0.83331 0.913664 0.312367
0.843671 0.913359 0.31426
0.855146 0.912749 0.316457
0.867643 0.912108 0.319509
0.880705 0.911452 0.323705
0.893751 0.910796 0.329335
0.906493 0.90988 0.336782
0.919051 0.909224 0.346471
0.930892 0.908568 0.358968
0.941527 0.907958 0.374929
0.951003 0.907378 0.394995
0.959228 0.906844 0.419242
0.965438 0.906249 0.458061
0.96524 0.905699 0.50779
0.964935 0.905196 0.555917
0.964584 0.90483 0.600336
0.964202 0.904646 0.633448
0.963882 0.904662 0.663874
0.963653 0.904952 0.692226
0.963531 0.905486 0.717479
0.837247 0.912932 0.436713
0.83801 0.912917 0.43679
0.838773 0.912917 0.436881
0.839536 0.912902 0.436957
0.840284 0.912902 0.437018
0.841062 0.912886 0.43711
0.842039 0.912871 0.437217
0.84332 0.912856 0.437354
0.844968 0.91284 0.437537
0.847105 0.912825 0.437797
0.849821 0.91281 0.438148
0.853239 0.912779 0.438605
0.857481 0.912749 0.439261
0.862669 0.912734 0.440146
0.868864 0.912703 0.441321
0.876066 0.912703 0.442939
0.884153 0.912703 0.445121
0.892897 0.912734 0.448035
0.902342 0.912764 0.451926
0.912322 0.91281 0.457069
0.922621 0.912535 0.464256
0.932433 0.911971 0.47332
0.941558 0.911421 0.485069
0.949996 0.910872 0.499825
0.957458 0.910063 0.517296
0.963989 0.909575 0.537667
0.964843 0.908949 0.56791
0.964553 0.908385 0.601907
0.964248 0.907927 0.629679
0.963943 0.907622 0.656458
0.963729 0.9075 0.68188
0.963577 0.907576 0.70515
0.9635 0.907851 0.725887
0.871046 0.911849 0.551186
0.871458 0.911849 0.551247
0.87187 0.911849 0.551308
0.872267 0.911849 0.551369
0.872663 0.911849 0.551415
0.873075 0.911849 0.551476
0.873594 0.911849 0.551568
0.874296 0.911849 0.551659
0.875196 0.911849 0.551812
