BBLuts/BB_103_0400_LUT.cube
TITLE "Generated by Resolve"
LUT_3D_SIZE 9
0 0 0
0 0 0
0.157595 0 0
0.433387 0 0
0.78909 0 0
1 0 0
0.99588 0.55613 0.0707866
0.96408 0.932265 0.375753
0.949172 1 0.741543
0 0.00822461 0
0 0.0190127 0
0.165957 0 0
0.445823 0 0
0.791653 0 0
1 0 0
0.992721 0.596262 0.059678
0.963714 0.937224 0.373129
0.949126 1 0.741268
0 0.180819 0
0 0.184695 0
0.112139 0.183185 0
0.446967 0.150256 0
0.793423 0.0208286 0
1 0.177081 0
0.9879 0.647623 0.0379034
0.963134 0.945235 0.368948
0.949065 1 0.74081
0 0.485573 0
0 0.486992 0
0 0.48777 0
0.360586 0.497078 0
0.781415 0.487312 0
0.990463 0.562905 0
0.974197 0.75903 0
0.96173 0.965133 0.356802
0.948898 1 0.739452
0 0.86128 0
0 0.861189 0
0 0.860731 0
0 0.857679 0
0.696178 0.857298 0
0.934035 0.869368 0
0.960983 0.921859 0
0.958801 1 0.360708
0.948425 1 0.735332
0 1 0
0 1 0
0 1 0
0 1 0
0.666331 1 0
0.88217 1 0
0.953811 1 0
0.954574 1 0.409522
0.947387 1 0.730541
0.542245 1 0.14168
0.562692 1 0.141482
0.592126 1 0.141421
0.660319 1 0.142748
0.768231 1 0.153903
0.875334 1 0.19559
0.945937 1 0.312032
0.949477 1 0.536767
0.94551 1 0.761166
0.836194 1 0.620432
0.837613 1 0.620615
0.839887 1 0.62089
0.846357 1 0.621775
0.862882 1 0.624491
0.894316 1 0.632746
0.932021 1 0.656306
0.944778 1 0.717769
0.943679 1 0.821775
0.911284 1 0.854047
0.911452 1 0.854078
0.911742 1 0.854109
0.912612 1 0.854215
0.915038 1 0.85452
0.921187 1 0.855451
0.932982 1 0.858213
0.943343 1 0.865705
0.943206 1 0.885542
0 0 0.00445563
0 0 0.00462348
0.159213 0 0.00135805
0.435309 0 0
0.790158 0 0
1 0 0.00856031
0.997848 0.550439 0.133059
0.963745 0.9308 0.416098
0.949096 1 0.74873
0 0 0
0 0 0
0.178088 0 0
0.441306 0 0
0.790616 0 0
1 0 0
0.994751 0.59202 0.121752
0.963363 0.935821 0.41387
0.94905 1 0.74847
0 0.170993 0
0 0.174258 0
0.132967 0.17293 0
0.445212 0.139254 0
0.791211 0 0
1 0.155917 0
0.990097 0.64538 0.101396
0.962753 0.943862 0.4103
0.948989 1 0.748043
0 0.480186 0
0 0.481514 0
0 0.482063 0
0.373968 0.490898 0
0.781323 0.482048 0
0.990723 0.559106 0
0.976349 0.758923 0.0052491
0.961334 0.963943 0.399863
0.948806 1 0.746746
0 0.859785 0
0 0.859648 0
0 0.859174 0
0 0.856062 0
0.699275 0.855879 0
0.934218 0.868391 0
0.961013 0.92134 0
0.958709 1 0.370535
0.948333 1 0.74284
0 1 0
0 1 0
0 1 0
0 1 0
0.668421 1 0
0.882506 1 0
0.953811 1 0
0.954574 1 0.409277
0.947372 1 0.731212
0.545403 1 0.141314
0.56553 1 0.141146
0.594598 1 0.1411
0.661952 1 0.142504
0.768933 1 0.153735
0.875517 1 0.195468
0.945968 1 0.312016
0.949477 1 0.53669
0.94551 1 0.76112
0.836423 1 0.620401
0.837842 1 0.620584
0.840085 1 0.620859
0.84654 1 0.621744
0.86302 1 0.62446
0.894392 1 0.632715
0.932052 1 0.656275
0.944778 1 0.717754
0.943679 1 0.821775
0.911315 1 0.854047
0.911482 1 0.854078
0.911772 1 0.854109
0.912627 1 0.8542
0.915053 1 0.85452
0.921187 1 0.855451
0.932982 1 0.858213
0.943343 1 0.865705
0.943206 1 0.885542
0 0 0.116899
0 0 0.117098
0.137316 0 0.113283
0.450767 0 0.0982528
0.792935 0 0.0878309
1 0 0.119402
1 0.536828 0.23859
0.963256 0.92842 0.469856
0.948974 1 0.759518
0 0 0.113161
0 0 0.113497
0.166125 0 0.108812
0.448966 0 0.094728
0.795331 0 0.0838636
1 0 0.11249
0.99707 0.581048 0.231128
0.96286 0.933501 0.467994
0.948943 1 0.759274
0 0.146365 0.0995956
0 0.148821 0.0992294
0.127062 0.141192 0.0935988
0.432761 0.114183 0.0888685
0.793759 0 0.073228
1 0.0933089 0.116396
0.992554 0.638056 0.218128
0.962234 0.94168 0.465034
0.948882 1 0.758877
0 0.468071 0.01561
0 0.469657 0.0163272
0 0.470451 0.0173648
0.379217 0.478874 0.0254673
0.78085 0.470985 0.0327916
0.996231 0.551293 0.0715496
0.980941 0.757549 0.175204
0.960739 0.96202 0.456519
0.948684 1 0.757687
0 0.856672 0
0 0.856535 0
0 0.856046 0
0 0.852903 0
0.702052 0.852949 0
0.934249 0.866102 0
0.963882 0.923033 0.0356603
0.957992 1 0.433616
0.948211 1 0.754101
0 1 0
0 1 0
0 1 0
0 1 0
0.671763 1 0
0.882994 1 0
0.953826 1 0
0.954589 1 0.408911
0.947219 1 0.743496
0.550469 1 0.140734
0.570138 1 0.140597
0.598566 1 0.140597
0.664607 1 0.142107
0.770047 1 0.15346
0.875822 1 0.195254
0.946044 1 0.311971
0.949477 1 0.536553
0.94551 1 0.761059
0.836759 1 0.620356
0.838178 1 0.620539
0.840421 1 0.620813
0.846845 1 0.621698
0.863249 1 0.624414
0.894514 1 0.63267
0.932082 1 0.656245
0.944778 1 0.717754
0.943679 1 0.821759
0.911345 1 0.854047
0.911528 1 0.854063
0.911818 1 0.854109
0.912657 1 0.8542
0.915099 1 0.854505
0.921218 1 0.855436
0.932998 1 0.858198
0.943343 1 0.865705
0.943206 1 0.885542
0 0 0.367453
0 0 0.36762
0 0 0.367712
0.421912 0 0.352041
0.812146 0 0.33933
1 0 0.367224
1 0.481865 0.465263
0.962036 0.921141 0.584024
0.94873 1 0.78645
0 0 0.364965
0 0 0.365194
0.0402838 0 0.36318
0.439643 0 0.348531
0.810101 0 0.336568
1 0 0.364034
1 0.536965 0.461265
0.961578 0.926497 0.582712
0.948699 1 0.786252
0 0.0277256 0.35993
0 0.0337072 0.360067
0.068925 0.0268559 0.357687
0.446983 0 0.343771
0.8038 0 0.332113
1 0 0.358053
0.995468 0.605844 0.454856
0.960906 0.93463 0.580636
0.948623 1 0.785931
0 0.418204 0.320806
0 0.42031 0.32108
0 0.421759 0.321798
0.374624 0.428855 0.330617
0.771054 0.421668 0.337377
1 0.507057 0.371038
0.982986 0.737957 0.432456
0.959197 0.956268 0.574777
0.94844 1 0.784985
0 0.852399 0.223957
0 0.852369 0.22472
0 0.852018 0.225879
0 0.849165 0.228992
0.704509 0.848295 0.245319
0.937865 0.862455 0.285084
0.965194 0.918715 0.376669
0.956176 0.998932 0.559838
0.947936 1 0.782162
0 1 0
0 1 0
0 1 0
0 1 0
0.671672 1 0
0.885939 1 0.0995804
0.957305 1 0.279713
0.952895 1 0.52459
0.946899 1 0.774014
0.565209 1 0.13901
0.583566 1 0.138964
0.610178 1 0.139101
0.672389 1 0.140917
0.773404 1 0.152636
0.876738 1 0.194629
0.946258 1 0.311864
0.949493 1 0.536126
0.94551 1 0.760876
0.837812 1 0.620218
0.839216 1 0.620386
0.841428 1 0.620676
0.847761 1 0.621561
0.863951 1 0.624277
0.894881 1 0.632532
0.932189 1 0.656123
0.944778 1 0.717723
0.943679 1 0.821683
0.911482 1 0.854032
0.911665 1 0.854047
0.91194 1 0.854078
0.912795 1 0.854185
0.915206 1 0.85449
0.921309 1 0.855436
0.933059 1 0.858198
0.943343 1 0.86569
0.943206 1 0.885542
0 0 0.71545
0 0 0.715541
0 0 0.715679
0.232181 0 0.709041
0.795026 0 0.687587
1 0 0.698222
1 0.170855 0.738979
0.961547 0.899565 0.766629
0.948409 1 0.838727
0 0 0.714733
0 0 0.714809
0 0 0.714977
0.264179 0 0.707225
0.800778 0 0.686854
1 0 0.697444
1 0.313542 0.744717
0.960891 0.906096 0.765682
0.948363 1 0.83859
0 0 0.713542
0 0 0.713634
0 0 0.713802
0.307408 0 0.704417
0.804273 0 0.685557
1 0 0.696117
1 0.450278 0.743221
0.959945 0.915785 0.764279
0.948287 1 0.838376
0 0.204623 0.705608
0 0.208011 0.705592
0 0.212375 0.705531
0.30631 0.206073 0.704372
0.803983 0.0757458 0.692271
1 0.232761 0.716869
0.989181 0.661753 0.732265
0.957671 0.940734 0.760571
0.948089 1 0.837751
0 0.803754 0.665537
0 0.804135 0.665705
0 0.804242 0.665888
0 0.802274 0.666209
0.687434 0.801617 0.671687
0.929595 0.822782 0.682124
0.962921 0.893446 0.700542
0.953765 0.988937 0.752331
0.947555 1 0.835935
0 1 0.637476
0 1 0.637613
0 1 0.637812
0 1 0.638453
0.64036 1 0.628046
0.87248 1 0.636866
0.95198 1 0.669337
0.94963 1 0.736492
0.946441 1 0.830991
0.549981 1 0.528649
0.568917 1 0.528176
0.596338 1 0.527596
0.660258 1 0.526986
0.763394 1 0.530266
0.867765 1 0.54757
0.937453 1 0.597162
0.946838 1 0.699504
0.944991 1 0.817975
0.84097 1 0.61976
0.842298 1 0.619944
0.844419 1 0.620233
0.850492 1 0.621118
0.866041 1 0.62385
0.895979 1 0.63212
0.932555 1 0.655772
0.944778 1 0.717647
0.943679 1 0.821515
0.911894 1 0.853986
0.912062 1 0.854002
0.912337 1 0.854047
0.913176 1 0.854139
0.915557 1 0.854444
0.921569 1 0.85539
0.933181 1 0.858152
0.943343 1 0.865644
0.943206 1 0.885542
0 0 0.916533
0 0 0.916533
0 0 0.916564
0 0 0.916609
0.676478 0 0.890486
1 0 0.891997
1 0 0.892989
0.971771 0.805798 0.905211
0.948409 1 0.902159
0 0 0.916442
0 0 0.916457
0 0 0.916472
0 0 0.916533
0.685237 0 0.890074
1 0 0.89192
1 0 0.892897
0.970062 0.819333 0.903655
0.948348 1 0.902068
0 0 0.91632
0 0 0.916335
0 0 0.91635
0 0 0.916381
0.698985 0 0.889433
1 0 0.891752
1 0 0.89276
0.96762 0.839033 0.901366
0.948272 1 0.90193
0 0 0.915908
0 0 0.915908
0 0 0.915923
0 0 0.915587
0.728695 0 0.888075
1 0 0.89131
1 0 0.890654
0.962188 0.885374 0.896071
0.948028 1 0.901534
0 0.569802 0.899504
0 0.57145 0.899443
0 0.574105 0.899351
0 0.578225 0.898695
0.683894 0.578103 0.903319
0.9906 0.618509 0.912673
0.974716 0.782971 0.89897
0.954757 0.961364 0.888151
0.947387 1 0.900435
0 1 0.890761
0 1 0.890669
0 1 0.890532
0 1 0.889937
0.551385 1 0.877791
0.858671 1 0.870954
0.946731 1 0.873213
0.948806 1 0.879805
0.94612 1 0.897841
0.3776 1 0.869459
0.420691 1 0.867796
0.474388 1 0.865599
0.576577 1 0.860777
0.720684 1 0.855634
0.846525 1 0.85568
0.923796 1 0.860166
0.945205 1 0.87068
0.944503 1 0.892607
0.829023 1 0.817533
0.830396 1 0.817594
0.832578 1 0.81767
0.838849 1 0.817945
0.854871 1 0.818769
0.885679 1 0.821363
0.923522 1 0.828779
0.943481 1 0.847349
0.943236 1 0.880507
0.913085 1 0.853834
0.913252 1 0.853864
0.913512 1 0.853895
0.914305 1 0.853986
0.916579 1 0.854307
0.922347 1 0.855238
0.933608 1 0.858015
0.943343 1 0.865522
0.943206 1 0.885512
0 0 0.973739
0 0 0.973739
0 0 0.973739
0 0 0.973739
0 0 0.973739
0.992767 0 0.959823
1 0 0.960647
1 0 0.960647
0.95024 1 0.953368
0 0 0.973739
0 0 0.973739
0 0 0.973739
0 0 0.973739
0 0 0.973739
0.994125 0 0.959899
1 0 0.960647
1 0 0.960647
0.950134 1 0.953246
0 0 0.973739
0 0 0.973739
0 0 0.973739
0 0 0.973739
0 0 0.973739
0.996307 0 0.960006
1 0 0.960647
1 0 0.960647
0.949966 1 0.953063
0 0 0.973739
0 0 0.973739
0 0 0.973739
0 0 0.973739
0 0 0.973739
1 0 0.960327
1 0 0.960647
1 0 0.960647
0.949508 1 0.952544
0 0 0.973739
0 0 0.973739
0 0 0.973739
0 0 0.973739
0.322728 0 0.965774
1 0 0.960647
1 0 0.960647
0.989425 0.667475 0.985077
0.948379 1 0.951263
0 0.927962 0.969268
0 0.928313 0.969284
0 0.928878 0.969314
0 0.930617 0.96936
0 0.924315 0.967422
0.870588 0.910384 0.95761
0.956313 0.938308 0.954955
0.950896 1 0.950286
0.946456 1 0.948867
0 1 0.967865
0 1 0.967773
0 1 0.967636
0 1 0.967224
0.606088 1 0.947372
0.824643 1 0.941711
0.918349 1 0.942061
0.945037 1 0.942855
0.944335 1 0.945693
0.799359 1 0.935042
0.801221 1 0.935027
0.80415 1 0.935012
0.812497 1 0.934981
0.833326 1 0.934981
0.871534 1 0.93518
0.914916 1 0.935866
0.94284 1 0.937591
0.942809 1 0.941909
0.908492 1 0.921477
0.90866 1 0.921492
0.908934 1 0.921492
0.909743 1 0.921538
0.912062 1 0.92163
0.917952 1 0.921965
0.929427 1 0.922911
0.942565 1 0.925673
0.942885 1 0.932616
0 0.00233463 0.974044
0 0.00233463 0.974044
0 0.00233463 0.974044
0 0.00234989 0.974044
0 0.00242618 0.974044
0 0.00262455 0.974044
1 0 0.960647
1 0 0.960647
0.982483 0.723674 0.987366
0 0.00228885 0.974044
0 0.00228885 0.974044
0 0.00231937 0.974044
0 0.00233463 0.974044
0 0.00241093 0.974044
0 0.00260929 0.974044
1 0 0.960647
1 0 0.960647
0.982483 0.723644 0.987366
0 0.00224308 0.974044
0 0.00224308 0.974044
0 0.00225834 0.974044
0 0.00228885 0.974044
0 0.00233463 0.974044
0 0.00254826 0.974044
1 0 0.960647
1 0 0.960647
0.982498 0.723598 0.987366
0 0.00209049 0.974044
0 0.00205997 0.974044
0 0.00209049 0.974044
0 0.00210575 0.974044
0 0.00218204 0.974044
0 0 0.974105
1 0 0.960647
1 0 0.960647
0.982513 0.72343 0.987381
0 0.00155642 0.974044
0 0.00155642 0.974044
0 0.00157168 0.974044
0 0.00158694 0.974044
0 0.00164797 0.974044
0.364904 0 0.96434
1 0 0.960647
1 0 0.960647
0.982574 0.722911 0.987411
0 0 0.97406
0 0 0.97406
0 0 0.97406
0 0 0.97406
0 0 0.97406
0.813046 0 0.952819
1 0 0.960647
1 0.000595102 0.968917
0.953719 0.96495 0.972946
0 1 0.994141
0 1 0.994141
0 1 0.994141
0 1 0.994156
0 1 0.994186
0.711864 1 0.972824
0.922988 1 0.971878
0.946822 1 0.971801
0.945098 1 0.971649
0.627527 1 0.97409
0.636881 1 0.973678
0.650828 1 0.973083
0.686503 1 0.971756
0.756054 1 0.96994
0.839887 1 0.969253
0.906188 1 0.969375
0.941512 1 0.969879
0.942931 1 0.970031
0.897704 1 0.96698
0.897948 1 0.96698
0.898299 1 0.96698
0.899382 1 0.966995
0.902449 1 0.966995
0.910079 1 0.967041
0.924071 1 0.967132
0.939178 1 0.967346
0.942611 1 0.967803
0 0.276356 0.974899
0 0.276356 0.974899
0 0.276356 0.974899
0 0.276387 0.974899
0 0.276387 0.974899
0 0.276448 0.974899
0 0.276585 0.974899
1 0.291707 0.993362
0.97525 0.778149 0.983276
0 0.276356 0.974899
0 0.276356 0.974899
0 0.276356 0.974899
0 0.276356 0.974899
0 0.276387 0.974899
0 0.276417 0.974899
0 0.276585 0.974899
1 0.292088 0.993378
0.975235 0.77821 0.983261
0 0.276341 0.974899
0 0.276341 0.974899
0 0.276341 0.974899
0 0.276356 0.974899
0 0.276356 0.974899
0 0.276417 0.974899
0 0.276555 0.974899
1 0.292668 0.993393
0.975235 0.778286 0.983261
0 0.27631 0.974899
0 0.27631 0.974899
0 0.27631 0.974899
0 0.27631 0.974899
0 0.276341 0.974899
0 0.276387 0.974899
0 0.276509 0.974899
1 0.294453 0.993454
0.975189 0.778561 0.983246
0 0.276188 0.974899
0 0.276188 0.974899
0 0.276188 0.974899
0 0.276188 0.974899
0 0.276204 0.974899
0 0.276249 0.974899
0.361379 0.259083 0.978347
1 0.299901 0.993652
0.975082 0.779339 0.983185
0 0.275807 0.974914
0 0.275807 0.974914
0 0.275807 0.974914
0 0.275837 0.974914
0 0.275837 0.974914
0 0.275868 0.974899
0.840406 0.0235752 0.963378
1 0.315984 0.994171
0.974929 0.780529 0.983093
0 0.274662 0.974914
0 0.274662 0.974914
0 0.274662 0.974914
0 0.274678 0.974914
0 0.274678 0.974914
0 0.274723 0.974914
1 0 0.960647
1 0.347234 0.994934
0.97464 0.782727 0.982925
0 1 0.995422
0 1 0.995422
0 1 0.995422
0 1 0.995422
0 1 0.995422
0 1 0.995422
0.867597 1 0.971145
0.943572 1 0.971633
0.943648 1 0.971527
0.846876 1 0.970581
0.847669 1 0.970581
0.84892 1 0.970596
0.852583 1 0.970611
0.862257 1 0.970657
0.88307 1 0.97081
0.912779 1 0.971038
0.936461 1 0.971191
0.942916 1 0.971557
