BBLuts/BB_102_0310_LUT.cube
TITLE "Generated by Resolve"
LUT_3D_SIZE 5
0 0 0
0.294087 0 0
0.953475 0 0
1 0.636347 0.012604
1 0.954787 0.776043
0 0.314366 0
0.175875 0.319036 0
0.92195 0.125109 0
1 0.676844 0
1 0.955184 0.775753
0 0.862699 0
0 0.862486 0
0.760006 0.82855 0
1 0.85536 0
1 0.960113 0.771557
0.616693 1 0.183017
0.616693 1 0.183017
0.781338 1 0.200061
1 0.986297 0.422507
1 0.985534 0.798596
0.967575 0.996338 0.889418
0.967575 0.996338 0.889418
0.967575 0.996338 0.889418
0.985992 0.995132 0.891051
1 0.993622 0.916777
0 0 0.342123
0.234882 0 0.343374
0.948089 0 0.320851
0.926101 0.675364 0.189105
1 0.954772 0.776059
0 0.249912 0.266835
0.179599 0.247471 0.26305
0.942946 0 0.289601
0.967361 0.700938 0.201007
1 0.955169 0.775753
0 0.858885 0
0 0.858656 0
0.764752 0.824567 0
1 0.852781 0
1 0.960113 0.771557
0.624277 1 0.18175
0.624277 1 0.18175
0.783658 1 0.198993
1 0.986252 0.422187
1 0.985534 0.798596
0.96762 0.996338 0.889418
0.96762 0.996338 0.889418
0.96762 0.996338 0.889418
0.986023 0.995132 0.891051
1 0.993622 0.916777
0 0 0.974044
0 0 0.974136
0.92015 0 0.945434
1 0.336797 0.870436
1 0.951339 0.867002
0 0 0.972946
0 0 0.973007
0.929778 0 0.943664
1 0.536202 0.83888
1 0.95172 0.866911
0 0.797192 0.804181
0 0.797223 0.804196
0.71693 0.767376 0.787335
1 0.816846 0.778195
1 0.95697 0.864439
0.607538 1 0.653803
0.607538 1 0.653803
0.761563 1 0.650813
0.993896 0.981613 0.68452
1 0.984298 0.843412
0.96817 0.996323 0.889326
0.96817 0.996323 0.889326
0.96817 0.996323 0.889326
0.986236 0.995117 0.890974
1 0.993622 0.916762
0 0 1
0 0 1
0 0 1
1 0 1
1 0.920012 0.993545
0 0 1
0 0 1
0 0 1
1 0 1
1 0.921141 0.993408
0 0 1
0 0 1
0 0 1
1 0 1
1 0.93344 0.990814
0 1 1
0 1 1
0 1 1
0.968963 0.969879 0.981125
0.999466 0.979339 0.977127
0.962219 0.9953 0.961791
0.962219 0.9953 0.961791
0.962219 0.9953 0.961791
0.979446 0.994232 0.961349
1 0.992905 0.967681
0 0.410132 1
0 0.410132 1
0 0.410132 1
0 0.410239 1
1 0.713436 1
0 0.410132 1
0 0.410132 1
0 0.410132 1
0 0.410239 1
1 0.713436 1
0 0.410132 1
0 0.410132 1
0 0.410132 1
0 0.410239 1
1 0.713436 1
0 0.408453 1
0 0.408453 1
0 0.408453 1
0 0.408515 1
1 0.716869 1
0.892943 0.99852 1
0.892943 0.99852 1
0.892943 0.99852 1
0.892943 0.99852 1
1 0.992569 1
