BBLuts/BB_103_0860_LUT.cube
TITLE "Generated by Resolve"
LUT_3D_SIZE 5
0 0 0
0.19028 0 0
0.773236 0 0
0.925063 0.532006 0.199237
0.868971 0.985275 0.969253
0 0.255177 0
0.124575 0.250874 0
0.754009 0.11696 0
0.918181 0.608499 0.139742
0.868849 0.986816 0.968475
0 0.848951 0.00831617
0 0.848463 0.00825513
0.630228 0.811231 0
0.898436 0.864393 0
0.868025 0.99678 0.962554
0.464073 1 0.332998
0.510246 1 0.335073
0.680095 1 0.35639
0.865766 1 0.517388
0.864485 1 0.994263
0.828397 1 1
0.828885 1 1
0.83238 1 1
0.851331 1 1
0.861555 1 1
0 0 0.271092
0.164019 0 0.27744
0.769497 0 0.314687
0.923537 0.512367 0.420706
0.868757 0.984787 0.990188
0 0.209293 0.250553
0.131685 0.197894 0.237903
0.770657 0 0.292165
0.914992 0.593088 0.401297
0.86862 0.986358 0.989502
0 0.844831 0.00784314
0 0.844282 0.0077821
0.635966 0.807187 0
0.894469 0.859083 0.157275
0.867781 0.996399 0.98436
0.471717 1 0.332143
0.516243 1 0.334295
0.681971 1 0.35584
0.865888 1 0.517327
0.864485 1 0.994141
0.828458 1 1
0.828962 1 1
0.832441 1 1
0.851362 1 1
0.861555 1 1
0 0 0.945739
0 0 0.946014
0.777554 0 0.956771
0.955245 0.241291 0.957336
0.867903 0.981552 1
0 0 0.94345
0 0 0.943755
0.78706 0 0.954787
0.92604 0.449332 0.943511
0.86775 0.983215 1
0 0.781323 0.906279
0 0.78175 0.906676
0.604242 0.745846 0.883284
0.88452 0.825193 0.914199
0.866819 0.993896 1
0.466865 1 0.732326
0.509911 1 0.732448
0.67187 1 0.738018
0.856352 1 0.809491
0.863706 1 1
0.829038 1 1
0.829511 1 1
0.832929 1 1
0.851545 1 1
0.861555 1 1
0 0 1
0 0 1
0 0 1
1 0.0102388 1
0.869947 0.943603 1
0 0 1
0 0 1
0 0 1
1 0.0102388 1
0.869612 0.94725 1
0 0 1
0 0 1
0.370062 0 1
1 0.0102388 1
0.867582 0.9691 1
0 1 1
0 1 1
0.517784 1 1
0.835416 1 1
0.862333 1 1
0.82501 1 1
0.825467 1 1
0.828794 1 1
0.847166 1 1
0.860914 1 1
0 0.355016 1
0 0.355016 1
0 0.355032 1
0 0.3552 1
0.892729 0.715557 1
0 0.354986 1
0 0.354986 1
0 0.355016 1
0 0.355184 1
0.892714 0.715694 1
0 0.354864 1
0 0.354864 1
0 0.354879 1
0.3402 0.319249 1
0.892607 0.71667 1
0 0.353567 1
0 0.353567 1
0 0.353582 1
1 0.0102388 1
0.892271 0.719814 1
0.758923 1 1
0.761105 1 1
0.775387 1 1
0.829358 1 1
0.860426 1 1
