BBLuts/BB_102_0150_LUT.cube
TITLE "Generated by Resolve"
LUT_3D_SIZE 33
0.033341 0.0362249 0.0197299
0.033341 0.0362249 0.0197299
0.033341 0.0362249 0.0197299
0.033341 0.0362249 0.0197299
0.033341 0.0362249 0.0197299
0.0932174 0.0354925 0.0187686
0.163546 0.034699 0.0178378
0.214862 0.0341497 0.0172122
0.265934 0.0336156 0.0166323
0.325734 0.03299 0.0160067
0.39382 0.0323033 0.0153201
0.467582 0.0315557 0.0146181
0.53846 0.0306249 0.0138552
0.598566 0.0293736 0.0129397
0.662348 0.0278325 0.0118715
0.731731 0.026154 0.0107424
0.803738 0.0243992 0.00959792
0.876204 0.0226291 0.00848402
0.942123 0.0210117 0.00750744
0.994247 0.0197452 0.00677501
1 0.019501 0.00663767
1 0.019501 0.00663767
0.991989 0.249134 0.0518502
0.976638 0.494347 0.0942245
0.968338 0.626825 0.140017
0.962875 0.714809 0.195239
0.957504 0.797589 0.265599
0.952712 0.869123 0.365866
0.948806 0.923919 0.468254
0.945678 0.966201 0.54023
0.943145 0.998535 0.610681
0.941085 1 0.681453
0.939315 1 0.744625
0.033341 0.0362249 0.0197299
0.033341 0.0362249 0.0197299
0.033341 0.0362249 0.0197299
0.033341 0.0362249 0.0197299
0.033341 0.0362249 0.0197299
0.107347 0.0353246 0.0185702
0.168475 0.034638 0.0177768
0.218906 0.0341039 0.0171664
0.272206 0.0335546 0.0165713
0.332982 0.032929 0.0159304
0.400839 0.0322271 0.0152438
0.473442 0.0314946 0.0145571
0.541314 0.0305791 0.0138247
0.600031 0.0293278 0.0129091
0.663615 0.0278019 0.0118563
0.732631 0.0261234 0.0107271
0.804303 0.0243839 0.00958267
0.876463 0.0226139 0.00848402
0.942046 0.0210117 0.00750744
0.993896 0.0197452 0.00677501
1 0.019501 0.00663767
1 0.019501 0.00663767
0.988647 0.295857 0.037171
0.975296 0.512779 0.0883803
0.967834 0.633661 0.136736
0.962524 0.719615 0.193347
0.957259 0.800946 0.263447
0.95256 0.871153 0.36466
0.94873 0.925078 0.46775
0.945632 0.966888 0.539986
0.94313 0.998917 0.610529
0.94107 1 0.681346
0.939315 1 0.744564
0.033341 0.0362249 0.0197299
0.033341 0.0362249 0.0197299
0.033341 0.0362249 0.0197299
0.033341 0.0362249 0.0197299
0.033341 0.0362249 0.0197299
0.115755 0.0352331 0.0184634
0.170169 0.0346227 0.0177462
0.222751 0.0340734 0.0171206
0.278737 0.0334783 0.016495
0.339712 0.0328527 0.0158541
0.406195 0.032166 0.015198
0.476493 0.0314488 0.0145266
0.543664 0.0305486 0.0137942
0.601602 0.0292973 0.0128939
0.664912 0.0277714 0.0118257
0.733516 0.0261082 0.0107118
0.804868 0.0243687 0.00958267
0.876722 0.0226139 0.00848402
0.941939 0.0210269 0.0075227
0.993545 0.0197604 0.00679026
1 0.019501 0.00663767
1 0.019501 0.00663767
0.985351 0.333288 0.0109102
0.97409 0.52903 0.0819562
0.967346 0.640314 0.133349
0.962173 0.7243 0.19144
0.957015 0.804227 0.261372
0.952422 0.873152 0.363439
0.948638 0.926207 0.467262
0.945571 0.967575 0.539757
0.943099 0.999298 0.610376
0.941039 1 0.681254
0.9393 1 0.744503
0.033341 0.0362249 0.0197299
0.033341 0.0362249 0.0197299
0.033341 0.0362249 0.0197299
0.0327153 0.043473 0.0196689
0.0603799 0.0496986 0.0191653
0.122194 0.0351568 0.0183719
0.170962 0.0346227 0.0177462
0.223087 0.0340581 0.0171206
0.27985 0.033463 0.0164797
0.342428 0.0328222 0.0158389
0.409659 0.0321355 0.0151675
0.479225 0.0314183 0.0145113
0.545922 0.030518 0.0137636
0.603189 0.0292515 0.0128634
0.666224 0.0277409 0.0118105
0.734432 0.0260777 0.0106966
0.805402 0.0243687 0.00956741
0.876951 0.0226139 0.00846876
0.941817 0.0210269 0.0075227
0.993164 0.0197604 0.00679026
1 0.019501 0.00663767
1 0.019501 0.00663767
0.983169 0.366552 0.0110933
0.972961 0.54377 0.0747539
0.966873 0.646784 0.129885
0.961837 0.728908 0.189532
0.956786 0.807431 0.260395
0.952285 0.875105 0.362249
0.948562 0.927352 0.466758
0.945525 0.968261 0.539513
0.943069 0.99968 0.610224
0.941024 1 0.681147
0.939284 1 0.744457
0.0273899 0.104082 0.0191043
0.0270542 0.107942 0.0190738
0.0267185 0.111681 0.019028
0.0263828 0.115282 0.0189975
0.0262608 0.116686 0.0189822
0.105928 0.115404 0.0180362
0.159564 0.112184 0.0175326
0.214755 0.104875 0.0170748
0.275151 0.0884108 0.0165866
0.343633 0.0328222 0.0158236
0.411658 0.0321202 0.0151522
0.481697 0.0313878 0.0144808
0.548089 0.0304723 0.0137331
0.604807 0.029221 0.0128328
0.667567 0.0277104 0.01178
0.735363 0.0260624 0.0106813
0.805951 0.0243534 0.00956741
0.87715 0.0225986 0.00846876
0.94168 0.0210269 0.0075227
0.992767 0.0197757 0.00679026
1 0.019501 0.00663767
1 0.090959 0.00827039
0.981216 0.396048 0.0112306
0.971893 0.557168 0.0664225
0.9664 0.653071 0.126314
0.961517 0.733425 0.18761
0.956558 0.81059 0.259434
0.952132 0.877043 0.361059
0.948486 0.92845 0.466255
0.94548 0.968933 0.539284
0.943038 1 0.610071
0.941009 1 0.681056
0.939284 1 0.744396
0.0235142 0.146914 0.018677
0.0232395 0.150027 0.0186465
0.0229648 0.153094 0.0186007
0.0227359 0.155535 0.0185855
0.0226291 0.15668 0.0185702
0.078706 0.156481 0.0179294
0.14699 0.1552 0.017319
0.205875 0.152102 0.0168765
0.26833 0.145724 0.0164645
0.336934 0.133379 0.016022
0.407996 0.109209 0.0155337
0.483864 0.0313725 0.0144656
0.550271 0.0304417 0.0137026
0.606531 0.0291752 0.0128023
0.669001 0.0276799 0.0117647
0.736339 0.0260471 0.0106661
0.806516 0.0243381 0.00955215
0.877363 0.0225986 0.00846876
0.941527 0.0210269 0.0075227
0.992325 0.019791 0.00680552
1 0.019501 0.00663767
0.993439 0.205966 0.0099031
0.979431 0.42295 0.0113375
0.97081 0.56994 0.0556802
0.965911 0.659464 0.122469
0.961166 0.738048 0.185565
0.956329 0.813794 0.258442
0.951995 0.879011 0.359808
0.948394 0.92961 0.465736
0.945434 0.969619 0.53904
0.943008 1 0.609918
0.940993 1 0.680949
0.939269 1 0.744335
0.0193332 0.192584 0.0181888
0.019089 0.195209 0.0181735
0.0188449 0.197833 0.018143
0.0187076 0.199298 0.0181277
0.018616 0.200244 0.0181125
0.0185855 0.20058 0.0181125
0.123827 0.200046 0.0171054
0.192294 0.198566 0.0166476
0.259068 0.195209 0.0162509
0.330678 0.188647 0.0158846
0.403052 0.176501 0.0155184
0.478096 0.156771 0.0151064
0.547448 0.118761 0.0144808
0.608728 0.0291295 0.0127718
0.670863 0.0276341 0.0117342
0.737621 0.0260014 0.0106355
0.807248 0.0243076 0.00953689
0.877638 0.0225986 0.00846876
0.941314 0.0210422 0.0075227
0.991745 0.0198062 0.00680552
1 0.019501 0.00663767
0.988876 0.278737 0.010544
0.977325 0.454322 0.0114443
0.969238 0.584619 0.0330358
0.965301 0.66743 0.117311
0.960739 0.743877 0.182956
0.956024 0.817853 0.257191
0.951812 0.881514 0.358236
0.948287 0.931075 0.465064
0.945373 0.970504 0.53872
0.942977 1 0.60972
0.940978 1 0.680812
0.939254 1 0.744244
0.0144656 0.244846 0.0176394
0.0142519 0.24715 0.0176242
0.0140841 0.248859 0.0176089
0.0139773 0.249989 0.0175937
0.013901 0.250797 0.0175784
0.0138705 0.25124 0.0175784
0.0539101 0.25124 0.0171206
0.167834 0.250675 0.0163577
0.243809 0.248997 0.0159609
0.319554 0.244678 0.0156405
0.395468 0.236545 0.0153506
0.474144 0.22472 0.0150301
0.544121 0.206699 0.0146487
0.601999 0.175738 0.014023
0.668345 0.109728 0.0128481
0.73933 0.0259709 0.0106203
0.808255 0.0242924 0.00952163
0.878004 0.0225834 0.0084535
0.941009 0.0210422 0.00753796
0.990921 0.0198215 0.00682078
0.996902 0.148699 0.00920119
0.984512 0.346227 0.0109865
0.974762 0.492149 0.0115358
0.967315 0.601984 0.0118105
0.964508 0.677562 0.110063
0.960189 0.7514 0.179446
0.955642 0.823056 0.255573
0.951568 0.884733 0.356176
0.94815 0.932967 0.464195
0.945281 0.971664 0.538308
0.942931 1 0.609445
0.940948 1 0.680629
0.939239 1 0.744137
0.0087129 0.305577 0.0170138
0.00854505 0.307301 0.0169985
0.0084535 0.308263 0.0169833
0.00836194 0.309255 0.016968
0.00830091 0.309926 0.016968
0.00825513 0.310399 0.016968
0.00822461 0.310689 0.0169528
0.113603 0.310506 0.0160678
0.215961 0.308675 0.01561
0.30016 0.305303 0.0153201
0.382528 0.299977 0.0150759
0.466819 0.292058 0.0148318
0.540551 0.280293 0.0145418
0.598947 0.262455 0.0141146
0.662882 0.237522 0.0135042
0.730816 0.201404 0.0126955
0.80264 0.144717 0.0114595
0.878492 0.0225681 0.0084535
0.940536 0.0210574 0.00753796
0.982208 0.158007 0.00949111
0.988159 0.289921 0.0106355
0.979995 0.414328 0.0113069
0.97203 0.532494 0.0116426
0.966155 0.619303 0.0118715
0.96347 0.690318 0.0995346
0.959472 0.760983 0.174762
0.955169 0.829664 0.253513
0.951278 0.888838 0.353491
0.947982 0.935439 0.46302
0.945174 0.973159 0.537758
0.94287 1 0.60911
0.940902 1 0.680385
0.939223 1 0.743999
0.00209049 0.373648 0.0163424
0.00202945 0.374182 0.0163272
0.00198367 0.374701 0.0163272
0.0019379 0.375128 0.0163272
0.00192264 0.375402 0.0163119
0.00190738 0.375463 0.0163119
0.00192264 0.375326 0.0163119
0.00196841 0.374853 0.0163272
0.162722 0.373907 0.015198
0.269261 0.372091 0.0148928
0.361837 0.368765 0.0146944
0.45391 0.363363 0.0145266
0.533898 0.35494 0.0143282
0.595468 0.342397 0.0140078
0.659998 0.327718 0.0135653
0.726314 0.310048 0.0130312
0.794949 0.290196 0.0123903
0.864073 0.272221 0.0116732
0.924819 0.275349 0.0111238
0.97052 0.31751 0.010956
0.981491 0.391974 0.0112154
0.975265 0.484642 0.0115206
0.969238 0.573617 0.0117342
0.964721 0.640513 0.0119326
0.962097 0.706142 0.0831617
0.958556 0.773098 0.16846
0.954528 0.83827 0.250935
0.950896 0.894026 0.349996
0.947753 0.938567 0.461494
0.945037 0.975082 0.537057
0.942794 1 0.608637
0.940856 1 0.680079
0.939193 1 0.743801
0 0.444877 0.015671
0 0.44538 0.015671
0 0.445899 0.015671
0 0.446265 0.0156558
0 0.446555 0.0156558
0 0.446723 0.0156558
0 0.446784 0.0156558
0 0.446662 0.0156558
0 0.446113 0.0156558
0.215595 0.445319 0.0143435
0.328786 0.443641 0.0141756
0.431952 0.440345 0.0140841
0.521874 0.434623 0.0139773
0.589242 0.42623 0.0137636
0.656153 0.416632 0.0134432
0.72256 0.406714 0.0130617
0.789685 0.397726 0.0126192
0.856641 0.392065 0.0121309
0.915373 0.400366 0.0117189
0.960494 0.431678 0.01149
0.975113 0.48687 0.0115206
0.970703 0.552071 0.0116884
0.966567 0.613169 0.011841
0.962982 0.66601 0.0119783
0.960098 0.7252 0.0508583
0.957397 0.78822 0.159899
0.95378 0.848569 0.247745
0.950408 0.900496 0.345449
0.947463 0.94258 0.45948
0.944854 0.977554 0.53611
0.942687 1 0.608026
0.940795 1 0.679667
0.939147 1 0.743572
0 0.526101 0.014786
0 0.526528 0.014786
0 0.526925 0.014786
0 0.527245 0.014786
0 0.527489 0.0147707
0 0.527687 0.0147707
0 0.52784 0.0147707
0 0.527886 0.0147707
0 0.527733 0.0147707
0.0533608 0.526925 0.0139467
0.27042 0.526787 0.013489
0.394324 0.525444 0.0134585
0.501503 0.522774 0.0134737
0.577432 0.518166 0.0133822
0.648112 0.5122 0.0131838
0.716991 0.506325 0.0129244
0.784146 0.502297 0.012604
0.849302 0.502403 0.0122683
0.905821 0.512398 0.0119631
0.949966 0.535485 0.0117647
0.969497 0.569726 0.0117342
0.966766 0.6103 0.0118257
0.964111 0.649607 0.0119478
0.960906 0.696071 0.0119936
0.957275 0.747845 0.0119478
0.955962 0.806531 0.14847
0.95285 0.861067 0.243915
0.949844 0.908385 0.344671
0.947097 0.947616 0.45684
0.94464 0.980667 0.53489
0.94255 1 0.607217
0.940703 1 0.679133
0.939101 1 0.743236
0 0.602655 0.0137789
0 0.60293 0.0137636
0 0.603174 0.0137636
0 0.603372 0.0137636
0 0.603525 0.0137636
0 0.603662 0.0137484
0 0.603784 0.0137484
0 0.603891 0.0137484
0 0.603983 0.0137484
0 0.604059 0.0137484
0.128161 0.603372 0.0126955
0.332647 0.603754 0.0126802
0.468696 0.603433 0.0128328
0.558938 0.60177 0.0129091
0.634546 0.599008 0.0128481
0.707561 0.59588 0.0127108
0.777432 0.593881 0.0125124
0.842191 0.594766 0.0122835
0.896925 0.60148 0.0120851
0.940124 0.613581 0.0119478
0.965316 0.6318 0.011902
0.963546 0.657908 0.0119631
0.961242 0.691188 0.0119936
0.958465 0.730877 0.0119783
0.955245 0.776303 0.0118868
0.954253 0.827863 0.133516
0.951766 0.875853 0.239612
0.949157 0.917815 0.344167
0.946639 0.953826 0.453361
0.94435 0.984558 0.533288
0.942382 1 0.606165
0.940597 1 0.678416
0.939025 1 0.742809
0 0.665492 0.012665
0 0.665705 0.0126497
0 0.665888 0.0126497
0 0.666041 0.0126497
0 0.666163 0.0126497
0 0.666285 0.0126497
0 0.666407 0.0126497
0 0.666529 0.0126497
0 0.666621 0.0126345
0 0.666651 0.0126345
0 0.666529 0.0126497
0.208621 0.665949 0.0116884
0.414267 0.666255 0.0120394
0.533928 0.665461 0.0123445
0.615686 0.663752 0.0124514
0.69395 0.661677 0.0124666
0.768292 0.66006 0.0123903
0.834943 0.660288 0.0122683
0.888609 0.664576 0.0121614
0.93019 0.674037 0.0120546
0.96141 0.688945 0.0119936
0.959945 0.709895 0.0119936
0.958022 0.737133 0.0119631
0.955673 0.770397 0.011902
0.952911 0.808942 0.0117952
0.952239 0.852155 0.114137
0.9505 0.892805 0.235172
0.948348 0.928939 0.34403
0.94609 0.961349 0.449409
0.944015 0.989303 0.531228
0.942168 1 0.604791
0.940459 1 0.677485
0.938949 1 0.742245
0 0.732494 0.0114748
0 0.732616 0.0114748
0 0.732723 0.0114748
0 0.732815 0.0114748
0 0.732891 0.0114748
0 0.732952 0.0114748
0 0.733013 0.0114748
0 0.733059 0.0114748
0 0.733074 0.0114748
0 0.733028 0.0114748
0 0.732845 0.0114748
0 0.732418 0.0114748
0.317845 0.732189 0.0109255
0.497917 0.732113 0.0115206
0.589853 0.730922 0.0118563
0.673762 0.729183 0.0120241
0.753292 0.727413 0.0121004
0.823133 0.726955 0.0121004
0.877623 0.729747 0.0120546
0.918364 0.736889 0.0120089
0.950683 0.748516 0.0119478
0.956039 0.765118 0.0119173
0.954482 0.786999 0.0118563
0.95256 0.813733 0.01178
0.950362 0.844068 0.0116732
0.94995 0.87808 0.0890516
0.949126 0.911467 0.231373
0.947402 0.941909 0.344579
0.945449 0.970214 0.450782
0.943587 0.994995 0.528557
0.941909 1 0.602991
0.940291 1 0.676265
0.938842 1 0.741497
0 0.801022 0.0102693
0 0.801083 0.0102693
0 0.801129 0.0102693
0 0.801175 0.0102693
0 0.801175 0.0102693
0 0.80119 0.0102693
0 0.801205 0.0102693
0 0.801175 0.0102693
0 0.801129 0.0102693
0 0.800992 0.0102846
0 0.800717 0.0102846
0 0.800214 0.0102846
0.0740978 0.798795 0.00947585
0.434363 0.799756 0.0104219
0.557382 0.799115 0.0110475
0.647669 0.797696 0.0114137
0.732189 0.795987 0.0116426
0.805539 0.79501 0.0117647
0.862135 0.79646 0.0118105
0.903838 0.801312 0.0118105
0.935836 0.809888 0.0117952
0.951949 0.822217 0.0117494
0.950774 0.838331 0.0116884
0.949386 0.857481 0.0116121
0.947768 0.879438 0.0115053
0.947326 0.90454 0.0558785
0.947662 0.931319 0.229496
0.946334 0.956512 0.346426
0.944701 0.980362 0.452995
0.943114 1 0.525902
0.941573 1 0.600656
0.940078 1 0.674632
0.938704 1 0.74052
0 0.868955 0.00909438
0 0.86894 0.00909438
0 0.868925 0.00909438
0 0.868894 0.00909438
0 0.868879 0.00909438
0 0.868833 0.00909438
0 0.868772 0.00909438
0 0.868681 0.00909438
0 0.868528 0.00909438
0 0.868284 0.00910964
0 0.867872 0.00910964
0 0.867201 0.0091249
0 0.866178 0.00914015
0.326757 0.865904 0.00903334
0.519356 0.865858 0.010071
0.61825 0.864561 0.0106508
0.707088 0.862715 0.0110475
0.78349 0.861158 0.0112764
0.842603 0.861051 0.011429
0.886687 0.863172 0.01149
0.920073 0.867872 0.0115206
0.944198 0.875502 0.0115206
0.947311 0.885695 0.0114748
0.94638 0.898344 0.0114137
0.945296 0.913146 0.0113375
0.944076 0.929717 0.0112459
0.94612 0.952331 0.230762
0.94519 0.972335 0.35053
0.943877 0.991547 0.456458
0.94255 1 0.528222
0.941192 1 0.597604
0.939818 1 0.672526
0.938552 1 0.739239
0 0.926696 0.00810254
0 0.926635 0.00810254
0 0.926558 0.00810254
0 0.926482 0.00810254
0 0.92639 0.00810254
0 0.926299 0.00810254
0 0.926177 0.00810254
0 0.926009 0.00810254
0 0.925734 0.0081178
0 0.925353 0.0081178
0 0.924788 0.00813306
0 0.923919 0.00814832
0 0.922728 0.00816358
0.195163 0.921447 0.00766003
0.48513 0.921981 0.00910964
0.59379 0.920638 0.00991836
0.685863 0.918578 0.0104372
0.762966 0.916518 0.0107881
0.823209 0.915267 0.0110018
0.869566 0.915343 0.0111391
0.904845 0.917098 0.0112306
0.930343 0.920897 0.0112612
0.944305 0.92665 0.0112612
0.943725 0.934417 0.0112154
0.942992 0.944244 0.0111543
0.942641 0.956542 0.02533
0.94461 0.973632 0.237552
0.943999 0.988678 0.358206
0.943008 1 0.461738
0.941909 1 0.531487
0.940734 1 0.597513
0.939529 1 0.669795
0.938354 1 0.73756
0 0.971252 0.00733959
0 0.971145 0.00733959
0 0.971023 0.00733959
0 0.970916 0.00733959
0 0.970794 0.00733959
0 0.970642 0.00733959
0 0.970474 0.00735485
0 0.970214 0.00735485
0 0.969879 0.00735485
0 0.96939 0.00737011
0 0.968673 0.00738537
0 0.967727 0.00740063
0 0.966445 0.00741588
0.117815 0.96466 0.00675975
0.466651 0.965515 0.00840772
0.581292 0.964187 0.00933852
0.672908 0.962066 0.00994888
0.748241 0.959823 0.0103456
0.807294 0.958083 0.0106203
0.854353 0.957107 0.0108034
0.890898 0.957244 0.0109255
0.917815 0.958846 0.0110018
0.938674 0.961944 0.0110475
0.941329 0.966598 0.011017
0.940871 0.972824 0.0109865
0.942199 0.982757 0.0865034
0.943206 0.993988 0.252567
0.942855 1 0.371221
0.942092 1 0.469352
0.941207 1 0.53611
0.940215 1 0.601221
0.939178 1 0.667369
0.938109 1 0.735348
0 1 0.00674449
0 1 0.00674449
0 1 0.00674449
0 1 0.00675975
0 1 0.00675975
0 1 0.00675975
0 1 0.00675975
0 1 0.00677501
0 1 0.00677501
0 1 0.00679026
0 1 0.00679026
0 1 0.00682078
0 1 0.00683604
0.203967 0.999725 0.00645457
0.476829 1 0.00802625
0.582406 0.998871 0.00894179
0.668605 0.996796 0.00956741
0.739513 0.994568 0.00999466
0.795727 0.99266 0.0102846
0.841733 0.99118 0.0104982
0.878294 0.990417 0.0106508
0.906294 0.9906 0.0107576
0.928374 0.991745 0.0108186
0.939284 0.994049 0.0108492
0.939025 0.997452 0.0108186
0.941375 1 0.142061
0.941955 1 0.277882
0.941726 1 0.39028
0.941146 1 0.479866
0.940459 1 0.542535
0.939651 1 0.606287
0.938766 1 0.67129
0.937835 1 0.732448
0 1 0.00631724
0 1 0.00631724
0 1 0.00631724
0 1 0.00633249
0 1 0.00633249
0 1 0.00633249
0 1 0.00633249
0 1 0.00634775
0 1 0.00634775
0 1 0.00636301
0 1 0.00636301
0 1 0.00637827
0 1 0.00640879
0.348394 1 0.00679026
0.50927 1 0.00798047
0.598642 1 0.00875868
0.674296 1 0.00932326
0.738033 1 0.00973526
0.789822 1 0.0100252
0.833463 1 0.0102541
0.868605 1 0.0104219
0.896712 1 0.0105287
0.919509 1 0.0106203
0.936889 1 0.0106813
0.937453 1 0.0106813
0.940505 1 0.201022
0.94081 1 0.313313
0.940642 1 0.414481
0.940215 1 0.492424
0.939696 1 0.5514
0.939055 1 0.613214
0.938293 1 0.676493
0.937499 1 0.735103
0 1 0.0059968
0 1 0.0059968
0 1 0.0059968
0 1 0.0059968
0 1 0.00601205
0 1 0.00601205
0 1 0.00601205
0 1 0.00601205
0 1 0.00602731
0 1 0.00602731
0 1 0.00604257
0 1 0.00605783
0.319097 1 0.00630198
0.473701 1 0.00735485
0.554955 1 0.00813306
0.62536 1 0.00872816
0.687953 1 0.00918593
0.742351 1 0.00955215
0.788693 1 0.00982681
0.828824 1 0.0100404
0.861616 1 0.0102083
0.888808 1 0.0103456
0.911528 1 0.0104524
0.929381 1 0.0105287
0.938842 1 0.146899
0.939635 1 0.26392
0.939773 1 0.358831
0.939635 1 0.443809
0.939345 1 0.507042
0.938949 1 0.563378
0.93843 1 0.622492
0.937804 1 0.68336
0.937133 1 0.739498
0 1 0.00575265
0 1 0.00575265
0 1 0.00575265
0 1 0.00576791
0 1 0.00576791
0 1 0.00576791
0 1 0.00576791
0 1 0.00576791
0 1 0.00578317
0.196002 1 0.00541695
0.326833 1 0.00608835
0.427878 1 0.00675975
0.498314 1 0.00737011
0.553246 1 0.00790417
0.607019 1 0.0083772
0.658976 1 0.0087892
0.707988 1 0.00915541
0.751965 1 0.00944533
0.792233 1 0.00968948
0.827817 1 0.0099031
0.857588 1 0.0100557
0.883299 1 0.010193
0.905119 1 0.0102998
0.925444 1 0.132067
0.938476 1 0.241871
0.938811 1 0.329946
0.938857 1 0.411185
0.938735 1 0.477012
0.938537 1 0.526864
0.938216 1 0.57911
0.937804 1 0.634791
0.937301 1 0.692302
0.936736 1 0.745235
0.352636 1 0.00605783
0.37322 1 0.0061799
0.391836 1 0.00630198
0.40795 1 0.00640879
0.422415 1 0.0065156
0.436072 1 0.00662242
0.451911 1 0.00675975
0.47039 1 0.00691234
0.490227 1 0.0071107
0.509636 1 0.00730907
0.53315 1 0.00755322
0.560143 1 0.00781262
0.590478 1 0.00808728
0.623728 1 0.00836194
0.659144 1 0.00865187
0.695735 1 0.00892653
0.731411 1 0.00917067
0.766415 1 0.00939956
0.799847 1 0.00961318
0.830106 1 0.00979629
0.858335 1 0.0834211
0.882841 1 0.143359
0.903777 1 0.193912
0.921157 1 0.258534
0.935546 1 0.32813
0.938003 1 0.398795
0.938003 1 0.459663
0.937926 1 0.507134
0.937774 1 0.551476
0.93753 1 0.599207
0.937194 1 0.650752
0.936782 1 0.704005
0.936324 1 0.75259
0.574365 1 0.220218
0.57847 1 0.220523
0.582452 1 0.220829
0.586374 1 0.221118
0.590188 1 0.221408
0.594095 1 0.221729
0.598993 1 0.222126
0.605249 1 0.22266
0.613184 1 0.223362
0.623102 1 0.224277
0.635355 1 0.225467
0.650172 1 0.227039
0.667689 1 0.229114
0.687846 1 0.2318
0.710475 1 0.23534
0.734737 1 0.239994
0.760769 1 0.246052
0.787686 1 0.25391
0.81413 1 0.264057
0.838712 1 0.277043
0.861662 1 0.293492
0.882856 1 0.313619
0.901534 1 0.338247
0.91754 1 0.36849
0.931105 1 0.413397
0.93727 1 0.460243
0.93727 1 0.500999
0.937224 1 0.539483
0.937102 1 0.580407
0.936904 1 0.623926
0.936629 1 0.670832
0.936309 1 0.718212
0.935927 1 0.761837
0.676341 1 0.388128
0.678355 1 0.388281
0.680339 1 0.388449
0.682277 1 0.388602
0.684199 1 0.388769
0.686183 1 0.388922
0.68867 1 0.389151
0.69189 1 0.389441
0.696284 1 0.389822
0.701518 1 0.390326
0.70808 1 0.390967
0.716258 1 0.391836
0.72636 1 0.392966
0.738552 1 0.394461
0.752926 1 0.396368
0.769482 1 0.398901
0.787808 1 0.402152
0.807279 1 0.406394
0.826963 1 0.411856
0.846418 1 0.41886
0.86569 1 0.427665
0.88394 1 0.438636
0.900389 1 0.452094
0.915007 1 0.468269
0.927703 1 0.486946
0.93666 1 0.510307
0.93666 1 0.540642
0.936599 1 0.575021
0.936492 1 0.612634
0.936324 1 0.652796
0.93611 1 0.694316
0.935836 1 0.73518
0.935546 1 0.773053
0.744518 1 0.496422
0.745617 1 0.496483
0.7467 1 0.496544
0.747753 1 0.496605
0.748821 1 0.496666
0.74992 1 0.496742
0.751308 1 0.496818
0.75314 1 0.496925
0.755505 1 0.497063
0.758541 1 0.497261
0.762448 1 0.49752
0.767391 1 0.497856
0.773541 1 0.498314
0.781125 1 0.498909
0.790234 1 0.499702
0.800916 1 0.500771
0.813001 1 0.502205
0.826169 1 0.504082
0.840513 1 0.506539
0.855741 1 0.509758
0.87129 1 0.51397
0.886442 1 0.519432
0.900542 1 0.526482
0.913588 1 0.5355
0.925124 1 0.54696
0.934813 1 0.561334
0.93611 1 0.584588
0.936065 1 0.61416
0.935958 1 0.647852
0.935805 1 0.684108
0.935622 1 0.720226
0.935409 1 0.754437
0.93518 1 0.786145
0.794156 1 0.571298
0.794766 1 0.571359
0.795377 1 0.571405
0.795972 1 0.57145
0.796551 1 0.571496
0.797177 1 0.571542
0.797955 1 0.571618
0.798978 1 0.571694
0.80032 1 0.571817
