BBLuts/BB_103_0740_LUT.cube
TITLE "Generated by Resolve"
LUT_3D_SIZE 33
0.005066 0 0.0301671
0.005066 0 0.0301671
0.005066 0 0.0301671
0.005066 0 0.0301671
0.005066 0 0.0301671
0.0307774 0.00256352 0.0332494
0.0649119 0.00578317 0.0367742
0.0912795 0.00766003 0.0387579
0.119066 0.00907912 0.0401465
0.154086 0.010132 0.0408026
0.19791 0.0104372 0.040116
0.249393 0.00976577 0.0375372
0.310765 0.00819409 0.0327153
0.382467 0.00613413 0.0250401
0.467872 0.00350958 0.0146944
0.562524 0.000656138 0.00779736
0.656535 0 0.00587472
0.7449 0 0.00738537
0.821836 0.00164797 0.0104829
0.882475 0.00337224 0.0150759
0.893996 0.00369268 0.016022
0.894438 0.00358587 0.0157626
0.8607 0.173999 0.109071
0.837278 0.367346 0.174105
0.816175 0.506157 0.224399
0.79942 0.61503 0.281895
0.784268 0.695155 0.351843
0.771603 0.758373 0.455421
0.762219 0.803052 0.57435
0.755245 0.835859 0.690074
0.749935 0.860197 0.776471
0.746044 0.878508 0.815534
0.743267 0.893324 0.839826
0.005066 0 0.0301671
0.005066 0 0.0301671
0.005066 0 0.0301671
0.005066 0 0.0301671
0.005066 0 0.0301671
0.0373236 0.00326543 0.0340124
0.0673991 0.0059968 0.0369879
0.0933852 0.0077821 0.0388952
0.122545 0.00923171 0.0402533
0.158495 0.0102083 0.0408026
0.20267 0.0104219 0.0399634
0.253773 0.00967422 0.037232
0.313558 0.0081178 0.0324712
0.384375 0.00608835 0.0247501
0.469581 0.00344854 0.0145418
0.563729 0.00062562 0.00773632
0.657237 0 0.00587472
0.745205 0 0.00738537
0.821744 0.00163272 0.0104677
0.882078 0.00335698 0.0150454
0.893996 0.00369268 0.016022
0.894438 0.00358587 0.0157626
0.857816 0.210101 0.0907912
0.835019 0.382925 0.166674
0.814939 0.515648 0.220813
0.798566 0.620417 0.279759
0.783749 0.698299 0.349508
0.771344 0.760143 0.454185
0.762097 0.803998 0.573709
0.755184 0.836408 0.689708
0.749905 0.860502 0.776349
0.746014 0.878691 0.815503
0.743252 0.893431 0.839811
0.005066 0 0.0301671
0.005066 0 0.0301671
0.005066 0 0.0301671
0.005066 0 0.0301671
0.005066 0 0.0301671
0.0413367 0.00367742 0.0344549
0.0682994 0.00605783 0.0370642
0.0954147 0.00790417 0.0390173
0.126268 0.00936904 0.0403754
0.162661 0.0102693 0.0407874
0.206363 0.0103914 0.039826
0.256184 0.00961318 0.0370794
0.315892 0.00805676 0.0322423
0.386435 0.00604257 0.0244144
0.471351 0.00340276 0.014374
0.564935 0.000595102 0.00766003
0.657938 0 0.00587472
0.74551 0 0.00740063
0.821622 0.00163272 0.0104677
0.881666 0.00335698 0.0150149
0.893996 0.00369268 0.0160067
0.894438 0.00358587 0.0157626
0.85597 0.24097 0.0474861
0.832883 0.397864 0.158251
0.813733 0.524758 0.217014
0.797742 0.625528 0.277562
0.78323 0.701411 0.347234
0.771099 0.761883 0.452918
0.761975 0.804944 0.573068
0.755123 0.836957 0.689342
0.749874 0.860807 0.776211
0.745998 0.878874 0.815473
0.743236 0.893538 0.839796
0.005066 0 0.0301671
0.005066 0 0.0301671
0.005066 0 0.0301671
0.00285344 0.00453193 0.0280461
0.0121462 0.0116579 0.0287175
0.0445563 0.00404364 0.0348974
0.0687114 0.00608835 0.0370947
0.0956283 0.00791943 0.0390173
0.12694 0.0093843 0.0403906
0.164385 0.0102846 0.0407874
0.208774 0.0103761 0.0397345
0.25835 0.00956741 0.0369268
0.31812 0.00798047 0.0320287
0.388525 0.00598154 0.0240177
0.473121 0.00332647 0.0142214
0.566171 0.000564584 0.00759899
0.658625 0 0.00585946
0.745785 0 0.00741588
0.821485 0.00163272 0.0104524
0.881209 0.00334173 0.0149691
0.893996 0.00369268 0.0160067
0.894438 0.00358587 0.0157626
0.853101 0.267109 0.050248
0.830869 0.412085 0.148821
0.812573 0.533425 0.213092
0.796963 0.630243 0.275364
0.782727 0.704417 0.34609
0.770855 0.763592 0.451667
0.761852 0.805875 0.572412
0.755047 0.837491 0.688975
0.749828 0.861097 0.776089
0.745983 0.879057 0.815442
0.743221 0.893645 0.83978
0 0.0492714 0.0201724
0 0.051957 0.0198367
0 0.0545815 0.0195315
0 0.057145 0.0192416
0 0.0582284 0.0191806
0.0232853 0.0621805 0.0239109
0.0496223 0.0623789 0.0264744
0.0785229 0.0593729 0.0289464
0.113527 0.0496834 0.031754
0.165194 0.0105287 0.0411688
0.210178 0.0103609 0.0396582
0.260319 0.00952163 0.0367895
0.320272 0.00791943 0.0318303
0.390677 0.00595102 0.0234836
0.474952 0.00328069 0.0140536
0.567437 0.000534066 0.0075227
0.659327 0 0.00585946
0.746029 0 0.00743114
0.821317 0.00163272 0.0104524
0.880751 0.00332647 0.0149386
0.893996 0.00369268 0.0160067
0.878325 0.0579385 0.0174105
0.85034 0.290715 0.0522011
0.829038 0.425452 0.137652
0.81146 0.541756 0.208988
0.796201 0.634699 0.273136
0.782223 0.707378 0.344961
0.770611 0.765286 0.450446
0.761746 0.80679 0.57174
0.754986 0.838041 0.688609
0.749798 0.861402 0.775952
0.745953 0.87924 0.815396
0.743206 0.893767 0.839765
0 0.0793622 0.0168765
0 0.0814832 0.0166629
0 0.0836042 0.0164492
0 0.0852827 0.0162814
0 0.0860914 0.0162051
0.00660716 0.089662 0.0197452
0.0387274 0.0919356 0.0229343
0.0685893 0.0920119 0.0252232
0.102892 0.0894179 0.027039
0.14461 0.0819867 0.0281071
0.193774 0.0659342 0.0284581
0.262135 0.00978103 0.0372625
0.322438 0.0078584 0.0316167
0.392935 0.00588998 0.0230411
0.476905 0.00320439 0.0138857
0.568765 0.000503548 0.00746166
0.660029 0 0.00584421
0.746288 0 0.0074464
0.821149 0.00161746 0.0104372
0.880247 0.00331121 0.0148928
0.893996 0.00369268 0.0160067
0.865873 0.143328 0.0318456
0.847547 0.312993 0.0534676
0.827298 0.438773 0.122911
0.810315 0.550072 0.204517
0.795438 0.639155 0.270802
0.78172 0.710369 0.343816
0.770367 0.76701 0.449134
0.761624 0.807752 0.571084
0.754925 0.83859 0.688243
0.749767 0.861708 0.775814
0.745937 0.879423 0.815366
0.743206 0.893889 0.839734
0 0.110521 0.0138552
0 0.112291 0.0136873
0 0.114061 0.0135195
0 0.115053 0.0134279
0 0.115709 0.0133669
0 0.115999 0.0134737
0.0233616 0.121614 0.0193332
0.0572671 0.123308 0.0221561
0.0930495 0.123064 0.024155
0.135409 0.120027 0.0250401
0.183566 0.112276 0.0244755
0.238849 0.0982223 0.0223392
0.305379 0.0713817 0.0191806
0.395865 0.00607309 0.0241093
0.479423 0.0031281 0.0136568
0.570474 0.00047303 0.00737011
0.66096 0 0.00584421
0.746609 0 0.0074464
0.820905 0.00161746 0.0104067
0.879561 0.00329595 0.014847
0.893996 0.00369268 0.0160067
0.860258 0.198566 0.0415351
0.844038 0.33872 0.0542458
0.825528 0.455314 0.0895094
0.808911 0.560265 0.198428
0.794476 0.64477 0.267796
0.781094 0.714122 0.342382
0.770077 0.769177 0.447501
0.761471 0.808942 0.570214
0.754833 0.839292 0.687739
0.749722 0.862089 0.775647
0.745907 0.879683 0.81532
0.743191 0.894011 0.839719
0 0.145769 0.0103456
0 0.147311 0.010193
0 0.148501 0.010071
0 0.149264 0.00999466
0 0.149813 0.00993362
0 0.150134 0.00988785
0 0.152941 0.0126802
0.0404974 0.157946 0.0184634
0.0801862 0.15938 0.0212711
0.124102 0.158175 0.0227359
0.173678 0.153414 0.0225528
0.230518 0.14522 0.0204471
0.295689 0.132158 0.0167086
0.370825 0.109773 0.011429
0.463447 0.0631418 0.00233463
0.5729 0.000732433 0.00788891
0.662226 0 0.00582895
0.747051 0 0.00747692
0.820554 0.0016022 0.0104067
0.878614 0.00326543 0.0147707
0.870695 0.100649 0.0242771
0.854841 0.251423 0.0486458
0.839567 0.369024 0.0542611
0.823438 0.476051 0.0527962
0.807126 0.572992 0.189792
0.793225 0.652201 0.263767
0.780316 0.718929 0.340566
0.76968 0.771969 0.445335
0.761273 0.810498 0.569085
0.754726 0.840208 0.687083
0.74966 0.862608 0.775418
0.745876 0.880003 0.815259
0.74316 0.894224 0.839689
0 0.18735 0.00543221
0 0.18854 0.00527962
0 0.189212 0.00518807
0 0.189899 0.00508125
0 0.190372 0.00502022
0 0.190707 0.00497444
0 0.190951 0.00503548
0.0096437 0.197238 0.0119478
0.0604105 0.200214 0.0171969
0.107866 0.200305 0.0200198
0.160449 0.19794 0.0209201
0.220493 0.192706 0.019791
0.28864 0.184146 0.0172122
0.364218 0.171206 0.0138705
0.450324 0.152834 0.00881971
0.54374 0.127138 0.000915541
0.639445 0.087953 0
0.747753 3.0518e-05 0.00799573
0.820005 0.00158694 0.0103609
0.852735 0.106569 0.0235294
0.858976 0.207263 0.0430304
0.848447 0.305974 0.0531319
0.834134 0.404486 0.0537118
0.819928 0.501076 0.0527962
0.804929 0.588678 0.177188
0.791653 0.661646 0.258381
0.779324 0.725002 0.338231
0.769207 0.775509 0.442527
0.761028 0.812528 0.56759
0.754589 0.841398 0.686229
0.749584 0.863279 0.775113
0.745815 0.880415 0.815167
0.74313 0.894469 0.839628
0 0.235416 0
0 0.235798 0
0 0.236164 0
0 0.236484 0
0 0.236683 0
0 0.236728 0
0 0.236637 0
0 0.236408 0
0.0278172 0.245274 0.00993362
0.0846723 0.248157 0.0156863
0.141772 0.248051 0.0184176
0.206012 0.245151 0.0187991
0.278813 0.239292 0.017731
0.358282 0.230335 0.0164645
0.445197 0.219623 0.0147555
0.535882 0.207156 0.0141146
0.625818 0.194202 0.0165408
0.711131 0.183917 0.0225376
0.783337 0.190738 0.0318914
0.837552 0.227634 0.0438697
0.850263 0.287846 0.0521553
0.840482 0.362966 0.0543221
0.82797 0.44506 0.0530556
0.815946 0.53048 0.0530861
0.802289 0.607736 0.156939
0.78967 0.673518 0.251148
0.778119 0.732586 0.335363
0.768612 0.779965 0.438865
0.760723 0.815091 0.565621
0.754421 0.842924 0.685115
0.749477 0.864164 0.774716
0.745754 0.880964 0.815061
0.743084 0.894789 0.839582
0 0.288655 0
0 0.289036 0
0 0.289433 0
0 0.289708 0
0 0.289937 0
0 0.290059 0
0 0.29012 0
0 0.290013 0
0 0.289738 0
0.0485847 0.302495 0.00764477
0.114672 0.305379 0.0138705
0.184512 0.304982 0.0164797
0.263264 0.301686 0.0173037
0.348638 0.296193 0.0181125
0.438987 0.28954 0.0187686
0.530007 0.28304 0.020798
0.618082 0.278492 0.0258793
0.700923 0.278279 0.0340276
0.770947 0.289494 0.0432746
0.823957 0.318914 0.0514839
0.839765 0.364797 0.0544747
0.831266 0.423224 0.0534066
0.821241 0.491508 0.0527504
0.811276 0.563394 0.0530404
0.799496 0.630335 0.114046
0.787243 0.688151 0.241306
0.776669 0.741878 0.331838
0.767895 0.785504 0.434104
0.760327 0.818357 0.563073
0.754192 0.844877 0.683635
0.749355 0.865293 0.774182
0.745678 0.881666 0.814923
0.743038 0.895216 0.839506
0 0.353429 0
0 0.353811 0
0 0.354177 0
0 0.354467 0
0 0.354681 0
0 0.354864 0
0 0.355001 0
0 0.355047 0
0 0.35491 0
0 0.359014 0
0.072343 0.372152 0.00584421
0.152346 0.375082 0.0124666
0.238697 0.374762 0.0153658
0.331106 0.372381 0.0177615
0.426322 0.368505 0.0198825
0.520668 0.365118 0.0231632
0.608621 0.364553 0.0290837
0.689006 0.368704 0.0373083
0.755932 0.381506 0.0452583
0.806958 0.405844 0.0509957
0.828122 0.441001 0.0532845
0.821866 0.487053 0.0527504
0.814282 0.542428 0.0531319
0.805829 0.599832 0.0524758
0.796979 0.654841 0.0507515
0.784451 0.705669 0.228244
0.774975 0.753033 0.327718
0.766949 0.792126 0.433295
0.759854 0.822461 0.559731
0.753918 0.847333 0.681666
0.749187 0.866743 0.773465
0.745556 0.882582 0.814725
0.742977 0.895766 0.839399
0 0.431739 0
0 0.432105 0
0 0.432425 0
0 0.432685 0
0 0.432898 0
0 0.433082 0
0 0.433265 0
0 0.433402 0
0 0.433524 0
0 0.433692 0
0 0.445228 0
0.103182 0.456474 0.00747692
0.202228 0.459388 0.0133364
0.303212 0.459159 0.0166476
0.404028 0.45716 0.0190433
0.503578 0.455116 0.0221103
0.594797 0.455268 0.0276646
0.674403 0.459724 0.035462
0.739086 0.470863 0.043183
0.788983 0.490578 0.0493935
0.81709 0.518654 0.0531624
0.812772 0.553079 0.0531014
0.806714 0.594018 0.0525978
0.799741 0.638346 0.0513771
0.79234 0.682612 0.0495766
0.781415 0.725734 0.21149
0.773068 0.766049 0.323125
0.765835 0.799969 0.432837
0.759274 0.827497 0.555367
0.753567 0.850416 0.679103
0.748989 0.868589 0.772519
0.745434 0.883757 0.814481
0.742885 0.896483 0.839261
0 0.520562 0
0 0.520836 0
0 0.52108 0
0 0.521279 0
0 0.521447 0
0 0.521614 0
0 0.521782 0
0 0.521935 0
0 0.522042 0
0 0.522087 0
0 0.522057 0
0.0237125 0.539162 0
0.151675 0.547158 0.0127718
0.265858 0.548348 0.0162814
0.373144 0.547448 0.018555
0.479286 0.545968 0.0215
0.576806 0.546014 0.0274357
0.658946 0.549355 0.0355688
0.722499 0.557733 0.0431678
0.77084 0.571786 0.0489662
0.806622 0.591363 0.0528115
0.803372 0.615793 0.0520943
0.798733 0.644297 0.051133
0.793301 0.67686 0.0498054
0.787289 0.713619 0.0484474
0.778363 0.747982 0.189548
0.771008 0.780728 0.318502
0.764584 0.809125 0.432853
0.758602 0.83357 0.5505
0.753155 0.85417 0.675761
0.74873 0.870924 0.771282
0.745251 0.885237 0.814145
0.742779 0.897398 0.839078
0 0.602869 0
0 0.603021 0
0 0.603143 0
0 0.603235 0
0 0.603326 0
0 0.603387 0
0 0.603464 0
0 0.603525 0
0 0.60354 0
0 0.603479 0
0 0.603281 0
0 0.602945 0
0.0804608 0.623896 0.00862135
0.21857 0.628077 0.0157473
0.335134 0.628687 0.0189212
0.447913 0.627955 0.021622
0.552926 0.62768 0.0270085
0.639292 0.629496 0.0346838
0.703853 0.634485 0.0417029
0.751324 0.642893 0.0467689
0.788647 0.655253 0.0501717
0.793774 0.671733 0.0502022
0.790661 0.692821 0.0491646
0.786587 0.718074 0.0483253
0.782391 0.745663 0.0478981
0.77554 0.771664 0.160266
0.768856 0.796582 0.314656
0.763149 0.819669 0.433631
0.757656 0.840589 0.552407
0.752682 0.858656 0.671427
0.748409 0.873808 0.769619
0.745037 0.887114 0.813718
0.742641 0.898543 0.838849
0 0.672099 0
0 0.67216 0
0 0.67219 0
0 0.672236 0
0 0.672251 0
0 0.672267 0
0 0.672282 0
0 0.672251 0
0 0.672206 0
0 0.672068 0
0 0.671794 0
0 0.67129 0
0 0.677668 0
0.158419 0.695186 0.0195621
0.292195 0.696956 0.0230564
0.411612 0.696544 0.0246128
0.523674 0.695888 0.027985
0.614771 0.696559 0.0340124
0.681682 0.699535 0.0399939
0.729992 0.705333 0.044358
0.766812 0.714168 0.0472267
0.784939 0.725948 0.0483253
0.783169 0.740398 0.0479438
0.780652 0.757656 0.0478828
0.777966 0.77702 0.0480812
0.773342 0.795758 0.118532
0.766705 0.813092 0.312932
0.761578 0.831418 0.435889
0.756558 0.848569 0.555459
0.752117 0.863859 0.667109
0.748028 0.877348 0.767422
0.744778 0.889433 0.813138
0.742473 0.899992 0.838529
0 0.739101 0
0 0.739086 0
0 0.739071 0
0 0.739055 0
0 0.739025 0
0 0.738994 0
0 0.738933 0
0 0.738842 0
0 0.738689 0
0 0.73846 0
0 0.738064 0
0 0.737408 0
0 0.736477 0
0.0841077 0.757763 0.0287938
0.245899 0.761318 0.0333562
0.374029 0.760784 0.0332189
0.491936 0.759258 0.0334173
0.587015 0.758556 0.0364996
0.656779 0.759441 0.04065
0.707576 0.762112 0.0440528
0.74583 0.766781 0.046479
0.77348 0.773739 0.0480201
0.776852 0.78262 0.0483558
0.775814 0.793439 0.0484779
0.774227 0.805982 0.0489204
0.772564 0.819791 0.0495766
0.764492 0.830228 0.314534
0.759884 0.844007 0.440589
0.755352 0.857328 0.56025
0.751278 0.869764 0.671214
0.74757 0.881559 0.764462
0.744457 0.892241 0.812375
0.74226 0.901793 0.838117
0 0.794369 0.0137636
0 0.794308 0.0137331
0 0.794232 0.0137179
0 0.794171 0.0136873
0 0.794079 0.0136568
0 0.794003 0.0136263
0 0.793881 0.0135805
0 0.793713 0.0135042
0 0.793469 0.0134127
0 0.793118 0.0132753
0 0.792569 0.0130617
0 0.791775 0.0127565
0 0.790646 0.012314
0.0110628 0.805631 0.0367285
0.208591 0.813062 0.046128
0.345144 0.812055 0.0439307
0.466514 0.809522 0.0411688
0.562936 0.80766 0.0414588
0.634104 0.806989 0.0436561
0.687251 0.807477 0.0459754
0.727382 0.809216 0.0477607
0.756497 0.812497 0.0489509
0.772442 0.817288 0.0496071
0.772091 0.823651 0.0497292
0.771145 0.831708 0.0501411
0.769284 0.840589 0.0751049
0.762264 0.84715 0.32221
0.758114 0.856779 0.449012
0.754055 0.866453 0.567437
0.750332 0.876432 0.676997
0.746975 0.886366 0.764523
0.744106 0.895552 0.811368
0.742 0.90399 0.837568
0 0.835782 0.0301671
0 0.835676 0.0301213
0 0.835584 0.0300908
0 0.835477 0.030045
0 0.835355 0.0299992
0 0.835233 0.0299382
0 0.835065 0.0298924
0 0.834836 0.0297856
0 0.834531 0.0296635
0 0.834073 0.0294804
0 0.833432 0.0292363
0 0.832563 0.0289006
0 0.831388 0.0284276
0 0.841474 0.0445106
0.193576 0.851759 0.0568856
0.332067 0.850172 0.0528878
0.452049 0.846998 0.0482643
0.546441 0.844434 0.0466621
0.616327 0.842924 0.0473182
0.670115 0.842252 0.0486152
0.711406 0.84242 0.0497444
0.741878 0.843702 0.0505379
0.765621 0.846128 0.0510719
0.768704 0.849851 0.0513313
0.768505 0.854765 0.0514382
0.764736 0.858473 0.160037
0.760006 0.862943 0.338537
0.756283 0.869047 0.462684
0.752636 0.87599 0.577844
0.749249 0.883726 0.684977
0.746197 0.891691 0.768429
0.743664 0.899351 0.810498
0.741695 0.906615 0.836835
0 0.86746 0.0422827
0 0.867323 0.042237
0 0.867201 0.0421912
0 0.867063 0.0421302
0 0.866926 0.0420844
0 0.866773 0.0420233
0 0.866575 0.0419623
0 0.8663 0.0418555
0 0.865934 0.0417182
0 0.865431 0.0415351
0 0.864775 0.0412909
0 0.86389 0.0409552
0 0.862715 0.040528
0.0203403 0.877089 0.0614481
0.205936 0.881666 0.0643015
0.336034 0.879393 0.0588998
0.448386 0.875914 0.0533608
0.537026 0.87303 0.0507057
0.603601 0.871077 0.0503548
0.656107 0.869795 0.0509194
0.697292 0.869123 0.0515908
0.728786 0.869169 0.0520943
0.75378 0.869947 0.0524147
0.766186 0.871672 0.0525826
0.766293 0.874296 0.0525673
0.761318 0.874449 0.223835
0.757702 0.877028 0.365301
0.75436 0.880903 0.482673
0.751095 0.88571 0.592126
0.748074 0.891371 0.695628
0.745327 0.897429 0.773541
0.743069 0.903487 0.812192
0.741344 0.909667 0.835859
0 0.89044 0.0503243
0 0.890288 0.0502785
0 0.890135 0.0502174
0 0.889967 0.0501717
0 0.889815 0.0501259
0 0.889647 0.0500649
0 0.889433 0.0499886
0 0.889143 0.049897
0 0.888777 0.0497749
0 0.888273 0.0496071
0 0.887617 0.0493782
0 0.886748 0.0490883
0 0.885618 0.0487068
0.106874 0.903853 0.0717632
0.245762 0.903487 0.0676738
0.358663 0.900603 0.0615396
0.456977 0.897139 0.0560769
0.536019 0.894301 0.053254
0.597223 0.892241 0.0524758
0.646998 0.890684 0.0526131
0.686473 0.889601 0.0529793
0.717983 0.889006 0.0532845
0.743648 0.888899 0.0534829
0.763348 0.889464 0.0535592
0.76405 0.890822 0.0536355
0.75819 0.888548 0.286244
0.755245 0.889906 0.402731
0.752316 0.892119 0.510063
0.749462 0.895186 0.611612
0.746807 0.899046 0.70901
0.744396 0.903365 0.780102
0.742397 0.908034 0.81442
0.740887 0.913039 0.836927
0 0.907988 0.0557565
0 0.907835 0.0557107
0 0.907683 0.0556649
0 0.90753 0.0556191
0 0.907362 0.0555734
0 0.90721 0.0555276
0 0.906996 0.0554513
0 0.906706 0.055375
0 0.90634 0.0552682
0 0.905867 0.0551156
0 0.905241 0.0549325
0 0.904433 0.0546883
0.0884718 0.921752 0.0758373
0.205921 0.922026 0.072755
0.30399 0.9196 0.0674907
0.394247 0.916548 0.0616617
0.475105 0.913497 0.057145
0.541726 0.910994 0.0547341
0.596201 0.909026 0.0538643
0.641871 0.907423 0.0538033
0.678676 0.906233 0.0539864
0.709102 0.905348 0.0541848
0.734585 0.904784 0.0542916
0.754742 0.904692 0.0543069
0.75761 0.901564 0.23006
0.755154 0.900862 0.351843
0.752682 0.901213 0.450828
0.750179 0.902235 0.545724
0.747784 0.903975 0.637278
0.74548 0.906416 0.725338
0.743389 0.909407 0.788144
0.741665 0.91281 0.817288
0.740368 0.916701 0.838651
0 0.920653 0.0593576
0 0.920516 0.0593271
0 0.920348 0.0592813
0 0.920211 0.0592355
0 0.920058 0.059205
0 0.919905 0.0591592
0 0.919707 0.0591135
0 0.919463 0.0590372
0 0.919112 0.0589456
0.0190738 0.932998 0.076173
0.0951858 0.93611 0.078706
0.16524 0.936431 0.0768902
0.234653 0.935485 0.0734264
0.302739 0.933761 0.0693217
0.371374 0.931411 0.064622
0.438437 0.928832 0.0603037
0.500191 0.926406 0.0571908
0.553429 0.924346 0.055436
0.600366 0.92221 0.0546883
0.640757 0.920699 0.0545663
0.674144 0.919478 0.0546578
0.702846 0.918471 0.0547799
0.727291 0.917678 0.0548409
0.74284 0.913848 0.214817
0.753933 0.912032 0.329656
0.752209 0.911055 0.421012
0.750088 0.910735 0.506508
0.748012 0.911025 0.589151
0.746044 0.911955 0.670451
0.744091 0.913405 0.745052
0.742321 0.915328 0.797513
0.740871 0.918013 0.820951
0.739803 0.920851 0.840848
0.11281 0.947478 0.0803082
0.125902 0.947555 0.0799725
0.13843 0.94757 0.0795605
0.150301 0.94754 0.079118
0.161654 0.947478 0.0786145
0.172885 0.947387 0.0780957
0.186618 0.947219 0.077409
0.203632 0.946975 0.0765087
0.224155 0.946593 0.0753338
0.24918 0.946075 0.0738842
0.278233 0.945327 0.0720684
0.312078 0.944289 0.0697337
0.350744 0.942946 0.0669871
0.393362 0.941314 0.0639658
0.439078 0.939498 0.0610056
0.485039 0.937652 0.0585031
0.528969 0.935912 0.0567178
0.57052 0.934264 0.0556191
0.609049 0.932784 0.0551461
0.643275 0.931456 0.0550393
0.669688 0.927901 0.160311
0.694469 0.92575 0.22797
0.716136 0.924102 0.280766
0.7337 0.922515 0.347356
0.747967 0.921065 0.419562
0.748943 0.919982 0.492927
0.747555 0.919249 0.566201
0.745876 0.919081 0.637888
0.744228 0.919417 0.709758
0.742672 0.920134 0.7673
0.741238 0.921218 0.805142
0.740093 0.922683 0.825513
0.739254 0.92462 0.84361
0.320363 0.94818 0.321462
0.325521 0.947967 0.321431
0.330602 0.947768 0.321416
0.335576 0.94757 0.321416
0.340459 0.947372 0.321401
0.345418 0.947173 0.321416
0.351659 0.946914 0.321431
0.359625 0.946593 0.321477
0.369726 0.946166 0.321553
0.382406 0.945617 0.321721
0.398077 0.944945 0.322011
0.41709 0.944121 0.32253
0.439536 0.94313 0.32343
0.464912 0.942016 0.324941
0.492561 0.94078 0.327367
0.521904 0.939498 0.331044
0.552789 0.93814 0.33637
0.58378 0.936767 0.343755
0.613626 0.935424 0.353719
0.640909 0.934127 0.366735
0.666072 0.932845 0.383749
0.689113 0.931563 0.404868
0.709285 0.930343 0.430671
0.726436 0.929183 0.46186
0.740536 0.927962 0.509804
0.746181 0.926879 0.5673
0.745205 0.926009 0.627726
0.743847 0.925566 0.691875
0.742535 0.925429 0.746914
0.741283 0.925643 0.789761
0.740215 0.926116 0.812665
0.739345 0.92697 0.831052
0.738705 0.928252 0.847013
0.446326 0.944442 0.487404
0.448829 0.944396 0.487449
0.451331 0.94435 0.487526
0.453788 0.944305 0.487572
0.456199 0.944259 0.487648
0.458686 0.944213 0.487709
0.461799 0.944152 0.487816
0.465797 0.944076 0.487953
0.470939 0.943999 0.488136
0.477409 0.943877 0.488426
0.485496 0.943755 0.488792
0.495506 0.943587 0.489372
0.507729 0.94342 0.490166
0.522347 0.943221 0.491325
0.539391 0.94287 0.492958
0.558724 0.942046 0.495293
0.579858 0.941115 0.498558
0.601938 0.940169 0.503029
0.623972 0.939178 0.509041
0.645563 0.93817 0.516991
0.666804 0.937118 0.527291
0.686809 0.936065 0.540536
0.704768 0.935027 0.557351
0.720668 0.934051 0.578317
0.734386 0.93312 0.603662
0.743679 0.932204 0.643381
0.743053 0.93138 0.693675
0.742 0.93077 0.740658
0.740963 0.930388 0.780362
0.740032 0.930251 0.806073
0.739239 0.930388 0.822095
0.738628 0.930861 0.837461
0.73817 0.931655 0.851041
0.526268 0.941573 0.622843
0.527535 0.941558 0.622904
0.528817 0.941543 0.622995
0.530083 0.941527 0.623072
0.53135 0.941512 0.623148
0.532647 0.941497 0.62324
0.534295 0.941482 0.623331
0.536446 0.941466 0.623468
0.539223 0.941436 0.623652
0.542794 0.941405 0.623926
0.547356 0.94136 0.624262
0.553094 0.941314 0.62472
0.56022 0.941253 0.625376
0.568933 0.941192 0.626245
0.57966 0.941039 0.627771
0.591791 0.940978 0.629374
0.605463 0.940902 0.631571
0.620218 0.940841 0.634501
0.636164 0.94078 0.638376
0.653025 0.940719 0.643503
0.670192 0.940322 0.650248
0.686885 0.939483 0.659129
0.702388 0.938643 0.670863
0.716686 0.937804 0.685893
0.729305 0.937026 0.703822
0.739849 0.936309 0.723491
0.740734 0.935607 0.751949
0.740322 0.93489 0.781826
0.73959 0.934386 0.804517
0.738933 0.934081 0.818189
0.738399 0.934035 0.831998
0.737987 0.934234 0.844541
0.737713 0.934676 0.855634
0.581872 0.939925 0.737514
0.582559 0.93991 0.737575
0.583246 0.93991 0.737621
0.583917 0.93991 0.737682
0.584588 0.93991 0.737713
0.58529 0.93991 0.737774
0.586175 0.939895 0.73785
0.587335 0.939895 0.737942
0.588846 0.939879 0.738079
