BBLuts/BB_103_0270_LUT.cube
TITLE "Generated by Resolve"
LUT_3D_SIZE 9
0 0 0
0 0 0
0.138613 0 0
0.35523 0 0
0.675883 0 0
0.87248 0 0
0.862516 0.519936 0.0431373
0.83711 0.827939 0.280125
0.825162 0.918944 0.617365
0 0.0269627 0
0 0.0351568 0
0.140475 0.0170596 0
0.362768 0 0
0.678004 0 0
0.872374 0 0
0.859937 0.546838 0.0333715
0.836973 0.829862 0.279088
0.825162 0.919097 0.617273
0 0.157977 0
0 0.160998 0
0.0923018 0.160281 0
0.361913 0.137316 0
0.680079 0.052369 0
0.876768 0.187488 0
0.856153 0.580209 0.0140383
0.836759 0.833005 0.277501
0.825147 0.919341 0.617121
0 0.402029 0
0 0.403021 0
0 0.40412 0
0.278004 0.412146 0
0.670329 0.405707 0
0.860044 0.476493 0
0.846448 0.666926 0
0.835935 0.844221 0.275822
0.825071 0.92047 0.616403
0 0.744595 0
0 0.744595 0
0 0.74432 0
0 0.742077 0
0.585931 0.741131 0
0.80798 0.751568 0
0.835859 0.798901 0
0.833814 0.872557 0.28426
0.824796 0.92462 0.613565
0 0.922469 0
0 0.922469 0
0 0.922469 0
0 0.918502 0
0.546365 0.903578 0
0.760769 0.893751 0
0.829465 0.896162 0
0.83035 0.914244 0.325032
0.823957 0.935515 0.615457
0.466529 0.971588 0.119127
0.466529 0.971588 0.119127
0.466529 0.971588 0.119127
0.466514 0.971588 0.119142
0.630564 0.960723 0.123781
0.752285 0.954345 0.15555
0.820188 0.950774 0.244755
0.826093 0.948806 0.442908
0.822431 0.951629 0.642329
0.72668 0.963043 0.524086
0.72668 0.963043 0.524102
0.72668 0.963043 0.524102
0.72668 0.963043 0.524102
0.726665 0.963043 0.524102
0.766369 0.963272 0.531258
0.807553 0.963378 0.552239
0.821775 0.962753 0.604623
0.820905 0.962066 0.694881
0.792554 0.96173 0.724193
0.792554 0.96173 0.724193
0.792554 0.96173 0.724193
0.792554 0.96173 0.724193
0.792554 0.96173 0.724193
0.792538 0.96173 0.724193
0.807401 0.961883 0.72665
0.820661 0.961913 0.733425
0.820569 0.961868 0.750347
0 0 0.0165866
0 0 0.016846
0.137407 0 0.0142367
0.355596 0 0.00798047
0.676371 0 0
0.874083 0 0.00233463
0.863355 0.518059 0.060853
0.83711 0.827909 0.28014
0.825162 0.918944 0.61738
0 0.00497444 0.0125582
0.0089723 0.0152895 0.0111391
0.148913 0 0.0103151
0.357855 0 0.00241093
0.676295 0 0
0.872923 0 0
0.860655 0.545403 0.0476844
0.836973 0.829847 0.279103
0.825162 0.919097 0.617273
0 0.149142 0
0 0.151843 0
0.107103 0.151308 0
0.359777 0.12784 0
0.676844 0.0249332 0
0.876738 0.173861 0
0.856855 0.579156 0.0258488
0.836759 0.833005 0.277501
0.825147 0.919341 0.617121
0 0.396918 0
0 0.397833 0
0 0.398779 0
0.288563 0.406317 0
0.669963 0.400854 0
0.860166 0.472831 0
0.846525 0.666026 0
0.835935 0.844221 0.275822
0.825071 0.92047 0.616403
0 0.742901 0
0 0.742885 0
0 0.742611 0
0 0.740322 0
0.588281 0.739818 0
0.808057 0.750729 0
0.835874 0.798627 0
0.833814 0.872557 0.28426
0.824796 0.92462 0.613565
0 0.922087 0
0 0.922164 0
0 0.922164 0
0 0.918242 0
0.548318 0.903319 0
0.760952 0.893629 0
0.829465 0.896101 0
0.83035 0.914244 0.325032
0.823957 0.935515 0.615457
0.470176 0.971359 0.118822
0.470176 0.971359 0.118822
0.470161 0.971359 0.118822
0.470146 0.971359 0.118822
0.631418 0.960662 0.123583
0.752438 0.954314 0.155398
0.820218 0.950774 0.244739
0.826093 0.948806 0.442908
0.822431 0.951629 0.642329
0.726864 0.963043 0.524071
0.726864 0.963043 0.524071
0.726864 0.963043 0.524071
0.726864 0.963043 0.524071
0.726848 0.963043 0.524071
0.766445 0.963272 0.531243
0.807568 0.963378 0.552209
0.821775 0.962753 0.604623
0.820905 0.962066 0.694881
0.792569 0.96173 0.724193
0.792569 0.96173 0.724193
0.792569 0.96173 0.724193
0.792569 0.96173 0.724193
0.792569 0.96173 0.724193
0.792569 0.96173 0.724193
0.807416 0.961883 0.72665
0.820661 0.961913 0.733425
0.820569 0.961868 0.750347
0 0 0.108446
0 0 0.108644
0.114397 0 0.105806
0.36582 0 0.0946517
0.67837 0 0.0856336
0.876844 0 0.103365
0.866545 0.50869 0.166995
0.836896 0.827039 0.309255
0.825162 0.918944 0.61738
0 0 0.106569
0 0 0.106874
0.132219 0 0.10338
0.364813 0 0.0923018
0.679438 0 0.0827497
0.87657 0 0.0977188
0.864134 0.537804 0.160952
0.836744 0.828992 0.308232
0.825162 0.919097 0.617273
0 0.126909 0.0971084
0 0.129183 0.0970626
0.0986191 0.12462 0.0928817
0.348257 0.104417 0.0884108
0.677958 0 0.0760357
0.880949 0.129061 0.104631
0.860899 0.573831 0.151904
0.83653 0.832181 0.306493
0.825147 0.919341 0.617121
0 0.385245 0.0374151
0 0.386648 0.0375982
0 0.387579 0.0383917
0.290745 0.395193 0.0439918
0.669093 0.390356 0.0468299
0.864652 0.464057 0.0654459
0.851545 0.665949 0.11812
0.835752 0.843549 0.299855
0.825071 0.92047 0.616403
0 0.739681 0
0 0.739681 0
0 0.739391 0
0 0.737118 0
0.590372 0.736568 0
0.808057 0.748241 0
0.837263 0.798718 0.0100252
0.833814 0.872419 0.285573
0.824796 0.92462 0.613565
0 0.92163 0
0 0.92163 0
0 0.92163 0
0 0.91783 0
0.55172 0.902861 0
0.761379 0.893385 0
0.82948 0.895933 0
0.830365 0.914183 0.324849
0.823957 0.935515 0.615457
0.475013 0.971023 0.118379
0.475013 0.971023 0.118379
0.475013 0.971023 0.118379
0.474998 0.971023 0.118379
0.632563 0.960555 0.123308
0.752758 0.954269 0.155215
0.820249 0.950729 0.244541
0.826093 0.948806 0.442832
0.822431 0.951629 0.642329
0.727123 0.963043 0.524041
0.727123 0.963043 0.524041
0.727123 0.963043 0.524041
0.727123 0.963043 0.524041
0.727123 0.963043 0.524041
0.766537 0.963272 0.531197
0.807599 0.963378 0.552178
0.821775 0.962753 0.604608
0.820905 0.962066 0.694881
0.792584 0.96173 0.724193
0.792584 0.96173 0.724193
0.792584 0.96173 0.724193
0.792584 0.96173 0.724193
0.792584 0.96173 0.724193
0.792584 0.96173 0.724193
0.807416 0.961883 0.72665
0.820661 0.961913 0.733425
0.820569 0.961868 0.750347
0 0 0.315251
0 0 0.315343
0 0 0.315572
0.325399 0 0.304006
0.69572 0 0.291539
0.877089 0 0.311406
0.870604 0.464012 0.378866
0.835401 0.820645 0.466041
0.825055 0.918639 0.628702
0 0 0.313817
0 0 0.313939
0 0 0.313756
0.339559 0 0.301366
0.694301 0 0.289677
0.876982 0 0.308827
0.868025 0.499428 0.375601
0.835233 0.822721 0.46537
0.82504 0.918791 0.628611
0 0.0205997 0.310475
0 0.0225528 0.310567
0 0.0228428 0.310216
0.346151 0 0.29778
0.689357 0 0.286168
0.87715 0 0.30576
0.8645 0.542168 0.370413
0.834974 0.826062 0.464271
0.825025 0.919036 0.628489
0 0.336278 0.280415
0 0.337163 0.280461
0 0.339162 0.28098
0.276173 0.346105 0.287907
0.659907 0.34052 0.292256
0.870817 0.419181 0.316274
0.854032 0.6477 0.351614
0.834089 0.838056 0.460258
0.824948 0.920165 0.627863
0 0.734203 0.209644
0 0.734203 0.209644
0 0.734417 0.210346
0 0.73225 0.212879
0.589105 0.73109 0.223346
0.810636 0.743542 0.249912
0.83946 0.795361 0.30782
0.831998 0.86833 0.44686
0.824674 0.924331 0.625406
0 0.923278 0.0476387
0 0.923278 0.0476387
0 0.923278 0.0476387
0 0.919692 0.0483864
0.549432 0.904326 0.0412909
0.763439 0.895735 0.118654
0.832013 0.898131 0.232364
0.829328 0.912444 0.411582
0.823926 0.935439 0.618341
0.489525 0.970016 0.116594
0.489525 0.970016 0.116594
0.489525 0.970016 0.116594
0.489525 0.970016 0.116594
0.636057 0.96025 0.122454
0.753597 0.954131 0.154589
0.820432 0.950637 0.244236
0.826108 0.94873 0.44239
0.822431 0.951614 0.642252
0.728023 0.963058 0.523919
0.728023 0.963058 0.523919
0.728023 0.963058 0.523919
0.728023 0.963058 0.523919
0.728023 0.963058 0.523919
0.766873 0.963272 0.53106
0.807736 0.963378 0.552071
0.821775 0.962753 0.604501
0.820905 0.962051 0.69485
0.792676 0.96173 0.724178
0.792676 0.96173 0.724178
0.792676 0.96173 0.724178
0.792676 0.96173 0.724178
0.792676 0.96173 0.724178
0.792676 0.96173 0.724178
0.807446 0.961898 0.726635
0.820661 0.961913 0.73341
0.820569 0.961868 0.750347
0 0 0.621317
0 0 0.621317
0 0 0.621408
0.0555428 0 0.619501
0.664485 0 0.597131
0.876463 0 0.605127
0.884413 0.230716 0.641779
0.833997 0.803326 0.648356
0.824506 0.916197 0.701869
0 0 0.621241
0 0 0.621241
0 0 0.621302
0.0609903 0 0.618997
0.667979 0 0.596704
0.876463 0 0.604761
0.881117 0.308125 0.64239
0.833768 0.805905 0.64799
0.824506 0.91635 0.701823
0 0 0.620295
0 0 0.620295
0 0 0.620356
0.133959 0 0.616556
0.673167 0 0.595636
0.876463 0 0.603738
0.875532 0.392828 0.640558
0.833417 0.809827 0.647395
0.824475 0.916625 0.701762
0 0.12903 0.615564
0 0.12903 0.615564
0 0.132342 0.615549
0.131411 0.126818 0.614084
0.674556 0.0426795 0.598917
0.882231 0.129198 0.617182
0.861204 0.568185 0.631724
0.832166 0.824063 0.645243
0.824399 0.9178 0.701442
0 0.685176 0.582208
0 0.685176 0.582208
0 0.685237 0.582238
0 0.685008 0.58262
0.563561 0.68455 0.586709
0.804593 0.703563 0.594263
0.838026 0.770733 0.605692
0.829389 0.858976 0.639124
0.824079 0.922179 0.700236
0 0.920714 0.562875
0 0.920714 0.562875
0 0.920806 0.562814
0 0.917967 0.563149
0.499931 0.900084 0.554894
0.74992 0.887007 0.558358
0.826505 0.889738 0.581186
0.825956 0.906706 0.626368
0.82327 0.9337 0.695979
0.463996 0.967376 0.481621
0.463996 0.967376 0.481621
0.463996 0.967376 0.481621
0.463996 0.967376 0.481621
0.618189 0.956771 0.479881
0.743465 0.949737 0.492271
0.811734 0.945998 0.527382
0.823453 0.945632 0.596384
0.822095 0.950896 0.683848
0.730907 0.963088 0.523201
0.730907 0.963088 0.523201
0.730907 0.963088 0.523201
0.730907 0.963088 0.523201
0.730907 0.963088 0.523201
0.767956 0.963287 0.530571
0.808072 0.963378 0.551675
0.821775 0.962753 0.604318
0.820905 0.962066 0.694682
0.793027 0.961746 0.724132
0.793027 0.961746 0.724132
0.793027 0.961746 0.724132
0.793027 0.961746 0.724132
0.793027 0.961746 0.724132
0.793027 0.961746 0.724132
0.807584 0.961898 0.726589
0.820661 0.961913 0.733379
0.820569 0.961868 0.750332
0 0 0.784039
0 0 0.784131
0 0 0.784131
0 0 0.784146
0.454231 0 0.766644
0.872923 0 0.76231
0.877043 0 0.762951
0.841978 0.728069 0.768765
0.824475 0.910491 0.765835
0 0 0.784131
0 0 0.784131
0 0 0.784131
0 0 0.784146
0.453437 0 0.76669
0.872923 0 0.76231
0.877043 0 0.762875
0.84126 0.73402 0.768078
0.82446 0.910689 0.765805
0 0 0.784085
0 0 0.784085
0 0 0.784085
0 0 0.784085
0.465553 0 0.76611
0.873228 0 0.762234
0.877043 0 0.762768
0.840177 0.743038 0.767071
0.824445 0.910994 0.765759
0 0 0.783703
0 0 0.783703
0 0 0.783703
0 0 0.783719
0.528923 0 0.762982
0.874022 0 0.761868
0.877348 0 0.761898
0.836835 0.772244 0.763882
0.824338 0.912383 0.765591
0 0.390158 0.773053
0 0.390158 0.773053
0 0.390158 0.773053
0 0.394369 0.772915
0.508385 0.399298 0.77557
0.863523 0.437263 0.783291
0.852354 0.647181 0.771435
0.830655 0.831968 0.7579
0.823972 0.917525 0.764935
0 0.904906 0.763195
0 0.904906 0.763195
0 0.904906 0.763195
0 0.904906 0.763195
0.26038 0.892927 0.759121
0.734646 0.869978 0.745388
0.822171 0.875898 0.746761
0.825483 0.898131 0.751049
0.823041 0.930663 0.762966
0.277623 0.970855 0.747326
0.277623 0.970855 0.747326
0.278645 0.97084 0.747265
0.278645 0.97084 0.747265
0.537179 0.95581 0.736461
0.722301 0.944808 0.733181
0.800275 0.941497 0.736324
0.822278 0.942657 0.74377
0.821698 0.949432 0.758724
0.718212 0.961074 0.706798
0.718212 0.961074 0.706798
0.718212 0.961074 0.706798
0.718212 0.961074 0.706798
0.718212 0.961074 0.706798
0.755993 0.961395 0.708461
0.79913 0.961852 0.713588
0.820401 0.96202 0.726314
0.820569 0.961868 0.748867
0.794156 0.961761 0.72401
0.794156 0.961761 0.72401
0.794156 0.961761 0.72401
0.794156 0.961761 0.72401
0.794156 0.961761 0.72401
0.794156 0.961761 0.72401
0.807996 0.961898 0.726436
0.820661 0.961913 0.733257
0.820569 0.961868 0.750286
0 0 0.827955
0 0 0.827955
0 0 0.827955
0 0 0.827955
0 0 0.827955
0.796124 0 0.812284
0.877317 0 0.816052
0.877317 0 0.816052
0.826032 0.884916 0.810864
0 0 0.827955
0 0 0.827955
0 0 0.827955
0 0 0.827955
0 0 0.827955
0.796124 0 0.812284
0.877317 0 0.816052
0.877317 0 0.816052
0.826001 0.885344 0.810834
0 0 0.827955
0 0 0.827955
0 0 0.827955
0 0 0.827955
0 0 0.827955
0.796124 0 0.812284
0.877317 0 0.816052
0.877317 0 0.816052
0.825956 0.886107 0.810773
0 0 0.827955
0 0 0.827955
0 0 0.827955
0 0 0.827955
0 0 0.827955
0.800641 0 0.812482
0.877317 0 0.816052
0.877317 0 0.816052
0.825742 0.889021 0.810529
0 0 0.827955
0 0 0.827955
0 0 0.827955
0 0 0.827955
0 0 0.827955
0.832074 0 0.813931
0.877317 0 0.816052
0.879332 0.365942 0.843626
0.82501 0.89897 0.809705
0 0.721599 0.821927
0 0.721599 0.821927
0 0.721599 0.821927
0 0.721599 0.821927
0 0.725246 0.822049
0.734615 0.720714 0.820462
0.836683 0.771282 0.817197
0.828168 0.857557 0.810391
0.823468 0.920501 0.807874
0 0.977371 0.826154
0 0.977371 0.826154
0 0.977371 0.826154
0 0.977371 0.826154
0 0.977371 0.826154
0.679713 0.939773 0.803052
0.794354 0.934905 0.802976
0.822293 0.937346 0.803418
0.821622 0.946258 0.80528
0.690471 0.960647 0.797574
0.690471 0.960647 0.797574
0.690471 0.960647 0.797574
0.690471 0.960647 0.797574
0.690471 0.960647 0.797574
0.733211 0.960861 0.797467
0.790692 0.961486 0.797971
0.819242 0.961807 0.799268
0.820279 0.961715 0.802243
0.789258 0.961501 0.787991
0.789258 0.961501 0.787991
0.789258 0.961501 0.787991
0.789258 0.961501 0.787991
0.789258 0.961501 0.787991
0.789258 0.961501 0.787991
0.803204 0.961669 0.788647
0.818586 0.961822 0.790646
0.82031 0.961746 0.795361
0 0.0372931 0.82829
0 0.0372931 0.82829
0 0.0372931 0.82829
0 0.0372931 0.82829
0 0.0372931 0.82829
0 0.0373693 0.82829
0.877317 0 0.816052
0.878721 0 0.819181
0.856168 0.619257 0.840101
0 0.0372931 0.82829
0 0.0372931 0.82829
0 0.0372931 0.82829
0 0.0372931 0.82829
0 0.0372931 0.82829
0 0.0373693 0.82829
0.877317 0 0.816052
0.878721 0 0.819181
0.856168 0.619257 0.840101
0 0.0372931 0.82829
0 0.0372931 0.82829
0 0.0372931 0.82829
0 0.0372931 0.82829
0 0.0372931 0.82829
0 0.0373693 0.82829
0.877317 0 0.816052
0.878721 0 0.819181
0.856168 0.619211 0.840101
0 0.0372931 0.82829
0 0.0372931 0.82829
0 0.0372931 0.82829
0 0.0372931 0.82829
0 0.0372931 0.82829
0 0.0373693 0.82829
0.877317 0 0.816052
0.878721 0 0.819181
0.856184 0.619089 0.840101
0 0.0372015 0.82829
0 0.0372015 0.82829
0 0.0372015 0.82829
0 0.0372015 0.82829
0 0.0372015 0.82829
0 0.0372625 0.82829
0.877317 0 0.816052
0.878813 0 0.819394
0.856229 0.618738 0.840131
0 0.0359503 0.828275
0 0.0359503 0.828275
0 0.0359503 0.828275
0 0.0359503 0.828275
0 0.0359503 0.828275
0 0.0360113 0.828275
0.877317 0 0.816052
0.8804 0.0244297 0.823651
0.836851 0.768872 0.829801
0 0.901122 0.843565
0 0.901122 0.843565
0 0.901122 0.843565
0 0.901122 0.843565
0 0.901122 0.843565
0 0.903044 0.843717
0.796017 0.867826 0.826398
0.824933 0.897765 0.826108
0.822599 0.93022 0.825895
0.377249 0.970382 0.835935
0.377249 0.970382 0.835935
0.377249 0.970382 0.835935
0.377249 0.970382 0.835935
0.377249 0.970382 0.835935
0.377249 0.970382 0.835935
0.77496 0.961044 0.824445
0.817639 0.960204 0.824643
0.820447 0.960678 0.824704
0.779217 0.961242 0.822766
0.779217 0.961242 0.822766
0.779217 0.961242 0.822766
0.779217 0.961242 0.822766
0.779217 0.961242 0.822766
0.779217 0.961242 0.822766
0.794842 0.96144 0.822843
0.815457 0.961669 0.823011
0.820142 0.961639 0.82327
0 0.231174 0.829358
0 0.231174 0.829358
0 0.231174 0.829358
0 0.231174 0.829358
0 0.231174 0.829358
0 0.231174 0.829358
0 0.231235 0.829358
0.883116 0.0797131 0.83061
0.851408 0.654948 0.837476
0 0.231174 0.829358
0 0.231174 0.829358
0 0.231174 0.829358
0 0.231174 0.829358
0 0.231174 0.829358
0 0.231174 0.829358
0 0.231235 0.829358
0.883116 0.0797131 0.83061
0.851408 0.654948 0.837476
0 0.231174 0.829358
0 0.231174 0.829358
0 0.231174 0.829358
0 0.231174 0.829358
0 0.231174 0.829358
0 0.231174 0.829358
0 0.231235 0.829358
0.883116 0.0797131 0.83061
0.851408 0.654948 0.837476
0 0.231174 0.829358
0 0.231174 0.829358
0 0.231174 0.829358
0 0.231174 0.829358
0 0.231174 0.829358
0 0.231174 0.829358
0 0.231235 0.829358
0.883116 0.0797131 0.83061
0.851408 0.654948 0.837476
0 0.231174 0.829358
0 0.231174 0.829358
0 0.231174 0.829358
0 0.231174 0.829358
0 0.231174 0.829358
0 0.231174 0.829358
0 0.231235 0.829358
0.883116 0.0797131 0.83061
0.851408 0.654948 0.837476
0 0.231098 0.829358
0 0.231098 0.829358
0 0.231098 0.829358
0 0.231098 0.829358
0 0.231098 0.829358
0 0.231098 0.829358
0 0.231159 0.829358
0.883162 0.0805829 0.830716
0.851225 0.656413 0.837369
0 0.23003 0.829374
0 0.23003 0.829374
0 0.23003 0.829374
0 0.23003 0.829374
0 0.23003 0.829374
0 0.23003 0.829374
0 0.230091 0.829374
0.886473 0.19469 0.842588
0.850858 0.659068 0.837171
0 0.976577 0.847715
0 0.976577 0.847715
0 0.976577 0.847715
0 0.976577 0.847715
0 0.976577 0.847715
0 0.976577 0.847715
0 0.976776 0.847715
0.816205 0.945327 0.825864
0.821164 0.95021 0.825772
0.734142 0.960723 0.825025
0.734142 0.960723 0.825025
0.734142 0.960723 0.825025
0.734142 0.960723 0.825025
0.734142 0.960723 0.825025
0.734142 0.960723 0.825025
0.734142 0.960723 0.825025
0.810819 0.961578 0.825452
0.820417 0.961975 0.825788
