BBLuts/BB_102_0150_LUT.cube
TITLE "Generated by Resolve"
LUT_3D_SIZE 5
0.033341 0.0362249 0.0197299
0.265934 0.0336156 0.0166323
0.803738 0.0243992 0.00959792
0.968338 0.626825 0.140017
0.939315 1 0.744625
0.0087129 0.305577 0.0170138
0.215961 0.308675 0.01561
0.80264 0.144717 0.0114595
0.96347 0.690318 0.0995346
0.939223 1 0.743999
0 0.868955 0.00909438
0 0.868528 0.00909438
0.707088 0.862715 0.0110475
0.945296 0.913146 0.0113375
0.938552 1 0.739239
0.574365 1 0.220218
0.613184 1 0.223362
0.760769 1 0.246052
0.931105 1 0.413397
0.935927 1 0.761837
0.903777 1 0.847654
0.904219 1 0.8477
0.907408 1 0.848096
0.924758 1 0.851621
0.934295 1 0.878019
0.0347601 0.0382239 0.213565
0.241703 0.0363317 0.210697
0.806119 0.027985 0.203967
0.97026 0.614664 0.328542
0.939254 1 0.760388
0.015259 0.264698 0.193378
0.230259 0.259846 0.187366
0.806897 0.0278172 0.185977
0.965713 0.681987 0.308583
0.939147 1 0.759823
0 0.8654 0.00915541
0 0.864927 0.00917067
0.712276 0.859159 0.0110933
0.94757 0.913954 0.103517
0.938476 1 0.755611
0.580728 1 0.219715
0.618235 1 0.222843
0.762417 1 0.245609
0.931212 1 0.413352
0.935927 1 0.761761
0.903838 1 0.847654
0.904295 1 0.8477
0.907469 1 0.848081
0.924773 1 0.851606
0.934295 1 0.878019
0.0285039 0.03299 0.726497
0.0284886 0.03299 0.726696
0.809445 0.0261234 0.716365
0.990875 0.275914 0.735012
0.93901 1 0.832822
0.0285344 0.0330205 0.724895
0.0285344 0.0330205 0.725124
0.817395 0.0260014 0.714565
0.973449 0.547311 0.731868
0.938903 1 0.832502
0 0.821591 0.684535
0 0.821958 0.684794
0.700481 0.817288 0.68661
0.950362 0.892317 0.708324
0.93817 1 0.830182
0.583413 1 0.566995
0.619623 1 0.567971
0.760082 1 0.574563
0.926711 1 0.626566
0.935668 1 0.813291
0.904356 1 0.847593
0.904799 1 0.847639
0.907912 1 0.84802
0.924956 1 0.85156
0.934295 1 0.878019
0.0232853 0.0281376 0.965576
0.0232853 0.0281376 0.965576
0.0232853 0.0281376 0.965576
1 0.0194095 0.958175
0.94078 1 0.94342
0.0232853 0.0281376 0.965576
0.0232853 0.0281376 0.965576
0.0232853 0.0281376 0.965576
1 0.0194095 0.958175
0.940536 1 0.943145
0.0232853 0.0281376 0.965576
0.0232853 0.0281376 0.965576
0.441459 0.0269627 0.96257
1 0.0194095 0.958175
0.93904 1 0.941451
0 1 0.930327
0 1 0.93019
0.629648 1 0.931304
0.910292 1 0.932418
0.935088 1 0.936034
0.901061 1 0.91281
0.901488 1 0.912825
0.904524 1 0.912947
0.921309 1 0.914183
0.933959 1 0.923659
0 0.4056 0.964584
0 0.4056 0.964584
0 0.405615 0.964584
0 0.405814 0.964584
0.955459 0.791074 0.962142
0 0.40557 0.964584
0 0.40557 0.964584
0 0.4056 0.964584
0 0.405783 0.964584
0.955444 0.79118 0.962142
0 0.405417 0.964584
0 0.405417 0.964584
0 0.405447 0.964584
0.461814 0.38114 0.963027
0.955383 0.792065 0.962142
0 0.403922 0.964599
0 0.403922 0.964599
0 0.403952 0.964599
1 0.0194095 0.958175
0.9552 0.794903 0.962127
0.841382 1 0.959915
0.843351 1 0.95993
0.856229 1 0.960006
0.905226 1 0.960281
0.933669 1 0.960433
