BBLuts/BB_104_0210_LUT.cube
TITLE "Generated by Resolve"
LUT_3D_SIZE 33
0.00137331 0 0.00244144
0.00137331 0 0.00244144
0.00137331 0 0.00244144
0.00137331 0 0.00244144
0.00137331 0 0.00244144
0.0752422 0 0.00436408
0.170397 0 0.00456245
0.240833 0 0.00386053
0.311772 0 0.00263981
0.394659 0 0.000961318
0.488289 0 0
0.58613 0 0
0.66569 0 0
0.726741 0 0
0.798108 0 0
0.875547 0 0
0.955398 0 0
1 0 0
1 0 0
1 0 0
1 0 0
1 0 0
1 0.234836 0.000427253
0.884596 0.565637 0
0.991897 0.626337 0.0513619
1 0.678828 0.167712
1 0.742473 0.270665
1 0.798947 0.404929
1 0.841566 0.516075
1 0.874662 0.583825
0.999802 0.89958 0.653544
0.995422 0.918196 0.722698
0.991867 0.933303 0.782864
0.00137331 0 0.00244144
0.00137331 0 0.00244144
0.00137331 0 0.00244144
0.00137331 0 0.00244144
0.00137331 0 0.00244144
0.0942245 0 0.00460822
0.176944 0 0.00460822
0.246601 0 0.00378424
0.320317 0 0.00256352
0.404868 0 0.00062562
0.498482 0 0
0.59321 0 0
0.66772 0 0
0.728237 0 0
0.799573 0 0
0.876493 0 0
0.956039 0 0
1 0 0
1 0 0
1 0 0
1 0 0
1 0 0
1 0.319905 0
0.900175 0.575616 0
1 0.62681 0.0559548
1 0.681697 0.16643
1 0.745251 0.266636
1 0.800549 0.402701
1 0.842542 0.515572
1 0.875242 0.583505
0.999756 0.899901 0.653346
0.995407 0.91841 0.72256
0.991852 0.93341 0.782803
0.00137331 0 0.00244144
0.00137331 0 0.00244144
0.00137331 0 0.00244144
0.00137331 0 0.00244144
0.00137331 0 0.00244144
0.105455 0 0.0047303
0.179294 0 0.00453193
0.252079 0 0.00369268
0.329671 0 0.00236515
0.41384 0 0.000213626
0.505959 0 0
0.596979 0 0
0.66952 0 0
0.730068 0 0
0.801053 0 0
0.877668 0 0
0.95668 0 0
1 0 0
1 0 0
1 0 0
1 0 0
1 0 0
0.893385 0.411399 0
0.928191 0.579416 0
1 0.627939 0.0589456
1 0.684901 0.164981
1 0.748287 0.263493
1 0.802197 0.40119
1 0.843503 0.515068
1 0.875792 0.58323
0.999725 0.900221 0.653147
0.995377 0.918593 0.722438
0.991852 0.933516 0.782757
0.00137331 0 0.00244144
0.00137331 0 0.00244144
0.00137331 0 0.00244144
0 0.000198367 0
0.024445 0.0131075 0
0.113741 0 0.00456245
0.180362 0 0.00448615
0.252567 0 0.00369268
0.331197 0 0.00234989
0.417746 0 0.000122072
0.511116 0 0
0.600046 0 0
0.671275 0 0
0.731914 0 0
0.80238 0 0
0.878737 0 0
0.95729 0 0
1 0 0
1 0 0
1 0 0
1 0 0
1 0 0
0.87013 0.45304 0
0.962539 0.579431 0
1 0.629709 0.0601358
1 0.688106 0.1626
1 0.751064 0.261692
1 0.803876 0.399756
1 0.844404 0.514702
1 0.876326 0.583017
0.999695 0.900542 0.652964
0.995346 0.918807 0.722316
0.991852 0.933608 0.782696
0 0.0831617 0
0 0.0883955 0
0 0.0933394 0
0 0.097673 0
0 0.0995651 0
0.0798657 0.0999008 0
0.149065 0.0957809 0
0.179629 0.102739 0
0.307485 0.062974 0
0.419471 0 7.62951e-05
0.514107 0 0
0.603082 0 0
0.67303 0 0
0.733776 0 0
0.803922 0 0
0.879774 0 0
0.957916 0 0
1 0 0
1 0 0
1 0 0
1 0 0
1 0.0504921 0
0.865309 0.48365 0
0.998093 0.577768 0
1 0.632258 0.0598306
1 0.69163 0.15993
1 0.753567 0.259815
1 0.805539 0.397986
1 0.845335 0.514275
1 0.876905 0.582696
0.999649 0.900862 0.652766
0.995331 0.91899 0.722194
0.991836 0.9337 0.78265
0 0.138415 0
0 0.142382 0
0 0.14638 0
0 0.149538 0
0 0.151049 0
0.041474 0.152514 0
0.13022 0.150088 0
0.209522 0.144533 0
0.236194 0.156893 0
0.329839 0.140505 0
0.488411 0.0837873 0
0.605768 0 0
0.674723 0 0
0.735561 0 0
0.80557 0 0
0.880888 0 0
0.958434 0 0
1 0 0
1 0 0
1 0 0
1 0 0
1 0.192035 0
0.876432 0.506447 0
1 0.577676 0
1 0.63534 0.0578012
1 0.695216 0.156634
1 0.756344 0.257984
1 0.807172 0.396384
1 0.846174 0.513695
1 0.877485 0.582376
0.999603 0.901198 0.652552
0.9953 0.919203 0.722057
0.991836 0.933791 0.782589
0 0.195972 0
0 0.199161 0
0 0.202106 0
0 0.203922 0
0 0.205127 0
0 0.20557 0
0.0965133 0.205768 0
0.187213 0.202136 0
0.27715 0.195682 0
0.322377 0.204654 0
0.37789 0.204486 0
0.526131 0.158511 0
0.651194 0.090486 0
0.738125 0 0
0.807721 0 0
0.882322 0 0
0.959213 0 0
1 0 0
1 0 0
1 0 0
1 0 0
0.988922 0.319387 0
0.91812 0.523323 0
1 0.578149 0
1 0.640024 0.0526741
1 0.70013 0.152865
1 0.759777 0.256153
1 0.809186 0.393515
1 0.847395 0.512978
1 0.878126 0.581842
0.999496 0.901549 0.652247
0.99527 0.919463 0.721889
0.991821 0.933898 0.782513
0 0.259876 0
0 0.262333 0
0 0.264271 0
0 0.265675 0
0 0.266667 0
0 0.267231 0
0.00706493 0.268513 0
0.151354 0.265888 0
0.252689 0.26099 0
0.355291 0.252461 0
0.425879 0.251438 0
0.44152 0.26627 0
0.516533 0.243854 0
0.657877 0.177539 0
0.786267 0.0775616 0
0.884062 0 0
0.960357 0 0
1 0 0
1 0 0
1 0 0
1 0.119554 0
0.881758 0.428962 0
0.985168 0.532174 0
1 0.586648 0
1 0.647211 0.0429389
1 0.706523 0.146365
1 0.764065 0.253285
1 0.811948 0.390311
1 0.848997 0.512062
1 0.879042 0.581262
0.999329 0.902022 0.651804
0.995239 0.919814 0.721675
0.991775 0.934081 0.782391
0 0.331823 0
0 0.333776 0
0 0.334936 0
0 0.336126 0
0 0.33695 0
0 0.337514 0
0 0.337865 0
0.0784314 0.338186 0
0.2121 0.332341 0
0.324971 0.324681 0
0.435981 0.313741 0
0.532723 0.30454 0
0.526284 0.319966 0
0.543023 0.316884 0
0.622141 0.285542 0
0.78764 0.209293 0
0.928283 0.118212 0
1 0 0
1 0 0
1 0.130861 0
0.963745 0.340978 0
0.870832 0.499931 0
1 0.546365 0
1 0.601282 0
1 0.657847 0.025452
1 0.714702 0.137774
1 0.769543 0.249424
1 0.815427 0.386267
1 0.851026 0.510948
1 0.880293 0.580667
0.999268 0.902724 0.651377
0.995193 0.920256 0.72137
0.991684 0.934295 0.782193
0 0.410376 0
0 0.410986 0
0 0.411566 0
0 0.412039 0
0 0.412345 0
0 0.412421 0
0 0.412268 0
0 0.411734 0
0.13933 0.409506 0
0.280049 0.402609 0
0.403876 0.394003 0
0.523003 0.382437 0
0.608118 0.369512 0
0.651164 0.36231 0
0.633524 0.377493 0
0.651423 0.377508 0
0.720806 0.357198 0
0.826688 0.32546 0
0.903944 0.323491 0
0.893584 0.389563 0
0.86508 0.479652 0
0.97203 0.530556 0
1 0.570718 0
1 0.619562 0
1 0.671656 0
1 0.725048 0.127108
1 0.776608 0.245121
1 0.819684 0.381033
1 0.853697 0.509255
1 0.881895 0.579782
0.999283 0.903609 0.650889
0.995117 0.920851 0.720989
0.991638 0.934646 0.78201
0 0.491386 0
0 0.491997 0
0 0.492607 0
0 0.49305 0
0 0.49337 0
0 0.493568 0
0 0.493629 0
0 0.493507 0
0 0.492866 0
0.206546 0.48806 0
0.356481 0.479957 0
0.491814 0.469871 0
0.590051 0.458686 0
0.662669 0.446159 0
0.736736 0.432837 0
0.785931 0.428153 0
0.784131 0.443839 0
0.78645 0.461906 0
0.822477 0.47924 0
0.877256 0.508385 0
0.975982 0.531014 0
1 0.557473 0
1 0.595666 0
1 0.641245 0
1 0.689052 0
1 0.737835 0.112215
1 0.785122 0.238819
1 0.82504 0.373556
1 0.856886 0.506874
1 0.883925 0.578637
0.99913 0.90483 0.650126
0.995026 0.921614 0.720485
0.991592 0.935103 0.78172
0 0.571771 0
0 0.572122 0
0 0.572442 0
0 0.572702 0
0 0.572915 0
0 0.573083 0
0 0.573236 0
0 0.573297 0
0 0.573144 0
0.00386053 0.573541 0
0.277394 0.566278 0
0.442573 0.557702 0
0.567163 0.549035 0
0.643793 0.5411 0
0.721248 0.531838 0
0.796643 0.522957 0
0.869505 0.516014 0
0.93608 0.514641 0
0.984558 0.525505 0
1 0.545052 0
1 0.568673 0
1 0.593042 0
1 0.627359 0
1 0.666789 0
1 0.710277 0
1 0.753674 0.0923323
1 0.795544 0.232471
1 0.831662 0.372015
1 0.861112 0.50396
1 0.886397 0.576852
0.998932 0.906371 0.649287
0.994904 0.922606 0.719814
0.991516 0.935714 0.781323
0 0.631769 0
0 0.631968 0
0 0.632151 0
0 0.632288 0
0 0.63241 0
0 0.632532 0
0 0.632639 0
0 0.632731 0
0 0.632807 0
0 0.632868 0
0.0963302 0.633509 0
0.360128 0.624506 0
0.529671 0.615946 0
0.621332 0.609857 0
0.703502 0.603494 0
0.782849 0.597086 0
0.858167 0.591852 0
0.928313 0.588785 0
0.987228 0.590097 0
1 0.597742 0
1 0.6121 0
1 0.634348 0
1 0.662531 0
1 0.696056 0
1 0.734081 0
1 0.771862 0.0664836
1 0.807935 0.22475
1 0.839414 0.37026
1 0.866209 0.499336
1 0.889616 0.574899
0.998749 0.908354 0.64802
0.994781 0.923858 0.719142
0.991424 0.936477 0.780804
0 0.687358 0
0 0.687526 0
0 0.687663 0
0 0.68777 0
0 0.687861 0
0 0.687953 0
0 0.68806 0
0 0.688151 0
0 0.688228 0
0 0.688243 0
0 0.688151 0
0.199954 0.685634 0
0.465736 0.67425 0
0.592355 0.66688 0
0.68072 0.660517 0
0.765423 0.654139 0
0.845579 0.648188 0
0.917433 0.644388 0
0.975128 0.64477 0
1 0.650095 0
1 0.660792 0
1 0.678386 0
1 0.701411 0
1 0.729198 0
1 0.761517 0
1 0.792386 0.0337224
1 0.821881 0.216983
1 0.848341 0.368826
1 0.872297 0.49456
1 0.893538 0.572564
0.998383 0.910658 0.64622
0.994675 0.925383 0.718105
0.991318 0.937484 0.780118
0 0.744915 0
0 0.745022 0
0 0.745113 0
0 0.74519 0
0 0.745251 0
0 0.745296 0
0 0.745357 0
0 0.745403 0
0 0.745418 0
0 0.745373 0
0 0.74522 0
0 0.744854 0
0.342672 0.736492 0
0.554131 0.725612 0
0.651041 0.719097 0
0.741375 0.712551 0
0.826871 0.706127 0
0.901991 0.701411 0
0.960433 0.700374 0
1 0.703761 0
1 0.711406 0
1 0.724727 0
1 0.742977 0
1 0.765423 0
1 0.790326 0
1 0.81442 0
1 0.837293 0.209461
1 0.85893 0.368658
1 0.879484 0.494972
1 0.898177 0.569039
0.998077 0.913756 0.644022
0.994308 0.927291 0.716487
0.99118 0.938735 0.779232
0 0.803357 0
0 0.803403 0
0 0.803449 0
0 0.803479 0
0 0.803494 0
0 0.803494 0
0 0.80351 0
0 0.803494 0
0 0.803449 0
0 0.803326 0
0 0.803082 0
0 0.80264 0
0.0389105 0.802777 0
0.488853 0.786419 0
0.614511 0.778561 0
0.711574 0.771679 0
0.802167 0.765103 0
0.880751 0.759289 0
0.941314 0.757122 0
0.985824 0.758434 0
1 0.763439 0
1 0.772549 0
1 0.785657 0
1 0.801465 0
1 0.819501 0
1 0.837491 0
1 0.853605 0.204746
1 0.870848 0.370291
1 0.887709 0.496483
1 0.903532 0.565545
0.997681 0.917464 0.641382
0.994171 0.929732 0.714687
0.99115 0.940246 0.77821
0 0.860075 0
0 0.860059 0
0 0.860044 0
0 0.860029 0
0 0.860014 0
0 0.859968 0
0 0.859922 0
0 0.859846 0
0 0.859709 0
0 0.85951 0
0 0.859144 0
0 0.858579 0
0 0.857755 0
0.358267 0.847715 0
0.572747 0.836088 0
0.678737 0.828717 0
0.7738 0.82153 0
0.85539 0.815381 0
0.918669 0.811399 0
0.965606 0.810239 0
1 0.811978 0
1 0.816571 0
1 0.824674 0
1 0.835111 0
1 0.847166 0
1 0.860639 0
1 0.87071 0.204959
1 0.883574 0.374548
1 0.896696 0.499489
1 0.909758 0.567483
0.997208 0.921828 0.63769
0.993835 0.932769 0.712184
0.990799 0.942077 0.776577
0 0.908019 0
0 0.907973 0
0 0.907912 0
0 0.907851 0
0 0.907774 0
0 0.907698 0
0 0.907591 0
0 0.907439 0
0 0.90721 0
0 0.906889 0
0 0.906401 0
0 0.905669 0
0 0.904646 0
0.193103 0.900694 0
0.537102 0.884382 0
0.651637 0.876402 0
0.750057 0.868742 0
0.832242 0.862074 0
0.896468 0.857069 0
0.945922 0.853971 0
0.983505 0.853132 0
1 0.854566 0
1 0.858259 0
1 0.864561 0
1 0.872572 0
1 0.881483 0
1 0.887678 0.212787
1 0.896529 0.38407
1 0.906172 0.503594
0.999786 0.916671 0.57023
0.996506 0.926787 0.637003
0.993408 0.936126 0.708873
0.990478 0.944411 0.774701
0 0.944625 0
0 0.944533 0
0 0.944442 0
0 0.94435 0
0 0.944244 0
0 0.944121 0
0 0.943969 0
0 0.943755 0
0 0.943465 0
0 0.943053 0
0 0.942458 0
0 0.941711 0
0 0.940642 0
0.0995651 0.939101 0
0.522164 0.920867 0
0.637613 0.912825 0
0.735515 0.905028 0
0.815442 0.898299 0
0.878477 0.892943 0
0.928634 0.888914 0
0.967575 0.88661 0
0.996094 0.886137 0
1 0.887221 0
1 0.8907 0
1 0.895811 0
1 0.899855 0
1 0.903746 0.233524
1 0.909102 0.399298
1 0.916136 0.508461
0.998581 0.924254 0.574121
0.995819 0.932464 0.640299
0.992981 0.940215 0.705959
0.990311 0.947188 0.772351
0 0.97319 0
0 0.973068 0
0 0.972946 0
0 0.972808 0
0 0.972686 0
0 0.972549 0
0 0.972351 0
0 0.972091 0
0 0.971771 0
0 0.971374 0
0 0.97081 0
0 0.970001 0
0 0.968948 0
0.207248 0.964157 0
0.528328 0.948653 0
0.638453 0.940826 0
0.730419 0.933364 0
0.805432 0.92697 0
0.865202 0.921614 0
0.914351 0.917357 0
0.953292 0.914305 0
0.983185 0.91252 0
1 0.911955 0
1 0.913008 0
1 0.915709 0
1 0.916472 0.0656291
1 0.918135 0.268345
1 0.921447 0.420737
0.999817 0.926284 0.51516
0.997345 0.932097 0.579904
0.994858 0.938415 0.644816
0.992248 0.944457 0.709377
0.989975 0.950515 0.76907
0 0.994369 0
0 0.994217 0
0 0.994064 0
0 0.993927 0
0 0.993774 0
0 0.993606 0
0 0.993408 0
0 0.993133 0
0 0.992782 0
0 0.992309 0
0 0.991745 0
0 0.990906 0
0 0.989837 0
0.393118 0.977798 0
0.560342 0.96791 0
0.655344 0.96083 0
0.736141 0.954253 0
0.803357 0.948379 0
0.858625 0.943404 0
0.905089 0.939101 0
0.942382 0.935714 0
0.972305 0.933471 0
0.99646 0.931975 0
1 0.931411 0
1 0.932738 0
1 0.930617 0.154742
1 0.931243 0.316793
1 0.933028 0.447929
0.998322 0.936263 0.526177
0.996017 0.940169 0.588067
0.993835 0.944595 0.651118
0.991455 0.949096 0.714275
0.989395 0.953887 0.771313
0 1 0
0 1 0
0 1 0
0 1 0
0 1 0
0 1 0
0 1 0
0 1 0
0 1 0
0 1 0
0 1 0
0 1 0
0.355108 0.996796 0
0.52462 0.987594 0
0.608698 0.981765 0
0.683452 0.975784 0
0.750347 0.97026 0
0.807721 0.965148 0
0.857023 0.960586 0
0.899733 0.956466 0
0.934524 0.953246 0
0.963455 0.950759 0
0.987533 0.948775 0
1 0.947555 0
1 0.944442 0.0705425
1 0.942977 0.246281
1 0.942672 0.380102
0.998474 0.94345 0.480369
0.996643 0.945342 0.541192
0.99469 0.94789 0.599573
0.992752 0.950866 0.659709
0.990784 0.954162 0.720699
0.988891 0.957671 0.775219
0 1 0
0 1 0
0 1 0
0 1 0
0 1 0
0 1 0
0 1 0
0 1 0
0 1 0
0.200732 1 0
0.366171 1 0
0.482429 1 0
0.548348 0.999832 0
0.606851 0.995575 0
0.663935 0.991119 0
0.71899 0.986694 0
0.771038 0.982132 0
0.817838 0.977905 0
0.860533 0.973922 0
0.898375 0.970291 0
0.929961 0.967193 0
0.95729 0.964523 0
0.980423 0.962417 0
0.994629 0.957992 0.0472419
1 0.954757 0.213245
1 0.95317 0.337881
0.998367 0.952361 0.442252
0.996597 0.952743 0.509972
0.994995 0.95375 0.56112
0.993423 0.955154 0.615167
0.991608 0.957 0.671397
0.989883 0.959106 0.728862
0.988281 0.961517 0.780377
0.399802 1 0
0.423255 1 0
0.443473 1 0
0.460914 1 0
0.476875 1 0
0.491417 1 0
0.507469 1 0
0.521202 1 0
0.53904 1 0
0.560418 1 0
0.585412 1 0
0.613993 1 0
0.646159 1 0
0.681514 1 0
0.718914 0.997543 0
0.757824 0.994186 0
0.795758 0.990784 0
0.832853 0.987335 0
0.868376 0.983948 0
0.900404 0.980804 0
0.9252 0.975952 0
0.948531 0.972473 0.0666056
0.968582 0.969253 0.142977
0.984375 0.966171 0.237552
0.996994 0.963409 0.334997
0.997513 0.961608 0.426383
0.995956 0.960845 0.495705
0.99472 0.960708 0.539651
0.993454 0.961105 0.585992
0.99202 0.961776 0.635004
0.990478 0.962676 0.686915
0.988937 0.963806 0.739742
0.987411 0.965316 0.786969
0.617868 1 0.20267
0.622293 1 0.202686
0.626474 1 0.202808
0.630533 1 0.202914
0.634546 1 0.202731
0.638621 1 0.203021
0.643793 1 0.203387
0.650431 1 0.203861
0.6589 1 0.20444
0.669352 1 0.20499
0.682261 1 0.206012
0.697978 1 0.207599
0.716625 1 0.2094
0.737865 0.998749 0.211978
0.761608 0.996689 0.215747
0.787137 0.994217 0.221073
0.814298 0.991577 0.227756
0.842466 0.988678 0.237659
0.870329 0.985824 0.251194
0.895903 0.98294 0.26807
0.919585 0.980087 0.289555
0.941192 0.977371 0.316335
0.96025 0.974945 0.350683
0.976257 0.972534 0.390967
0.989303 0.970275 0.443259
0.994919 0.968734 0.495354
0.993896 0.967926 0.532326
0.992935 0.967529 0.572854
0.991714 0.967239 0.615122
0.990616 0.967437 0.659419
0.989242 0.967666 0.706371
0.988022 0.968093 0.753079
0.986862 0.969039 0.795789
0.719936 1 0.427955
0.722133 1 0.428016
0.724117 1 0.428168
0.726238 1 0.428214
0.728328 1 0.42829
0.730312 1 0.428428
0.733028 1 0.42855
0.736385 0.999863 0.428733
0.740841 0.999619 0.428916
0.746212 0.999191 0.428916
0.753185 0.998825 0.429267
0.761929 0.998383 0.429633
0.772457 0.997742 0.430213
0.785321 0.997024 0.431266
0.800885 0.995895 0.433326
0.818219 0.994171 0.435355
0.837369 0.992279 0.437888
0.857969 0.990234 0.441779
0.87863 0.987991 0.447028
0.899199 0.985855 0.454307
0.919341 0.983536 0.463249
0.938506 0.981414 0.474891
0.955322 0.979355 0.488411
0.970443 0.977432 0.502266
0.983642 0.975875 0.516793
0.992828 0.974334 0.541588
0.992081 0.973526 0.573388
0.991287 0.9729 0.60914
0.990219 0.972305 0.64744
0.989273 0.972091 0.687846
0.988083 0.971908 0.729412
0.987091 0.972091 0.769406
0.986114 0.972335 0.806195
0.789075 0.994888 0.537652
0.790265 0.994827 0.537652
0.79144 0.994766 0.537667
0.792599 0.99469 0.537667
0.793637 0.994659 0.537697
0.794781 0.994598 0.537728
0.796292 0.994522 0.537743
0.798291 0.9944 0.537743
0.800641 0.994247 0.537743
0.80383 0.993957 0.537667
0.807904 0.993759 0.537774
0.813107 0.9935 0.537896
0.81976 0.993133 0.538033
0.827726 0.992737 0.538323
0.837308 0.992065 0.538384
0.8486 0.991485 0.538903
0.861402 0.990814 0.539788
0.875227 0.989899 0.540917
0.890471 0.98909 0.542565
0.906325 0.988067 0.545068
0.922988 0.986526 0.548684
0.938857 0.984863 0.553597
0.953689 0.983246 0.560204
0.967208 0.981521 0.568902
0.979248 0.980102 0.580224
0.989181 0.978653 0.594491
0.990356 0.977783 0.61828
0.989731 0.977081 0.648463
0.988785 0.976318 0.682414
0.987961 0.975845 0.719066
0.986969 0.975402 0.754253
0.986175 0.975296 0.787793
0.985428 0.975372 0.818524
0.839673 0.990555 0.612924
0.84033 0.990524 0.61294
0.841001 0.990494 0.612955
0.841627 0.990448 0.61297
0.842283 0.990417 0.61297
0.842954 0.990372 0.612985
0.843793 0.990326 0.613016
0.844739 0.990311 0.613077
0.846204 0.990219 0.613123
