BBLuts/BB_104_0095_LUT.cube
TITLE "Generated by Resolve"
LUT_3D_SIZE 33
0 0 0
0 0 0
0 0 0
0 0 0
0 0 0
0.0380102 0 0
0.0965286 0 0
0.140002 0 0
0.184131 0 0
0.233295 0 0
0.29044 0 0
0.352956 0 0
0.421347 0 0
0.497444 0 0
0.57055 0 0
0.629816 0 0
0.691081 0 0
0.752941 0 0
0.809415 0 0
0.854307 0 0
0.865431 0 0
0.866072 0 0
0.854017 0.256703 0
0.846616 0.428321 0.00952163
0.841276 0.552056 0.0569772
0.837736 0.631724 0.109606
0.834882 0.695781 0.169345
0.832685 0.746761 0.243168
0.831159 0.785138 0.332189
0.83003 0.814923 0.419059
0.829252 0.837674 0.49984
0.828687 0.855497 0.56257
0.828275 0.869459 0.606561
0 0 0
0 0 0
0 0 0
0 0 0
0 0 0
0.0489662 0 0
0.100221 0 0
0.143038 0 0
0.189059 0 0
0.238956 0 0
0.296178 0 0
0.357412 0 0
0.422721 0 0
0.498894 0 0
0.571649 0 0
0.630396 0 0
0.691569 0 0
0.752941 0 0
0.809369 0 0
0.854017 0 0
0.8654 0 0
0.865141 0.00177005 0
0.852827 0.284077 0
0.845975 0.441642 0
0.840986 0.558145 0.0530709
0.837583 0.63473 0.107774
0.834791 0.697429 0.16875
0.832654 0.747585 0.243046
0.831128 0.785565 0.33193
0.83003 0.815152 0.418906
0.829252 0.837766 0.499779
0.828687 0.855558 0.562539
0.828275 0.86949 0.606546
0 0 0
0 0 0
0 0 0
0 0 0
0 0 0
0.0547341 0 0
0.10071 0 0
0.145418 0 0
0.193713 0 0
0.242893 0 0
0.298619 0 0
0.358434 0 0
0.424552 0 0
0.500679 0 0
0.572732 0 0
0.631205 0 0
0.691829 0 0
0.75317 0 0
0.809277 0 0
0.853697 0 0
0.865385 0 0
0.862165 0.0700694 0
0.851652 0.310964 0
0.845396 0.453941 0
0.840711 0.563897 0.0495003
0.837446 0.637415 0.106157
0.834714 0.69894 0.168215
0.832609 0.748363 0.242954
0.831113 0.785962 0.331685
0.830014 0.815366 0.418769
0.829236 0.837888 0.499702
0.828687 0.855634 0.562509
0.828275 0.86952 0.606546
0 0 0
0 0 0
0 0 0
0 0 0
0.00334173 0 0
0.0560922 0 0
0.0982834 0 0
0.142885 0 0
0.19205 0 0
0.243915 0 0
0.300908 0 0
0.360327 0 0
0.426795 0 0
0.50248 0 0
0.573785 0 0
0.6318 0 0
0.692348 0 0
0.753384 0 0
0.809186 0 0
0.853376 0 0
0.865354 0 0
0.858976 0.143191 0
0.850721 0.332311 0
0.844907 0.464424 0
0.840482 0.568795 0.0464179
0.837324 0.639826 0.104692
0.834653 0.700359 0.167712
0.832578 0.749111 0.242847
0.831098 0.786374 0.331441
0.829999 0.815579 0.418616
0.829236 0.83801 0.499626
0.828687 0.85568 0.562493
0.828275 0.869566 0.606531
0 0.0390173 0
0 0.0423133 0
0 0.0455024 0
0 0.0486305 0
0 0.0499275 0
0.0401312 0.0494392 0
0.0878004 0.0471199 0
0.135744 0.041413 0
0.189487 0.0285649 0
0.243488 0 0
0.3019 0 0
0.362341 0 0
0.428962 0 0
0.504326 0 0
0.575097 0 0
0.632639 0 0
0.692836 0 0
0.753582 0 0
0.809079 0 0
0.85301 0 0
0.865324 0 0
0.85716 0.184848 0
0.849912 0.350759 0
0.844434 0.475181 0
0.840238 0.573938 0.0424048
0.837201 0.642313 0.103044
0.834592 0.701717 0.167254
0.832532 0.749828 0.242756
0.831067 0.78677 0.331197
0.829984 0.815793 0.418494
0.829236 0.838102 0.499565
0.828672 0.855756 0.562448
0.828275 0.869596 0.6065
0 0.0760052 0
0 0.078645 0
0 0.0813916 0
0 0.0835126 0
0 0.084596 0
0.0166629 0.0847944 0
0.0747539 0.0843214 0
0.126177 0.0821241 0
0.180316 0.0775311 0
0.244831 0.0669718 0
0.299977 0.0507973 0
0.363912 0 0
0.430747 0 0
0.506279 0 0
0.576288 0 0
0.633356 0 0
0.693401 0 0
0.753811 0 0
0.808957 0 0
0.852613 0 0
0.864042 0.00909438 0
0.85565 0.219409 0
0.849195 0.366857 0
0.844022 0.484337 0
0.840009 0.578668 0.0385443
0.837079 0.644892 0.101198
0.834516 0.703227 0.166705
0.832502 0.75053 0.242649
0.831052 0.787152 0.330968
0.829984 0.816007 0.418341
0.829221 0.838224 0.499489
0.828672 0.855817 0.562432
0.828275 0.869627 0.606485
0 0.114778 0
0 0.117006 0
0 0.119173 0
0 0.1205 0
0 0.12137 0
0 0.121492 0
0.0521859 0.121462 0
0.11516 0.120638 0
0.172808 0.11841 0
0.234028 0.113832 0
0.296117 0.105165 0
0.360632 0.0908827 0
0.429953 0.0635691 0
0.507836 0 0
0.577432 0 0
0.63444 0 0
0.693828 0 0
0.753841 0 0
0.808576 0 0
0.85214 0 0
0.861158 0.0746319 0
0.854154 0.253681 0
0.848432 0.384482 0
0.843565 0.494835 0
0.83975 0.58381 0.034287
0.836927 0.647791 0.0991073
0.834424 0.705013 0.166064
0.832456 0.751522 0.242557
0.831037 0.78761 0.330678
0.829969 0.816236 0.418189
0.829221 0.838361 0.499413
0.828672 0.855879 0.562402
0.828275 0.869657 0.60647
0 0.158755 0
0 0.160678 0
0 0.162097 0
0 0.163195 0
0 0.163775 0
0 0.164157 0
0.000610361 0.164034 0
0.0895705 0.163943 0
0.159274 0.162768 0
0.224674 0.160113 0
0.290074 0.154376 0
0.357778 0.145983 0
0.428794 0.13312 0
0.50576 0.111299 0
0.576059 0.0650034 0
0.634607 0.00672923 0
0.693843 0.000335698 0
0.754086 0 0
0.808362 0 0
0.848981 0.0334783 0
0.85742 0.159136 0
0.852415 0.2934 0
0.847456 0.406424 0
0.842954 0.508324 0
0.839399 0.591119 0.0256352
0.836744 0.651637 0.0963302
0.834302 0.707424 0.165209
0.832395 0.75285 0.242435
0.830991 0.788388 0.330251
0.829953 0.816587 0.417945
0.829206 0.838544 0.499306
0.828672 0.855985 0.562356
0.82826 0.869718 0.606439
0 0.210056 0
0 0.211505 0
0 0.212497 0
0 0.213275 0
0 0.213748 0
0 0.21413 0
0 0.214023 0
0.0436103 0.213947 0
0.132464 0.212894 0
0.20763 0.210681 0
0.278981 0.207004 0
0.351659 0.201373 0
0.426734 0.193164 0
0.50573 0.180392 0
0.57409 0.162676 0
0.630884 0.137926 0
0.690455 0.101045 0
0.752605 0.0269169 0
0.805585 0.0358129 0
0.84358 0.135088 0
0.853849 0.237949 0
0.850507 0.337133 0
0.846281 0.433036 0
0.842206 0.525048 0
0.838941 0.599908 0.0119783
0.836469 0.657145 0.0921035
0.83415 0.710613 0.164065
0.832303 0.754665 0.242252
0.830945 0.789425 0.329641
0.829923 0.817182 0.417594
0.82919 0.838819 0.499138
0.828656 0.856138 0.56228
0.82826 0.86981 0.606409
0 0.267033 0
0 0.267689 0
0 0.268101 0
0 0.268437 0
0 0.26891 0
0 0.268864 0
0 0.268544 0
0 0.267765 0
0.0776989 0.267277 0
0.178393 0.266026 0
0.260548 0.263951 0
0.339971 0.260365 0
0.421073 0.254643 0
0.504372 0.245792 0
0.573114 0.235447 0
0.62916 0.223331 0
0.687022 0.210864 0
0.745342 0.201266 0
0.797284 0.208789 0
0.837324 0.246845 0
0.850614 0.309529 0
0.848356 0.386084 0
0.8448 0.466651 0
0.841306 0.54522 0
0.838407 0.609796 0
0.836103 0.664469 0.0862745
0.833936 0.715114 0.162478
0.832197 0.757107 0.242023
0.830869 0.79086 0.328832
0.829877 0.817975 0.41709
0.829175 0.839277 0.498833
0.828641 0.856352 0.562188
0.82826 0.869917 0.606348
0 0.32726 0
0 0.327886 0
0 0.328283 0
0 0.328618 0
0 0.328847 0
0 0.329015 0
0 0.329107 0
0 0.329259 0
0 0.328603 0
0.114412 0.327901 0
0.229145 0.326757 0
0.319936 0.324605 0
0.409201 0.320623 0
0.499352 0.314626 0
0.571176 0.308095 0
0.627924 0.301335 0
0.684886 0.295842 0
0.74165 0.294087 0
0.791943 0.304021 0
0.831388 0.332799 0
0.847364 0.379705 0
0.846052 0.438209 0
0.843076 0.505852 0
0.840192 0.569497 0
0.837705 0.622766 0
0.83563 0.674022 0.0793011
0.833646 0.721035 0.160372
0.832029 0.760464 0.241779
0.830777 0.792767 0.327749
0.829831 0.819059 0.416403
0.829145 0.839902 0.498421
0.828626 0.856718 0.562005
0.828244 0.870085 0.606256
0 0.396429 0
0 0.396689 0
0 0.397055 0
0 0.397635 0
0 0.397879 0
0 0.398062 0
0 0.39823 0
0 0.398322 0
0 0.39823 0
0.00196841 0.398077 0
0.161944 0.397528 0
0.285801 0.396429 0
0.388067 0.394537 0
0.487846 0.39118 0
0.565927 0.386618 0
0.624811 0.382376 0
0.682307 0.380514 0
0.737835 0.382162 0
0.786389 0.392477 0
0.824994 0.414328 0
0.844022 0.448783 0
0.843519 0.49575 0
0.84126 0.546212 0
0.838941 0.596826 0
0.836881 0.639948 0
0.835035 0.685847 0.0713207
0.83328 0.728664 0.157733
0.831815 0.764965 0.241535
0.83064 0.795453 0.327382
0.829755 0.820508 0.415518
0.829099 0.840772 0.497871
0.828611 0.857221 0.561746
0.828229 0.870375 0.606119
0 0.474922 0
0 0.47509 0
0 0.475425 0
0 0.4757 0
0 0.475929 0
0 0.476478 0
0 0.476677 0
0 0.476844 0
0 0.477012 0
0 0.477104 0
0.0501411 0.477256 0
0.21706 0.47747 0
0.351293 0.476402 0
0.46511 0.474296 0
0.55465 0.471183 0
0.617441 0.468284 0
0.67747 0.466621 0
0.733181 0.468406 0
0.78027 0.477028 0
0.81767 0.494118 0
0.840589 0.519051 0
0.841047 0.550896 0
0.839368 0.587762 0
0.83772 0.622339 0
0.835904 0.660655 0
0.834302 0.700572 0.0593423
0.832822 0.738033 0.154559
0.83154 0.770733 0.241367
0.830488 0.798993 0.327932
0.829664 0.822522 0.414389
0.829038 0.841901 0.497139
0.828565 0.857908 0.56141
0.828214 0.870787 0.605905
0 0.554223 0
0 0.554269 0
0 0.554467 0
0 0.554665 0
0 0.554818 0
0 0.554971 0
0 0.555108 0
0 0.555291 0
0 0.555703 0
0 0.555764 0
0 0.555688 0
0.100984 0.555657 0
0.287373 0.555474 0
0.428138 0.554101 0
0.534066 0.552239 0
0.604944 0.549935 0
0.669047 0.548379 0
0.726619 0.548791 0
0.773342 0.55378 0
0.809613 0.564645 0
0.836759 0.580926 0
0.838651 0.601724 0
0.837629 0.624262 0
0.836286 0.652491 0
0.834775 0.684428 0
0.833448 0.717662 0.0440528
0.832273 0.749401 0.150576
0.831205 0.777874 0.241367
0.830274 0.80354 0.328801
0.829526 0.825177 0.412985
0.828962 0.843519 0.496132
0.828519 0.858824 0.560967
0.828183 0.871321 0.605631
0 0.617533 0
0 0.617533 0
0 0.617609 0
0 0.6177 0
0 0.617761 0
0 0.617823 0
0 0.617884 0
0 0.61796 0
0 0.618006 0
0 0.617975 0
0 0.618082 0
0 0.617761 0
0.173404 0.617639 0
0.373388 0.617182 0
0.50454 0.61593 0
0.58732 0.61445 0
0.656184 0.61297 0
0.716625 0.612711 0
0.764614 0.614954 0
0.800565 0.620859 0
0.828611 0.630793 0
0.836118 0.64477 0
0.835782 0.663188 0
0.834714 0.685481 0
0.833539 0.71043 0
0.832486 0.736568 0.023331
0.831647 0.762387 0.147051
0.830793 0.786679 0.241733
0.830014 0.80911 0.330068
0.829358 0.82858 0.412894
0.828855 0.845655 0.49482
0.828458 0.860105 0.560327
0.828153 0.872038 0.605249
0 0.673884 0
0 0.673884 0
0 0.673884 0
0 0.67393 0
0 0.673961 0
0 0.673991 0
0 0.673991 0
0 0.674022 0
0 0.673991 0
0 0.673915 0
0 0.673716 0
0 0.673548 0
0.0120089 0.672999 0
0.275395 0.672541 0
0.462074 0.671748 0
0.564416 0.670222 0
0.638361 0.668681 0
0.702327 0.66772 0
0.7523 0.668833 0
0.789563 0.672663 0
0.817472 0.679637 0
0.832914 0.689952 0
0.83386 0.703059 0
0.833127 0.718975 0
0.832273 0.737072 0
0.831434 0.756573 0
0.830945 0.776776 0.143954
0.830304 0.796887 0.243458
0.829694 0.815869 0.332021
0.829175 0.832776 0.41474
0.828717 0.848402 0.494057
0.828367 0.861814 0.559472
0.828092 0.873045 0.6047
0 0.729 0
0 0.729 0
0 0.729 0
0 0.729 0
0 0.728985 0
0 0.728985 0
0 0.728954 0
0 0.728908 0
0 0.728801 0
0 0.728618 0
0 0.728328 0
0 0.72781 0
0 0.727199 0
0.16553 0.726558 0
0.399771 0.725597 0
0.537255 0.724239 0
0.616983 0.722301 0
0.684199 0.720775 0
0.736736 0.720394 0
0.775799 0.721996 0
0.805524 0.725673 0
0.826703 0.731792 0
0.831769 0.740276 0
0.831617 0.750683 0
0.831037 0.762966 0
0.830396 0.776699 0
0.830213 0.792325 0.143618
0.829786 0.808194 0.246906
0.829343 0.823575 0.3355
0.828916 0.838285 0.417304
0.828565 0.851804 0.494133
0.82826 0.863981 0.558556
0.828031 0.874403 0.603952
0 0.775738 0
0 0.775738 0
0 0.775738 0
0 0.775738 0
0 0.775738 0
0 0.775708 0
0 0.775631 0
0 0.775525 0
0 0.775326 0
0 0.775036 0
0 0.774594 0
0 0.773922 0
0 0.772961 0
0.0705119 0.771969 0
0.331624 0.771054 0
0.507973 0.76939 0
0.59823 0.767193 0
0.667185 0.765194 0
0.721019 0.763867 0
0.762188 0.763653 0
0.793561 0.764965 0
0.816159 0.76791 0
0.829221 0.772549 0
0.830259 0.779034 0
0.829892 0.787121 0
0.829496 0.796826 0
0.82948 0.808179 0.150225
0.829236 0.820157 0.253101
0.828946 0.83209 0.340688
0.828641 0.844388 0.421347
0.828367 0.856001 0.496468
0.828138 0.866651 0.557626
0.827939 0.876127 0.603021
0 0.811673 0
0 0.811673 0
0 0.811673 0
0 0.811673 0
0 0.811673 0
0 0.811673 0
0 0.811673 0
0 0.811536 0
0 0.811292 0
0 0.81088 0
0 0.8103 0
0 0.809522 0
0 0.808438 0
0.0150301 0.807233 0
0.279774 0.806088 0
0.488746 0.804501 0
0.585718 0.802213 0
0.654627 0.799863 0
0.70808 0.798123 0
0.749889 0.79707 0
0.782498 0.796963 0
0.806302 0.798138 0
0.824521 0.800534 0
0.828794 0.804288 0
0.828824 0.809354 0
0.828748 0.81593 0.0341192
0.828794 0.823697 0.166018
0.828702 0.832105 0.262699
0.828519 0.841627 0.348287
0.828336 0.85124 0.427054
0.828153 0.860868 0.500191
0.827985 0.869932 0.559274
0.827832 0.878264 0.601923
0 0.84004 0
0 0.84004 0
0 0.84004 0
0 0.84004 0
0 0.84004 0
0 0.84004 0
0 0.84004 0
0 0.84004 0
0 0.839918 0
0 0.83946 0
0 0.838727 0
0 0.837827 0
0 0.836728 0
0.0147707 0.835462 0
0.285801 0.833997 0
0.484749 0.832273 0
0.580362 0.83006 0
0.646738 0.827726 0
0.698497 0.825711 0
0.739681 0.824247 0
0.772122 0.823407 0
0.797208 0.823346 0
0.81651 0.824201 0
0.827008 0.825971 0
0.827909 0.828763 0
0.828077 0.832868 0.0762951
0.828168 0.838346 0.187854
0.828168 0.844404 0.277516
0.828107 0.851209 0.358648
0.828016 0.858656 0.43508
0.827909 0.86627 0.505211
0.827817 0.873747 0.561883
0.82771 0.880919 0.602991
0 0.860777 0
0 0.860777 0
0 0.860777 0
0 0.860777 0
0 0.860777 0
0 0.860777 0
0 0.860777 0
0 0.860777 0
0 0.860777 0
0 0.860746 0
0 0.859953 0
0 0.858915 0
0 0.85771 0
0 0.856352 0
0.337102 0.85539 0
0.498634 0.853605 0
0.583581 0.851392 0
0.6448 0.84921 0
0.693339 0.847196 0
0.732845 0.845502 0
0.764324 0.844327 0
0.789502 0.843671 0
0.809461 0.84358 0
0.82472 0.844251 0
0.827039 0.84567 0
0.827466 0.848417 0.119173
0.827619 0.851835 0.217075
0.82768 0.856001 0.297505
0.827695 0.860853 0.373007
0.827695 0.866255 0.445731
0.827665 0.872084 0.511955
0.827634 0.87805 0.565225
0.827588 0.883986 0.605142
0 0.875898 0
0 0.875761 0
0 0.875715 0
0 0.875792 0
0 0.875959 0
0 0.876219 0
0 0.876402 0
0 0.876493 0
0 0.876493 0
0 0.876493 0
0 0.876493 0
0 0.875456 0
0 0.874128 0
0.128878 0.87306 0
0.40296 0.871946 0
0.52549 0.870146 0
0.5935 0.868086 0
0.647593 0.866041 0
0.691798 0.864164 0
0.728832 0.862531 0
0.758679 0.861189 0
0.783169 0.860273 0
0.803082 0.859739 0
0.818799 0.859709 0
0.826093 0.860594 0.0766308
0.827008 0.862028 0.175463
0.827146 0.864073 0.253071
0.827253 0.866728 0.323659
0.827329 0.869993 0.391699
0.827375 0.873823 0.46009
0.82742 0.878096 0.520546
0.827436 0.882704 0.569696
0.827436 0.887388 0.608179
0 0.887602 0
0 0.887449 0
0 0.887404 0
0 0.88748 0
0 0.887663 0
0 0.887922 0
0 0.888106 0
0 0.888197 0
0 0.888197 0
0 0.888197 0
0 0.888197 0
0 0.888197 0
0 0.886961 0
0.32668 0.886198 0
0.47219 0.884764 0
0.554299 0.883055 0
0.609079 0.881209 0
0.655085 0.879377 0
0.694163 0.877653 0
0.727611 0.876066 0
0.755215 0.874754 0
0.778653 0.873686 0
0.797971 0.872908 0
0.81387 0.872786 0.0623026
0.825086 0.873014 0.156283
0.826612 0.873625 0.229557
0.82678 0.874723 0.294026
0.826902 0.876326 0.355673
0.827008 0.878462 0.415778
0.8271 0.881117 0.477378
0.827207 0.884169 0.53196
0.827253 0.887495 0.575692
0.827283 0.891035 0.612146
0.292714 0.896605 0
0.292744 0.89659 0
0.292576 0.896635 0
0.292317 0.896696 0
0.291752 0.896834 0
0.290929 0.897032 0
0.290394 0.897169 0
0.29012 0.897231 0
0.290105 0.897231 0
0.290089 0.897231 0
0.290089 0.897231 0
0.290059 0.897231 0
0.290013 0.897231 0
0.430915 0.896132 0
0.530221 0.89456 0
0.583764 0.892943 0
0.628168 0.891325 0
0.666102 0.889738 0
0.699855 0.888197 0
0.72929 0.886763 0
0.754284 0.885664 0.015671
0.776196 0.884794 0.0761578
0.794705 0.884047 0.121324
0.809934 0.883604 0.172412
0.822461 0.883421 0.227985
0.826078 0.883528 0.283162
0.826474 0.884016 0.337972
0.826612 0.884886 0.391272
0.826749 0.886198 0.445762
0.826856 0.887877 0.498131
0.826978 0.889937 0.545998
0.82707 0.892241 0.583719
0.827146 0.894728 0.617075
0.522667 0.903655 0.153704
0.522881 0.903593 0.153765
0.522942 0.903563 0.153796
0.522805 0.903609 0.15375
0.52253 0.9037 0.153658
0.522118 0.903838 0.153506
0.521843 0.903929 0.153414
0.521706 0.903975 0.153368
0.521706 0.903975 0.153368
0.521691 0.903975 0.153368
0.521691 0.903975 0.153368
0.521691 0.903975 0.153368
0.521675 0.903975 0.153368
0.521675 0.903975 0.153368
0.568109 0.902724 0.156268
0.613153 0.901228 0.160647
0.648737 0.89984 0.165866
0.680034 0.898497 0.172168
0.708629 0.897169 0.180499
0.733669 0.895933 0.190845
0.755703 0.89482 0.2038
0.775525 0.893828 0.219715
0.792508 0.893019 0.239368
0.806897 0.892363 0.262333
0.818982 0.891966 0.296407
0.825376 0.891783 0.338399
0.826261 0.891844 0.383413
0.826413 0.892226 0.43061
0.826551 0.892897 0.478309
0.826673 0.893904 0.521813
0.826795 0.895155 0.561456
0.826917 0.896651 0.593515
0.827008 0.898375 0.623514
0.6094 0.905837 0.283543
0.609476 0.905806 0.283574
0.609644 0.90573 0.283665
0.609796 0.905669 0.283757
0.609812 0.905669 0.283757
0.609659 0.90573 0.28368
0.609491 0.905791 0.283589
0.6094 0.905837 0.283543
0.6094 0.905837 0.283543
0.6094 0.905837 0.283543
0.6094 0.905837 0.283543
0.6094 0.905837 0.283543
0.6094 0.905837 0.283543
0.6094 0.905837 0.283543
0.609384 0.905837 0.283543
0.637827 0.905913 0.285634
0.669032 0.905882 0.288823
0.695354 0.904814 0.292592
0.718746 0.9037 0.2972
0.739666 0.902647 0.303334
0.758633 0.901656 0.311025
0.776349 0.900725 0.320806
0.791669 0.899901 0.333104
0.804959 0.899245 0.348791
0.816373 0.898711 0.367483
0.824765 0.89836 0.395514
0.826123 0.898207 0.431937
0.826261 0.898253 0.472236
0.826413 0.898543 0.510811
0.826551 0.899062 0.547387
0.826673 0.899779 0.57705
0.826795 0.90071 0.605188
0.826886 0.901823 0.631189
0.666468 0.90631 0.384955
0.666468 0.90631 0.384955
0.666468 0.90631 0.384955
0.666545 0.906279 0.385
0.666621 0.906249 0.385046
0.666697 0.906218 0.385092
0.666621 0.906249 0.385046
0.666545 0.906279 0.385
0.666453 0.90631 0.384955
0.666453 0.90631 0.384955
0.666453 0.90631 0.384955
0.666453 0.90631 0.384955
0.666453 0.90631 0.384955
0.666453 0.90631 0.384955
0.666438 0.90631 0.384955
0.666438 0.90631 0.384955
0.687053 0.906371 0.38674
0.710323 0.906447 0.389487
0.729458 0.906508 0.392706
0.746685 0.906554 0.396658
0.762997 0.906508 0.401846
0.778347 0.905959 0.408438
0.791882 0.905211 0.416876
0.803967 0.904555 0.427756
0.814481 0.904021 0.441901
0.823285 0.903593 0.458717
0.825879 0.903319 0.483024
0.8262 0.903181 0.5122
0.826322 0.903197 0.54287
0.826459 0.90341 0.569802
0.826581 0.903761 0.59469
0.826688 0.90425 0.618357
0.826795 0.904891 0.640146
0.708186 0.906722 0.474128
0.708186 0.906722 0.474128
0.708186 0.906722 0.474128
0.708186 0.906722 0.474128
0.708186 0.906722 0.474128
0.708186 0.906722 0.474128
0.708186 0.906722 0.474128
0.708186 0.906722 0.474128
0.708186 0.906722 0.474128
