BBLuts/BB_101_0180_LUT.cube
TITLE "Generated by Resolve"
LUT_3D_SIZE 33
0.0245212 0.0245212 0.0245212
0.0245212 0.0245212 0.0245212
0.0245212 0.0245212 0.0245212
0.0245212 0.0245212 0.0245212
0.0245212 0.0245212 0.0245212
0.0855573 0.0242161 0.0242618
0.156237 0.0247959 0.0249332
0.207355 0.0251011 0.0252995
0.258717 0.0251316 0.0253605
0.31989 0.0245518 0.0248264
0.391791 0.0230259 0.023331
0.471077 0.020325 0.0206302
0.549798 0.0165866 0.0168765
0.613046 0.0123751 0.0126345
0.677958 0.00767529 0.00791943
0.746639 0.00364691 0.00390631
0.813428 0.00224308 0.00257877
0.875456 0.00415045 0.004654
0.929061 0.00799573 0.0087129
0.971054 0.0116426 0.0125277
0.97911 0.012192 0.0131075
0.97911 0.012192 0.0131075
0.987793 0.238544 0.0950942
0.995911 0.481971 0.162768
0.996933 0.604837 0.215579
0.997497 0.685023 0.27599
0.996628 0.756436 0.350149
0.995636 0.813153 0.459174
0.99469 0.853071 0.568765
0.993881 0.882109 0.640314
0.993027 0.903441 0.710002
0.992294 0.919448 0.776028
0.991928 0.932403 0.830076
0.0245212 0.0245212 0.0245212
0.0245212 0.0245212 0.0245212
0.0245212 0.0245212 0.0245212
0.0245212 0.0245212 0.0245212
0.0245212 0.0245212 0.0245212
0.0998856 0.0243229 0.0243992
0.161151 0.0248264 0.024979
0.211414 0.0251164 0.0253147
0.265064 0.0251011 0.02533
0.327428 0.024445 0.0247196
0.399222 0.0228122 0.0231022
0.477729 0.0200656 0.0203708
0.552895 0.0164187 0.0166934
0.614557 0.0122683 0.0125277
0.67924 0.00758373 0.00782788
0.747524 0.00361639 0.00386053
0.813916 0.00224308 0.00257877
0.875669 0.00416571 0.004654
0.929 0.00799573 0.00869764
0.970779 0.0116274 0.0125124
0.97911 0.012192 0.0131075
0.97911 0.012192 0.0131075
0.990082 0.285527 0.0793927
0.995956 0.499413 0.155459
0.997024 0.611215 0.21178
0.997452 0.689326 0.273671
0.996582 0.759243 0.347601
0.995636 0.81474 0.457771
0.994705 0.85391 0.568246
0.993881 0.882597 0.64007
0.993042 0.903716 0.709865
0.992309 0.919615 0.775952
0.991943 0.932509 0.830014
0.0245212 0.0245212 0.0245212
0.0245212 0.0245212 0.0245212
0.0245212 0.0245212 0.0245212
0.0245212 0.0245212 0.0245212
0.0245212 0.0245212 0.0245212
0.108385 0.0243839 0.0244755
0.162829 0.0248417 0.0249943
0.215274 0.0251316 0.02533
0.271687 0.0250553 0.0252995
0.334417 0.0243229 0.0246128
0.404898 0.0226291 0.0229343
0.481209 0.0199283 0.0202335
0.555444 0.0162814 0.016556
0.616159 0.0121462 0.0124056
0.680552 0.00749218 0.00773632
0.748363 0.00357061 0.00383001
0.81442 0.00224308 0.00257877
0.875868 0.00416571 0.00466926
0.928923 0.00798047 0.00869764
0.970489 0.0115969 0.0124819
0.97911 0.012192 0.0131075
0.97911 0.012192 0.0131075
0.991592 0.323674 0.0429541
0.995972 0.515038 0.147311
0.997086 0.617395 0.207828
0.997406 0.693523 0.271321
0.996536 0.762005 0.345129
0.995636 0.816281 0.456367
0.99472 0.854749 0.567742
0.993896 0.883085 0.639841
0.993042 0.90399 0.709712
0.992309 0.919768 0.77586
0.991943 0.932601 0.829969
0.0245212 0.0245212 0.0245212
0.0245212 0.0245212 0.0245212
0.0245212 0.0245212 0.0245212
0.0244297 0.0311284 0.0243229
0.0535744 0.0379644 0.0245212
0.114885 0.024445 0.0245365
0.163607 0.0248569 0.0249943
0.215625 0.0251316 0.02533
0.272831 0.0250553 0.0252995
0.337255 0.0242771 0.0245518
0.408576 0.0225223 0.0228275
0.484337 0.0198062 0.0200961
0.557885 0.016144 0.0164187
0.617777 0.0120241 0.0122988
0.681865 0.00740063 0.00764477
0.749249 0.00354009 0.0037995
0.814908 0.00225834 0.00259403
0.876066 0.00418097 0.00468452
0.928817 0.00798047 0.00868238
0.970169 0.0115816 0.0124514
0.97911 0.012192 0.0131075
0.97911 0.012192 0.0131075
0.992859 0.356985 0.0457008
0.995972 0.529183 0.138048
0.997116 0.623392 0.203708
0.99736 0.697627 0.268971
0.996506 0.764675 0.343893
0.995636 0.817807 0.454963
0.99472 0.855589 0.567208
0.993912 0.883574 0.639612
0.993042 0.90425 0.709575
0.992309 0.919936 0.775769
0.991943 0.932692 0.829923
0.0257267 0.0912642 0.0247807
0.0258335 0.0949721 0.0248112
0.0259098 0.098558 0.0248417
0.0259861 0.101991 0.0248722
0.0260166 0.103349 0.0248875
0.106218 0.102373 0.0247654
0.158892 0.0996567 0.0248569
0.21268 0.0930953 0.0249027
0.271763 0.0776684 0.0247196
0.338521 0.0242466 0.0245365
0.410712 0.022446 0.0227512
0.487114 0.0196841 0.0199893
0.560235 0.0160067 0.0162814
0.619425 0.011902 0.0121767
0.683223 0.00730907 0.00755322
0.750134 0.00349432 0.00375372
0.815381 0.00225834 0.00259403
0.876234 0.00419623 0.00469978
0.92871 0.00796521 0.00868238
0.969863 0.0115511 0.0124208
0.97911 0.012192 0.0131075
0.98027 0.0825513 0.0162966
0.99379 0.386374 0.0476234
0.995956 0.542046 0.127184
0.997147 0.629221 0.199435
0.997314 0.701656 0.266606
0.996475 0.767285 0.342672
0.995636 0.819303 0.453605
0.994736 0.856397 0.56669
0.993912 0.884047 0.639368
0.993057 0.904509 0.709422
0.992309 0.920104 0.775692
0.991943 0.932784 0.829877
0.0266728 0.131884 0.0251316
0.0267491 0.134798 0.0251621
0.0268101 0.137667 0.0251774
0.0268559 0.13994 0.0251926
0.0268711 0.141009 0.0251926
0.0832227 0.140734 0.0249332
0.150515 0.139681 0.0249027
0.208011 0.136965 0.0248875
0.269535 0.130968 0.0245518
0.338399 0.118837 0.0234531
0.411429 0.0949569 0.0214694
0.489525 0.0195773 0.0198825
0.562585 0.0158694 0.016144
0.62118 0.01178 0.0120394
0.684672 0.00721752 0.00746166
0.75108 0.00344854 0.00370794
0.815885 0.00225834 0.00259403
0.876417 0.00419623 0.00469978
0.928588 0.00796521 0.00866712
0.969497 0.0115053 0.0123903
0.97911 0.012192 0.0131075
0.985336 0.196353 0.0285344
0.994476 0.41294 0.0489357
0.995926 0.554314 0.112932
0.997162 0.635157 0.194797
0.997253 0.70576 0.264088
0.996429 0.76994 0.341421
0.995651 0.820829 0.452155
0.994751 0.857252 0.56614
0.993927 0.884535 0.639139
0.993057 0.904784 0.709285
0.992325 0.920272 0.775586
0.991943 0.932891 0.829831
0.0274815 0.174243 0.0252995
0.027512 0.176669 0.0253147
0.0275578 0.179065 0.0252995
0.0275731 0.180407 0.0252995
0.0275883 0.181277 0.0252995
0.0275883 0.181598 0.0252995
0.132052 0.18085 0.0249332
0.198886 0.179583 0.0249638
0.264683 0.176349 0.0247044
0.336812 0.169558 0.0236667
0.411826 0.156802 0.0215915
0.491722 0.136217 0.0184176
0.564904 0.0982223 0.0143893
0.623423 0.0116121 0.0118715
0.686534 0.00708019 0.00732433
0.7523 0.00340276 0.00366217
0.816541 0.00225834 0.00259403
0.876646 0.00421149 0.00471504
0.928405 0.00794995 0.00865187
0.969024 0.0114748 0.0123445
0.97911 0.012192 0.0131075
0.989105 0.269062 0.0373388
0.99501 0.444068 0.049836
0.995834 0.568551 0.0814221
0.997177 0.642527 0.18854
0.997192 0.710933 0.260884
0.996399 0.773281 0.339864
0.995651 0.822766 0.45034
0.994766 0.85832 0.565454
0.993942 0.885161 0.638819
0.993072 0.905135 0.709102
0.992325 0.920485 0.775464
0.991943 0.933028 0.829755
0.0279393 0.222309 0.0250401
0.0279545 0.224414 0.0250095
0.0279545 0.225986 0.0249943
0.0279545 0.227024 0.024979
0.0279545 0.227771 0.0249638
0.0279545 0.228183 0.0249638
0.0677653 0.228 0.0247501
0.17966 0.22739 0.0248112
0.254398 0.225788 0.0248112
0.330602 0.221134 0.0240787
0.409522 0.212085 0.0222934
0.493889 0.198672 0.0193179
0.568994 0.179202 0.0155184
0.626535 0.148028 0.0112154
0.688609 0.0840162 0.00585946
0.753933 0.00334173 0.00360113
0.817426 0.00225834 0.00260929
0.876936 0.00422675 0.00474556
0.928161 0.00791943 0.00863661
0.968368 0.0114137 0.0122835
0.982498 0.139452 0.0217594
0.992111 0.336629 0.0440833
0.995331 0.481315 0.0500801
0.995773 0.584176 0.0490883
0.997162 0.651896 0.17969
0.997101 0.71754 0.25658
0.996353 0.777539 0.337865
0.995666 0.825238 0.447944
0.994781 0.859693 0.564538
0.993957 0.885985 0.638422
0.993072 0.905592 0.708843
0.992325 0.920775 0.775326
0.991943 0.933196 0.829679
0.0275578 0.277974 0.0237888
0.0275273 0.279561 0.0237278
0.027512 0.280446 0.0236973
0.0274968 0.281346 0.0236515
0.0274815 0.281971 0.0236362
0.0274662 0.282399 0.023621
0.0274662 0.282673 0.0236057
0.131563 0.282368 0.0236667
0.231861 0.280919 0.0243076
0.316258 0.277516 0.0242466
0.40206 0.271427 0.0230869
0.492775 0.261921 0.0207218
0.572473 0.248447 0.0176089
0.631403 0.229709 0.014435
0.694224 0.204227 0.0107729
0.757977 0.169406 0.00732433
0.819562 0.117311 0.00479133
0.877333 0.00425727 0.00476081
0.927779 0.00790417 0.00859083
0.971054 0.147158 0.0213931
0.989654 0.280262 0.0385901
0.994278 0.404395 0.0485695
0.995483 0.519692 0.0498054
0.995972 0.599725 0.049073
0.997086 0.663645 0.166674
0.996979 0.725933 0.250843
0.996307 0.78294 0.335317
0.995682 0.828397 0.444846
0.994812 0.861509 0.563317
0.993988 0.887037 0.637873
0.993088 0.906188 0.708507
0.99234 0.921141 0.775097
0.991958 0.93341 0.829557
0.0257115 0.340963 0.0208896
0.0256962 0.341466 0.0208591
0.0256809 0.341955 0.0208286
0.0256657 0.342336 0.0208133
0.0256504 0.342596 0.020798
0.0256504 0.342657 0.020798
0.0256504 0.342535 0.020798
0.0256657 0.342092 0.0208286
0.1841 0.341894 0.0222934
0.290333 0.340688 0.0234684
0.386709 0.337011 0.0232853
0.485679 0.330282 0.0217594
0.572763 0.320287 0.0195468
0.635508 0.306966 0.0176242
0.700221 0.292027 0.0158389
0.764355 0.275502 0.0151675
0.826429 0.259281 0.0168307
0.884794 0.247608 0.0213321
0.935668 0.257832 0.0289158
0.977539 0.306065 0.0395666
0.993667 0.382437 0.0473793
0.9953 0.474113 0.0500954
0.995621 0.558801 0.0493324
0.996277 0.619486 0.0492103
0.996963 0.678187 0.146075
0.996826 0.736446 0.243153
0.996246 0.789929 0.332189
0.995712 0.832364 0.440848
0.994858 0.863783 0.56173
0.994018 0.888411 0.637186
0.993118 0.906981 0.708064
0.992355 0.92163 0.774838
0.991958 0.933715 0.829404
0.0226139 0.408591 0.0166018
0.0225986 0.409064 0.0165713
0.0225681 0.409552 0.0165255
0.0225528 0.409903 0.0165103
0.0225376 0.410178 0.0164797
0.0225223 0.410346 0.0164797
0.0225223 0.410391 0.0164645
0.0225223 0.410269 0.0164797
0.0225528 0.409766 0.0165103
0.241398 0.411368 0.020676
0.357671 0.410285 0.0221714
0.468376 0.406332 0.0218814
0.567483 0.399512 0.0207523
0.636942 0.39086 0.0201267
0.704952 0.381537 0.0198672
0.770123 0.372885 0.0210422
0.832044 0.367453 0.0248417
0.889921 0.368017 0.0314488
0.93962 0.383276 0.0394751
0.979263 0.41973 0.0471046
0.9953 0.47628 0.0500954
0.995544 0.538369 0.0495918
0.99588 0.593561 0.0490578
0.99649 0.643046 0.0489967
0.996689 0.695842 0.103761
0.996628 0.749416 0.232776
0.996216 0.798184 0.328344
0.995758 0.837278 0.435721
0.994919 0.866697 0.55964
0.994049 0.89015 0.636255
0.993133 0.907988 0.7075
0.992355 0.922255 0.774472
0.991974 0.934081 0.829221
0.0186313 0.489082 0.0111086
0.018616 0.48954 0.0110781
0.0185855 0.489952 0.0110475
0.0185702 0.490288 0.0110323
0.0185702 0.490532 0.0110018
0.018555 0.49073 0.0110018
0.0185397 0.490883 0.0109865
0.0185397 0.490944 0.0109865
0.018555 0.490791 0.0109865
0.0845197 0.491127 0.0125124
0.30312 0.494362 0.0192721
0.435019 0.493294 0.0209354
0.553506 0.489723 0.0208286
0.632822 0.484718 0.0210727
0.705242 0.478691 0.0216983
0.773312 0.473991 0.0237278
0.835599 0.473442 0.0282444
0.892226 0.479088 0.0350042
0.939803 0.494469 0.0419471
0.977295 0.520867 0.0472725
0.995605 0.555123 0.0493935
0.99585 0.59089 0.0490578
0.996368 0.627924 0.0491798
0.996551 0.670558 0.0482795
0.996384 0.71696 0.0463264
0.996429 0.764904 0.218997
0.996201 0.808087 0.323827
0.995789 0.843168 0.434806
0.99498 0.870359 0.556878
0.99411 0.892348 0.63505
0.993164 0.909285 0.706722
0.992386 0.923079 0.773999
0.991974 0.934585 0.828962
0.016495 0.568322 0.00712596
0.016495 0.568643 0.0071107
0.016495 0.568933 0.0071107
0.016495 0.569162 0.00709544
0.016495 0.569345 0.0071107
0.016495 0.569512 0.00709544
0.016495 0.569665 0.00709544
0.016495 0.569787 0.00709544
0.016495 0.569894 0.00709544
0.016495 0.569986 0.00709544
0.165667 0.572519 0.0128176
0.376623 0.575341 0.0198367
0.525582 0.574395 0.0208896
0.621073 0.571923 0.0212558
0.698787 0.568811 0.0218051
0.771176 0.566339 0.0234836
0.835889 0.5664 0.0275731
0.891997 0.570611 0.0338903
0.937819 0.580194 0.0404669
0.973968 0.592844 0.0459754
0.996155 0.611399 0.0491798
0.996429 0.635569 0.0491035
0.996551 0.666117 0.0484169
0.99646 0.701915 0.0470283
0.996231 0.741741 0.0451362
0.996292 0.78262 0.201083
0.996216 0.819638 0.318807
0.99585 0.850156 0.434211
0.995087 0.874846 0.553262
0.994171 0.895094 0.633478
0.99321 0.910933 0.70573
0.992401 0.924117 0.773373
0.991989 0.93521 0.828611
0.0189975 0.630579 0.00756847
0.0190127 0.630777 0.00756847
0.0190127 0.630945 0.00756847
0.019028 0.631098 0.00756847
0.0190433 0.63122 0.00758373
0.0190433 0.631342 0.00758373
0.0190433 0.631449 0.00758373
0.0190585 0.631571 0.00758373
0.0190585 0.631647 0.00758373
0.0190585 0.631678 0.00758373
0.0190585 0.631571 0.00758373
0.256092 0.634913 0.0179446
0.473716 0.635523 0.0221866
0.601495 0.633707 0.0218051
0.68542 0.63154 0.0218204
0.7635 0.629679 0.0231327
0.832822 0.629511 0.0273747
0.890654 0.632059 0.0338445
0.935409 0.638407 0.0402075
0.969955 0.649073 0.045243
0.996551 0.664073 0.0484779
0.996536 0.683101 0.0478218
0.996429 0.707485 0.0467689
0.996262 0.736645 0.0453803
0.996109 0.769375 0.0438849
0.996246 0.802441 0.177981
0.996292 0.832654 0.313741
0.995941 0.85832 0.434089
0.995209 0.880247 0.549142
0.994263 0.898436 0.631449
0.993271 0.913008 0.704433
0.992432 0.925444 0.772564
0.992004 0.936034 0.828153
0.0231022 0.694072 0.00952163
0.0231174 0.694179 0.00952163
0.0231174 0.694286 0.00953689
0.0231174 0.694362 0.00953689
0.0231327 0.694438 0.00953689
0.0231327 0.694484 0.00953689
0.0231479 0.694545 0.00955215
0.0231479 0.694591 0.00953689
0.0231479 0.694606 0.00955215
0.0231479 0.69456 0.00955215
0.0231174 0.694392 0.00953689
0.0230869 0.693996 0.00952163
0.378454 0.697536 0.0220493
0.571893 0.696162 0.022446
0.665446 0.694286 0.0224613
0.749828 0.692378 0.023209
0.824674 0.691676 0.0267643
0.88542 0.693248 0.0327306
0.930632 0.697841 0.038529
0.96408 0.705867 0.0428626
0.99086 0.717388 0.0458381
0.996292 0.732067 0.0456092
0.996185 0.750896 0.0446937
0.996109 0.773358 0.0437324
0.99617 0.798154 0.043061
0.996368 0.823163 0.147845
0.996429 0.846738 0.309529
0.996063 0.86772 0.434775
0.9953 0.886488 0.550683
0.994369 0.902449 0.628824
0.993332 0.915587 0.702708
0.992477 0.927123 0.771481
0.99202 0.937057 0.827558
0.0297856 0.757137 0.0141451
0.0298009 0.757198 0.0141451
0.0298009 0.757229 0.0141604
0.0298009 0.757259 0.0141604
0.0298161 0.757275 0.0141604
0.0298161 0.75729 0.0141604
0.0298161 0.757305 0.0141604
0.0298161 0.757275 0.0141604
0.0298009 0.757229 0.0141604
0.0297856 0.757107 0.0141451
0.0297398 0.756848 0.0140993
0.0296635 0.75639 0.0140383
0.143755 0.757076 0.0185245
0.51458 0.758816 0.0271611
0.640085 0.756756 0.0262608
0.731273 0.754498 0.0256199
0.811643 0.753079 0.0273289
0.875776 0.753536 0.0317998
0.922469 0.756359 0.0366369
0.956268 0.761746 0.0402991
0.9823 0.769818 0.0427558
0.996109 0.780362 0.0434882
0.996139 0.793515 0.0431525
0.996262 0.80885 0.0429084
0.99646 0.826062 0.0428321
0.996689 0.844007 0.106401
0.996658 0.861387 0.307622
0.996216 0.878172 0.437003
0.995392 0.893584 0.553124
0.994492 0.907073 0.62623
0.993423 0.918746 0.700481
0.992523 0.929183 0.770047
0.99205 0.938338 0.826764
0.0436561 0.817868 0.0262303
0.0436408 0.817868 0.026215
0.0436408 0.817853 0.026215
0.0436408 0.817838 0.026215
0.0436255 0.817807 0.0261997
0.0436103 0.817777 0.0261997
0.0436103 0.817716 0.0261845
0.0435798 0.817639 0.026154
0.043534 0.817502 0.0261234
0.0434882 0.817288 0.0260777
0.0433814 0.816922 0.0259709
0.0432136 0.816342 0.0258183
0.0429389 0.815442 0.0255894
0.416297 0.818326 0.0374304
0.611154 0.815686 0.035172
0.710781 0.812665 0.032517
0.796231 0.81004 0.0314031
0.863218 0.809033 0.0333715
0.911772 0.809842 0.0366217
0.947005 0.812375 0.0394598
0.973617 0.816678 0.0415198
0.993149 0.823026 0.0428168
0.996536 0.8309 0.0428626
0.996719 0.840574 0.0429694
0.996963 0.851728 0.043183
0.997269 0.864027 0.0435187
0.996933 0.876585 0.309346
0.996384 0.889342 0.44181
0.995483 0.90135 0.556924
0.994537 0.912306 0.628626
0.99353 0.922484 0.697566
0.992599 0.93167 0.768185
0.992081 0.939941 0.825742
0.0602731 0.867704 0.0415045
0.0602579 0.867658 0.0414893
0.0602426 0.867597 0.0414588
0.0602121 0.867521 0.0414435
0.0601816 0.86746 0.041413
0.0601663 0.867384 0.0413977
0.0601205 0.867277 0.0413519
0.0600595 0.867124 0.0412909
0.0599832 0.866896 0.0412299
0.0598611 0.866575 0.0411078
0.059678 0.866087 0.04094
0.0594186 0.86537 0.0406958
0.0590372 0.864347 0.0403601
0.300877 0.865919 0.0484016
0.588159 0.863203 0.0464027
0.694865 0.859113 0.0413062
0.783444 0.855268 0.0374456
0.851698 0.852995 0.0370184
0.901198 0.852277 0.0386053
0.937881 0.852766 0.0404974
0.965515 0.854444 0.0420233
0.985656 0.857481 0.043061
0.997208 0.861753 0.0434424
0.99736 0.86746 0.0436255
0.997543 0.874632 0.0438544
0.997726 0.88304 0.0656748
0.997223 0.891661 0.317235
0.996536 0.900725 0.450721
0.99556 0.909468 0.5626
0.994583 0.918227 0.631998
0.993606 0.926757 0.697551
0.992676 0.93463 0.765743
0.992126 0.941909 0.824369
0.0744488 0.904906 0.0547036
0.0744182 0.904814 0.0546578
0.0743725 0.904723 0.0546273
0.074342 0.904631 0.0545968
0.0742962 0.904524 0.054551
0.0742504 0.904402 0.0545205
0.0742046 0.904265 0.0544594
0.0741131 0.904051 0.0543832
0.0740215 0.903777 0.0542916
0.0738537 0.903365 0.054139
0.0736248 0.902785 0.0539254
0.0733349 0.902007 0.0536507
0.0729229 0.900938 0.0532692
0.241886 0.901335 0.0580758
0.581231 0.89839 0.0557107
0.689281 0.893507 0.0486915
0.777234 0.888945 0.043061
0.844099 0.885924 0.0409705
0.892699 0.884367 0.0412604
0.929763 0.883757 0.0422675
0.958083 0.883986 0.0432288
0.978973 0.885222 0.0439307
0.995346 0.887465 0.0444038
0.998001 0.89073 0.0444343
0.998138 0.895155 0.0445869
0.997971 0.900252 0.146868
0.997452 0.905791 0.334234
0.996643 0.911665 0.465537
0.995605 0.917937 0.570672
0.994614 0.924681 0.636728
0.993622 0.931472 0.701213
0.992752 0.938003 0.763592
0.992172 0.944244 0.822583
0.0852522 0.933303 0.064744
0.0852216 0.933181 0.0647135
0.0851759 0.933074 0.0646677
0.0851301 0.932937 0.064622
0.0850843 0.932815 0.0645762
0.0850385 0.932692 0.0645457
0.0849622 0.932509 0.0644694
0.0848707 0.932265 0.0643931
0.0847486 0.93193 0.064271
0.0845808 0.931472 0.0641184
0.0843671 0.930892 0.06392
0.084062 0.930098 0.0636454
0.0836652 0.929046 0.0632792
0.336263 0.929473 0.0684215
0.593576 0.924804 0.0614328
0.695583 0.919585 0.0534371
0.777752 0.914839 0.0470588
0.840528 0.911528 0.0440681
0.886824 0.909514 0.0434577
0.923018 0.908324 0.0438239
0.951202 0.907759 0.0443885
0.972702 0.907866 0.0448463
0.989761 0.908644 0.0451514
0.998566 0.910155 0.0451514
0.998642 0.912535 0.045243
0.998184 0.915145 0.212345
0.997574 0.918441 0.362554
0.996674 0.92224 0.486549
0.995621 0.926574 0.581186
0.994614 0.931456 0.643275
0.993622 0.936553 0.706188
0.992767 0.941665 0.767178
0.992248 0.94696 0.820203
0.0925917 0.953887 0.0715343
0.092546 0.953735 0.0714885
0.0925002 0.953597 0.0714427
0.0924544 0.95346 0.071397
0.0924086 0.953323 0.0713512
0.0923629 0.95317 0.0713054
0.0922866 0.952987 0.0712444
0.092195 0.952728 0.0711681
0.0920882 0.952392 0.0710613
0.0919356 0.951934 0.0709087
0.091722 0.951354 0.0707256
0.0914626 0.950561 0.0704814
0.0911116 0.949554 0.070161
0.486549 0.94844 0.0718242
0.62771 0.943191 0.0629282
0.715038 0.938125 0.055024
0.78616 0.9337 0.0489967
0.842069 0.930495 0.0459144
0.884611 0.928389 0.0449531
0.918898 0.92694 0.0449683
0.945922 0.925978 0.0452583
0.967376 0.92549 0.0455329
0.984833 0.925475 0.0457465
0.99826 0.926024 0.0458381
0.999039 0.927184 0.0457313
0.998245 0.928206 0.278309
0.997543 0.930037 0.401755
0.996597 0.93225 0.51284
0.99556 0.934981 0.592294
0.994583 0.938231 0.652216
0.993591 0.941787 0.712932
0.992752 0.945678 0.771908
0.992264 0.94995 0.822446
0.0976425 0.969268 0.0761425
0.0975967 0.969131 0.076112
0.0975509 0.968994 0.0760662
0.0975204 0.968856 0.0760204
0.0974746 0.968704 0.0759899
0.0974136 0.968566 0.0759442
0.0973526 0.968383 0.0758831
0.0972763 0.968124 0.0758068
0.0971695 0.967788 0.0757153
0.0970474 0.967376 0.0755932
0.0968643 0.966812 0.0754406
0.0966201 0.966064 0.0752117
0.462135 0.965026 0.0762341
0.597803 0.960601 0.0684215
0.67538 0.956176 0.0610666
0.743206 0.951797 0.0543221
0.801038 0.948104 0.0494698
0.847791 0.945342 0.046891
0.885634 0.943343 0.0458839
0.917082 0.941848 0.045716
0.94226 0.940764 0.0458381
0.962982 0.940017 0.0460212
0.980285 0.939574 0.0461585
0.993942 0.939544 0.0462043
0.998734 0.939223 0.218692
0.998108 0.939529 0.347784
0.99733 0.940215 0.452491
0.996384 0.941268 0.544366
0.995422 0.942748 0.607813
0.994476 0.944732 0.664225
0.99353 0.947112 0.721889
0.992737 0.949905 0.778088
0.992279 0.95317 0.826093
0.101045 0.980606 0.0792248
0.100999 0.980484 0.0791943
0.100969 0.980346 0.0791485
0.100938 0.980209 0.079118
0.100893 0.980072 0.0790875
0.100847 0.979934 0.079057
0.100801 0.979767 0.078996
0.10074 0.979538 0.0789502
0.100649 0.979217 0.0788586
0.347341 0.979324 0.0810864
0.474098 0.977554 0.078294
0.564492 0.974838 0.0733806
0.622232 0.971771 0.0679332
0.675853 0.968505 0.062501
0.727733 0.965087 0.0570382
0.776379 0.961837 0.0523384
0.820127 0.959045 0.0490578
0.857343 0.956847 0.0471962
0.889876 0.955077 0.0463722
0.917662 0.953658 0.0461585
0.94049 0.95256 0.0461891
0.960037 0.951675 0.0463111
0.976608 0.951019 0.0463874
0.989517 0.949996 0.20238
0.998444 0.949279 0.323781
0.997757 0.948882 0.420554
0.996918 0.948775 0.509636
0.996048 0.949065 0.578943
0.995178 0.949783 0.627817
0.994293 0.950866 0.67985
0.993408 0.952316 0.733593
0.992706 0.954177 0.786023
0.992294 0.956527 0.830823
0.501305 0.986893 0.0787213
0.519097 0.986374 0.07776
0.534874 0.985855 0.0768139
0.548974 0.985351 0.0758831
0.561685 0.984848 0.0749676
0.573709 0.98436 0.0740368
0.585946 0.983719 0.0728923
0.598886 0.98294 0.0714733
0.615427 0.981964 0.069749
0.635019 0.980804 0.0677501
0.657893 0.9794 0.0653544
0.684108 0.977691 0.062501
0.71339 0.975738 0.0593118
0.745022 0.973571 0.0559701
0.77789 0.971328 0.052781
0.810681 0.969192 0.0501411
0.841367 0.9673 0.0482643
0.870298 0.965591 0.0470893
0.896941 0.964141 0.0465248
0.92047 0.962905 0.0463569
0.940215 0.961456 0.1458
0.957946 0.960296 0.215579
0.97319 0.959304 0.271611
0.985687 0.958358 0.342519
0.99588 0.957427 0.41883
0.997177 0.956588 0.496391
0.996399 0.956039 0.561273
0.995621 0.95584 0.608072
0.994842 0.955993 0.652522
0.994034 0.95642 0.69958
0.993255 0.957168 0.748562
0.992645 0.958282 0.796262
0.992294 0.959838 0.836805
0.694972 0.983841 0.317845
0.698909 0.983551 0.317723
0.702754 0.983276 0.317586
0.706508 0.983017 0.317479
0.71017 0.982757 0.317372
0.713893 0.982498 0.317281
0.718563 0.982162 0.317174
0.724529 0.981735 0.317082
0.732052 0.981201 0.316991
0.741405 0.980529 0.316945
0.75288 0.979706 0.317006
0.766598 0.978729 0.317296
0.782589 0.977615 0.317998
0.80087 0.976364 0.319341
0.820401 0.975052 0.321691
0.841016 0.973724 0.325429
0.862531 0.972381 0.330968
0.884092 0.971069 0.338796
0.904753 0.969848 0.349447
0.923583 0.968704 0.363439
0.940902 0.96762 0.38143
0.956741 0.966583 0.40322
0.970596 0.965606 0.430304
0.982391 0.964691 0.463951
0.992187 0.963729 0.512383
0.996475 0.962753 0.561944
0.995804 0.962005 0.601938
0.995117 0.961501 0.640604
0.9944 0.961212 0.681239
0.993683 0.961196 0.7234
0.993042 0.96144 0.766964
0.992569 0.962036 0.808438
0.992279 0.963043 0.844251
0.789059 0.9794 0.49131
0.790875 0.979339 0.491325
0.792645 0.979263 0.491371
0.794385 0.979202 0.491402
0.796094 0.979141 0.491447
0.797848 0.97908 0.491478
0.800061 0.979004 0.491554
0.802915 0.978897 0.49163
0.806561 0.978775 0.491783
0.811154 0.978622 0.491997
0.816876 0.978439 0.492302
0.823941 0.97821 0.492775
0.832563 0.977966 0.493462
0.842847 0.977707 0.494499
0.855009 0.977218 0.496376
0.868482 0.976379 0.498558
0.883101 0.975479 0.50161
0.89836 0.974563 0.505821
0.913542 0.973648 0.511452
0.928374 0.972717 0.518761
0.942931 0.971786 0.528069
0.956603 0.970871 0.539651
0.968856 0.96997 0.55378
0.979706 0.969116 0.57055
0.989075 0.968322 0.587671
0.995697 0.967422 0.611383
0.995148 0.966644 0.64181
0.994553 0.965972 0.67599
0.993912 0.965454 0.712642
0.993317 0.965164 0.75053
0.992813 0.965148 0.788144
0.992462 0.965438 0.822644
0.992264 0.966018 0.853117
0.846403 0.97615 0.598947
0.847318 0.976135 0.598978
