BBLuts/BB_102_0580_LUT.cube
TITLE "Generated by Resolve"
LUT_3D_SIZE 33
0 0 0
0 0 0
0 0 0
0 0 0
0 0 0
0.00892653 0 0
0.0677195 0 0
0.109987 0 0
0.152163 0 0
0.201923 0 0
0.25893 0 0
0.319753 0 0
0.387045 0 0
0.460472 0 0
0.545235 0 0
0.636759 0 0
0.730724 0 0
0.82501 0 0
0.910384 0 0
0.97763 0 0
0.990494 0 0
0.990494 0 0
0.97496 0.132586 0
0.955993 0.326848 0.0223697
0.942763 0.456641 0.0529488
0.931151 0.568551 0.091249
0.920211 0.673152 0.141619
0.910887 0.762631 0.215778
0.903822 0.831388 0.298848
0.898436 0.884489 0.378393
0.894438 0.925216 0.459373
0.891478 0.956451 0.53962
0.889143 0.981506 0.609689
0 0 0
0 0 0
0 0 0
0 0 0
0 0 0
0.0208286 0 0
0.0717937 0 0
0.113313 0 0
0.157351 0 0
0.207996 0 0
0.264851 0 0
0.324758 0 0
0.389822 0 0
0.462425 0 0
0.546914 0 0
0.637949 0 0
0.731456 0 0
0.82536 0 0
0.910277 0 0
0.977188 0 0
0.990494 0 0
0.990494 0 0
0.971435 0.16994 0
0.954452 0.34197 0.0151369
0.941833 0.465492 0.049073
0.930495 0.574701 0.0889906
0.919738 0.677394 0.139391
0.910597 0.765194 0.214588
0.90367 0.832822 0.298253
0.898344 0.885359 0.378027
0.894377 0.925689 0.459159
0.891432 0.956741 0.539483
0.889128 0.981689 0.609598
0 0 0
0 0 0
0 0 0
0 0 0
0 0 0
0.0278935 0 0
0.0731975 0 0
0.116472 0 0
0.162783 0 0
0.213626 0 0
0.269337 0 0
0.327428 0 0
0.392157 0 0
0.464515 0 0
0.548638 0 0
0.639124 0 0
0.732174 0 0
0.825681 0 0
0.91014 0 0
0.97673 0 0
0.990494 0 0
0.990494 0 0
0.968475 0.200671 0
0.952987 0.356207 0.00732433
0.940917 0.474067 0.0451209
0.929854 0.580697 0.086717
0.91928 0.681575 0.137209
0.910323 0.767697 0.213397
0.903502 0.834257 0.297658
0.898253 0.886213 0.377661
0.894331 0.926162 0.45893
0.891402 0.957031 0.53933
0.889097 0.981857 0.609506
0 0 0
0 0 0
0 0 0
0 0 0
0 0 0
0.0332952 0 0
0.0738537 0 0
0.116762 0 0
0.163699 0 0
0.2159 0 0
0.272236 0 0
0.32987 0 0
0.394446 0 0
0.466636 0 0
0.550378 0 0
0.64033 0 0
0.732891 0 0
0.825986 0 0
0.909987 0 0
0.976226 0 0
0.990494 0 0
0.990494 0 0
0.965881 0.227344 0
0.951614 0.369665 0
0.940047 0.482414 0.0410925
0.929213 0.586587 0.0844739
0.918837 0.685634 0.135988
0.910048 0.770169 0.212207
0.903349 0.835676 0.297047
0.898161 0.887068 0.377295
0.89427 0.92665 0.458701
0.891371 0.957336 0.539193
0.889082 0.98204 0.60943
0 0 0
0 0.00180056 0
0 0.00494392 0
0 0.00798047 0
0 0.00917067 0
0.0201114 0.00872816 0
0.0643015 0.00662242 0
0.109178 0.00122072 0
0.158709 0 0
0.216907 0 0
0.273915 0 0
0.332067 0 0
0.396658 0 0
0.468788 0 0
0.552148 0 0
0.64152 0 0
0.733608 0 0
0.826246 0 0
0.909804 0 0
0.975723 0 0
0.990494 0 0
0.985306 0.00906386 0
0.963577 0.250751 0
0.950301 0.382437 0
0.939178 0.490517 0.0369726
0.928588 0.592371 0.0822156
0.91841 0.689616 0.134768
0.909789 0.772595 0.211048
0.903197 0.837064 0.296452
0.898054 0.887907 0.376928
0.894224 0.927108 0.458488
0.89134 0.95761 0.53904
0.889067 0.982208 0.609354
0 0.0346075 0
0 0.0372168 0
0 0.0397955 0
0 0.041825 0
0 0.0427863 0
0 0.0428931 0
0.0544442 0.0423743 0
0.102449 0.0403601 0
0.153582 0.0357214 0
0.210391 0.0262913 0
0.269566 0.00732433 0
0.33402 0 0
0.398901 0 0
0.471077 0 0
0.554055 0 0
0.642817 0 0
0.73434 0 0
0.826535 0 0
0.909621 0 0
0.975158 0 0
0.990494 0 0
0.977951 0.0999008 0
0.96141 0.272541 0
0.949004 0.395132 0
0.938308 0.498772 0.0325475
0.927962 0.598291 0.0798352
0.917967 0.69369 0.133532
0.909514 0.775082 0.209812
0.903029 0.838514 0.295827
0.897963 0.888762 0.376547
0.894163 0.927596 0.458244
0.89131 0.957916 0.538888
0.889036 0.982391 0.609262
0 0.0726787 0
0 0.0748608 0
0 0.0770123 0
0 0.078233 0
0 0.0790112 0
0 0.0792859 0
0.0355993 0.0792859 0
0.0914015 0.0785534 0
0.145861 0.0763409 0
0.20499 0.0716411 0
0.265293 0.0624399 0
0.32784 0.0472114 0
0.39585 0.0173648 0
0.473991 0 0
0.556512 0 0
0.644495 0 0
0.735302 0 0
0.826886 0 0
0.909331 0 0
0.974395 0 0
0.990494 0 0
0.972625 0.157244 0
0.958907 0.297704 0
0.947463 0.409995 0
0.937209 0.509071 0.026688
0.927153 0.605753 0.0767987
0.917403 0.698817 0.131975
0.909163 0.778225 0.20827
0.902831 0.840345 0.295033
0.897841 0.88986 0.376059
0.894087 0.928222 0.457954
0.891264 0.958312 0.538689
0.889021 0.98262 0.60914
0 0.11577 0
0 0.117662 0
0 0.119081 0
0 0.120012 0
0 0.120684 0
0 0.12105 0
0 0.12108 0
0.071458 0.12108 0
0.133135 0.12015 0
0.195407 0.117144 0
0.258488 0.111131 0
0.323964 0.102266 0
0.392966 0.088716 0
0.468223 0.0651102 0
0.554238 0.0135348 0
0.646738 0 0
0.736614 0 0
0.827359 0 0
0.908934 0 0
0.973342 0 0
0.981933 0.0547341 0
0.967468 0.211048 0
0.955932 0.327184 0
0.945586 0.428229 0
0.935821 0.52221 0.0185245
0.926116 0.615351 0.0727703
0.916686 0.705409 0.129961
0.908705 0.782269 0.206226
0.902556 0.84271 0.293965
0.897673 0.89131 0.375418
0.893996 0.929046 0.457557
0.891203 0.958831 0.538445
0.888975 0.98294 0.608988
0 0.165927 0
0 0.167361 0
0 0.168154 0
0 0.168978 0
0 0.169528 0
0 0.169924 0
0 0.170169 0
0.0271458 0.170123 0
0.110033 0.168963 0
0.178851 0.166613 0
0.247089 0.162753 0
0.316899 0.156878 0
0.389456 0.148135 0
0.466117 0.134859 0
0.549874 0.116213 0
0.638209 0.0890822 0
0.730541 0.0457313 0
0.827985 0 0
0.908324 0 0
0.962676 0.061677 0
0.971786 0.16611 0
0.962112 0.265583 0
0.952468 0.361318 0
0.943252 0.450706 0
0.934051 0.538766 0.00675975
0.924788 0.627588 0.0674144
0.91577 0.713771 0.127398
0.908125 0.787442 0.203555
0.90222 0.845792 0.292546
0.897475 0.893156 0.374563
0.893874 0.930114 0.457038
0.891127 0.959487 0.538094
0.88893 0.983337 0.608774
0 0.222416 0
0 0.222858 0
0 0.223285 0
0 0.223636 0
0 0.223865 0
0 0.223911 0
0 0.223804 0
0 0.223423 0
0.0665446 0.222736 0
0.152819 0.22153 0
0.229068 0.219165 0
0.304723 0.215183 0
0.382544 0.208942 0
0.463096 0.19968 0
0.547677 0.188922 0
0.634028 0.176013 0
0.722576 0.161593 0
0.811749 0.148898 0
0.889982 0.152926 0
0.948913 0.187655 0
0.963897 0.247547 0
0.956527 0.32134 0
0.94847 0.400336 0
0.940414 0.478019 0
0.931838 0.55938 0
0.92311 0.643046 0.0603189
0.914626 0.724285 0.124163
0.907408 0.793973 0.200107
0.901778 0.849729 0.290669
0.8972 0.895567 0.37348
0.893721 0.931502 0.456336
0.89102 0.960372 0.537652
0.888869 0.983856 0.608515
0 0.281483 0
0 0.281895 0
0 0.282322 0
0 0.282628 0
0 0.282856 0
0 0.282994 0
0 0.283055 0
0 0.282948 0
0 0.282506 0
0.1084 0.281971 0
0.200793 0.280797 0
0.285054 0.278401 0
0.369985 0.274235 0
0.456413 0.268177 0
0.54403 0.261326 0
0.630457 0.254307 0
0.717037 0.248127 0
0.803357 0.244953 0
0.878859 0.252811 0
0.936797 0.279194 0
0.956344 0.323079 0
0.950622 0.37937 0
0.944137 0.442176 0
0.93698 0.510689 0
0.929168 0.584695 0
0.921019 0.662333 0.0507973
0.913207 0.737301 0.12018
0.906493 0.802106 0.195636
0.901213 0.854734 0.288197
0.896849 0.898634 0.372045
0.893523 0.933303 0.455451
0.890898 0.961501 0.537072
0.888792 0.984543 0.608179
0 0.349157 0
0 0.349554 0
0 0.34992 0
0 0.35021 0
0 0.350439 0
0 0.350622 0
0 0.350759 0
0 0.350805 0
0 0.350668 0
0 0.350118 0
0.151797 0.349935 0
0.253483 0.348791 0
0.349203 0.346609 0
0.442496 0.343069 0
0.535012 0.338628 0
0.624552 0.334447 0
0.711055 0.332067 0
0.794949 0.333196 0
0.86746 0.34258 0
0.923827 0.363668 0
0.948867 0.39646 0
0.944549 0.438239 0
0.939193 0.489693 0
0.932921 0.549187 0
0.925902 0.615274 0
0.918471 0.685695 0.0382544
0.911467 0.753079 0.115389
0.905409 0.811994 0.194034
0.900511 0.861036 0.285008
0.896422 0.90251 0.370184
0.893248 0.935607 0.454276
0.89073 0.962966 0.536309
0.888701 0.985428 0.607721
0 0.425208 0
0 0.425544 0
0 0.425849 0
0 0.426093 0
0 0.426291 0
0 0.426459 0
0 0.426627 0
0 0.426749 0
0 0.426871 0
0 0.426963 0
0.0352483 0.426932 0
0.200229 0.427192 0
0.314717 0.42652 0
0.418311 0.424582 0
0.517235 0.421881 0
0.612161 0.419226 0
0.702083 0.417838 0
0.785321 0.41944 0
0.855314 0.426932 0
0.909926 0.442557 0
0.941573 0.466835 0
0.938079 0.500313 0
0.933593 0.542947 0
0.928206 0.593652 0
0.922042 0.651423 0
0.915496 0.712886 0.0220035
0.909422 0.771725 0.109895
0.904112 0.823819 0.192477
0.899641 0.868803 0.280888
0.895872 0.907362 0.367773
0.892912 0.938567 0.452735
0.890517 0.964843 0.535286
0.888563 0.986572 0.607111
0 0.508522 0
0 0.508797 0
0 0.509041 0
0 0.509224 0
0 0.509407 0
0 0.50956 0
0 0.509728 0
0 0.50988 0
0 0.510002 0
0 0.510033 0
0 0.50988 0
0.0958572 0.509697 0
0.26244 0.509438 0
0.383474 0.508125 0
0.490364 0.50602 0
0.592096 0.503594 0
0.687755 0.501854 0
0.773312 0.502525 0
0.841764 0.508354 0
0.894377 0.52076 0
0.933883 0.540078 0
0.93106 0.566873 0
0.927367 0.601633 0
0.92285 0.643915 0
0.917586 0.692775 0
0.912123 0.743557 0.000961318
0.907088 0.793057 0.104036
0.902586 0.837766 0.191028
0.898573 0.878202 0.276188
0.895201 0.913268 0.364691
0.8925 0.94226 0.450752
0.890242 0.967224 0.533974
0.888395 0.988052 0.606332
0 0.595804 0
0 0.595956 0
0 0.596094 0
0 0.596216 0
0 0.596307 0
0 0.596384 0
0 0.596475 0
0 0.596536 0
0 0.596551 0
0 0.59649 0
0 0.596262 0
0 0.595697 0
0.18024 0.595285 0
0.336858 0.594339 0
0.454414 0.59266 0
0.563455 0.590478 0
0.665751 0.588403 0
0.755352 0.588037 0
0.824857 0.591821 0
0.876463 0.601129 0
0.917037 0.616098 0
0.923552 0.637232 0
0.920577 0.664988 0
0.91693 0.698848 0
0.912825 0.736812 0
0.908461 0.776776 0
0.904509 0.816526 0.0985275
0.900801 0.854002 0.189899
0.897368 0.889265 0.276432
0.894392 0.920363 0.360769
0.891966 0.946868 0.448157
0.889906 0.97023 0.532265
0.888182 0.989914 0.605295
0 0.684276 0
0 0.684367 0
0 0.684413 0
0 0.684459 0
0 0.684474 0
0 0.684489 0
0 0.684504 0
0 0.684474 0
0 0.684413 0
0 0.68423 0
0 0.683879 0
0 0.683223 0
0 0.681941 0
0.271611 0.681468 0
0.409857 0.680049 0
0.527245 0.67808 0
0.635935 0.675898 0
0.730022 0.674754 0
0.802243 0.676707 0
0.855131 0.682979 0
0.895415 0.693935 0
0.91577 0.709575 0
0.913619 0.729564 0
0.910994 0.753735 0
0.907988 0.781384 0
0.904738 0.811002 0
0.901778 0.841443 0.0944991
0.898802 0.872267 0.189639
0.895979 0.90193 0.277348
0.893462 0.928588 0.356756
0.891325 0.952499 0.444831
0.889479 0.973922 0.530022
0.887922 0.992233 0.603967
0 0.770947 0
0 0.770932 0
0 0.770916 0
0 0.770886 0
0 0.770855 0
0 0.770809 0
0 0.770733 0
0 0.770611 0
0 0.770413 0
0 0.770108 0
0 0.769574 0
0 0.768734 0
0 0.767422 0
0.179461 0.766217 0
0.358282 0.764828 0
0.486839 0.762737 0
0.601526 0.76022 0
0.699199 0.758206 0
0.77467 0.758083 0
0.830686 0.7608 0
0.872892 0.766766 0
0.903151 0.776425 0
0.907118 0.789258 0
0.905394 0.805173 0
0.903365 0.823758 0
0.901076 0.844556 0
0.898878 0.86772 0.0930648
0.896635 0.892027 0.191058
0.894453 0.915892 0.279377
0.892424 0.938109 0.358679
0.890562 0.959182 0.440558
0.88896 0.978408 0.527138
0.887587 0.995117 0.602228
0 0.844495 0
0 0.844419 0
0 0.844327 0
0 0.844236 0
0 0.844114 0
0 0.844007 0
0 0.843839 0
0 0.843626 0
0 0.84329 0
0 0.842802 0
0 0.842069 0
0 0.840986 0
0 0.83946 0
0.0700694 0.837583 0
0.314092 0.836149 0
0.453223 0.833768 0
0.572183 0.830808 0
0.670787 0.828046 0
0.747723 0.826413 0
0.806714 0.826474 0
0.851438 0.828687 0
0.883604 0.833463 0
0.901503 0.840696 0
0.900435 0.850431 0
0.899077 0.86276 0
0.897459 0.877379 0
0.895979 0.894286 0.0963302
0.894423 0.912398 0.195254
0.892851 0.930617 0.283162
0.891249 0.948928 0.361654
0.889708 0.966934 0.439719
0.88835 0.983703 0.523445
0.887175 0.998642 0.59997
0 0.900999 0
0 0.900862 0
0 0.900725 0
0 0.900572 0
0 0.90042 0
0 0.900236 0
0 0.900008 0
0 0.899687 0
0 0.89926 0
0 0.898634 0
0 0.897749 0
0 0.896544 0
0 0.894911 0
0.00648508 0.892714 0
0.293599 0.891249 0
0.435554 0.888701 0
0.553918 0.885573 0
0.650263 0.882506 0
0.725704 0.880201 0
0.785641 0.878904 0
0.832029 0.879057 0
0.866087 0.881025 0
0.892363 0.884901 0
0.89601 0.89073 0
0.89514 0.898497 0
0.894072 0.908034 0
0.893233 0.91957 0.106737
0.892271 0.93225 0.20351
0.891157 0.94612 0.288838
0.889952 0.9608 0.366155
0.888762 0.975631 0.443305
0.887663 0.989776 0.520043
0.886687 1 0.597025
0 0.945159 0
0 0.944976 0
0 0.944793 0
0 0.944579 0
0 0.944396 0
0 0.944183 0
0 0.943893 0
0 0.943511 0
0 0.942992 0
0 0.94229 0
0 0.94136 0
0 0.940108 0
0 0.93846 0
0.0723583 0.936446 0
0.301625 0.934813 0
0.435843 0.93225 0
0.547127 0.929168 0
0.637766 0.926085 0
0.709575 0.923522 0
0.768185 0.921584 0
0.814649 0.920562 0
0.850141 0.920745 0
0.87805 0.922164 0
0.89221 0.925017 0
0.891752 0.929274 0
0.891188 0.935012 0.00849927
0.890776 0.942641 0.125978
0.890181 0.95172 0.216587
0.889448 0.962081 0.297459
0.888609 0.973342 0.372793
0.887739 0.985046 0.448463
0.886931 0.996551 0.523964
0.886122 1 0.59324
0 0.977752 0
0 0.977539 0
0 0.97731 0
0 0.977081 0
0 0.976867 0
0 0.976623 0
0 0.976318 0
0 0.975906 0
0 0.975372 0
0 0.974655 0
0 0.973709 0
0 0.972473 0
0 0.970855 0
0.186908 0.969375 0
0.340139 0.967529 0
0.45597 0.965011 0
0.553475 0.962127 0
0.634852 0.959213 0
0.701015 0.956619 0
0.756619 0.954437 0
0.801266 0.952865 0
0.836927 0.952102 0
0.865782 0.952163 0
0.888212 0.953292 0
0.888838 0.955474 0
0.888685 0.959121 0.0585794
0.888502 0.964202 0.15349
0.888197 0.970459 0.235294
0.88777 0.977783 0.310048
0.887251 0.986007 0.382361
0.886702 0.994827 0.455772
0.886137 1 0.529305
0.885527 1 0.595773
0 1 0
0 1 0
0 1 0
0 1 0
0 1 0
0 1 0
0 1 0
0 1 0
0 1 0
0 0.999893 0
0 0.998505 0
0 0.997314 0
0.161929 0.996262 0
0.295949 0.994949 0
0.398672 0.993072 0
0.489738 0.990753 0
0.57023 0.98819 0
0.639567 0.985626 0
0.698741 0.983215 0
0.749844 0.981018 0
0.791531 0.979324 0
0.826047 0.978134 0
0.854826 0.977478 0
0.877394 0.977569 0
0.886381 0.978454 0.00872816
0.886519 0.980529 0.110536
0.886519 0.983597 0.188861
0.886427 0.987625 0.260349
0.886229 0.992493 0.32755
0.885969 0.998291 0.395697
0.885649 1 0.465843
0.885298 1 0.536553
0.884901 1 0.600229
0 1 0
0 1 0
0 1 0
0 1 0
0 1 0
0 1 0
0 1 0
0 1 0
0 1 0
0.0621042 1 0
0.167117 1 0
0.250523 1 0
0.324559 1 0
0.395895 1 0
0.465461 1 0
0.532387 1 0
0.594949 1 0
0.651194 1 0
0.702556 1 0
0.747875 1 0
0.785718 1 0
0.818357 0.999603 0
0.846006 0.998077 0
0.868498 0.997574 0
0.884504 0.997848 0.090074
0.884733 0.998718 0.163958
0.884855 1 0.229526
0.884886 1 0.290761
0.884855 1 0.350591
0.884764 1 0.41355
0.884642 1 0.479423
0.884474 1 0.546151
0.884245 1 0.60618
0.186954 1 0
0.202991 1 0
0.217853 1 0
0.231708 1 0
0.244709 1 0
0.257496 1 0
0.272969 1 0
0.29102 1 0
0.312871 1 0
0.338979 1 0
0.369436 1 0
0.404379 1 0
0.443641 1 0
0.486564 1 0
0.532113 1 0
0.578744 1 0
0.624399 1 0
0.669108 1 0
0.711727 1 0
0.75024 1 0
0.783673 1 0
0.813809 1 0.00161746
0.839841 1 0.0468147
0.861524 1 0.102617
0.879576 1 0.160967
0.883253 1 0.217563
0.883452 1 0.27303
0.883574 1 0.325399
0.88365 1 0.3794
0.883696 1 0.436622
0.883711 1 0.497307
0.883696 1 0.558648
0.883619 1 0.613977
0.418219 1 0.0660868
0.423514 1 0.0663462
0.428687 1 0.0666056
0.433738 1 0.066865
0.438682 1 0.0671244
0.443763 1 0.0674449
0.450095 1 0.0678111
0.458167 1 0.0682689
0.468406 1 0.0688792
0.481209 1 0.0697032
0.496986 1 0.0707561
0.51603 1 0.0721599
0.538537 1 0.0740063
0.564385 1 0.0764172
0.593042 1 0.0795758
0.624033 1 0.083711
0.657267 1 0.0890974
0.691539 1 0.096025
0.7252 1 0.104891
0.75642 1 0.116091
0.785534 1 0.130037
0.812406 1 0.147112
0.836072 1 0.167651
0.856382 1 0.192004
0.873625 1 0.228824
0.882094 1 0.272419
0.882307 1 0.316777
0.882506 1 0.363928
0.882673 1 0.413321
0.882795 1 0.465095
0.882918 1 0.519997
0.882994 1 0.574319
0.883009 1 0.623926
0.549218 1 0.204501
0.551797 1 0.204623
0.55433 1 0.204761
0.556817 1 0.204883
0.559289 1 0.20502
0.561822 1 0.205142
0.565011 1 0.205341
0.569131 1 0.20557
0.574426 1 0.205875
0.581125 1 0.206287
0.589532 1 0.206836
0.599985 1 0.207553
0.612863 1 0.208484
0.628428 1 0.209735
0.646784 1 0.211383
0.667903 1 0.213642
0.691325 1 0.216617
0.716136 1 0.220432
0.741176 1 0.22536
0.765927 1 0.231724
0.790433 1 0.239841
0.813626 1 0.250141
0.834516 1 0.263111
0.853101 1 0.278798
0.869276 1 0.29752
0.881239 1 0.327306
0.881468 1 0.364446
0.881682 1 0.406058
0.881895 1 0.450996
0.882094 1 0.498329
0.882261 1 0.546593
0.882383 1 0.593164
0.882475 1 0.636103
0.636484 1 0.308293
0.637873 1 0.308385
0.639261 1 0.308476
0.64062 1 0.308553
0.641978 1 0.308629
0.643366 1 0.308721
0.645151 1 0.308827
0.647471 1 0.30898
0.650492 1 0.309163
0.654368 1 0.309422
0.659342 1 0.309773
0.665629 1 0.310216
0.673472 1 0.310811
0.683116 1 0.311589
0.694713 1 0.312612
0.708278 1 0.31397
0.723644 1 0.315755
0.740383 1 0.31809
0.758572 1 0.321141
0.77789 1 0.325139
0.797635 1 0.330388
0.816892 1 0.33724
0.834867 1 0.346044
0.851453 1 0.357183
0.866148 1 0.371237
0.879011 1 0.388739
0.880858 1 0.416785
0.881086 1 0.452125
0.881315 1 0.491905
0.881544 1 0.534203
0.881743 1 0.575555
0.881895 1 0.614588
0.882017 1 0.650431
0.700252 1 0.399924
0.70103 1 0.399985
0.701793 1 0.400046
0.702556 1 0.400107
0.703304 1 0.400153
0.704082 1 0.400214
0.705074 1 0.400305
0.706371 1 0.400397
0.70808 1 0.400549
