BBLuts/BB_104_0340_LUT.cube
TITLE "Generated by Resolve"
LUT_3D_SIZE 5
0.054139 0.0504463 0.0450599
0.210132 0.0516823 0.0452277
0.745663 0.037644 0.312917
0.901122 0.524407 0.557336
0.877211 0.882231 0.604334
0.0443427 0.239353 0.0422827
0.17467 0.241398 0.0410925
0.749981 0.0506447 0.318608
0.897139 0.612665 0.552071
0.877165 0.883146 0.602258
0 0.772366 0.0368505
0 0.772015 0.0368048
0.703227 0.76231 0.0308843
0.946624 0.779034 0.137514
0.876921 0.889082 0.584588
0.0162661 0.938155 0.0709239
0.0162051 0.937255 0.0707866
0.814084 0.890349 0.0511025
0.873518 0.909392 0.0358129
0.875944 0.910735 0.57171
0.857267 0.918593 0.676539
0.857557 0.918593 0.676585
0.859602 0.918593 0.676997
0.870893 0.918624 0.680339
0.878508 0.91873 0.699901
0.0876936 0.0768597 0.22269
0.227176 0.0770733 0.224094
0.745708 0.0373541 0.360174
0.901762 0.500587 0.56141
0.877317 0.882277 0.622568
0.071458 0.240177 0.189334
0.214557 0.23595 0.187243
0.74638 0.0373999 0.357351
0.89778 0.603357 0.556207
0.877272 0.883192 0.621103
0 0.769421 0.0363775
0 0.769039 0.0363165
0.707332 0.759487 0.0307164
0.882933 0.799954 0.265583
0.876921 0.889021 0.60943
0.0162509 0.937972 0.0708934
0.0162051 0.937087 0.0707713
0.815656 0.890227 0.0510414
0.873594 0.909361 0.0358282
0.875959 0.910735 0.571527
0.857313 0.918593 0.676539
0.857603 0.918593 0.676585
0.859648 0.918593 0.676997
0.870909 0.918624 0.680339
0.878508 0.91873 0.699901
0.625269 0.646586 0.631937
0.625437 0.646754 0.632059
0.759289 0.643793 0.631174
0.895293 0.660853 0.653712
0.878935 0.883772 0.680522
0.62388 0.645121 0.630976
0.624079 0.645335 0.631113
0.76466 0.642298 0.630396
0.894713 0.665995 0.651545
0.878859 0.884672 0.680049
0.564996 0.745892 0.602258
0.565316 0.746166 0.602426
0.709819 0.738674 0.60296
0.882643 0.787533 0.624949
0.878431 0.890455 0.676722
0.0162051 0.937194 0.0707866
0.255695 0.933684 0.0654917
0.814878 0.889708 0.0510719
0.870909 0.909056 0.0358587
0.876524 0.911086 0.652338
0.857633 0.918593 0.676509
0.857908 0.918593 0.676555
0.859922 0.918593 0.676951
0.871031 0.918624 0.680308
0.878508 0.91873 0.699901
0.796735 0.832975 0.745586
0.796735 0.832975 0.745586
0.796735 0.832975 0.745586
0.887709 0.832654 0.74519
0.885161 0.880674 0.744183
0.796735 0.832975 0.745586
0.796735 0.832975 0.745586
0.796735 0.832975 0.745586
0.887709 0.832654 0.74519
0.8851 0.882063 0.744167
0.796735 0.832975 0.745586
0.796735 0.832975 0.745586
0.797162 0.832975 0.745586
0.887709 0.832654 0.74519
0.884718 0.890776 0.743633
0.766979 0.919249 0.735393
0.76704 0.919249 0.735454
0.776486 0.918074 0.735821
0.868711 0.910796 0.736431
0.883467 0.917144 0.737774
0.861295 0.918822 0.722255
0.86154 0.918822 0.722271
0.86331 0.918837 0.722362
0.87332 0.918853 0.723247
0.881788 0.918898 0.729091
0.796719 0.833265 0.745586
0.796719 0.833265 0.745586
0.796719 0.833265 0.745586
0.796719 0.833265 0.745586
0.887251 0.840284 0.744976
0.796719 0.833265 0.745586
0.796719 0.833265 0.745586
0.796719 0.833265 0.745586
0.796719 0.833265 0.745586
0.887251 0.840284 0.744976
0.796719 0.833265 0.745586
0.796719 0.833265 0.745586
0.796719 0.833265 0.745586
0.797269 0.833219 0.745586
0.887236 0.84036 0.744976
0.796719 0.833265 0.745586
0.796719 0.833265 0.745586
0.796719 0.833265 0.745586
0.887709 0.832654 0.74519
0.887236 0.840589 0.744976
0.839658 0.918868 0.743709
0.840482 0.918868 0.743709
0.846021 0.918883 0.743694
0.870039 0.918944 0.743587
0.883467 0.919173 0.743679
