BBLuts/BB_104_0290_LUT.cube
TITLE "Generated by Resolve"
LUT_3D_SIZE 5
0.0377813 0.0492561 0.0598459
0.25333 0.0506752 0.0620279
0.800717 0.351766 0.355047
0.990051 0.678187 0.617502
0.973358 0.954253 0.699809
0.013489 0.253498 0.0413825
0.185061 0.257527 0.0426947
0.805447 0.396811 0.362432
0.988998 0.69894 0.614954
0.973205 0.955505 0.698314
0 0.80412 0.00175479
0 0.803723 0.00177005
0.728862 0.792569 0
0.980606 0.845518 0.54963
0.972107 0.963653 0.686809
0 1 0
0 0.999725 0
0.607828 0.992767 0
0.958633 0.984009 0
0.968139 0.993683 0.69044
0.935271 1 0.786816
0.93576 1 0.786877
0.939315 1 0.787427
0.958465 1 0.791867
0.970047 1 0.818463
0.0639658 0.0670329 0.222004
0.252308 0.0684825 0.223285
0.800519 0.35938 0.398154
0.990234 0.675105 0.620874
0.973678 0.954269 0.717067
0.0301366 0.231632 0.19176
0.22536 0.228443 0.191043
0.801343 0.360372 0.395666
0.989227 0.695094 0.618433
0.97351 0.95555 0.715846
0 0.800839 0.00189212
0 0.800397 0.00190738
0.73521 0.789334 0
0.980713 0.844099 0.555322
0.972412 0.963745 0.70663
0 1 0
0 0.999512 0
0.625162 0.992569 0
0.958755 0.983963 0
0.968154 0.993652 0.690333
0.935332 1 0.786816
0.935836 1 0.786892
0.939391 1 0.787411
0.95848 1 0.791867
0.970047 1 0.818463
0.603387 0.585611 0.711162
0.603571 0.585794 0.711315
0.806531 0.596353 0.708354
0.991089 0.688289 0.733928
0.975616 0.954177 0.787152
0.601923 0.584054 0.70985
0.602121 0.584283 0.710033
0.813733 0.596475 0.707103
0.990738 0.69453 0.731319
0.975448 0.95552 0.786603
0 0.765087 0.672953
0 0.765423 0.673167
0.735714 0.756786 0.673793
0.983215 0.828656 0.705928
0.97435 0.96408 0.782727
0 0.999496 0
0 0.998428 0
0.616526 0.991684 0
0.954376 0.983185 0
0.969482 0.994369 0.756191
0.935912 1 0.78677
0.9364 1 0.786847
0.939864 1 0.787366
0.958663 1 0.791821
0.970047 1 0.818463
0.81445 0.80911 0.901335
0.81445 0.80911 0.901335
0.81445 0.80911 0.901335
0.994278 0.819852 0.901396
0.984176 0.935531 0.882734
0.81445 0.80911 0.901335
0.81445 0.80911 0.901335
0.81445 0.80911 0.901335
0.994278 0.819852 0.901396
0.983917 0.937987 0.882383
0.81445 0.80911 0.901335
0.81445 0.80911 0.901335
0.815564 0.809125 0.901335
0.994278 0.819852 0.901396
0.982223 0.953216 0.880156
0 1 0.87155
0 1 0.871611
0.614084 0.997772 0.869795
0.952239 0.986511 0.869825
0.976181 0.996384 0.872236
0.937865 1 0.849851
0.938323 1 0.849882
0.941527 1 0.850034
0.959106 1 0.851347
0.972885 1 0.859937
0.814313 0.810086 0.901305
0.814313 0.810086 0.901305
0.814313 0.810086 0.901305
0.814313 0.810086 0.901305
0.992966 0.841993 0.90074
0.814313 0.810086 0.901305
0.814313 0.810086 0.901305
0.814313 0.810086 0.901305
0.814313 0.810086 0.901305
0.992966 0.842023 0.90074
0.814313 0.810086 0.901305
0.814313 0.810086 0.901305
0.814313 0.810086 0.901305
0.815793 0.809979 0.901305
0.99295 0.842206 0.900725
0.814313 0.810086 0.901305
0.814313 0.810086 0.901305
0.814313 0.810086 0.901305
0.994278 0.819852 0.901396
0.99292 0.842847 0.90071
0.88603 1 0.891096
0.887953 1 0.891081
0.900572 1 0.891096
0.94847 1 0.891279
0.976226 1 0.891539
