BBLuts/BB_104_0015_LUT.cube
TITLE "Generated by Resolve"
LUT_3D_SIZE 5
0 0 0
0.164797 0 0
0.70959 0 0
0.903227 0.542306 0.0373236
0.875975 0.970932 0.640543
0 0.189441 0
0.109545 0.19234 0
0.710338 0.0739757 0
0.897993 0.599329 0.0041352
0.875944 0.971405 0.640284
0 0.768673 0
0 0.768414 0
0.603235 0.763241 0
0.880415 0.819455 0
0.875486 0.977752 0.636484
0.476234 1 0.126116
0.476234 1 0.126116
0.64036 1 0.140398
0.864271 1 0.276402
0.872938 1 0.667643
0.837995 1 0.762417
0.837995 1 0.762417
0.837995 1 0.762417
0.855879 1 0.765362
0.871321 1 0.794034
0 0 0.132723
0.135027 0 0.129015
0.71223 0 0.119371
0.906432 0.531014 0.184985
0.875975 0.970916 0.640558
0 0.151003 0.118746
0.116564 0.148547 0.113878
0.711452 0 0.10724
0.902083 0.59292 0.169421
0.875944 0.971389 0.640284
0 0.764004 0
0 0.763729 0
0.607828 0.758648 0
0.882139 0.81944 0.00282292
0.875486 0.977752 0.636484
0.484535 1 0.125704
0.484535 1 0.125704
0.642512 1 0.139895
0.864332 1 0.276173
0.872938 1 0.667643
0.838026 1 0.762417
0.838026 1 0.762417
0.838026 1 0.762417
0.855894 1 0.765347
0.871321 1 0.794034
0 0 0.648692
0 0 0.648783
0.699718 0 0.634714
0.923659 0.250172 0.651682
0.8757 0.968215 0.735668
0 0 0.647608
0 0 0.647684
0.708736 0 0.633036
0.913649 0.417121 0.649393
0.875669 0.968719 0.735531
0 0.710933 0.606592
0 0.710994 0.606607
0.584192 0.708324 0.609018
0.888685 0.795331 0.62652
0.875196 0.975448 0.733745
0.479057 1 0.497932
0.479057 1 0.497932
0.632212 1 0.5028
0.85893 1 0.548867
0.872755 1 0.714611
0.838575 1 0.762356
0.838575 1 0.762356
0.838575 1 0.762356
0.856092 1 0.765286
0.871321 1 0.794003
0 0 0.889647
0 0 0.889647
0 0 0.889647
0.934081 0 0.877256
0.877562 0.929992 0.867704
0 0 0.889647
0 0 0.889647
0 0 0.889647
0.934081 0 0.877256
0.877455 0.931426 0.867597
0 0 0.889647
0 0 0.889647
0 0 0.889647
0.934081 0 0.877256
0.876326 0.947372 0.866316
0 1 0.854002
0 1 0.854002
0 1 0.854002
0.839765 0.990723 0.858
0.872221 1 0.860899
0.833967 1 0.840131
0.833967 1 0.840131
0.833967 1 0.840131
0.850782 1 0.840925
0.870954 1 0.849195
0 0.272755 0.889693
0 0.272755 0.889693
0 0.272755 0.889693
0 0.272831 0.889693
0.895415 0.670115 0.886824
0 0.272755 0.889693
0 0.272755 0.889693
0 0.272755 0.889693
0 0.272831 0.889693
0.895415 0.670115 0.886824
0 0.272755 0.889693
0 0.272755 0.889693
0 0.272755 0.889693
0 0.272831 0.889693
0.895415 0.670115 0.886824
0 0.271519 0.889708
0 0.271519 0.889708
0 0.271519 0.889708
0 0.27158 0.889708
0.89514 0.674342 0.886824
0.767208 1 0.884657
0.767208 1 0.884657
0.767208 1 0.884657
0.767208 1 0.884657
0.870695 1 0.885206
