BBLuts/BB_104_0030_LUT.cube
TITLE "Generated by Resolve"
LUT_3D_SIZE 5
0.0016022 0.0107118 0.026566
0.176944 0.0124514 0.0294347
0.707652 0.268254 0.353353
0.833951 0.625772 0.650065
0.82118 0.808591 0.725429
0 0.178073 0.0123598
0.124788 0.183017 0.0158389
0.712352 0.315694 0.367269
0.833036 0.64123 0.647623
0.821118 0.809369 0.724163
0 0.706935 0
0 0.70663 0
0.664897 0.705608 0
0.8271 0.743664 0.592889
0.820752 0.81445 0.714382
0 0.84802 0.0321965
0 0.847257 0.0319677
0.586816 0.841886 0.0267643
0.819699 0.83299 0.0148165
0.818723 0.832502 0.718227
0.797955 0.838804 0.79707
0.798245 0.838804 0.797131
0.800366 0.838834 0.797574
0.81181 0.838987 0.801083
0.818586 0.839445 0.820981
0.0216526 0.024033 0.189425
0.175753 0.0254368 0.191669
0.707652 0.275807 0.407721
0.834058 0.623438 0.653208
0.821103 0.808362 0.740276
0 0.158892 0.162219
0.155581 0.158145 0.162341
0.708263 0.276905 0.404746
0.833204 0.638346 0.650889
0.821042 0.809155 0.739269
0 0.704479 0
0 0.704143 0
0.669367 0.703288 0
0.827085 0.742687 0.596719
0.82063 0.814221 0.731655
0 0.847868 0.0321508
0 0.84712 0.0319219
0.599649 0.841321 0.0254215
0.819776 0.832959 0.0148165
0.818738 0.832486 0.718135
0.797986 0.838804 0.797086
0.798291 0.838804 0.797147
0.800412 0.838834 0.797559
0.811826 0.838987 0.801068
0.818586 0.839445 0.820981
0.559579 0.529656 0.723507
0.559792 0.529931 0.723644
0.714092 0.54902 0.724056
0.83357 0.632502 0.754467
0.821454 0.807584 0.796475
0.557794 0.527382 0.722316
0.558038 0.527718 0.722484
0.719066 0.549477 0.723171
0.833249 0.637095 0.752194
0.821378 0.808392 0.796078
0 0.677043 0.686336
0 0.677287 0.686549
0.666331 0.677638 0.695476
0.826322 0.730449 0.729107
0.820874 0.813596 0.793271
0 0.847105 0.0319219
0 0.846387 0.031693
0.59321 0.840986 0.0260166
0.817136 0.832471 0.014786
0.818631 0.832074 0.773129
0.798337 0.838804 0.797055
0.798627 0.838804 0.797116
0.800702 0.838834 0.797528
0.811933 0.838987 0.801038
0.818586 0.839445 0.820981
0.720333 0.714412 0.877821
0.720333 0.714412 0.877821
0.720333 0.714412 0.877821
0.831968 0.723522 0.880308
0.825696 0.795743 0.86688
0.720333 0.714412 0.877821
0.720333 0.714412 0.877821
0.720333 0.714412 0.877821
0.831968 0.723522 0.880308
0.825574 0.797238 0.866667
0.720333 0.714412 0.877821
0.720333 0.714412 0.877821
0.721065 0.714427 0.877821
0.831968 0.723522 0.880308
0.82475 0.806439 0.865309
0 0.849928 0.868193
0 0.84892 0.868132
0.583368 0.837964 0.862745
0.807248 0.826505 0.858274
0.821775 0.832517 0.860365
0.799069 0.839963 0.844022
0.799329 0.839963 0.844038
0.801251 0.839994 0.84416
0.811795 0.840146 0.845243
0.82005 0.840513 0.851621
0.720241 0.715084 0.877806
0.720241 0.715084 0.877806
0.720241 0.715084 0.877806
0.720241 0.715084 0.877806
0.830808 0.737926 0.879561
0.720241 0.715084 0.877806
0.720241 0.715084 0.877806
0.720241 0.715084 0.877806
0.720241 0.715084 0.877806
0.830808 0.737957 0.879561
0.720241 0.715084 0.877806
0.720241 0.715084 0.877806
0.720241 0.715084 0.877806
0.721218 0.715023 0.877821
0.830793 0.738079 0.879545
0.720241 0.715084 0.877806
0.720241 0.715084 0.877806
0.720241 0.715084 0.877806
0.831968 0.723522 0.880308
0.830762 0.738476 0.87953
0.767697 0.841382 0.874006
0.768872 0.841382 0.874006
0.776471 0.841413 0.874067
0.805203 0.841657 0.874495
0.821897 0.841871 0.87483
