BBLuts/BB_104_0400_LUT.cube
TITLE "Generated by Resolve"
LUT_3D_SIZE 33
0.0180667 0.0278477 0.0386816
0.0180667 0.0278477 0.0386816
0.0180667 0.0278477 0.0386816
0.0180667 0.0278477 0.0386816
0.0180667 0.0278477 0.0386816
0.0618753 0.0284886 0.0393378
0.112993 0.0292363 0.0400854
0.150484 0.029633 0.0404974
0.189868 0.0298161 0.0407263
0.240208 0.0297704 0.0408026
0.300618 0.0294347 0.0407874
0.369253 0.029099 0.0411078
0.445441 0.0301213 0.0435645
0.528664 0.0368811 0.0535134
0.598749 0.0606546 0.085069
0.661677 0.132937 0.176944
0.726558 0.28629 0.315541
0.784329 0.432364 0.446937
0.832258 0.545449 0.547677
0.869215 0.605829 0.603235
0.875883 0.615335 0.611948
0.875883 0.615335 0.611948
0.8757 0.618189 0.612253
0.875227 0.624964 0.612161
0.874098 0.640024 0.61117
0.871809 0.668101 0.608072
0.868162 0.70901 0.600702
0.8645 0.752163 0.588006
0.86183 0.787701 0.566262
0.859922 0.815869 0.544518
0.858015 0.836896 0.569436
0.855817 0.852399 0.631098
0.893263 0.850278 0.713619
0.0180667 0.0278477 0.0386816
0.0180667 0.0278477 0.0386816
0.0180667 0.0278477 0.0386816
0.0180667 0.0278477 0.0386816
0.0180667 0.0278477 0.0386816
0.0721447 0.0286564 0.0394903
0.116594 0.0292821 0.0401312
0.153475 0.0296635 0.0405127
0.195056 0.0298314 0.0407416
0.246464 0.0297704 0.0408026
0.307118 0.0293889 0.0407874
0.375067 0.029099 0.0411841
0.448966 0.0302281 0.0437781
0.530587 0.0372015 0.0539254
0.599908 0.0614023 0.0860609
0.662501 0.134463 0.178622
0.727047 0.287495 0.316625
0.784527 0.432853 0.447379
0.832197 0.545342 0.547585
0.868971 0.605478 0.60293
0.875883 0.615335 0.611948
0.875883 0.615335 0.611948
0.875654 0.618814 0.612024
0.875151 0.626032 0.611994
0.873976 0.641657 0.610956
0.871626 0.670115 0.607721
0.867994 0.710933 0.600137
0.864393 0.753475 0.587274
0.861784 0.788464 0.564904
0.859907 0.816342 0.542763
0.858 0.837156 0.568338
0.855802 0.852567 0.630747
0.893263 0.85037 0.713497
0.0180667 0.0278477 0.0386816
0.0180667 0.0278477 0.0386816
0.0180667 0.0278477 0.0386816
0.0180667 0.0278477 0.0386816
0.0180667 0.0278477 0.0386816
0.0782483 0.028748 0.0395972
0.11783 0.0292973 0.0401312
0.156313 0.0296788 0.0405432
0.200473 0.0298466 0.0407416
0.252247 0.0297398 0.0407874
0.312078 0.0293736 0.0408026
0.378164 0.0290837 0.0412451
0.451896 0.0303502 0.0439612
0.532647 0.0375372 0.0543984
0.601068 0.0621958 0.0870832
0.66331 0.135958 0.18027
0.72752 0.288685 0.317693
0.78471 0.433326 0.447837
0.832135 0.54519 0.547448
0.868727 0.605127 0.602594
0.875883 0.615335 0.611948
0.875883 0.615335 0.611948
0.875608 0.619471 0.611597
0.875059 0.627146 0.611826
0.873838 0.643336 0.610727
0.871458 0.672145 0.60737
0.867811 0.712856 0.599557
0.864302 0.754742 0.586526
0.861738 0.789227 0.563546
0.859876 0.816815 0.540948
0.858 0.83743 0.567193
0.855787 0.85272 0.630396
0.893263 0.850462 0.713359
0.0180667 0.0278477 0.0386816
0.0180667 0.0278477 0.0386816
0.0180667 0.0278477 0.0386816
0.0172427 0.0323796 0.0383459
0.0371557 0.0367742 0.0383154
0.082948 0.028809 0.0396582
0.118395 0.0292973 0.0401617
0.156573 0.0296788 0.0405432
0.201404 0.0298466 0.0407568
0.254612 0.0297246 0.0407874
0.315312 0.0293431 0.0407874
0.380987 0.029099 0.0412909
0.454749 0.030457 0.0441291
0.534707 0.0378882 0.054902
0.602258 0.0630045 0.0881361
0.664149 0.13753 0.181979
0.727993 0.289845 0.318746
0.784878 0.433768 0.448218
0.832044 0.545007 0.54728
0.868452 0.604746 0.602243
0.875883 0.615335 0.611948
0.875883 0.615335 0.611948
0.875547 0.620203 0.611536
0.874983 0.628321 0.611627
0.873716 0.645045 0.610498
0.871275 0.674189 0.607004
0.867658 0.714717 0.598993
0.864195 0.756024 0.585748
0.861692 0.78999 0.562142
0.859861 0.817273 0.539101
0.857984 0.83769 0.566064
0.855772 0.852888 0.630045
0.893263 0.850553 0.713222
0.0104524 0.0696269 0.0354925
0.0100252 0.0719615 0.0353094
0.00959792 0.0742199 0.0351415
0.00921645 0.0764019 0.0349737
0.0090486 0.0772412 0.0348974
0.0667887 0.0775158 0.0357061
0.110826 0.0745556 0.0382849
0.151934 0.0708019 0.0391089
0.200092 0.0617838 0.0397803
0.255665 0.0297246 0.0408026
0.317174 0.0293278 0.0408026
0.383536 0.0291142 0.0413367
0.457511 0.0305638 0.0443275
0.536797 0.0382544 0.0554055
0.603464 0.0638437 0.08925
0.665003 0.139132 0.183703
0.728466 0.29102 0.319783
0.785031 0.43415 0.448569
0.831937 0.544823 0.547097
0.868177 0.604364 0.601877
0.875883 0.615335 0.611948
0.875822 0.61622 0.611872
0.875502 0.620996 0.611475
0.874891 0.629557 0.611414
0.873579 0.646799 0.610239
0.871092 0.676234 0.606638
0.867491 0.716564 0.598413
0.864103 0.757275 0.584939
0.861646 0.790722 0.560739
0.859846 0.817716 0.537209
0.857969 0.837934 0.56492
0.855772 0.85304 0.629709
0.893248 0.850629 0.713085
0.00570687 0.0953841 0.0335088
0.00537118 0.0972457 0.0333562
0.00503548 0.0990768 0.0332036
0.00476081 0.100526 0.0330968
0.00463874 0.101228 0.0330358
0.0451667 0.101762 0.0335546
0.0986191 0.100267 0.0356451
0.144015 0.0983291 0.0369573
0.194553 0.0949721 0.037644
0.256611 0.0878309 0.0383917
0.32047 0.0741283 0.038941
0.385672 0.0291295 0.0413825
0.460304 0.0306706 0.0445106
0.538979 0.0386816 0.0559701
0.604761 0.0647746 0.0904707
0.665904 0.140871 0.185565
0.728939 0.292226 0.320867
0.785183 0.434562 0.448966
0.83183 0.54461 0.546914
0.867872 0.603922 0.601495
0.875883 0.615335 0.611948
0.875731 0.617624 0.611749
0.875441 0.621881 0.611399
0.8748 0.630884 0.611154
0.873426 0.648676 0.609964
0.870909 0.67837 0.606241
0.867323 0.718456 0.597818
0.864012 0.758541 0.584085
0.861601 0.791485 0.559228
0.859831 0.818189 0.53521
0.857969 0.838209 0.563684
0.855756 0.853193 0.629328
0.893248 0.850736 0.712947
0.00250248 0.122423 0.0311894
0.00242618 0.12398 0.0310674
0.00234989 0.125536 0.03093
0.00230411 0.126406 0.0308385
0.00227359 0.12697 0.030808
0.00225834 0.127169 0.0307927
0.0754559 0.128176 0.0319829
0.132692 0.125231 0.0347601
0.185595 0.123705 0.0355077
0.251896 0.120058 0.0361791
0.320912 0.112871 0.0370184
0.393805 0.101549 0.0387427
0.461326 0.0841688 0.0415045
0.541787 0.0392309 0.0567025
0.606424 0.0660258 0.0920729
0.667079 0.14316 0.187961
0.72958 0.293812 0.322301
0.785397 0.43508 0.449439
0.831678 0.544289 0.546624
0.86746 0.603342 0.600961
0.875883 0.615335 0.611948
0.875669 0.618524 0.611688
0.875349 0.623102 0.611292
0.874662 0.632685 0.610697
0.873228 0.651118 0.609613
0.870665 0.681132 0.605692
0.867109 0.720882 0.597025
0.86389 0.760174 0.582925
0.861555 0.792462 0.557229
0.859815 0.818799 0.53257
0.857954 0.83856 0.562112
0.855741 0.853407 0.62884
0.893233 0.850858 0.712764
0.000823987 0.153384 0.0285191
0.000747692 0.154757 0.028397
0.000686656 0.155764 0.0282902
0.000656138 0.156451 0.0282444
0.00062562 0.156924 0.0281987
0.000610361 0.157198 0.0281682
0.0226902 0.157748 0.0286717
0.104448 0.158816 0.0300603
0.171084 0.155001 0.0330358
0.242603 0.152804 0.0338903
0.316213 0.148089 0.0348211
0.394324 0.141512 0.0366369
0.463157 0.137667 0.0392767
0.54406 0.129732 0.0539864
0.608759 0.119326 0.0932021
0.66865 0.146288 0.191211
0.730434 0.295949 0.324224
0.785657 0.435752 0.45008
0.831449 0.543847 0.546227
0.866896 0.602533 0.600214
0.875776 0.616938 0.611811
0.875593 0.61973 0.611582
0.875227 0.624872 0.611139
0.874479 0.635218 0.610132
0.872953 0.654459 0.609094
0.870344 0.684794 0.604959
0.86685 0.72401 0.595956
0.863737 0.762264 0.581277
0.861479 0.793729 0.554513
0.859785 0.819593 0.528908
0.857939 0.839002 0.55993
0.855726 0.853697 0.628214
0.893233 0.851011 0.71252
0 0.195407 0.0244907
0 0.196765 0.0243534
0 0.197528 0.0242618
0 0.198291 0.0241855
0 0.19884 0.0241093
0 0.199207 0.024094
0 0.199435 0.0240635
0.0608377 0.200671 0.0255131
0.134813 0.200549 0.0271153
0.224277 0.194202 0.0306706
0.305974 0.190463 0.0320439
0.391257 0.185168 0.0343175
0.464164 0.185061 0.0375982
0.547677 0.185214 0.0538033
0.612131 0.201465 0.0952926
0.672251 0.247822 0.196506
0.731716 0.331853 0.326635
0.786007 0.436667 0.450904
0.831113 0.54316 0.545602
0.865965 0.603418 0.598993
0.875669 0.618692 0.611673
0.875456 0.621576 0.611429
0.875044 0.627482 0.610895
0.874189 0.638834 0.609751
0.872572 0.658991 0.608362
0.869902 0.689632 0.603922
0.866499 0.728023 0.594553
0.863539 0.76495 0.578927
0.861372 0.795392 0.550759
0.859754 0.820615 0.523857
0.857923 0.839597 0.55697
0.855695 0.854047 0.627359
0.893217 0.851225 0.7122
0 0.249653 0.0171359
0 0.25008 0.0170596
0 0.250492 0.0169985
0 0.250843 0.0169375
0 0.251057 0.0168917
0 0.251118 0.0168917
0 0.250996 0.016907
0 0.250629 0.016968
0.0870222 0.251926 0.0198215
0.174182 0.251972 0.0221408
0.285695 0.244434 0.0266728
0.381659 0.240436 0.0297551
0.47863 0.235889 0.0369116
0.550088 0.241489 0.0521248
0.615442 0.254688 0.0965744
0.67512 0.293629 0.200259
0.733059 0.366918 0.328862
0.785763 0.463859 0.450278
0.830304 0.551843 0.544121
0.864622 0.604364 0.597269
0.875502 0.62089 0.61149
0.875257 0.624491 0.61117
0.874754 0.631418 0.610529
0.873793 0.644022 0.609171
0.872068 0.665171 0.607263
0.869337 0.695994 0.602457
0.866072 0.73315 0.592676
0.863294 0.768338 0.575418
0.861265 0.797757 0.545525
0.859709 0.821927 0.516732
0.857908 0.840375 0.552865
0.85568 0.85452 0.62623
0.893202 0.851499 0.711772
0 0.309422 0.00483711
0 0.30985 0.0047303
0 0.310307 0.00463874
0 0.310597 0.00454719
0 0.310857 0.00448615
0 0.311009 0.00444038
0 0.31107 0.00444038
0 0.310948 0.00447089
0 0.310491 0.00457771
0.108156 0.313039 0.00956741
0.226932 0.313832 0.0135195
0.359075 0.304753 0.019913
0.469032 0.300938 0.0280613
0.548562 0.307469 0.0453651
0.617456 0.31664 0.0932021
0.677653 0.345724 0.201343
0.73434 0.401617 0.33051
0.785733 0.482689 0.450004
0.829252 0.558083 0.542138
0.862684 0.605844 0.594781
0.875257 0.624598 0.61117
0.874922 0.62916 0.610742
0.874296 0.6374 0.609918
0.873198 0.651438 0.60827
0.871336 0.673518 0.605509
0.868589 0.704311 0.600351
0.865538 0.739574 0.590112
0.862989 0.77261 0.570443
0.861128 0.800443 0.538018
0.859678 0.823636 0.506294
0.857877 0.841367 0.547173
0.855634 0.855131 0.624735
0.893187 0.85185 0.711238
0 0.382177 0
0 0.38262 0
0 0.383001 0
0 0.383337 0
0 0.383566 0
0 0.383764 0
0 0.383917 0
0 0.383963 0
0 0.38381 0
0 0.383459 0
0.127535 0.387579 0
0.288273 0.389227 0.00169375
0.421317 0.387732 0.00569161
0.538445 0.387137 0.0267948
0.614984 0.391943 0.0766613
0.677989 0.41033 0.19144
0.734707 0.449317 0.328267
0.785138 0.509834 0.447868
0.827451 0.569451 0.538613
0.859831 0.609812 0.591287
0.874784 0.630961 0.610559
0.874357 0.636759 0.609979
0.873594 0.64651 0.608881
0.872328 0.661982 0.606806
0.870359 0.684749 0.602884
0.867658 0.714855 0.597284
0.864912 0.747494 0.58645
0.862638 0.777798 0.563745
0.860975 0.803845 0.526909
0.859648 0.825803 0.490333
0.857862 0.842664 0.538994
0.855589 0.855924 0.62269
0.893156 0.852293 0.710506
0 0.467552 0
0 0.467964 0
0 0.468345 0
0 0.468635 0
0 0.468864 0
0 0.469078 0
0 0.469276 0
0 0.469429 0
0 0.469581 0
0 0.469673 0
0 0.469673 0
0.151766 0.477043 0
0.365332 0.479988 4.57771e-05
0.513069 0.47895 0
0.604837 0.480522 0.0323186
0.67274 0.490166 0.147692
0.732509 0.512139 0.314031
0.783475 0.547951 0.441321
0.824628 0.587518 0.532631
0.855848 0.618936 0.586313
0.87396 0.641794 0.60943
0.873411 0.648936 0.608576
0.872496 0.660121 0.60708
0.871077 0.676661 0.604425
0.869032 0.69955 0.599603
0.866545 0.727733 0.592966
0.864164 0.757015 0.580621
0.862226 0.784054 0.554009
0.860807 0.808072 0.509575
0.859663 0.828565 0.463325
0.857847 0.844327 0.526848
0.855528 0.856947 0.619959
0.893126 0.852888 0.709514
0 0.554589 0
0 0.554849 0
0 0.555062 0
0 0.555245 0
0 0.555413 0
0 0.55555 0
0 0.555703 0
0 0.555856 0
0 0.555947 0
0 0.555978 0
0 0.555856 0
0 0.555474 0
0.204746 0.562966 0
0.458976 0.56376 0
0.586633 0.562844 0
0.660594 0.564843 0.0469825
0.726497 0.575601 0.26891
0.779782 0.591363 0.42417
0.820203 0.612665 0.521584
0.850309 0.636652 0.577676
0.872557 0.659297 0.607202
0.87187 0.667491 0.605951
0.870817 0.679576 0.603876
0.869322 0.696361 0.600366
0.867369 0.718151 0.59443
0.865293 0.74287 0.58674
0.863355 0.768078 0.57026
0.861784 0.79147 0.53901
0.86067 0.81326 0.47982
0.859785 0.832044 0.416052
0.857847 0.846448 0.50782
0.855451 0.858244 0.616236
0.89308 0.853651 0.708232
0 0.61941 0
0 0.619516 0
0 0.619623 0
0 0.619699 0
0 0.61976 0
0 0.619821 0
0 0.619867 0
0 0.619913 0
0 0.619928 0
0 0.619883 0
0 0.61973 0
0 0.619348 0
0 0.618616 0
0.302831 0.624903 0
0.545571 0.62414 0
0.640925 0.623621 0
0.713497 0.626886 0.0836805
0.771649 0.636362 0.373861
0.813062 0.649348 0.49723
0.842695 0.665309 0.560723
0.865721 0.682719 0.596445
0.869566 0.693553 0.601007
0.868498 0.70547 0.598077
0.867124 0.721019 0.59353
0.865583 0.739483 0.586725
0.863981 0.759808 0.575158
0.862516 0.780423 0.553506
0.861341 0.800443 0.513527
0.860624 0.819471 0.425864
0.860166 0.836454 0.309194
0.857923 0.849165 0.473701
0.85536 0.859876 0.611093
0.893019 0.854612 0.706508
0 0.679576 0
0 0.679622 0
0 0.679652 0
0 0.679683 0
0 0.679698 0
0 0.679713 0
0 0.679728 0
0 0.679698 0
0 0.679652 0
0 0.67953 0
0 0.679301 0
0 0.678859 0
0 0.678065 0
0 0.676936 0
0.414496 0.683436 0
0.609583 0.682292 0
0.694057 0.682261 0
0.757107 0.686458 0.101808
0.801877 0.694453 0.424521
0.832349 0.703822 0.524926
0.855253 0.715221 0.575021
0.866697 0.726131 0.591867
0.865873 0.735897 0.588266
0.864897 0.747997 0.582361
0.863828 0.762173 0.570993
0.86273 0.777691 0.552728
0.861738 0.793683 0.524376
0.861021 0.810437 0.460227
0.86096 0.826947 0.288243
0.860029 0.840833 0.010605
0.858213 0.852689 0.402365
0.855268 0.861921 0.603922
0.892958 0.855817 0.704234
0 0.737835 0
0 0.737835 0
0 0.737819 0
0 0.737789 0
0 0.737774 0
0 0.737743 0
0 0.737682 0
0 0.737606 0
0 0.737469 0
0 0.73727 0
0 0.736919 0
0 0.736355 0
0 0.735485 0
0 0.734264 0
0 0.732723 0
0.532418 0.738705 0.00262455
0.667079 0.736751 0.00129702
0.738354 0.737057 0.00282292
0.785901 0.739849 0.00543221
0.820203 0.745815 0.40444
0.844099 0.75172 0.519692
0.861265 0.759213 0.566476
0.863539 0.766262 0.566659
0.862959 0.774609 0.555978
0.862333 0.784436 0.538659
0.861723 0.79556 0.507759
0.861204 0.808255 0.456352
0.86125 0.821836 0.300877
0.860456 0.834195 0.0104982
0.859663 0.845884 0.0106813
0.858915 0.85713 0.110613
0.855161 0.864424 0.593774
0.892866 0.857313 0.701183
0 0.78645 0
0 0.786404 0
0 0.786343 0
0 0.786282 0
0 0.786206 0
0 0.78613 0
0 0.786038 0
0 0.785885 0
0 0.785657 0
0 0.785351 0
0 0.784863 0
0 0.784161 0
0 0.783169 0
0 0.781857 0
0 0.780148 0
0 0.778088 0
0.628717 0.781521 0.00550851
0.718379 0.779675 0.00448615
0.770809 0.779995 0.00584421
0.807248 0.781842 0.00749218
0.834241 0.785748 0.206439
0.851987 0.789059 0.464988
0.861814 0.793484 0.514931
0.861585 0.799008 0.494835
0.861402 0.805783 0.45481
0.861418 0.814084 0.368917
0.861326 0.823255 0.087068
0.860563 0.832517 0.0104677
0.859907 0.842054 0.0106203
0.859205 0.851637 0.0107881
0.858457 0.861067 0.0109102
0.855085 0.86743 0.578607
0.89276 0.859159 0.697078
0 0.823285 0.00772107
0 0.823194 0.00770581
0 0.823102 0.00767529
0 0.823011 0.00766003
0 0.822904 0.00762951
0 0.822782 0.00759899
0 0.822644 0.00756847
0 0.822446 0.0075227
0 0.822171 0.0074464
0 0.821759 0.00733959
0 0.821195 0.00720226
0 0.820432 0.00700389
0 0.819379 0.00674449
0 0.818021 0.00639353
0 0.816281 0.00596628
0 0.814145 0.00543221
0.552254 0.816571 0.0123293
0.697704 0.812467 0.007187
0.756481 0.811444 0.00720226
0.795361 0.811688 0.00819409
0.823697 0.812879 0.0091249
0.843809 0.814984 0.00978103
0.859464 0.818326 0.115404
0.861372 0.821408 0.0509651
0.861021 0.825422 0.0103609
0.860685 0.830564 0.0104372
0.860288 0.836515 0.0105287
0.859815 0.843091 0.0106355
0.859281 0.850278 0.0107576
0.858686 0.857939 0.0108797
0.85803 0.86569 0.0109712
0.855039 0.870924 0.550698
0.892638 0.861372 0.691493
0 0.851301 0.0149386
0 0.851179 0.0149081
0 0.851072 0.0148775
0 0.850935 0.014847
0 0.850813 0.0148165
0 0.85069 0.014786
0 0.850507 0.0147402
0 0.850263 0.0146792
0 0.849928 0.0145876
0 0.849485 0.0144656
0 0.848905 0.0143282
0 0.848127 0.0141299
0 0.847089 0.0138552
0 0.845731 0.0135042
0 0.844038 0.0130617
0 0.841947 0.0125277
0 0.839597 0.0119173
0.674403 0.838209 0.0102846
0.74287 0.836179 0.00880446
0.78439 0.835508 0.00910964
0.814008 0.835599 0.00967422
0.835401 0.836347 0.010132
0.851942 0.837736 0.0104372
0.860059 0.839597 0.0105898
0.859907 0.841856 0.0106203
0.859678 0.844923 0.0106661
0.859388 0.848783 0.0107424
0.859022 0.853422 0.0108034
0.858579 0.858763 0.0108797
0.858076 0.864576 0.0109712
0.857542 0.87068 0.0110323
0.854765 0.874617 0.538781
0.892515 0.863951 0.683818
0 0.871656 0.0201114
0 0.871504 0.0200656
0 0.871382 0.0200351
0 0.871244 0.0200046
0 0.871092 0.0199588
0 0.870954 0.0199283
0 0.870756 0.0198825
0 0.870512 0.0198215
0 0.870161 0.0197299
0 0.869734 0.0196384
0 0.869139 0.0194858
0 0.868376 0.0192874
0 0.867369 0.0190433
0 0.866072 0.0187076
0 0.864439 0.0182956
0 0.86247 0.017792
0 0.860304 0.017258
0.651987 0.857694 0.0132143
0.731838 0.854871 0.0101472
0.775555 0.853697 0.00988785
0.805676 0.853193 0.0101625
0.827878 0.853208 0.0104677
0.845304 0.853666 0.0106966
0.858381 0.854643 0.0108186
0.858793 0.855833 0.0108339
0.85864 0.857679 0.0108644
0.858427 0.860197 0.0109102
0.858152 0.86334 0.010956
0.857801 0.867079 0.0110018
0.857404 0.87129 0.0110323
0.856992 0.875853 0.0110781
0.854429 0.878645 0.527413
0.892287 0.866773 0.683452
0 0.886885 0.0237583
0 0.886748 0.0237125
0 0.88661 0.023682
0 0.886473 0.0236515
0 0.88632 0.023621
0 0.886183 0.0235904
0 0.886 0.0235447
0 0.88574 0.0234836
0 0.88542 0.0234226
0 0.885008 0.0233158
0 0.884443 0.0231937
0 0.883726 0.0230106
0 0.88278 0.022797
0 0.881575 0.0225071
0 0.880064 0.0221561
0 0.878325 0.0217288
0 0.876463 0.0212863
0.634287 0.873198 0.015671
0.723934 0.869749 0.0112001
0.768704 0.868315 0.0104982
0.798688 0.867567 0.0105592
0.821103 0.867201 0.0107424
0.838941 0.86714 0.0108949
0.852598 0.867475 0.0109865
0.857679 0.868025 0.0110018
0.857588 0.868955 0.011017
0.857435 0.870436 0.0110323
0.857237 0.872404 0.0110475
0.856992 0.874846 0.0110781
0.856703 0.877775 0.0110933
0.856397 0.881132 0.0111086
0.853956 0.882841 0.522683
0.891997 0.86981 0.685344
0 0.8981 0.0262608
0 0.897978 0.0262303
0 0.897841 0.0261997
0 0.897704 0.0261692
0 0.897581 0.026154
0 0.897444 0.0261234
0 0.897261 0.0260777
0 0.897047 0.0260319
0 0.896727 0.0259556
0 0.896345 0.0258793
0 0.895842 0.0257572
0 0.895171 0.0256199
0 0.894301 0.0254368
0 0.893217 0.0251926
0 0.891936 0.0249027
0 0.890486 0.0245823
0 0.888945 0.0242161
0.633387 0.884932 0.0166781
0.721431 0.881422 0.0118257
0.764675 0.879927 0.0109255
0.793347 0.879057 0.0108339
0.815732 0.878477 0.0109255
0.833417 0.878126 0.011017
0.847288 0.87805 0.0110781
0.85658 0.878202 0.0110933
0.85655 0.878508 0.0110933
0.856474 0.87924 0.0111086
0.856352 0.880415 0.0111086
0.856184 0.881987 0.0111238
0.855985 0.883986 0.0111238
0.855772 0.886351 0.0111391
0.853315 0.886946 0.532815
0.891676 0.872953 0.689219
0 0.905943 0.0278935
0 0.905837 0.027863
0 0.905715 0.0278477
0 0.905592 0.0278325
0 0.905486 0.0278019
0 0.905364 0.0277714
0 0.905196 0.0277409
0 0.904997 0.0277104
0 0.904723 0.0276493
0 0.904372 0.0275731
0 0.903929 0.0274815
0 0.903365 0.0273747
0 0.902663 0.0272221
0 0.901808 0.027039
0 0.900801 0.0268254
0 0.899672 0.0265965
0 0.898482 0.0263371
0.655802 0.893141 0.015671
0.725719 0.890379 0.0120089
0.764019 0.889036 0.0111543
0.790585 0.888151 0.0110018
0.812024 0.88751 0.0110323
0.829068 0.887037 0.0110933
0.84268 0.886748 0.0111391
0.853742 0.886641 0.0111391
0.855558 0.886641 0.0111391
0.855528 0.8869 0.0111391
0.855467 0.887495 0.0111391
0.855375 0.888441 0.0111391
0.855268 0.889708 0.0111391
0.855146 0.891295 0.0111391
0.852476 0.8907 0.561105
0.891005 0.876158 0.695583
0 0.91133 0.0289616
0 0.911223 0.0289464
0 0.911131 0.0289158
0 0.91104 0.0289006
0 0.910948 0.0288853
0 0.910857 0.0288701
0 0.910735 0.0288396
0 0.910597 0.028809
0 0.910384 0.0287785
0 0.910124 0.0287175
0 0.909789 0.0286564
0 0.909392 0.0285801
0 0.908888 0.0284886
0 0.908263 0.0283665
0 0.907546 0.0282139
0 0.906722 0.0280461
0.567285 0.904173 0.0227665
0.687968 0.899123 0.0139467
0.735683 0.897292 0.0118715
0.766552 0.896208 0.0112459
0.790234 0.895384 0.0110781
0.809964 0.894713 0.0110628
0.82591 0.894194 0.0111086
0.839002 0.893797 0.0111391
0.849775 0.893553 0.0111391
0.854627 0.893385 0.0111391
0.854658 0.893339 0.0111391
0.854643 0.893538 0.0111391
0.854627 0.893996 0.0111238
0.854597 0.894728 0.0111238
0.854582 0.89572 0.0111238
0.851499 0.894011 0.595102
0.889281 0.879622 0.704402
0 0.91249 0.0291752
0 0.91249 0.0291752
0 0.91249 0.0291752
0 0.91249 0.0291752
0 0.91249 0.0291752
0 0.91249 0.0291752
0 0.91249 0.0291752
0 0.91249 0.0291905
0 0.91249 0.0291905
0 0.91249 0.0291905
0 0.912505 0.0291905
0 0.912505 0.0291905
0 0.91252 0.0291905
0 0.91252 0.0291905
0 0.912398 0.02916
0.591241 0.908904 0.0213626
0.675914 0.905196 0.0148165
0.719112 0.903471 0.0125429
0.74905 0.902388 0.0115969
0.772503 0.901564 0.0112154
0.792462 0.900862 0.0110933
0.809781 0.900236 0.0110781
0.824155 0.899718 0.0110933
0.836378 0.899306 0.0111086
0.846677 0.89897 0.0111086
0.853834 0.898726 0.0110933
0.853895 0.898512 0.0111086
0.853941 0.898466 0.0111086
0.853971 0.898634 0.0111086
0.854002 0.899016 0.0110933
0.854063 0.899596 0.0110933
0.850538 0.896941 0.628672
0.886793 0.883192 0.715541
0 0.912551 0.0291905
0 0.912551 0.0291905
0 0.912551 0.0291905
0 0.912551 0.0291905
0 0.912551 0.0291905
0 0.912551 0.0291905
0 0.912566 0.0291905
0 0.912566 0.0291905
0 0.912566 0.0291905
0 0.912566 0.0291905
0.401404 0.914015 0.0306859
0.56257 0.910613 0.0234531
0.61503 0.90869 0.0194095
0.650797 0.907378 0.0166018
0.679866 0.906462 0.0146029
0.704784 0.905837 0.0132143
0.726711 0.905455 0.0122835
0.746258 0.905241 0.0116732
0.764309 0.905165 0.0113375
0.781155 0.90518 0.0111391
0.796811 0.904982 0.0110628
0.811276 0.904463 0.0110628
0.823728 0.90399 0.0110628
0.834791 0.903563 0.0110781
0.844297 0.903197 0.0110781
0.852155 0.902937 0.0110628
0.853269 0.902678 0.0110628
0.853346 0.902495 0.0110628
0.853422 0.902495 0.0110628
0.853529 0.902632 0.0110628
0.850996 0.90045 0.562905
0.849744 0.899519 0.661143
0.883848 0.886656 0.728511
0.690959 0.906203 0.0139467
0.692363 0.906157 0.0138705
0.693767 0.906126 0.0137942
0.695109 0.906096 0.0137179
0.696437 0.906065 0.0136416
0.697795 0.906035 0.0135653
0.699489 0.906004 0.013489
0.701671 0.905943 0.0133669
0.704433 0.905882 0.0132448
