BBLuts/BB_106_0230_LUT.cube
TITLE "Generated by Resolve"
LUT_3D_SIZE 9
0.0148013 0.0243076 0.0409094
0.0148013 0.0243076 0.0409094
0.209567 0.0265049 0.0418708
0.4766 0.037232 0.0601053
0.778149 0.298131 0.373541
0.984802 0.615656 0.669383
0.984436 0.643549 0.66949
0.981186 0.823423 0.624094
0.97641 0.931579 0.780987
0.00782788 0.0700389 0.0373846
0.00653086 0.0784009 0.0367285
0.216617 0.0631113 0.0392462
0.488777 0.038407 0.0618601
0.780438 0.302388 0.377752
0.984802 0.615656 0.669383
0.984344 0.651286 0.668666
0.981079 0.827665 0.618936
0.976364 0.932082 0.780301
0.000167849 0.20708 0.0267796
0.000122072 0.210712 0.0264744
0.153811 0.211368 0.029572
0.496147 0.201877 0.0512093
0.783993 0.339956 0.383001
0.984756 0.61944 0.669184
0.984146 0.665293 0.666972
0.980911 0.833768 0.609781
0.976303 0.932906 0.779156
0 0.491386 0.00442512
0 0.492607 0.00444038
0 0.493278 0.00444038
0.404486 0.492226 0.00497444
0.788159 0.516014 0.36907
0.984405 0.645579 0.667399
0.983444 0.712886 0.658488
0.980438 0.850019 0.573404
0.976104 0.935271 0.775708
0 0.774807 0.00650034
0 0.774731 0.00650034
0 0.774395 0.00650034
0 0.772137 0.00648508
0.717968 0.76524 0.00753796
0.952682 0.777157 0.581781
0.981353 0.81883 0.598657
0.979873 0.884215 0.00906386
0.975555 0.941512 0.765072
0 0.93167 0.00775158
0 0.930983 0.00775158
0 0.929854 0.00773632
0 0.926436 0.00772107
0 0.917861 0.00764477
0.901274 0.910918 0.00910964
0.978134 0.913893 0.00929274
0.977066 0.929503 0.00941482
0.974289 0.954833 0.742779
0 0.980911 0.00814832
0 0.980438 0.00814832
0 0.979736 0.00814832
0 0.977829 0.00813306
0.598474 0.974166 0.00895705
0.880537 0.969421 0.00952163
0.966461 0.966598 0.00968948
0.973495 0.967193 0.00970474
0.972488 0.972885 0.77055
0.826734 0.983154 0.00952163
0.829145 0.983169 0.00952163
0.832929 0.983169 0.00953689
0.843427 0.983215 0.00955215
0.86833 0.983307 0.00961318
0.910765 0.983536 0.00970474
0.956542 0.983963 0.00981155
0.970932 0.983948 0.61622
0.971801 0.98468 0.852049
0.937499 0.984894 0.891112
0.937682 0.984909 0.891142
0.938003 0.984909 0.891188
0.938979 0.984909 0.891386
0.941741 0.984939 0.89192
0.948669 0.985031 0.893431
0.961807 0.985229 0.897627
0.972976 0.985519 0.907454
0.973754 0.986068 0.930571
0.0209659 0.0283055 0.0880446
0.0210117 0.028336 0.0882734
0.214771 0.0306706 0.0892653
0.478004 0.041474 0.109453
0.778027 0.300069 0.389456
0.984802 0.615808 0.670695
0.984466 0.64239 0.670604
0.981201 0.822629 0.633753
0.976471 0.931533 0.7897
0.0159457 0.0535897 0.0779126
0.0570382 0.0638285 0.0766155
0.232929 0.0302434 0.0806134
0.484092 0.0411536 0.0995041
0.779049 0.300801 0.382757
0.984802 0.615763 0.670298
0.98436 0.650034 0.669795
0.981094 0.826902 0.629053
0.97644 0.932036 0.789075
0.000259403 0.197848 0.0275273
0.000228885 0.200885 0.0272984
0.177218 0.202075 0.0286564
0.49424 0.19295 0.0515145
0.781399 0.326101 0.378668
0.984756 0.619104 0.669184
0.984161 0.663966 0.668177
0.980926 0.833021 0.620783
0.976364 0.93286 0.788037
0 0.486671 0.00440986
0 0.487846 0.00440986
0 0.488334 0.00440986
0.421347 0.486976 0.00497444
0.787762 0.512795 0.36907
0.984421 0.644892 0.66746
0.983474 0.711711 0.659586
0.980438 0.849409 0.590402
0.97615 0.935241 0.784863
0 0.773693 0.00650034
0 0.773602 0.00650034
0 0.773251 0.00650034
0 0.770932 0.00646983
0.721325 0.764141 0.00753796
0.952819 0.776455 0.582895
0.981353 0.818418 0.599191
0.979889 0.884016 0.00906386
0.975601 0.941497 0.775174
0 0.931426 0.00775158
0 0.930739 0.00775158
0 0.929625 0.00773632
0 0.926192 0.00772107
0 0.917662 0.00764477
0.90164 0.91078 0.00910964
0.978149 0.913802 0.00929274
0.977066 0.929458 0.00941482
0.974304 0.954833 0.743908
0 0.980804 0.00814832
0 0.980346 0.00814832
0 0.979644 0.00814832
0 0.977752 0.00813306
0.605722 0.974121 0.0089723
0.880766 0.96939 0.00952163
0.966506 0.966567 0.00968948
0.97351 0.967178 0.00970474
0.972488 0.972869 0.770504
0.8271 0.983154 0.00952163
0.829496 0.983169 0.00952163
0.833265 0.983185 0.00953689
0.843702 0.983215 0.00955215
0.868544 0.983307 0.00961318
0.910842 0.983536 0.00970474
0.956573 0.983963 0.00981155
0.970932 0.983948 0.616144
0.971801 0.98468 0.852033
0.937514 0.984894 0.891112
0.937713 0.984909 0.891142
0.938033 0.984909 0.891188
0.93901 0.984909 0.891371
0.941772 0.984939 0.89192
0.948684 0.985031 0.893431
0.961822 0.985229 0.897627
0.972976 0.985519 0.907454
0.973754 0.986068 0.930571
0.0375219 0.0390784 0.214343
0.0375677 0.0390936 0.214572
0.206714 0.0410925 0.217136
0.492134 0.0530098 0.230137
0.777874 0.304784 0.421546
0.984802 0.616053 0.672709
0.984482 0.640314 0.673594
0.981216 0.821302 0.650721
0.976577 0.931456 0.802502
0.0369726 0.0387274 0.210239
0.0370031 0.0387427 0.21062
0.230579 0.0410773 0.213474
0.490455 0.0525063 0.226398
0.780026 0.308431 0.423346
0.984802 0.616037 0.672557
0.98439 0.647669 0.672786
0.981109 0.825635 0.646677
0.976516 0.93196 0.801923
0.012665 0.186328 0.186526
0.012314 0.188266 0.186084
0.190448 0.184665 0.175402
0.479408 0.182132 0.20618
0.778775 0.30573 0.418799
0.984756 0.618448 0.67216
0.984192 0.661234 0.671199
0.980941 0.831846 0.639689
0.976455 0.932799 0.801022
0 0.472938 0.0394598
0 0.474357 0.0395666
0 0.475044 0.0404517
0.426307 0.473259 0.0617227
0.783108 0.502495 0.39086
0.984451 0.642756 0.669566
0.983505 0.708675 0.663691
0.980423 0.848417 0.614511
0.976257 0.93518 0.79823
0 0.771389 0.00648508
0 0.771282 0.00648508
0 0.770932 0.00646983
0 0.768597 0.00645457
0.724498 0.761883 0.0075227
0.952728 0.774777 0.584451
0.981384 0.817304 0.603693
0.979492 0.883238 0.309346
0.975708 0.941451 0.789792
0 0.931044 0.00775158
0 0.930358 0.00775158
0 0.929229 0.00773632
0 0.925826 0.00770581
0 0.917342 0.00764477
0.902205 0.910567 0.00910964
0.978149 0.913649 0.00929274
0.977066 0.929366 0.00941482
0.97438 0.954787 0.763394
0 0.980682 0.00814832
0 0.980209 0.00814832
0 0.979507 0.00813306
0 0.977646 0.0081178
0.616541 0.974044 0.00898756
0.881193 0.96936 0.00952163
0.966598 0.966552 0.00968948
0.97351 0.967163 0.00970474
0.972503 0.972869 0.770413
0.82768 0.983154 0.00952163
0.830076 0.983169 0.00952163
0.833799 0.983185 0.00953689
0.84419 0.983215 0.00955215
0.868879 0.983307 0.00961318
0.911009 0.983536 0.00970474
0.956603 0.983963 0.00981155
0.970932 0.983948 0.616144
0.971801 0.98468 0.852018
0.937545 0.984894 0.891112
0.937758 0.984909 0.891127
0.938094 0.984909 0.891203
0.93904 0.984909 0.891371
0.941817 0.984939 0.89189
0.948714 0.985031 0.893431
0.961822 0.985229 0.897612
0.972976 0.985519 0.907454
0.973754 0.986068 0.930571
0.141039 0.106172 0.479011
0.141192 0.106264 0.479194
0.141268 0.10631 0.479301
0.478355 0.117082 0.480613
0.795117 0.35819 0.544106
0.984771 0.617792 0.685893
0.984543 0.635874 0.693584
0.981323 0.817487 0.705653
0.976883 0.931273 0.8336
0.138811 0.104723 0.476417
0.139025 0.104845 0.476646
0.217975 0.105776 0.476875
0.49337 0.117128 0.478264
0.793256 0.354925 0.541604
0.984771 0.617731 0.685557
0.984451 0.642145 0.692607
0.981216 0.821653 0.703166
0.976837 0.931777 0.833188
0.125582 0.161944 0.470878
0.125032 0.166674 0.471046
0.232425 0.163867 0.471382
0.499107 0.115328 0.473838
0.787594 0.345663 0.536049
0.984771 0.617639 0.684932
0.984298 0.654231 0.690837
0.981033 0.828367 0.698955
0.976776 0.932616 0.832502
0.00674449 0.431403 0.43061
0.0055848 0.433249 0.430869
0.00511177 0.434577 0.431632
0.444297 0.433005 0.412726
0.768002 0.47042 0.507607
0.984527 0.637156 0.68162
0.983658 0.699687 0.683589
0.980484 0.845502 0.685008
0.976562 0.935027 0.830472
0 0.761349 0.00639353
0 0.761318 0.00639353
0 0.761044 0.00639353
0 0.758923 0.00637827
0.722148 0.752392 0.0074464
0.9505 0.767376 0.605631
0.98146 0.812802 0.634791
0.979126 0.881346 0.628763
0.975998 0.941344 0.82414
0 0.929976 0.00775158
0 0.929274 0.00773632
0 0.928145 0.00773632
0 0.924727 0.00770581
0 0.916274 0.00762951
0.901625 0.909545 0.00909438
0.978225 0.912795 0.00927749
0.977203 0.928756 0.00941482
0.974655 0.954772 0.806378
0 0.98024 0.00814832
0 0.979812 0.00814832
0 0.979126 0.00813306
0 0.97731 0.0081178
0.642924 0.973816 0.0090486
0.882429 0.969223 0.00952163
0.966812 0.966445 0.00968948
0.97351 0.967102 0.00970474
0.972503 0.972839 0.770123
0.82945 0.983169 0.00952163
0.831785 0.983169 0.00952163
0.835447 0.983185 0.00953689
0.845609 0.983215 0.00955215
0.869871 0.983307 0.00961318
0.911467 0.983536 0.00970474
0.956725 0.983963 0.00981155
0.970932 0.983948 0.615961
0.971801 0.98468 0.851926
0.937713 0.984894 0.891096
0.937911 0.984909 0.891127
0.938216 0.984909 0.891173
0.939193 0.984909 0.891356
0.941939 0.984939 0.89189
0.948821 0.985031 0.893416
0.961868 0.985229 0.897597
0.972976 0.985519 0.907439
0.973754 0.986068 0.930571
0.57261 0.533104 0.779843
0.572702 0.533196 0.779919
0.572839 0.533364 0.780041
0.583459 0.532372 0.779126
0.787472 0.550317 0.778485
0.984771 0.646326 0.803403
0.984771 0.653117 0.814969
0.982254 0.807904 0.836011
0.97792 0.930739 0.890181
0.571878 0.53225 0.779202
0.571954 0.532357 0.779278
0.572122 0.53254 0.779416
0.584878 0.531365 0.778332
0.792203 0.550881 0.777996
0.984771 0.646128 0.802869
0.984741 0.655009 0.813809
0.982116 0.812528 0.835019
0.97789 0.931273 0.889921
0.570657 0.530877 0.778149
0.570764 0.530983 0.778241
0.570932 0.531182 0.778378
0.587304 0.529778 0.77705
0.795056 0.55053 0.776974
0.984771 0.645792 0.801984
0.984665 0.659663 0.811902
0.981903 0.819547 0.833463
0.977798 0.932143 0.88954
0.562081 0.538155 0.772076
0.562097 0.538445 0.772107
0.562051 0.538781 0.772107
0.58204 0.53724 0.77116
0.793622 0.551751 0.772137
0.98471 0.647425 0.797162
0.984222 0.686931 0.805905
0.981323 0.838331 0.828763
0.9776 0.93463 0.888365
0 0.730632 0.735058
0 0.730907 0.735164
0 0.730968 0.735317
0 0.729671 0.735836
0.724727 0.72398 0.727108
0.943328 0.746197 0.764523
0.98201 0.799893 0.784573
0.979751 0.877134 0.814771
0.977005 0.941146 0.884978
0 0.926757 0.00772107
0 0.926085 0.00770581
0 0.924971 0.00770581
0 0.921553 0.00767529
0 0.91281 0.00761425
0.892287 0.905348 0.595438
0.977661 0.909483 0.712322
0.976745 0.926802 0.778149
0.975601 0.954818 0.875761
0 0.979507 0.00813306
0 0.979049 0.00813306
0 0.978393 0.00813306
0 0.976577 0.0081178
0.607431 0.973068 0.00895705
0.876493 0.968475 0.00950637
0.961959 0.965728 0.00967422
0.973053 0.966323 0.640085
0.973281 0.973037 0.852842
0.834669 0.983185 0.00953689
0.836835 0.983185 0.00953689
0.840269 0.9832 0.00955215
0.849821 0.98323 0.00956741
0.872831 0.983322 0.00961318
0.912825 0.983551 0.00970474
0.957153 0.983978 0.00981155
0.970932 0.983948 0.615534
0.971801 0.98468 0.851698
0.938155 0.984909 0.891051
0.938354 0.984909 0.891081
0.938674 0.984909 0.891157
0.93962 0.984909 0.891325
0.942321 0.984939 0.891844
0.949111 0.985031 0.893385
0.96202 0.985229 0.897551
0.972976 0.985519 0.907393
0.973754 0.986068 0.930571
0.75082 0.724697 0.970779
0.75082 0.724712 0.970794
0.750851 0.724727 0.97081
0.750896 0.724773 0.970871
0.777005 0.720241 0.965454
0.987381 0.738338 0.964477
0.987427 0.739025 0.965408
0.986145 0.782345 0.956909
0.980545 0.928237 0.956512
0.750744 0.72462 0.970703
0.750759 0.724636 0.970718
0.750774 0.724651 0.970718
0.75082 0.724697 0.970779
0.779171 0.720119 0.96527
0.987381 0.738277 0.964401
0.987427 0.738964 0.965316
0.986007 0.787121 0.956222
0.980499 0.928862 0.956374
0.750622 0.724498 0.970565
0.750637 0.724514 0.970581
0.750652 0.724529 0.970596
0.750683 0.724559 0.970642
0.782864 0.719921 0.964981
0.987381 0.738155 0.964248
0.987411 0.738857 0.965194
0.985779 0.794873 0.955169
0.980423 0.929824 0.956146
0.75024 0.724117 0.970153
0.750256 0.724132 0.970169
0.750271 0.724147 0.970184
0.749966 0.723827 0.969848
0.792218 0.719448 0.964202
0.98735 0.73785 0.963851
0.987335 0.737392 0.963241
0.985092 0.816999 0.952239
0.980179 0.932631 0.955505
0.737102 0.724987 0.957412
0.737041 0.725093 0.957366
0.73695 0.725261 0.957305
0.736339 0.725155 0.95668
0.777401 0.722225 0.953704
0.983902 0.741848 0.953796
0.986023 0.771542 0.949691
0.983276 0.864836 0.945693
0.979538 0.939941 0.953689
0 0.918578 0.920287
0 0.918166 0.920287
0 0.917403 0.920317
0 0.914366 0.920378
0.580362 0.905562 0.921141
0.889418 0.897841 0.923964
0.977279 0.904387 0.928817
0.979767 0.924285 0.933989
0.978073 0.954757 0.949294
0 0.980316 0.886564
0 0.979812 0.886748
0 0.979019 0.887022
0 0.976913 0.887846
0.553887 0.972824 0.890379
0.863737 0.967834 0.895552
0.952819 0.965133 0.904677
0.975555 0.966827 0.917708
0.975692 0.973938 0.940703
0.828 0.983734 0.836851
0.830121 0.983734 0.836988
0.833478 0.983749 0.837217
0.842893 0.98378 0.837903
0.865599 0.983871 0.839948
0.905455 0.9841 0.845609
0.950118 0.984543 0.859129
0.972412 0.985122 0.885161
0.973541 0.985931 0.924788
0.939498 0.984909 0.890944
0.939681 0.984909 0.890974
0.939986 0.984909 0.891035
0.940887 0.984924 0.891203
0.943465 0.984955 0.891722
0.949966 0.985031 0.893248
0.962478 0.985229 0.897414
0.972976 0.985519 0.907256
0.973754 0.986068 0.930556
0.801831 0.776959 1
0.801831 0.776959 1
0.801831 0.776959 1
0.801831 0.776959 1
0.801831 0.776959 1
0.976349 0.786923 1
0.991394 0.789014 1
0.991394 0.789014 1
0.985275 0.91043 1
0.801831 0.776959 1
0.801831 0.776959 1
0.801831 0.776959 1
0.801831 0.776959 1
0.801831 0.776959 1
0.977478 0.787076 1
0.991394 0.789014 1
0.991394 0.789014 1
0.985199 0.911421 1
0.801831 0.776959 1
0.801831 0.776959 1
0.801831 0.776959 1
0.801831 0.776959 1
0.801831 0.776959 1
0.979309 0.78732 1
0.991394 0.789014 1
0.991394 0.789014 1
0.985107 0.913008 1
0.801831 0.776959 1
0.801831 0.776959 1
0.801831 0.776959 1
0.801831 0.776959 1
0.801831 0.776959 1
0.984665 0.788052 1
0.991394 0.789014 1
0.991394 0.789014 1
0.984771 0.917525 1
0.801831 0.776959 1
0.801831 0.776959 1
0.801831 0.776959 1
0.801831 0.776959 1
0.803006 0.776974 1
0.991394 0.789014 1
0.991394 0.789014 1
0.990738 0.794491 1
0.983917 0.928954 1
0.776287 0.854017 1
0.776226 0.854185 1
0.776104 0.854459 1
0.775723 0.855299 1
0.77525 0.851713 1
0.912459 0.846082 1
0.987533 0.863233 1
0.985367 0.904005 1
0.982025 0.950042 1
0 0.985351 0.990524
0 0.984726 0.990539
0 0.983719 0.990539
0 0.980758 0.990555
0.59913 0.973999 0.99118
0.859449 0.966796 0.992157
0.953765 0.963745 0.993759
0.979904 0.966232 0.995056
0.979248 0.974166 0.997284
0.81915 0.987137 0.983108
0.821393 0.987152 0.983124
0.825208 0.987152 0.983139
0.835096 0.987182 0.983185
0.85919 0.987259 0.983368
0.901717 0.987442 0.983871
0.948074 0.987808 0.985122
0.976776 0.988205 0.98764
0.977111 0.988449 0.992172
0.939712 0.987045 0.969467
0.939879 0.987045 0.969497
0.940169 0.987045 0.969497
0.941039 0.98706 0.969558
0.943542 0.987076 0.969711
0.949828 0.987152 0.970199
0.962005 0.98732 0.971511
0.975875 0.98761 0.974853
0.97641 0.987945 0.982361
0.801816 0.777127 1
0.801816 0.777127 1
0.801816 0.777127 1
0.801816 0.777127 1
0.801816 0.777127 1
0.801816 0.777127 1
0.991394 0.789014 1
0.991394 0.789014 1
0.991043 0.8038 1
0.801816 0.777127 1
0.801816 0.777127 1
0.801816 0.777127 1
0.801816 0.777127 1
0.801816 0.777127 1
0.801816 0.777127 1
0.991394 0.789014 1
0.991394 0.789014 1
0.991043 0.803784 1
0.801816 0.777127 1
0.801816 0.777127 1
0.801816 0.777127 1
0.801816 0.777127 1
0.801816 0.777127 1
0.801816 0.777127 1
0.991394 0.789014 1
0.991394 0.789014 1
0.991043 0.803784 1
0.801816 0.777127 1
0.801816 0.777127 1
0.801816 0.777127 1
0.801816 0.777127 1
0.801816 0.777127 1
0.801816 0.777035 1
0.991394 0.789014 1
0.991394 0.789014 1
0.991043 0.803754 1
0.801816 0.777111 1
0.801816 0.777111 1
0.801816 0.777111 1
0.801816 0.777111 1
0.801816 0.777111 1
0.803357 0.776974 1
0.991394 0.789014 1
0.991394 0.789014 1
0.991043 0.803693 1
0.801816 0.777111 1
0.801816 0.777111 1
0.801816 0.777111 1
0.801816 0.777111 1
0.801816 0.777111 1
0.856962 0.778363 1
0.991394 0.789014 1
0.991394 0.789151 1
0.988418 0.883726 1
0.705913 0.958358 1
0.705821 0.958389 1
0.70573 0.958434 1
0.705394 0.958587 1
0.704356 0.959014 1
0.80325 0.941939 1
0.962722 0.937667 1
0.984558 0.945922 1
0.982773 0.964904 1
0.683192 0.98909 1
0.69102 0.989105 1
0.702831 0.989105 1
0.733654 0.989136 1
0.796689 0.989212 1
0.877684 0.989425 1
0.943771 0.989807 1
0.978592 0.989151 1
0.979675 0.989654 1
0.93489 0.989578 1
0.935119 0.989578 1
0.93547 0.989578 1
0.936568 0.989593 1
0.939635 0.989624 1
0.947265 0.989685 1
0.961242 0.989807 1
0.976257 0.990005 1
0.9794 0.990082 1
0.801724 0.777981 1
0.801724 0.777981 1
0.801724 0.777981 1
0.801724 0.777981 1
0.801724 0.777981 1
0.801724 0.777981 1
0.801724 0.777981 1
0.991363 0.789822 1
0.990845 0.812177 1
0.801724 0.777981 1
0.801724 0.777981 1
0.801724 0.777981 1
0.801724 0.777981 1
0.801724 0.777981 1
0.801724 0.777981 1
0.801724 0.777981 1
0.991363 0.789837 1
0.990845 0.812177 1
0.801724 0.777981 1
0.801724 0.777981 1
0.801724 0.777981 1
0.801724 0.777981 1
0.801724 0.777981 1
0.801724 0.777981 1
0.801724 0.777981 1
0.991363 0.789837 1
0.990845 0.812207 1
0.801724 0.777981 1
0.801724 0.777981 1
0.801724 0.777981 1
0.801724 0.777981 1
0.801724 0.777981 1
0.801724 0.777981 1
0.801724 0.777981 1
0.991363 0.789837 1
0.990829 0.812253 1
0.801724 0.777981 1
0.801724 0.777981 1
0.801724 0.777981 1
0.801724 0.777981 1
0.801724 0.777981 1
0.801724 0.777981 1
0.803281 0.777874 1
0.991363 0.789853 1
0.990829 0.812406 1
0.801724 0.777981 1
0.801724 0.777981 1
0.801724 0.777981 1
0.801724 0.777981 1
0.801724 0.777981 1
0.801724 0.777981 1
0.868879 0.779034 1
0.991363 0.789944 1
0.990829 0.812634 1
0.801724 0.777981 1
0.801724 0.777981 1
0.801724 0.777981 1
0.801724 0.777981 1
0.801724 0.777981 1
0.801724 0.777981 1
0.991394 0.789014 1
0.991363 0.790112 1
0.990814 0.813062 1
0 0.98883 1
0 0.98883 1
0 0.98883 1
0 0.98883 1
0 0.98883 1
0 0.98883 1
0.907317 0.979919 1
0.981262 0.978119 1
0.980896 0.981262 1
0.884978 0.989532 1
0.885756 0.989532 1
0.886992 0.989532 1
0.890608 0.989548 1
0.900236 0.989593 1
0.920974 0.989731 1
0.950561 0.98996 1
0.973999 0.990219 1
0.97969 0.990295 1
