BBLuts/BB_104_0020_LUT.cube
TITLE "Generated by Resolve"
LUT_3D_SIZE 5
0 0 0
0.187793 0 0
0.806622 0 0
1 0.617517 0.0428168
1 1 0.750225
0 0.216938 0
0.125536 0.221592 0
0.81059 0.079118 0
1 0.677516 0.00527962
1 1 0.749905
0 0.877836 0
0 0.877531 0
0.685954 0.876493 0
1 0.945739 0
1 1 0.745159
0.533425 1 0.145754
0.533425 1 0.145754
0.73077 1 0.163531
1 1 0.323308
1 1 0.7841
0.97409 1 0.903395
0.97409 1 0.903395
0.97409 1 0.903395
0.996201 1 0.907134
1 1 0.943297
0 0 0.155032
0.153246 0 0.150423
0.809628 0 0.132052
1 0.605432 0.215702
1 1 0.75024
0 0.172671 0.138399
0.133791 0.171054 0.133745
0.809415 0 0.118654
1 0.671244 0.197803
1 1 0.749905
0 0.87216 0
0 0.871839 0
0.691569 0.870878 0
1 0.945861 0.00407416
1 1 0.745159
0.542428 1 0.145327
0.542428 1 0.145327
0.73341 1 0.162966
1 1 0.323064
1 1 0.7841
0.974136 1 0.903395
0.974136 1 0.903395
0.974136 1 0.903395
0.996231 1 0.907103
1 1 0.943297
0 0 0.755138
0 0 0.755261
0.792798 0 0.734646
1 0.281712 0.759625
1 1 0.86978
0 0 0.753796
0 0 0.753872
0.803723 0 0.732464
1 0.476265 0.758663
1 1 0.869612
0 0.807721 0.702296
0 0.807782 0.702342
0.663096 0.809644 0.710643
1 0.91635 0.73254
1 1 0.867369
0.536889 1 0.571344
0.536889 1 0.571344
0.721126 1 0.578088
1 1 0.636118
1 1 0.843336
0.974807 1 0.903319
0.974807 1 0.903319
0.974807 1 0.903319
0.996475 1 0.907027
1 1 0.943252
0 0 1
0 0 1
0 0 1
1 0 1
1 1 1
0 0 1
0 0 1
0 0 1
1 0 1
1 1 1
0 0 1
0 0 1
0 0 1
1 0 1
1 1 1
0 1 1
0 1 1
0 1 1
0.97612 1 1
1 1 1
0.968994 1 1
0.968994 1 1
0.968994 1 1
0.989792 1 1
1 1 1
0 0.307805 1
0 0.307805 1
0 0.307805 1
0 0.307897 1
1 0.762051 1
0 0.307805 1
0 0.307805 1
0 0.307805 1
0 0.307897 1
1 0.762051 1
0 0.307805 1
0 0.307805 1
0 0.307805 1
0 0.307897 1
1 0.762051 1
0 0.306371 1
0 0.306371 1
0 0.306371 1
0 0.306447 1
1 0.767208 1
0.886915 1 1
0.886915 1 1
0.886915 1 1
0.886915 1 1
1 1 1
