BBLuts/BB_104_0290_LUT.cube
TITLE "Generated by Resolve"
LUT_3D_SIZE 33
0.0377813 0.0492561 0.0598459
0.0377813 0.0492561 0.0598459
0.0377813 0.0492561 0.0598459
0.0377813 0.0492561 0.0598459
0.0377813 0.0492561 0.0598459
0.0928969 0.0496681 0.0603037
0.157473 0.0501717 0.060853
0.204791 0.0504005 0.0614633
0.25333 0.0506752 0.0620279
0.311971 0.0514534 0.0626383
0.379873 0.0530404 0.0639658
0.454383 0.0558175 0.0671702
0.532631 0.0616159 0.0739757
0.599878 0.0750896 0.0899214
0.663737 0.108843 0.129961
0.731899 0.194385 0.229694
0.800717 0.351766 0.355047
0.869841 0.494667 0.472892
0.932647 0.588952 0.560983
0.982208 0.641718 0.609812
0.991348 0.651499 0.618112
0.991348 0.651499 0.618112
0.991211 0.654582 0.618433
0.99086 0.661891 0.618372
0.990051 0.678187 0.617502
0.98851 0.709026 0.614816
0.986114 0.755276 0.60827
0.983246 0.806409 0.595514
0.980468 0.85008 0.576501
0.97792 0.885557 0.554833
0.97586 0.91368 0.578622
0.974426 0.935943 0.638895
0.973358 0.954253 0.699809
0.0377813 0.0492561 0.0598459
0.0377813 0.0492561 0.0598459
0.0377813 0.0492561 0.0598459
0.0377813 0.0492561 0.0598459
0.0377813 0.0492561 0.0598459
0.105898 0.0497749 0.0603952
0.162036 0.0501869 0.0608988
0.20856 0.0504158 0.0614939
0.259892 0.05066 0.0622263
0.319646 0.0514992 0.0628977
0.38703 0.0532387 0.0641947
0.460777 0.0561227 0.0675364
0.535744 0.0619669 0.0744182
0.601358 0.0756085 0.0905165
0.665003 0.109834 0.131136
0.732784 0.196063 0.231357
0.801251 0.352956 0.355978
0.8701 0.495125 0.473304
0.93257 0.588876 0.560891
0.981888 0.641352 0.609506
0.991348 0.651499 0.618112
0.991348 0.651499 0.618112
0.99118 0.655253 0.618204
0.990799 0.663035 0.618219
0.98996 0.679957 0.617304
0.988388 0.711254 0.614511
0.985992 0.757488 0.607736
0.983139 0.807996 0.594766
0.980392 0.851041 0.575189
0.977874 0.886137 0.553109
0.97583 0.914 0.577569
0.974411 0.936156 0.638529
0.973358 0.954376 0.699687
0.0377813 0.0492561 0.0598459
0.0377813 0.0492561 0.0598459
0.0377813 0.0492561 0.0598459
0.0377813 0.0492561 0.0598459
0.0377813 0.0492561 0.0598459
0.113603 0.049836 0.0604715
0.163592 0.0502022 0.060914
0.212131 0.0504463 0.0615549
0.266316 0.050721 0.0622721
0.326406 0.0515908 0.063035
0.392401 0.0534066 0.0643931
0.464195 0.0562905 0.0677501
0.538308 0.0622873 0.0747845
0.602945 0.0761578 0.0911727
0.6663 0.110857 0.132342
0.733639 0.197742 0.23299
0.801785 0.354131 0.356924
0.870344 0.495552 0.473716
0.932479 0.588785 0.560784
0.981537 0.641001 0.609186
0.991348 0.651499 0.618112
0.991348 0.651499 0.618112
0.991135 0.65594 0.617792
0.990738 0.664225 0.618051
0.989868 0.681788 0.617105
0.988281 0.713512 0.614206
0.985855 0.759701 0.607187
0.983047 0.809522 0.594018
0.980331 0.851972 0.573846
0.977813 0.886717 0.551324
0.975799 0.914321 0.576455
0.97438 0.936355 0.638178
0.973342 0.954482 0.699535
0.0377813 0.0492561 0.0598459
0.0377813 0.0492561 0.0598459
0.0377813 0.0492561 0.0598459
0.0367285 0.0547951 0.0593576
0.061738 0.0599985 0.0591135
0.119539 0.0498817 0.060502
0.164294 0.0502022 0.0609293
0.212436 0.0504463 0.0615549
0.267109 0.0507973 0.0621805
0.328984 0.051667 0.0630503
0.395911 0.0535134 0.0645151
0.467277 0.0564584 0.0679332
0.54078 0.0625925 0.0751202
0.604547 0.0767224 0.0918593
0.667597 0.11191 0.133593
0.734524 0.199466 0.234668
0.802304 0.355276 0.357839
0.870558 0.495964 0.474067
0.932357 0.588663 0.560632
0.98117 0.640604 0.60885
0.991348 0.651499 0.618112
0.991348 0.651499 0.618112
0.991089 0.656748 0.617731
0.990677 0.665507 0.617868
0.989776 0.683665 0.616892
0.988159 0.715785 0.61387
0.985748 0.761852 0.606653
0.982956 0.811063 0.593271
0.980255 0.852903 0.572473
0.977768 0.887282 0.549508
0.975769 0.914641 0.575326
0.974365 0.936568 0.637797
0.973327 0.95462 0.699397
0.0281376 0.100404 0.0552529
0.0275883 0.103273 0.0549935
0.0270695 0.10605 0.0547494
0.026566 0.108721 0.0545052
0.0263676 0.109758 0.0544137
0.0993515 0.109636 0.0551308
0.149187 0.107607 0.0559854
0.200595 0.102632 0.057084
0.26009 0.0912947 0.0586557
0.33048 0.0516365 0.0631723
0.397925 0.0535744 0.0645914
0.470069 0.0565957 0.0681163
0.543145 0.0628824 0.0754864
0.60618 0.0773175 0.092546
0.66894 0.112993 0.134905
0.735409 0.201221 0.236347
0.802823 0.35642 0.35874
0.870756 0.496315 0.474388
0.932219 0.588525 0.560479
0.980804 0.640208 0.608515
0.991348 0.651499 0.618112
0.991302 0.652461 0.618051
0.991058 0.657603 0.61767
0.9906 0.666835 0.617655
0.989685 0.685573 0.616663
0.988037 0.718074 0.613535
0.985626 0.763989 0.606104
0.982864 0.812558 0.592508
0.980194 0.853819 0.571099
0.977707 0.887846 0.547646
0.975723 0.914961 0.574197
0.974334 0.936767 0.637446
0.973312 0.954726 0.69926
0.0221714 0.132052 0.0524147
0.0217288 0.134325 0.0522164
0.0213169 0.136584 0.052018
0.0209812 0.138354 0.0518502
0.0208286 0.139208 0.0517739
0.0717632 0.139635 0.0521859
0.135317 0.138842 0.0531472
0.190341 0.13669 0.054139
0.251713 0.132586 0.0551308
0.322499 0.125048 0.056672
0.393774 0.110262 0.0594949
0.472511 0.0567483 0.0682689
0.54551 0.0631876 0.0758526
0.607889 0.0779736 0.0933242
0.670359 0.114183 0.136324
0.736355 0.203159 0.238163
0.803357 0.357595 0.359686
0.870954 0.496696 0.474754
0.932082 0.588388 0.560311
0.980377 0.63975 0.608148
0.991348 0.651499 0.618112
0.991241 0.653971 0.617929
0.991012 0.658549 0.617594
0.990539 0.668269 0.617411
0.989578 0.687617 0.616403
0.98793 0.72047 0.613184
0.985504 0.766201 0.605539
0.982757 0.814115 0.591714
0.980133 0.85478 0.569619
0.977661 0.888426 0.545678
0.975692 0.915297 0.572976
0.974319 0.936965 0.637064
0.973281 0.954864 0.699107
0.0176699 0.165362 0.049424
0.0175784 0.167269 0.0492409
0.0174868 0.169162 0.0490578
0.0174411 0.17023 0.0489662
0.0174105 0.170916 0.0489052
0.0173953 0.17116 0.0488899
0.110094 0.171695 0.0496834
0.173114 0.17084 0.0505226
0.237888 0.168688 0.0514382
0.314549 0.164996 0.0528572
0.388998 0.158877 0.0551156
0.468177 0.14818 0.0601663
0.545342 0.127932 0.0704814
0.610117 0.0788281 0.0943313
0.67219 0.115785 0.138201
0.737591 0.205676 0.240482
0.804059 0.359152 0.360922
0.871229 0.497169 0.475181
0.931868 0.588174 0.560052
0.979828 0.63917 0.607645
0.991348 0.651499 0.618112
0.991196 0.654932 0.617868
0.990936 0.659861 0.617502
0.990433 0.670222 0.616953
0.989456 0.690288 0.616083
0.987762 0.723568 0.612696
0.985351 0.769024 0.604791
0.982635 0.816083 0.590692
0.980041 0.855985 0.567666
0.977584 0.889158 0.543069
0.975631 0.915724 0.57142
0.974273 0.93724 0.636545
0.973266 0.955016 0.698909
0.0158694 0.203128 0.0460059
0.0157931 0.204791 0.0458534
0.0157321 0.206027 0.045716
0.0157015 0.206851 0.0456703
0.015671 0.207431 0.0456092
0.0156558 0.207767 0.0455634
0.0438544 0.208133 0.0458991
0.146792 0.208545 0.0467689
0.218784 0.207187 0.047837
0.303075 0.204547 0.0492866
0.38497 0.200595 0.0517281
0.465537 0.196719 0.0558175
0.545388 0.191257 0.0652476
0.609812 0.185687 0.0860304
0.673014 0.177295 0.135332
0.739239 0.209094 0.243595
0.80502 0.361242 0.3626
0.871565 0.497795 0.475761
0.931579 0.587884 0.559701
0.979049 0.638331 0.606943
0.991272 0.653223 0.61799
0.991119 0.656229 0.617777
0.99086 0.661768 0.61735
0.990295 0.672953 0.616419
0.989273 0.693965 0.615625
0.987549 0.727687 0.612024
0.985153 0.772671 0.603754
0.982483 0.818616 0.589288
0.979919 0.857557 0.564996
0.977493 0.890135 0.539452
0.97557 0.916274 0.569284
0.974227 0.937591 0.635904
0.973236 0.95523 0.698665
0.013489 0.253498 0.0413825
0.0134127 0.2551 0.0412299
0.0133669 0.256001 0.0411383
0.0133211 0.256901 0.0410468
0.0132906 0.257527 0.0409857
0.0132753 0.257969 0.0409552
0.0132601 0.258228 0.0409247
0.0927443 0.258747 0.0417792
0.185061 0.257527 0.0426947
0.279133 0.254124 0.0443275
0.370901 0.250736 0.0467536
0.458762 0.248112 0.0509499
0.544778 0.245518 0.0606699
0.611078 0.248295 0.0819104
0.673716 0.267613 0.130465
0.738781 0.315328 0.239033
0.805447 0.396811 0.362432
0.872023 0.498619 0.476509
0.931136 0.587427 0.559136
0.977829 0.639323 0.605768
0.99118 0.655131 0.617853
0.991028 0.658228 0.617624
0.990707 0.664591 0.617136
0.990097 0.67689 0.616068
0.988998 0.69894 0.614954
0.987259 0.733135 0.611093
0.984878 0.777371 0.60235
0.982284 0.821881 0.587366
0.979751 0.859586 0.561318
0.977371 0.891386 0.534478
0.975494 0.916991 0.566369
0.974182 0.938048 0.635019
0.973205 0.955505 0.698314
0.0104219 0.316808 0.0340581
0.0104067 0.317296 0.0339971
0.0103761 0.317784 0.0339208
0.0103609 0.318196 0.033875
0.0103456 0.318425 0.0338293
0.0103456 0.318502 0.0338293
0.0103456 0.318364 0.0338598
0.0103761 0.317937 0.0339055
0.127443 0.317433 0.0353552
0.233951 0.315831 0.0364996
0.344366 0.312734 0.038941
0.444251 0.310323 0.0433814
0.54023 0.307652 0.0534981
0.611551 0.308797 0.0762951
0.675639 0.3234 0.127672
0.740429 0.361868 0.239124
0.806317 0.43125 0.362661
0.87187 0.522896 0.475441
0.930083 0.5935 0.55758
0.976089 0.640406 0.604105
0.991058 0.657465 0.617685
0.990875 0.661357 0.61738
0.990494 0.668833 0.616785
0.989822 0.682521 0.615549
0.988663 0.70576 0.613962
0.986877 0.740353 0.609766
0.984543 0.783398 0.600397
0.98201 0.826001 0.584619
0.979553 0.862196 0.556191
0.977218 0.893004 0.527413
0.975402 0.917952 0.562325
0.974121 0.938659 0.63386
0.973159 0.955871 0.697871
0.00708019 0.384985 0.0225681
0.00704967 0.385443 0.0224613
0.00701915 0.385946 0.0223697
0.00700389 0.386267 0.0222934
0.00698863 0.386542 0.0222477
0.00698863 0.386709 0.0222019
0.00698863 0.38677 0.0222019
0.00698863 0.386648 0.0222171
0.00701915 0.386145 0.0223239
0.15668 0.385321 0.0244602
0.295995 0.38352 0.0263218
0.417609 0.381018 0.0307164
0.528572 0.378225 0.0408789
0.609125 0.378027 0.0649729
0.67631 0.386969 0.119661
0.742 0.413596 0.23682
0.807477 0.467247 0.362783
0.871946 0.538933 0.47483
0.928695 0.59826 0.555611
0.973571 0.642084 0.601678
0.990875 0.661479 0.617365
0.990616 0.666392 0.616983
0.990173 0.675319 0.61622
0.98941 0.690623 0.61474
0.98819 0.715023 0.61236
0.986374 0.749844 0.607813
0.9841 0.791028 0.59765
0.981659 0.831205 0.580453
0.979294 0.865522 0.548821
0.977005 0.895064 0.517128
0.97525 0.919173 0.55671
0.974029 0.939437 0.632303
0.973098 0.956344 0.697307
0.00311284 0.464469 0.0143435
0.00308232 0.464958 0.0143282
0.00306706 0.465385 0.0143282
0.0030518 0.465751 0.014313
0.00303655 0.466026 0.014313
0.00302129 0.466239 0.0142977
0.00302129 0.466407 0.0142977
0.00302129 0.466468 0.0142977
0.00302129 0.4663 0.0142977
0.00303655 0.465904 0.014313
0.184756 0.464607 0.0132906
0.365438 0.462455 0.0122835
0.503838 0.460182 0.0171054
0.600687 0.459037 0.0410773
0.672709 0.463172 0.0975204
0.741619 0.479835 0.22356
0.807858 0.513634 0.359365
0.871351 0.562783 0.472267
0.926345 0.607446 0.552087
0.969894 0.646464 0.598047
0.990524 0.668345 0.616815
0.990204 0.674632 0.616281
0.989685 0.685237 0.61529
0.98883 0.70222 0.613443
0.987533 0.727596 0.609949
0.985733 0.76199 0.604944
0.983551 0.800732 0.593881
0.981231 0.837583 0.574105
0.978943 0.869703 0.537865
0.97673 0.897673 0.501442
0.975067 0.920729 0.548638
0.973892 0.940444 0.630198
0.973007 0.956954 0.696529
0 0.547616 0.0121614
0 0.547951 0.0121462
0 0.548257 0.0121462
0 0.548501 0.0121309
0 0.548684 0.0121309
0 0.548867 0.0121157
0 0.549035 0.0121157
0 0.549157 0.0121157
0 0.549279 0.0121157
0 0.549371 0.0121004
0 0.549371 0.0121004
0.217685 0.548409 0.0108644
0.446494 0.546914 0.00955215
0.583017 0.545266 0.00860609
0.661707 0.545464 0.0449683
0.735851 0.551461 0.174212
0.8056 0.56791 0.344579
0.869322 0.593332 0.464851
0.922774 0.624231 0.54612
0.964904 0.656413 0.593042
0.989944 0.680095 0.615778
0.989563 0.687877 0.615015
0.988937 0.700175 0.613687
0.988006 0.718532 0.611322
0.986648 0.744381 0.606973
0.984894 0.777005 0.600641
0.982849 0.812192 0.588708
0.980697 0.845273 0.564599
0.9785 0.874891 0.520775
0.976364 0.900923 0.475441
0.974823 0.922728 0.536629
0.973739 0.941741 0.62739
0.972915 0.957748 0.695491
0 0.614664 0.00965896
0 0.614862 0.0096437
0 0.61503 0.0096437
0 0.615167 0.0096437
0 0.615305 0.00962844
0 0.615412 0.00962844
0 0.615534 0.00962844
0 0.615641 0.00961318
0 0.615732 0.00961318
0 0.615747 0.00961318
0 0.615641 0.00961318
0 0.615351 0.00962844
0.278111 0.614084 0.00802625
0.537606 0.612421 0.00648508
0.641352 0.611185 0.00550851
0.722988 0.611811 0.0589914
0.798154 0.6177 0.297856
0.864668 0.631144 0.446189
0.917418 0.651743 0.535348
0.95819 0.675669 0.58587
0.988983 0.69926 0.613779
0.988525 0.708324 0.612696
0.987839 0.721782 0.610849
0.986847 0.740734 0.607675
0.985489 0.765789 0.60206
0.983856 0.794903 0.594141
0.98201 0.825605 0.580301
0.980041 0.854414 0.549905
0.97792 0.881163 0.491783
0.97586 0.90483 0.427619
0.974502 0.925231 0.517784
0.973526 0.943374 0.62356
0.972778 0.95877 0.694148
0 0.677424 0.00703441
0 0.677531 0.00703441
0 0.677638 0.00701915
0 0.677714 0.00701915
0 0.677791 0.00701915
0 0.677852 0.00701915
0 0.677913 0.00701915
0 0.677958 0.00701915
0 0.677958 0.00701915
0 0.677913 0.00701915
0 0.67776 0.00701915
0 0.677348 0.00703441
0 0.676585 0.00706493
0.383108 0.674586 0.00485237
0.606256 0.672679 0.00329595
0.701488 0.671427 0.00228885
0.783764 0.672587 0.0962692
0.854841 0.679301 0.395682
0.90898 0.691218 0.512276
0.949218 0.707103 0.571237
0.98117 0.725475 0.603632
0.987015 0.73756 0.608255
0.986297 0.751156 0.60557
0.985306 0.769131 0.601144
0.984085 0.790845 0.594095
0.98262 0.815518 0.58439
0.980987 0.840696 0.564126
0.979187 0.865141 0.524819
0.977157 0.888518 0.438056
0.975082 0.909331 0.320745
0.97406 0.928313 0.484565
0.973266 0.945449 0.618296
0.972595 0.960052 0.692332
0 0.741222 0.00436408
0 0.741283 0.00436408
0 0.741329 0.00436408
0 0.74136 0.00436408
0 0.741375 0.00436408
0 0.741375 0.00436408
0 0.74139 0.00436408
0 0.741375 0.00436408
0 0.741329 0.00436408
0 0.741192 0.00436408
0 0.740948 0.00437934
0 0.740459 0.0043946
0 0.73962 0.00444038
0 0.738415 0.00448615
0.496773 0.735866 0.00155642
0.66659 0.733761 4.57771e-05
0.76141 0.732509 0
0.837613 0.734173 0.111315
0.895308 0.740703 0.442634
0.936934 0.75024 0.537591
0.968765 0.762631 0.584237
0.984985 0.775097 0.599405
0.984329 0.786587 0.595621
0.983474 0.801266 0.590127
0.982422 0.818341 0.580926
0.981186 0.837278 0.563378
0.979782 0.857008 0.535561
0.978119 0.877272 0.473106
0.976028 0.896696 0.299901
0.97351 0.913848 0
0.973434 0.93196 0.412757
0.97293 0.947982 0.610956
0.972381 0.961654 0.689967
0 0.80412 0.00175479
0 0.804105 0.00175479
0 0.804089 0.00175479
0 0.804059 0.00175479
0 0.804044 0.00175479
0 0.804013 0.00175479
0 0.803952 0.00175479
0 0.803876 0.00175479
0 0.803723 0.00177005
0 0.80351 0.00178531
0 0.803128 0.00180056
0 0.802502 0.00181582
0 0.801556 0.0018616
0 0.800244 0.00190738
0 0.798581 0.00198367
0.5935 0.79501 0
0.728862 0.792569 0
0.814191 0.791424 0
0.875257 0.792691 0
0.920974 0.798596 0.420478
0.954604 0.805692 0.531991
0.97879 0.814725 0.576806
0.982116 0.823316 0.576944
0.981445 0.833463 0.566537
0.980606 0.845518 0.54963
0.979568 0.859174 0.519265
0.978302 0.874403 0.469368
0.976562 0.89015 0.313039
0.974212 0.905196 0
0.972915 0.92047 0
0.971939 0.9355 0.104234
0.972503 0.951064 0.600488
0.972107 0.963653 0.686809
0 0.857298 0
0 0.857237 0
0 0.85716 0
0 0.857099 0
0 0.857023 0
0 0.856931 0
0 0.856825 0
0 0.856657 0
0 0.856413 0
0 0.856062 0
0 0.855543 0
0 0.854749 0
0 0.853651 0
0 0.852201 0
0 0.850324 0
0 0.848051 0
0.683162 0.843839 0
0.787686 0.841443 0
0.854597 0.840528 0
0.902739 0.841413 0
0.939178 0.845014 0.217166
0.965606 0.850629 0.47866
0.979751 0.856626 0.526314
0.979232 0.86305 0.506615
0.978531 0.871199 0.467933
0.977508 0.880827 0.381216
0.975662 0.891081 0.0792096
0.974395 0.902998 0
0.973327 0.915434 0
0.972183 0.928038 0
0.970993 0.94052 0
0.971969 0.954681 0.585657
0.97174 0.966094 0.682567
0 0.898192 0
0 0.898085 0
0 0.897978 0
0 0.897871 0
0 0.897765 0
0 0.897627 0
0 0.897475 0
0 0.897246 0
0 0.896925 0
0 0.896468 0
0 0.895827 0
0 0.894957 0
0 0.893782 0
0 0.892241 0
0 0.890288 0
0 0.887877 0
0.602564 0.883757 0
0.760708 0.88072 0
0.834577 0.878859 0
0.886198 0.878157 0
0.924331 0.878798 0
0.951782 0.880888 0
0.973236 0.88481 0.112352
0.975708 0.88867 0.0374762
0.975128 0.893843 0
0.974594 0.900465 0
0.973938 0.908217 0
0.97319 0.916808 0
0.97232 0.926253 0
0.971359 0.93637 0
0.970336 0.946654 0
0.971328 0.958801 0.559152
0.971298 0.968994 0.67686
0 0.930159 0
0 0.930022 0
0 0.9299 0
0 0.929747 0
0 0.92961 0
0 0.929458 0
0 0.929244 0
0 0.928969 0
0 0.928588 0
0 0.928084 0
0 0.927413 0
0 0.926513 0
0 0.925307 0
0 0.923766 0
0 0.921813 0
0 0.919417 0
0 0.916732 0
0.731258 0.912322 0
0.815702 0.910048 0
0.870481 0.908568 0
0.910414 0.908019 0
0.939788 0.908507 0
0.962478 0.909957 0
0.973587 0.91223 0
0.973312 0.91519 0
0.972961 0.919203 0
0.972473 0.924285 0
0.971893 0.930404 0
0.971191 0.937453 0
0.970413 0.94519 0
0.969589 0.953292 0
0.970687 0.963516 0.547295
0.970779 0.972366 0.669047
0 0.953765 0
0 0.953597 0
0 0.953445 0
0 0.953292 0
0 0.953124 0
0 0.952956 0
0 0.952728 0
0 0.952422 0
0 0.952041 0
0 0.951522 0
0 0.950851 0
0 0.949935 0
0 0.948775 0
0 0.947265 0
0 0.945373 0
0 0.943069 0
0 0.940566 0
0.703868 0.93637 0
0.800656 0.933989 0
0.857908 0.932189 0
0.898451 0.93106 0
0.929015 0.930632 0
0.953033 0.930938 0
0.970993 0.932021 0
0.971557 0.933577 0
0.971313 0.936019 0
0.970962 0.939361 0
0.97052 0.943542 0
0.970001 0.948516 0
0.96939 0.954116 0
0.968765 0.960204 0
0.970001 0.96875 0.535912
0.970275 0.976242 0.668605
0 0.971679 0
0 0.971511 0
0 0.971359 0
0 0.971176 0
0 0.971008 0
0 0.970855 0
0 0.970642 0
0 0.970321 0
0 0.96994 0
0 0.969451 0
0 0.96878 0
0 0.967941 0
0 0.966827 0
0 0.965408 0
0 0.963638 0
0 0.961578 0
0 0.959396 0
0.682597 0.95555 0
0.789685 0.953231 0
0.848219 0.951354 0
0.888472 0.950027 0
0.919326 0.949203 0
0.943969 0.948852 0
0.962829 0.949096 0
0.969818 0.949767 0
0.969665 0.951019 0
0.969436 0.952972 0
0.969146 0.955612 0
0.96878 0.958877 0
0.968338 0.962783 0
0.96788 0.967285 0
0.969253 0.974304 0.53106
0.969741 0.980468 0.670405
0 0.985 0
0 0.984848 0
0 0.98468 0
0 0.984527 0
0 0.984375 0
0 0.984207 0
0 0.983993 0
0 0.983734 0
0 0.983368 0
0 0.982895 0
0 0.9823 0
0 0.981506 0
0 0.980468 0
0 0.979187 0
0 0.977676 0
0 0.975952 0
0 0.974121 0
0.680858 0.970611 0
0.786053 0.96846 0
0.842466 0.96669 0
0.881254 0.965301 0
0.911681 0.964248 0
0.936141 0.963531 0
0.955337 0.963272 0
0.96817 0.963363 0
0.968109 0.963775 0
0.968002 0.964752 0
0.967819 0.966323 0
0.967559 0.968429 0
0.967269 0.971115 0
0.966964 0.974289 0
0.968551 0.980041 0.540963
0.969192 0.984909 0.674205
0 0.994369 0
0 0.994247 0
0 0.99411 0
0 0.993957 0
0 0.99382 0
0 0.993683 0
0 0.993484 0
0 0.99324 0
0 0.99292 0
0 0.992493 0
0 0.991958 0
0 0.991287 0
0 0.990448 0
0 0.989425 0
0 0.98822 0
0 0.986877 0
0 0.985458 0
0.706249 0.982132 0
0.791165 0.980316 0
0.841367 0.978744 0
0.877287 0.977417 0
0.906401 0.976333 0
0.930007 0.975479 0
0.948867 0.974929 0
0.964141 0.974701 0
0.966659 0.97467 0
0.966613 0.975021 0
0.966537 0.975814 0
0.9664 0.977081 0
0.966217 0.97879 0
0.966049 0.980911 0
0.967941 0.985687 0.568765
0.968643 0.989349 0.680735
0 1 0
0 1 0
0 1 0
0 1 0
0 1 0
0 1 0
0 1 0
0 0.999969 0
0 0.999725 0
0 0.999405 0
0 0.999008 0
0 0.99852 0
0 0.997909 0
0 0.997162 0
0 0.996292 0
0 0.995315 0
0.607828 0.992767 0
0.744137 0.991043 0
0.803998 0.989578 0
0.844602 0.988266 0
0.876707 0.98706 0
0.903471 0.985977 0
0.925551 0.985107 0
0.943709 0.984436 0
0.958633 0.984009 0
0.965331 0.983719 0
0.965362 0.983658 0
0.965347 0.983932 0
0.965316 0.984543 0
0.96527 0.985534 0
0.96524 0.986862 0
0.967453 0.990997 0.60119
0.968139 0.993683 0.69044
0 1 0
0 1 0
0 1 0
0 1 0
0 1 0
0 1 0
0 1 0
0 1 0
0 1 0
0 1 0
0 1 0
0 1 0
0 1 0
0 1 0
0 1 0
0.631678 0.999878 0
0.729473 0.998672 0
0.782483 0.997559 0
0.821271 0.99646 0
0.852537 0.995407 0
0.879683 0.994369 0
0.903181 0.993393 0
0.923079 0.992538 0
0.940032 0.991852 0
0.954314 0.991287 0
0.964218 0.990906 0
0.964294 0.990631 0
0.96434 0.99057 0
0.964385 0.990799 0
0.964431 0.991302 0
0.964523 0.992081 0
0.967056 0.995911 0.63534
0.967727 0.997772 0.703258
0 1 0
0 1 0
0 1 0
0 1 0
0 1 0
0 1 0
0 1 0
0 1 0
0 1 0
0 1 0
0.448661 1 0
0.603494 1 0
0.658869 1 0
0.699886 1 0
0.734173 1 0
0.764523 1 0
0.792065 1 0
0.817563 1 0
0.841474 1 0
0.864225 1 0
0.885634 0.999847 0
0.905211 0.999023 0
0.922484 0.99826 0
0.937835 0.997574 0
0.951019 0.997009 0
0.961868 0.996582 0
0.963409 0.996216 0
0.963516 0.995987 0
0.963638 0.995972 0
0.963775 0.99617 0
0.965942 0.998886 0.57026
0.966796 1 0.668971
0.967437 1 0.718654
0.747555 1 0
0.749279 1 0
0.750973 1 0
0.752636 1 0
0.754253 1 0
0.755917 1 0
0.758007 1 0
0.760678 1 0
0.764096 1 0
