BBLuts/BB_104_0310_LUT.cube
TITLE "Generated by Resolve"
LUT_3D_SIZE 33
0.0476081 0.0559548 0.0666514
0.0476081 0.0559548 0.0666514
0.0476081 0.0559548 0.0666514
0.0476081 0.0559548 0.0666514
0.0476081 0.0559548 0.0666514
0.0887465 0.05626 0.0679026
0.136767 0.0567483 0.0688945
0.171939 0.0569924 0.0694133
0.208667 0.0570687 0.0696574
0.255985 0.0569162 0.0697795
0.314656 0.0565042 0.0697642
0.38233 0.0561227 0.0700236
0.458961 0.057023 0.072221
0.537926 0.0631266 0.0814527
0.602533 0.0850996 0.110185
0.666407 0.150484 0.196048
0.732967 0.291112 0.329122
0.792432 0.433814 0.461936
0.84184 0.543709 0.558099
0.879942 0.602869 0.611246
0.886824 0.612253 0.620127
0.886824 0.612253 0.620127
0.886687 0.615076 0.620447
0.886336 0.621775 0.620371
0.885481 0.636652 0.619394
0.88368 0.664408 0.616297
0.880766 0.70486 0.608896
0.877882 0.747509 0.595468
0.875837 0.78265 0.576349
0.874418 0.810513 0.555871
0.872892 0.831296 0.579431
0.870954 0.846586 0.640101
0.869383 0.858946 0.699229
0.0476081 0.0559548 0.0666514
0.0476081 0.0559548 0.0666514
0.0476081 0.0559548 0.0666514
0.0476081 0.0559548 0.0666514
0.0476081 0.0559548 0.0666514
0.0982071 0.0564279 0.0679637
0.140002 0.0567941 0.0688792
0.174746 0.0569924 0.0694285
0.213474 0.0570687 0.069688
0.261982 0.0569009 0.0697795
0.321172 0.0564279 0.06981
0.388693 0.0560159 0.0702525
0.463279 0.0569924 0.0726024
0.540108 0.0633402 0.0819715
0.603693 0.0857862 0.111101
0.667247 0.151858 0.19762
0.733471 0.292271 0.33019
0.79263 0.434302 0.462394
0.841779 0.543603 0.558007
0.879698 0.602518 0.610941
0.886824 0.612253 0.620127
0.886824 0.612253 0.620127
0.886656 0.615686 0.620203
0.886275 0.622827 0.620203
0.88539 0.63827 0.619181
0.883543 0.666407 0.615961
0.880629 0.706752 0.608316
0.877791 0.748821 0.594705
0.875807 0.783413 0.575051
0.874418 0.810987 0.554238
0.872892 0.831556 0.578439
0.870954 0.846738 0.639735
0.869383 0.859037 0.699107
0.0476081 0.0559548 0.0666514
0.0476081 0.0559548 0.0666514
0.0476081 0.0559548 0.0666514
0.0476081 0.0559548 0.0666514
0.0476081 0.0559548 0.0666514
0.103838 0.0565042 0.0680247
0.141039 0.0568399 0.0688334
0.17731 0.0570382 0.0694285
0.218524 0.0570687 0.069688
0.267567 0.0568551 0.0697642
0.326085 0.0563973 0.0698253
0.391699 0.0560006 0.0702983
0.466407 0.0570687 0.0728008
0.542214 0.0635996 0.082475
0.604868 0.0864881 0.112062
0.66807 0.153216 0.199161
0.733959 0.2934 0.331258
0.792813 0.434775 0.462852
0.841703 0.54345 0.557885
0.879438 0.602182 0.61059
0.886824 0.612253 0.620127
0.886824 0.612253 0.620127
0.886625 0.616327 0.619791
0.886213 0.623926 0.620035
0.885283 0.639918 0.618952
0.883406 0.668406 0.615595
0.880491 0.708644 0.607736
0.877729 0.750072 0.593927
0.875776 0.784176 0.573754
0.874403 0.811444 0.552544
0.872892 0.831815 0.577371
0.870939 0.846891 0.639399
0.869368 0.859129 0.69897
0.0476081 0.0559548 0.0666514
0.0476081 0.0559548 0.0666514
0.0476081 0.0559548 0.0666514
0.0469215 0.0600595 0.0663462
0.0653544 0.0640269 0.066331
0.108202 0.0565652 0.068101
0.141543 0.0568551 0.0688182
0.177417 0.0570687 0.0693675
0.219303 0.057084 0.0696727
0.269841 0.0568551 0.0697795
0.329274 0.0563668 0.0698253
0.394415 0.0560006 0.0703593
0.469322 0.057145 0.0729839
0.544198 0.0639048 0.0829633
0.606073 0.0872358 0.113054
0.66894 0.154635 0.200748
0.734447 0.294514 0.332296
0.792996 0.435203 0.463249
0.841611 0.543282 0.557733
0.879164 0.601801 0.610239
0.886824 0.612253 0.620127
0.886824 0.612253 0.620127
0.88658 0.61706 0.61973
0.886152 0.625086 0.619837
0.885176 0.641627 0.618708
0.883268 0.67042 0.615228
0.880369 0.710491 0.607172
0.877638 0.751324 0.593164
0.875746 0.784909 0.572412
0.874403 0.811902 0.55082
0.872892 0.832074 0.576288
0.870939 0.847059 0.639033
0.869368 0.85922 0.698848
0.0412757 0.093843 0.0637522
0.0409094 0.095964 0.0635843
0.0405737 0.0980087 0.0634318
0.040238 0.0999771 0.0632792
0.0401007 0.10074 0.0632181
0.0933547 0.100954 0.0639811
0.130709 0.0992905 0.0652018
0.168856 0.0956436 0.0661784
0.214298 0.0869764 0.067277
0.270848 0.0568399 0.0697795
0.331121 0.0563516 0.0698253
0.396521 0.0560616 0.0703136
0.470802 0.057435 0.0728771
0.543038 0.0649119 0.0824292
0.607294 0.0879835 0.114092
0.669795 0.156085 0.20235
0.73492 0.295628 0.333318
0.793149 0.435599 0.463615
0.84152 0.543099 0.557565
0.878874 0.601419 0.609873
0.886824 0.612253 0.620127
0.886778 0.613123 0.62005
0.886534 0.617853 0.619669
0.886076 0.626307 0.619608
0.885084 0.643351 0.618463
0.883116 0.67245 0.614862
0.880232 0.712322 0.606577
0.877577 0.75256 0.592386
0.875715 0.785641 0.571084
0.874388 0.812345 0.549065
0.872877 0.832319 0.575189
0.870924 0.847211 0.638682
0.869352 0.859312 0.698711
0.0373388 0.117205 0.0619364
0.0370489 0.118883 0.061799
0.0367742 0.120546 0.061677
0.0365454 0.121859 0.0615702
0.0364385 0.122499 0.0615244
0.0738231 0.122942 0.0620127
0.120912 0.122332 0.0632792
0.161364 0.120912 0.0641794
0.20795 0.117678 0.0649424
0.265583 0.111101 0.0656748
0.329595 0.0979477 0.0667735
0.398672 0.0560769 0.0703441
0.47364 0.0575265 0.0730755
0.545113 0.0652781 0.0829633
0.608606 0.088838 0.115236
0.670726 0.157671 0.204089
0.735424 0.296773 0.334401
0.793317 0.435996 0.464012
0.841398 0.542901 0.557382
0.878569 0.600992 0.609476
0.886824 0.612253 0.620127
0.886717 0.614511 0.619944
0.886503 0.618723 0.619593
0.886015 0.627634 0.619364
0.884962 0.645197 0.618189
0.882979 0.674556 0.61445
0.88011 0.714199 0.605982
0.877501 0.753826 0.591577
0.875685 0.786404 0.56965
0.874388 0.812818 0.547204
0.872877 0.832593 0.574014
0.870924 0.847364 0.6383
0.869337 0.859403 0.698573
0.0348363 0.141726 0.0598459
0.0347753 0.143145 0.0597238
0.0347295 0.144549 0.0596017
0.0347143 0.145327 0.0595254
0.034699 0.145846 0.0594949
0.0346838 0.146014 0.0594797
0.10219 0.146868 0.0606088
0.149935 0.145953 0.0619364
0.199008 0.144244 0.0628214
0.260746 0.140703 0.0635843
0.327108 0.134066 0.0643778
0.398611 0.123735 0.0659342
0.476493 0.105577 0.0704662
0.547753 0.0657816 0.08365
0.610285 0.0899519 0.116732
0.671916 0.159731 0.206317
0.73608 0.298283 0.335821
0.793515 0.436515 0.4645
0.841245 0.542596 0.557107
0.878141 0.600412 0.608927
0.886824 0.612253 0.620127
0.886671 0.615412 0.619867
0.886427 0.619928 0.619486
0.885908 0.629404 0.618891
0.88481 0.647623 0.617838
0.88278 0.677287 0.613901
0.879927 0.716594 0.605173
0.877409 0.755444 0.590524
0.875639 0.787381 0.567758
0.874372 0.813413 0.544732
0.872862 0.832929 0.572503
0.870909 0.847578 0.637797
0.869337 0.859525 0.698405
0.0337987 0.169802 0.0574044
0.033753 0.171038 0.0572976
0.0337072 0.171954 0.0571908
0.0336919 0.17258 0.0571603
0.0336614 0.173007 0.0571145
0.0336614 0.173251 0.057084
0.0540322 0.173739 0.0575723
0.129442 0.174624 0.0588846
0.184802 0.173236 0.0603952
0.251301 0.170886 0.0613718
0.32224 0.166369 0.0623484
0.399039 0.160342 0.0640116
0.480949 0.153384 0.0687419
0.555154 0.146426 0.0825055
0.613092 0.138277 0.117891
0.673533 0.162554 0.209323
0.73695 0.300328 0.337728
0.79379 0.437186 0.465156
0.841016 0.542184 0.556741
0.877562 0.599619 0.608164
0.886748 0.613825 0.620005
0.88661 0.616602 0.619776
0.886336 0.621683 0.619333
0.885771 0.631907 0.618341
0.884596 0.650935 0.617319
0.882521 0.680919 0.613169
0.879728 0.719676 0.604089
0.877287 0.757504 0.58909
0.875593 0.788632 0.565194
0.874357 0.814191 0.541344
0.872862 0.833371 0.570443
0.870893 0.847852 0.637171
0.869322 0.859678 0.698177
0.0320134 0.207813 0.053727
0.0319524 0.209049 0.0536049
0.0319066 0.209735 0.0535134
0.0318761 0.210422 0.0534524
0.0318456 0.21091 0.0533913
0.0318303 0.211246 0.0533608
0.0318151 0.211444 0.0533455
0.0899367 0.212512 0.0547036
0.158145 0.212345 0.0562295
0.232792 0.209186 0.0582284
0.311513 0.205356 0.0596933
0.395804 0.200305 0.0618753
0.483528 0.19588 0.0673533
0.559731 0.196277 0.082536
0.617197 0.212634 0.119997
0.678035 0.254994 0.214435
0.738567 0.334844 0.340185
0.794156 0.438087 0.46598
0.840665 0.541543 0.556146
0.876631 0.600488 0.606928
0.886671 0.615579 0.619867
0.886503 0.618418 0.619623
0.886198 0.624262 0.619089
0.885557 0.635477 0.617945
0.884291 0.655406 0.616571
0.88217 0.685695 0.612131
0.879454 0.723659 0.602609
0.87715 0.760159 0.587121
0.875532 0.790265 0.561669
0.874357 0.815213 0.536629
0.872847 0.833967 0.567636
0.870878 0.848203 0.636301
0.869307 0.859892 0.697856
0.0287938 0.257542 0.0469825
0.0287633 0.257939 0.0469062
0.028748 0.25832 0.0468452
0.0287175 0.258671 0.0467994
0.0287022 0.258854 0.0467536
0.0287022 0.2589 0.0467536
0.0287022 0.258793 0.0467689
0.0287327 0.258457 0.0468147
0.114931 0.259586 0.0495003
0.195315 0.259556 0.0516976
0.290059 0.255802 0.0545357
0.385 0.251484 0.0575723
0.48188 0.247211 0.0640726
0.563104 0.247166 0.0811475
0.620981 0.261585 0.121294
0.681331 0.298283 0.218006
0.740246 0.368902 0.342473
0.794186 0.464881 0.465415
0.839963 0.549767 0.554772
0.875303 0.601419 0.605173
0.886549 0.617731 0.619684
0.886366 0.621302 0.619364
0.885969 0.628153 0.618723
0.885252 0.640604 0.617365
0.883894 0.661509 0.615473
0.881712 0.691981 0.610651
0.879118 0.72871 0.60058
0.876951 0.763516 0.584344
0.875456 0.79234 0.556771
0.874342 0.816526 0.529992
0.872862 0.83473 0.563775
0.870863 0.848676 0.635157
0.869291 0.860166 0.697444
0.024094 0.31426 0.0356298
0.0240635 0.314672 0.035523
0.0240177 0.315099 0.0354314
0.0240024 0.315389 0.0353552
0.0239719 0.315633 0.0353094
0.0239567 0.315785 0.0352636
0.0239567 0.315847 0.0352636
0.0239719 0.315724 0.0352789
0.0240024 0.315282 0.0353857
0.135485 0.317632 0.0400854
0.245014 0.318303 0.0438087
0.360357 0.313771 0.0483406
0.470817 0.309743 0.0558328
0.562676 0.309331 0.074876
0.623575 0.320516 0.118288
0.684352 0.348455 0.219135
0.741863 0.403342 0.344182
0.794339 0.483467 0.465171
0.838987 0.555703 0.552941
0.873381 0.602884 0.602609
0.886351 0.621408 0.619348
0.886107 0.62591 0.618936
0.885634 0.634058 0.618112
0.884779 0.647929 0.616464
0.883314 0.669764 0.613703
0.881117 0.700206 0.60853
0.878691 0.735073 0.597742
0.876722 0.767727 0.580179
0.875364 0.79501 0.549767
0.874327 0.818204 0.520241
0.872847 0.835721 0.558434
0.870832 0.849271 0.633631
0.869261 0.860517 0.69691
0.0174563 0.384787 0.0260777
0.0174105 0.385214 0.0260471
0.01738 0.385595 0.0260319
0.0173495 0.385916 0.0260014
0.017319 0.38616 0.0259861
0.0173037 0.386358 0.0259709
0.0172885 0.386496 0.0259556
0.0172885 0.386557 0.0259556
0.0173037 0.386404 0.0259709
0.0173342 0.386053 0.0260014
0.154696 0.390112 0.0303197
0.304997 0.391669 0.0329442
0.443381 0.387549 0.0373541
0.553948 0.386862 0.0573587
0.62179 0.394003 0.103029
0.685313 0.412222 0.210086
0.742718 0.450736 0.342077
0.794049 0.509926 0.463066
0.837339 0.566552 0.549661
0.870588 0.606821 0.598779
0.886015 0.62771 0.618753
0.885679 0.633433 0.618173
0.8851 0.643076 0.617075
0.884108 0.658351 0.615
0.882536 0.680858 0.611063
0.880369 0.710628 0.605432
0.878202 0.742916 0.593835
0.876478 0.772869 0.573907
0.875273 0.798642 0.539422
0.874342 0.820356 0.505196
0.872847 0.837003 0.550805
0.870802 0.850065 0.631556
0.869215 0.860975 0.696208
0.0100099 0.469703 0.0208896
0.0099794 0.4701 0.0208743
0.00996414 0.470466 0.0208591
0.00994888 0.470756 0.0208438
0.00991836 0.470985 0.0208286
0.0099031 0.471183 0.0208286
0.00988785 0.471382 0.0208133
0.00988785 0.471534 0.0208133
0.00987259 0.471687 0.0208133
0.00987259 0.471778 0.020798
0.00987259 0.471778 0.020798
0.178759 0.478874 0.0281376
0.382147 0.481605 0.0316472
0.530449 0.478752 0.0320287
0.612467 0.481865 0.0618448
0.680842 0.491188 0.169528
0.741161 0.512276 0.32813
0.792844 0.546181 0.456458
0.834791 0.584878 0.544121
0.866743 0.615839 0.593454
0.885374 0.638407 0.617624
0.884947 0.645457 0.61677
0.88423 0.656519 0.615274
0.883101 0.672862 0.612604
0.881468 0.695506 0.607752
0.879484 0.723369 0.600885
0.877623 0.752331 0.58851
0.876173 0.779049 0.564706
0.875181 0.802823 0.523262
0.874403 0.823102 0.479667
0.872862 0.838666 0.539483
0.870756 0.851072 0.628779
0.869169 0.86157 0.695247
0.00503548 0.553323 0.0185245
0.00502022 0.553552 0.0185245
0.00502022 0.553765 0.0185245
0.00500496 0.553933 0.0185245
0.00500496 0.554086 0.0185245
0.0049897 0.554223 0.0185245
0.0049897 0.55436 0.0185092
0.00497444 0.554513 0.0185092
0.00497444 0.554604 0.0185245
0.00497444 0.554635 0.0185092
0.00497444 0.554513 0.0185092
0.00500496 0.554147 0.0185245
0.22948 0.56112 0.0292821
0.477836 0.561715 0.0315862
0.594522 0.560754 0.0313878
0.669551 0.562554 0.0757916
0.735943 0.572732 0.284047
0.789792 0.588891 0.438972
0.830808 0.609705 0.533883
0.861509 0.633356 0.585855
0.884276 0.655695 0.615396
0.883741 0.663798 0.614145
0.882902 0.675746 0.61207
0.881697 0.692348 0.60853
0.88014 0.713893 0.602457
0.878508 0.738338 0.594141
0.877012 0.763256 0.580011
0.875868 0.786389 0.550668
0.875135 0.80795 0.495262
0.874586 0.826551 0.431662
0.872908 0.840757 0.521737
0.870695 0.852354 0.624994
0.869093 0.862348 0.693996
0.00170901 0.617075 0.0179751
0.00170901 0.617182 0.0179751
0.00170901 0.617288 0.0179751
0.00169375 0.617365 0.0179751
0.00169375 0.617426 0.0179751
0.00169375 0.617487 0.0179751
0.00169375 0.617533 0.0179751
0.00169375 0.617578 0.0179751
0.00169375 0.617594 0.0179751
0.00169375 0.617548 0.0179751
0.00169375 0.617395 0.0179751
0.00172427 0.617014 0.0179751
0.00175479 0.616297 0.0179751
0.324895 0.622354 0.0305791
0.559182 0.621469 0.0307927
0.650813 0.62089 0.0309606
0.723812 0.624018 0.110292
0.782437 0.633234 0.388037
0.824292 0.645975 0.511131
0.854368 0.661707 0.570733
0.877836 0.678874 0.604501
0.881895 0.68957 0.609171
0.881041 0.70135 0.606226
0.879942 0.716731 0.601495
0.878737 0.734981 0.59411
0.877501 0.755093 0.584131
0.876402 0.775464 0.564218
0.875578 0.79501 0.52694
0.875212 0.81413 0.441642
0.875059 0.830945 0.324697
0.87303 0.843458 0.489677
0.870649 0.853986 0.619776
0.869017 0.86331 0.692332
0 0.676539 0.0185092
0 0.6766 0.0185092
0 0.676631 0.0185092
0 0.676661 0.0185092
0 0.676677 0.0185092
0 0.676677 0.0185092
0 0.676692 0.0185092
0 0.676677 0.0185092
0 0.676631 0.0185092
0 0.676509 0.0185092
0 0.67628 0.0184939
0 0.675837 0.0184939
0 0.675059 0.0184634
0 0.673945 0.0184329
0.436912 0.68014 0.0315404
0.620371 0.678904 0.0313725
0.705287 0.678782 0.0323339
0.768734 0.682857 0.127474
0.813886 0.690608 0.439734
0.844678 0.699809 0.53727
0.867903 0.711009 0.583902
0.879606 0.721782 0.599664
0.878965 0.731426 0.595697
0.878202 0.743404 0.58999
0.877379 0.757412 0.580636
0.87657 0.772763 0.563485
0.875853 0.788586 0.537041
0.875441 0.805188 0.47657
0.875685 0.821561 0.304051
0.875013 0.83537 0.0431067
0.873396 0.846967 0.417731
0.870588 0.856001 0.612482
0.868925 0.86453 0.69012
0.00169375 0.734142 0.023331
0.00167849 0.734127 0.023331
0.00167849 0.734112 0.023331
0.00167849 0.734081 0.023331
0.00167849 0.734066 0.023331
0.00167849 0.734035 0.023331
0.00167849 0.733989 0.0233158
0.00166323 0.733913 0.0233005
0.00164797 0.733776 0.0232853
0.00163272 0.733577 0.0232547
0.0016022 0.733227 0.023209
0.00155642 0.732662 0.0231327
0.00148013 0.731807 0.0230259
0.00137331 0.730587 0.0228733
0.00125124 0.729076 0.0226749
0.549905 0.734722 0.03505
0.679149 0.732677 0.033875
0.750805 0.732906 0.0353552
0.798932 0.735622 0.0378271
0.833234 0.74136 0.419409
0.857359 0.747127 0.53254
0.874754 0.754498 0.576471
0.877165 0.761471 0.576684
0.876722 0.769711 0.566522
0.87628 0.779446 0.550317
0.875883 0.790463 0.521523
0.875578 0.803037 0.47274
0.875883 0.816495 0.316426
0.875319 0.828809 0.0429847
0.874723 0.84036 0.0432136
0.874189 0.851453 0.136446
0.870527 0.858473 0.60206
0.868788 0.866041 0.68716
0.00791943 0.782177 0.0316777
0.00791943 0.782132 0.0316625
0.00790417 0.782071 0.0316625
0.00788891 0.78201 0.0316472
0.00787366 0.781933 0.0316167
0.0078584 0.781857 0.0316167
0.00784314 0.781765 0.0315862
0.00782788 0.781613 0.0315557
0.00779736 0.781399 0.0315099
0.00773632 0.781094 0.0314488
0.00766003 0.780621 0.0313573
0.00753796 0.779904 0.0312047
0.00738537 0.778927 0.0310063
0.00717174 0.77763 0.0307317
0.00691234 0.775952 0.030396
0.0065919 0.773922 0.0299992
0.641413 0.776959 0.0379644
0.731502 0.775051 0.0370642
0.784222 0.775326 0.0383612
0.820874 0.777096 0.0399329
0.848081 0.78088 0.225391
0.86598 0.784039 0.481132
0.875944 0.788403 0.528222
0.875792 0.793606 0.509361
0.875731 0.80058 0.471199
0.875914 0.80882 0.383902
0.87599 0.81796 0.114351
0.875395 0.827146 0.0429541
0.874922 0.836576 0.0431373
0.874388 0.846052 0.0433204
0.873808 0.855375 0.0434882
0.870497 0.861463 0.58706
0.868635 0.867903 0.683177
0.0146639 0.81857 0.0399634
0.0146487 0.818494 0.0399481
0.0146181 0.818402 0.0399176
0.0146029 0.818311 0.0399023
0.0145876 0.818204 0.0398718
0.0145571 0.818097 0.0398566
0.0145266 0.817945 0.0398108
0.0144961 0.817746 0.039765
0.014435 0.817472 0.039704
0.0143587 0.817075 0.0395972
0.0142367 0.81651 0.0394598
0.0140993 0.815763 0.0392767
0.0138857 0.814725 0.0390326
0.0136263 0.813367 0.0387121
0.0132906 0.811658 0.0383001
0.0128786 0.809552 0.0377966
0.569741 0.811658 0.0444343
0.711315 0.807492 0.039704
0.770382 0.806409 0.0397498
0.80975 0.806622 0.0406958
0.83798 0.807767 0.0415961
0.858228 0.809842 0.0422217
0.874022 0.813092 0.140764
0.87599 0.816144 0.0806744
0.875715 0.820142 0.0428168
0.875486 0.825208 0.0429084
0.875196 0.831113 0.0430304
0.874846 0.837598 0.0431525
0.874434 0.844709 0.0432898
0.87396 0.852277 0.0434272
0.873457 0.859937 0.0435492
0.870527 0.864942 0.561807
0.868452 0.870115 0.677775
0.020325 0.846265 0.0468147
0.0203098 0.846143 0.0467842
0.0202792 0.846036 0.0467536
0.0202487 0.845914 0.0467231
0.0202335 0.845792 0.0466926
0.0202029 0.845655 0.0466621
0.0201572 0.845487 0.0466163
0.0201114 0.845243 0.0465553
0.0200504 0.844923 0.046479
0.0199588 0.84448 0.0463722
0.0198367 0.8439 0.0462348
0.0196841 0.843122 0.0460365
0.0194705 0.8421 0.0457771
0.0191958 0.840772 0.0454414
0.0188449 0.839094 0.0450294
0.0184329 0.837018 0.0445106
0.0179446 0.834699 0.043946
0.688365 0.832944 0.0426795
0.757153 0.830869 0.0413367
0.799146 0.830182 0.0416419
0.828656 0.830228 0.0421912
0.850172 0.830961 0.0426337
0.866819 0.832319 0.0429389
0.875029 0.83415 0.0430915
0.874907 0.836393 0.043122
0.874739 0.839399 0.043183
0.87451 0.843229 0.0432593
0.87422 0.847822 0.0433509
0.873884 0.853086 0.0434424
0.873487 0.858839 0.0435492
0.87306 0.864866 0.0436255
0.870314 0.868589 0.550683
0.868254 0.872724 0.670329
0.0243687 0.866377 0.0517128
0.0243381 0.866239 0.0516823
0.0243229 0.866102 0.0516518
0.0242924 0.865965 0.051606
0.0242618 0.865827 0.0515755
0.0242313 0.86569 0.051545
0.0242008 0.865507 0.0514992
0.024155 0.865248 0.0514382
0.0240787 0.864912 0.0513619
0.0240024 0.864485 0.0512551
0.0238804 0.863905 0.0511177
0.0237278 0.863142 0.0509346
0.0235294 0.86215 0.0506905
0.0232853 0.860868 0.0504005
0.0229648 0.859266 0.0500038
0.0225681 0.857298 0.0495155
0.0221408 0.855177 0.0489967
0.666178 0.852232 0.0454719
0.746395 0.849363 0.0426642
0.790326 0.848157 0.0424353
0.820584 0.847639 0.04271
0.842908 0.847623 0.0430152
0.860441 0.848066 0.0432288
0.87361 0.849027 0.0433661
0.874052 0.850187 0.0433967
0.87393 0.852018 0.0434272
0.873747 0.854505 0.043473
0.873518 0.857618 0.0435187
0.873243 0.861311 0.0435798
0.872923 0.865476 0.0436408
0.872602 0.869978 0.0437018
0.870054 0.872572 0.540108
0.867948 0.875578 0.669978
0.0271916 0.881437 0.0551766
0.0271611 0.881285 0.0551461
0.0271458 0.881163 0.0551156
0.0271153 0.881025 0.0550851
0.0271 0.880873 0.0550546
0.0270695 0.880751 0.055024
0.027039 0.880568 0.0549783
0.0269932 0.880308 0.0549325
0.0269322 0.879988 0.0548562
0.0268559 0.879576 0.0547646
0.0267643 0.879011 0.0546426
0.026627 0.878309 0.0544747
0.0264591 0.877379 0.0542763
0.0262303 0.876188 0.0540017
0.0259556 0.874693 0.0536507
0.0256352 0.872969 0.053254
0.0252842 0.871122 0.0528267
0.648676 0.867567 0.0478218
0.73872 0.864073 0.0436866
0.783703 0.862623 0.043061
0.813825 0.861845 0.0431373
0.836347 0.861463 0.0433204
0.854276 0.861402 0.043473
0.868025 0.861708 0.0435645
0.873137 0.862242 0.043595
0.87306 0.863172 0.0436103
0.872938 0.864622 0.0436255
0.872786 0.866575 0.0436561
0.872587 0.869001 0.0436866
0.872343 0.871885 0.0437171
0.872099 0.875212 0.0437476
0.869657 0.876722 0.535714
0.867582 0.878645 0.671794
0.029099 0.892515 0.057557
0.0290684 0.892393 0.0575265
0.0290532 0.892256 0.0575113
0.0290379 0.892134 0.0574807
0.0290074 0.891997 0.0574502
0.0289921 0.891859 0.057435
0.0289616 0.891691 0.0573892
0.0289311 0.891478 0.0573434
0.0288701 0.891157 0.0572824
0.028809 0.890776 0.0571908
0.0287175 0.890272 0.0570993
0.0286107 0.889616 0.0569619
0.0284733 0.888762 0.0567636
0.0282902 0.887694 0.0565499
0.0280766 0.886427 0.0562753
0.0278172 0.884993 0.0559548
0.0275425 0.883467 0.0556191
0.647974 0.879164 0.0488136
0.736416 0.875608 0.0443275
0.779858 0.874098 0.0435035
0.808942 0.873213 0.0434424
0.831174 0.872618 0.043534
0.848936 0.872251 0.0436255
0.862882 0.872175 0.0437018
0.872236 0.872312 0.0437171
0.872206 0.872618 0.0437324
0.872129 0.873335 0.0437324
0.872038 0.874495 0.0437476
0.871885 0.876051 0.0437476
0.871733 0.878019 0.0437629
0.871565 0.880369 0.0437781
0.869093 0.880781 0.545159
0.86717 0.881819 0.675532
0.0303197 0.900267 0.0591287
0.0303044 0.90016 0.0590982
0.0302892 0.900053 0.0590829
0.0302586 0.899931 0.0590524
0.0302434 0.899809 0.0590372
0.0302281 0.899702 0.0590066
0.0302129 0.899535 0.0589761
0.0301823 0.899336 0.0589456
0.0301366 0.899062 0.0588846
0.0300755 0.898711 0.0588083
0.0300145 0.898283 0.058732
0.0299229 0.897719 0.0586099
0.0298161 0.897017 0.0584726
0.0296941 0.896178 0.05832
0.0295262 0.895186 0.0581064
0.0293431 0.894072 0.0578775
0.02916 0.892897 0.0576333
0.670665 0.887251 0.0479286
0.740887 0.884474 0.0445411
0.77937 0.883101 0.0437629
0.806332 0.8822 0.0436255
0.827604 0.881544 0.0436713
0.844739 0.881056 0.0437324
0.858412 0.880766 0.0437781
0.86952 0.880659 0.0437934
0.871351 0.880659 0.0437934
0.871321 0.880903 0.0437934
0.871275 0.881498 0.0437934
0.871199 0.882429 0.0437934
0.871107 0.88368 0.0438087
0.871015 0.885237 0.0438087
0.868315 0.884474 0.571694
0.866728 0.884947 0.681849
0.0310979 0.905592 0.0601358
0.0310826 0.905486 0.0601205
0.0310674 0.905394 0.06009
0.0310674 0.905318 0.06009
0.0310521 0.905211 0.0600595
0.0310369 0.905119 0.0600443
0.0310216 0.905013 0.060029
0.0309911 0.90486 0.0599985
0.0309758 0.904662 0.059968
0.03093 0.904402 0.0599069
0.0308843 0.904082 0.0598459
0.0308232 0.90367 0.0597696
0.0307469 0.903181 0.059678
0.0306706 0.902571 0.0595712
0.0305638 0.901854 0.0594186
0.0304265 0.901045 0.059266
0.584726 0.898238 0.0545357
0.703105 0.893126 0.0463569
0.751049 0.891279 0.0444343
0.782055 0.890181 0.0438697
0.806119 0.889342 0.0437324
0.825666 0.88867 0.0437324
0.841688 0.888151 0.0437781
0.854826 0.887739 0.0438087
0.865675 0.887495 0.0438087
0.870542 0.887312 0.0438087
0.870573 0.887266 0.0438087
0.870558 0.887465 0.0438087
0.870542 0.887922 0.0438087
0.870527 0.888655 0.0438087
0.870527 0.889616 0.0438087
0.867384 0.887724 0.603555
0.866255 0.887968 0.691142
0.0312657 0.906737 0.0603494
0.0312657 0.906737 0.0603494
0.0312657 0.906737 0.0603494
0.0312657 0.906737 0.0603494
0.0312657 0.906737 0.0603494
0.0312657 0.906737 0.0603494
0.0312657 0.906737 0.0603494
0.0312657 0.906752 0.0603494
0.0312657 0.906752 0.0603494
0.0312657 0.906752 0.0603494
0.0312657 0.906752 0.0603494
0.0312657 0.906752 0.0603494
0.0312657 0.906767 0.0603494
0.0312657 0.906767 0.0603494
0.0312505 0.906645 0.0603342
0.605722 0.902892 0.053254
0.691096 0.899153 0.0471962
0.734493 0.897414 0.0450904
0.764569 0.8963 0.0442206
0.788128 0.895476 0.0438697
0.808454 0.894759 0.0437629
0.825589 0.894133 0.0437629
0.840009 0.893599 0.0437781
0.852293 0.893187 0.0438087
0.862654 0.892836 0.0438087
0.869841 0.892592 0.0438087
0.869902 0.892393 0.0438087
0.869932 0.892348 0.0438087
0.869978 0.892515 0.0438087
0.870008 0.892882 0.0438087
0.870085 0.893462 0.0438087
0.866484 0.890608 0.637736
0.865812 0.890761 0.703197
0.0312657 0.906798 0.0603647
0.0312657 0.906798 0.0603647
0.0312657 0.906798 0.0603647
0.0312657 0.906798 0.0603647
0.0312657 0.906798 0.0603647
0.0312657 0.906798 0.0603647
