BBLuts/BB_103_0695_LUT.cube
TITLE "Generated by Resolve"
LUT_3D_SIZE 9
0.000701915 0 0
0.000701915 0 0
0.103838 0 0
0.319539 0 0
0.672877 0 0
0.86128 0 0
0.801068 0.540276 0.206867
0.735973 0.915709 0.593072
0.713741 1 1
0 0.0220798 0
0 0.0305028 0
0.0984054 0.0224308 0
0.330785 0 0
0.675258 0 0
0.861265 0 0
0.79585 0.582437 0.191928
0.735515 0.920043 0.590112
0.713695 1 1
0 0.154284 0
0 0.157321 0
0.0434577 0.168978 0
0.301793 0.145296 0
0.662348 0.0274052 0
0.840436 0.17763 0
0.787793 0.640314 0.159747
0.734874 0.926665 0.585428
0.713619 1 1
0 0.424292 0
0 0.42562 0
0 0.426337 0
0.198657 0.469444 0
0.618647 0.46685 0
0.800259 0.552239 0.0380713
0.770047 0.763684 0.0287022
0.733364 0.943816 0.570916
0.71342 1 1
0 0.827207 0
0 0.8271 0
0 0.826627 0
0 0.823529 0
0.518074 0.857893 0
0.728115 0.87219 0.0202029
0.74992 0.920256 0.0256504
0.729793 0.976867 0.577035
0.712886 1 1
0 1 0.0557412
0 1 0.0552987
0 1 0.054551
0 1 0.0522621
0.491157 1 0.0424811
0.681682 1 0.0332036
0.741039 1 0.0344091
0.723964 1 0.636881
0.711711 1 1
0.357122 1 0.316747
0.378698 1 0.314672
0.408804 1 0.312001
0.475929 1 0.308125
0.575006 1 0.316518
0.663462 1 0.368246
0.718334 1 0.517037
0.715801 1 0.800473
0.709606 1 1
0.620233 1 0.903273
0.621393 1 0.903487
0.62327 1 0.903792
0.62858 1 0.904768
0.6421 1 0.90779
0.66775 1 0.917006
0.698604 1 0.942977
0.709056 1 1
0.708095 1 1
0.68098 1 1
0.681117 1 1
0.681361 1 1
0.682063 1 1
0.684077 1 1
0.689189 1 1
0.699031 1 1
0.707805 1 1
0.70782 1 1
0 0 0.0654307
0 0 0.0658122
0.100069 0 0.0769055
0.316335 0 0.0511788
0.67068 0 0
0.856611 0 0.0601511
0.801938 0.533379 0.288579
0.734829 0.913741 0.641382
0.713649 1 1
0 0 0.0472877
0.00454719 0.0120241 0.0452735
0.112444 0 0.0642252
0.323445 0 0.0234684
0.672969 0 0
0.858946 0 0.00428778
0.796613 0.576822 0.274647
0.734356 0.918105 0.638758
0.713603 1 1
0 0.146624 0
0 0.149172 0
0.0565805 0.161685 0
0.301198 0.136187 0
0.66714 0 0
0.841169 0.158083 0
0.788312 0.63621 0.247837
0.733654 0.924758 0.634546
0.713527 1 1
0 0.419287 0
0 0.420508 0
0 0.421027 0
0.211276 0.463691 0
0.618921 0.461784 0
0.800732 0.548287 0.0379339
0.769116 0.760601 0.101869
0.732021 0.94197 0.62237
0.713329 1 1
0 0.825635 0
0 0.825513 0
0 0.82501 0
0 0.821897 0
0.521096 0.856504 0
0.728313 0.871275 0.0201877
0.749966 0.919799 0.0256199
0.729473 0.976394 0.588983
0.712795 1 1
0 1 0.0555886
0 1 0.0551308
0 1 0.0543984
0 1 0.0520943
0.493187 1 0.0421607
0.681956 1 0.0331884
0.741039 1 0.0344091
0.723964 1 0.636591
0.711711 1 1
0.360464 1 0.316014
0.38172 1 0.314015
0.411261 1 0.311391
0.477531 1 0.307698
0.575616 1 0.316289
0.663615 1 0.368078
0.718364 1 0.517021
0.715801 1 0.800366
0.709606 1 1
0.620417 1 0.903243
0.621576 1 0.903456
0.623438 1 0.903761
0.628733 1 0.904738
0.642222 1 0.907744
0.667796 1 0.916976
0.698619 1 0.942946
0.709056 1 1
0.708095 1 1
0.680995 1 1
0.681132 1 1
0.681376 1 1
0.682078 1 1
0.684092 1 1
0.689189 1 1
0.699046 1 1
0.707805 1 1
0.70782 1 1
0 0 0.240223
0 0 0.240497
0.0815595 0 0.249454
0.322972 0 0.227253
0.663417 0 0.192218
0.852277 0 0.243763
0.803235 0.518318 0.42356
0.733364 0.910842 0.708431
0.713542 1 1
0 0 0.235248
0 0 0.235721
0.0989548 0 0.244663
0.321614 0 0.222446
0.665827 0 0.186267
0.852445 0 0.233967
0.79765 0.564095 0.414435
0.732845 0.915267 0.706188
0.713497 1 1
0 0.117769 0.194553
0 0.119677 0.193866
0.047364 0.126696 0.202258
0.281926 0.106477 0.197772
0.664942 0 0.170275
0.837369 0.0925307 0.241886
0.789151 0.626108 0.397574
0.732082 0.921996 0.702617
0.71342 1 1
0 0.401846 0.0234684
0 0.403265 0.0248112
0 0.403922 0.0268254
0.210056 0.445884 0.0993668
0.612573 0.444968 0.124346
0.801282 0.535439 0.208209
0.768002 0.754162 0.338354
0.730297 0.939376 0.692332
0.713207 1 1
0 0.822385 0
0 0.822248 0
0 0.821744 0
0 0.818601 0
0.523812 0.853651 0
0.728435 0.869108 0.0200809
0.747036 0.916304 0.152117
0.727382 0.973968 0.66482
0.712657 1 1
0 1 0.0553445
0 1 0.0548867
0 1 0.054139
0 1 0.0518502
0.496422 1 0.0416876
0.682368 1 0.0331731
0.741054 1 0.0343938
0.723995 1 0.636164
0.711543 1 1
0.36585 1 0.314855
0.386572 1 0.312932
0.415198 1 0.31043
0.480095 1 0.307012
0.576623 1 0.315908
0.663874 1 0.367803
0.718425 1 0.516976
0.715801 1 0.800183
0.709606 1 1
0.620691 1 0.903197
0.621866 1 0.903395
0.623713 1 0.9037
0.628992 1 0.904677
0.64242 1 0.907698
0.667903 1 0.916915
0.69865 1 0.942916
0.709056 1 1
0.708095 1 1
0.681025 1 1
0.681178 1 1
0.681422 1 1
0.682109 1 1
0.684123 1 1
0.689219 1 1
0.699062 1 1
0.707805 1 1
0.70782 1 1
0 0 0.569512
0 0 0.569741
0 0 0.569924
0.290288 0 0.568078
0.673243 0 0.541421
0.84593 0 0.582666
0.80824 0.462669 0.708919
0.730373 0.903014 0.855131
0.713329 1 1
0 0 0.566323
0 0 0.566613
0.0246738 0 0.572168
0.306508 0 0.56318
0.671443 0 0.537667
0.845991 0 0.5785
0.800885 0.517571 0.703807
0.729763 0.907652 0.853651
0.713283 1 1
0 0.018616 0.546715
0 0.0232242 0.546181
0.0228885 0.0267491 0.554086
0.313252 0 0.556725
0.665797 0 0.531579
0.846113 0 0.570611
0.791577 0.58883 0.695933
0.728847 0.914656 0.851301
0.713207 1 1
0 0.346029 0.463355
0 0.348104 0.463584
0 0.349538 0.464454
0.202457 0.392065 0.517098
0.599954 0.391409 0.535134
0.805356 0.487526 0.593011
0.76701 0.73077 0.664393
0.72668 0.932723 0.844709
0.712993 1 1
0 0.80679 0.34583
0 0.80676 0.346853
0 0.806378 0.348348
0 0.803418 0.352117
0.51342 0.83827 0.417975
0.719219 0.854536 0.475563
0.737453 0.903944 0.593927
0.723125 0.968368 0.827161
0.712413 1 1
0 1 0.0546883
0 1 0.0542458
0 1 0.0534829
0 1 0.0512856
0.49633 1 0.0417182
0.6766 1 0.244129
0.729885 1 0.473259
0.719905 1 0.783185
0.711223 1 1
0.381415 1 0.311437
0.400366 1 0.309743
0.42681 1 0.307576
0.487617 1 0.305013
0.579568 1 0.314794
0.664652 1 0.366964
0.718608 1 0.516823
0.715831 1 0.799634
0.709606 1 1
0.621576 1 0.903029
0.622721 1 0.903212
0.624537 1 0.903548
0.62974 1 0.904509
0.642985 1 0.90753
0.668208 1 0.916762
0.698741 1 0.942779
0.709056 1 1
0.708095 1 1
0.681132 1 1
0.681285 1 1
0.681514 1 1
0.682231 1 1
0.684215 1 1
0.689296 1 1
0.699092 1 1
0.707805 1 1
0.70782 1 1
0 0 0.99176
0 0 0.991852
0 0 0.991989
0.132799 0 1
0.653971 0 0.975662
0.841779 0 0.991211
0.83241 0.166232 1
0.729717 0.88397 1
0.713237 1 1
0 0 0.991028
0 0 0.991104
0 0 0.991272
0.156085 0 1
0.659281 0 0.974899
0.841505 0 0.990478
0.827298 0.301427 1
0.72874 0.889647 1
0.713191 1 1
0 0 0.989807
0 0 0.989914
0 0 0.990066
0.189593 0 0.998962
0.662516 0 0.973571
0.841505 0 0.98909
0.812345 0.435416 1
0.727352 0.898024 1
0.713115 1 1
0 0.150546 0.953948
0 0.153368 0.953735
0 0.157031 0.953414
0.156893 0.176745 0.978317
0.644907 0.0611124 0.97055
0.831037 0.223606 1
0.779812 0.652018 1
0.724208 0.918898 1
0.712871 1 1
0 0.754513 0.902571
0 0.754925 0.9028
0 0.755032 0.903014
0 0.752941 0.903166
0.493004 0.789258 0.950729
0.708644 0.813413 0.966537
0.731426 0.878355 0.98529
0.719127 0.958938 1
0.712261 1 1
0 1 0.909041
0 1 0.909087
0 1 0.909148
0 1 0.909331
0.44593 1 0.913771
0.651835 0.990204 0.919188
0.716823 0.992096 0.954604
0.714244 1 1
0.710979 1 1
0.356268 1 0.800259
0.376165 1 0.798672
0.404028 1 0.796521
0.466529 1 0.792706
0.560998 1 0.793805
0.648005 1 0.815015
0.70454 1 0.875044
0.711147 1 0.988128
0.709255 1 1
0.62417 1 0.902495
0.625269 1 0.902693
0.627008 1 0.903014
0.631983 1 0.90399
0.644709 1 0.907027
0.669108 1 0.916274
0.699062 1 0.942382
0.709056 1 1
0.708095 1 1
0.681468 1 1
0.68162 1 1
0.681849 1 1
0.682536 1 1
0.684504 1 1
0.689509 1 1
0.699214 1 1
0.707805 1 1
0.70782 1 1
0 0 1
0 0 1
0 0 1
0 0 1
0.539818 0 1
0.843931 0 1
0.844312 0 1
0.748653 0.800687 1
0.713741 1 1
0 0 1
0 0 1
0 0 1
0 0 1
0.54873 0 1
0.843931 0 1
0.844297 0 1
0.745617 0.813413 1
0.71368 1 1
0 0 1
0 0 1
0 0 1
0 0 1
0.562661 0 1
0.843946 0 1
0.844297 0 1
0.741375 0.831647 1
0.713573 1 1
0 0 1
0 0 1
0 0 1
0 0 1
0.592233 0 1
0.843946 0 1
0.844465 0 1
0.732021 0.873106 1
0.713298 1 1
0 0.504021 1
0 0.50576 1
0 0.508568 1
0 0.512917 1
0.506691 0.554009 1
0.789212 0.608515 1
0.753857 0.778805 1
0.721325 0.937377 1
0.712581 1 1
0 1 1
0 1 1
0 1 1
0 1 1
0.356268 0.999496 1
0.640269 0.976425 1
0.712749 0.980926 1
0.713985 1 1
0.711147 1 1
0.18941 1 1
0.226154 1 1
0.275761 1 1
0.382818 1 1
0.520943 1 1
0.628351 1 1
0.691936 1 1
0.70988 1 1
0.709285 1 1
0.613245 1 1
0.614374 1 1
0.61619 1 1
0.621347 1 1
0.634516 1 1
0.65977 1 1
0.691234 1 1
0.708049 1 1
0.708049 1 1
0.68246 1 1
0.682597 1 1
0.682811 1 1
0.683467 1 1
0.685359 1 1
0.690166 1 1
0.699565 1 1
0.707805 1 1
0.70782 1 1
0 0 1
0 0 1
0 0 1
0 0 1
0 0 1
0.829404 0 1
0.84567 0 1
0.84567 0 1
0.716365 0.978424 1
0 0 1
0 0 1
0 0 1
0 0 1
0 0 1
0.83061 0 1
0.84567 0 1
0.84567 0 1
0.716228 0.979553 1
0 0 1
0 0 1
0 0 1
0 0 1
0 0 1
0.832517 0 1
0.84567 0 1
0.84567 0 1
0.71603 0.981338 1
0 0 1
0 0 1
0 0 1
0 0 1
0 0 1
0.838117 0 1
0.84567 0 1
0.845869 0 1
0.715496 0.986358 1
0 0 1
0 0 1
0 0 1
0 0 1
0.203235 0 1
0.845151 0 1
0.84567 0 1
0.784314 0.662516 1
0.714168 0.999222 1
0 0.891936 1
0 0.892287 1
0 0.892851 1
0 0.894591 1
0 0.888609 1
0.654353 0.895582 1
0.723903 0.919264 1
0.717113 0.971786 1
0.711971 1 1
0 1 1
0 1 1
0 1 1
0 1 1
0.412848 1 1
0.610986 1 1
0.688106 1 1
0.710338 1 1
0.70959 1 1
0.589197 1 1
0.590753 1 1
0.593225 1 1
0.600198 1 1
0.617487 1 1
0.648859 1 1
0.684779 1 1
0.707866 1 1
0.708156 1 1
0.679118 1 1
0.679255 1 1
0.679469 1 1
0.68014 1 1
0.682063 1 1
0.686946 1 1
0.696513 1 1
0.707561 1 1
0.707897 1 1
0 0 1
0 0 1
0 0 1
0 0 1
0 0 1
0 0 1
0.845655 0 1
0.845655 0 1
0.770077 0.722255 1
0 0 1
0 0 1
0 0 1
0 0 1
0 0 1
0 0 1
0.845655 0 1
0.845655 0 1
0.770077 0.72221 1
0 0 1
0 0 1
0 0 1
0 0 1
0 0 1
0 0 1
0.845655 0 1
0.845655 0 1
0.770092 0.722164 1
0 0 1
0 0 1
0 0 1
0 0 1
0 0 1
0 0 1
0.845655 0 1
0.845655 0 1
0.770092 0.722133 1
0 0 1
0 0 1
0 0 1
0 0 1
0 0 1
0.238956 0 1
0.845655 0 1
0.845655 0 1
0.770047 0.722332 1
0 0 1
0 0 1
0 0 1
0 0 1
0 0 1
0.671916 0 1
0.845655 0 1
0.842542 0.0117494 1
0.720989 0.940856 1
0 1 1
0 1 1
0 1 1
0 1 1
0 1 1
0.514138 1 1
0.692958 1 1
0.712627 1 1
0.710704 1 1
0.432685 1 1
0.441703 1 1
0.45507 1 1
0.489113 1 1
0.552651 1 1
0.623362 1 1
0.677821 1 1
0.707057 1 1
0.708247 1 1
0.670558 1 1
0.670741 1 1
0.671046 1 1
0.671931 1 1
0.674464 1 1
0.680766 1 1
0.692378 1 1
0.705028 1 1
0.707942 1 1
0 0.21973 1
0 0.21973 1
0 0.21973 1
0 0.21976 1
0 0.21976 1
0 0.219806 1
0 0.219501 1
0.835523 0.289052 1
0.756146 0.776043 1
0 0.21973 1
0 0.21973 1
0 0.21973 1
0 0.21973 1
0 0.21976 1
0 0.219791 1
0 0.219501 1
0.835508 0.289403 1
0.75613 0.776104 1
0 0.219715 1
0 0.219715 1
0 0.219715 1
0 0.21973 1
0 0.21973 1
0 0.219791 1
0 0.219486 1
0.835462 0.289952 1
0.756115 0.776165 1
0 0.219684 1
0 0.219684 1
0 0.219684 1
0 0.219684 1
0 0.219715 1
0 0.21976 1
0 0.21944 1
0.83537 0.291646 1
0.756039 0.776425 1
0 0.219577 1
0 0.219577 1
0 0.219577 1
0 0.219577 1
0 0.219593 1
0 0.219638 1
0.206027 0.235294 1
0.83505 0.296986 1
0.755856 0.777188 1
0 0.219226 1
0 0.219226 1
0 0.219226 1
0 0.219242 1
0 0.219242 1
0 0.219287 1
0.685344 0.0231022 1
0.833997 0.312734 1
0.75555 0.778332 1
0 0.218173 1
0 0.218173 1
0 0.218173 1
0 0.218204 1
0 0.218204 1
0 0.218235 1
0.844724 0 1
0.831556 0.343008 1
0.755001 0.780453 1
0 1 1
0 1 1
0 1 1
0 1 1
0 1 1
0 1 1
0.646159 1 1
0.709056 1 1
0.709072 1 1
0.628626 1 1
0.629282 1 1
0.630335 1 1
0.633371 1 1
0.641382 1 1
0.658518 1 1
0.683024 1 1
0.702785 1 1
0.708217 1 1
