BBLuts/BB_106_0370_LUT.cube
LUT_3D_SIZE 5
0.000000 0.000000 0.000000
0.167712 0.000000 0.000000
0.733272 0.000000 0.000000
1.000000 0.432761 0.117800
1.000000 0.932036 0.737560
0.000000 0.185138 0.000000
0.146639 0.187167 0.000000
0.741146 0.080598 0.000000
1.000000 0.511360 0.083482
1.000000 0.933791 0.736782
0.000000 0.738705 0.000000
0.000000 0.738186 0.000000
0.682155 0.725322 0.000000
1.000000 0.783780 0.000000
1.000000 0.945113 0.730968
0.525689 0.998215 0.185962
0.576944 0.996719 0.188083
0.770397 0.989273 0.204822
0.992004 0.978012 0.335012
1.000000 0.985550 0.759319
0.959869 1.000000 0.864729
0.960449 1.000000 0.864790
0.964614 1.000000 0.865248
0.987304 1.000000 0.869413
1.000000 1.000000 0.901289
0.000000 0.000000 0.170459
0.148852 0.000000 0.170382
0.732982 0.000000 0.172320
1.000000 0.414893 0.266987
1.000000 0.931579 0.757076
0.000000 0.155383 0.155962
0.152102 0.152102 0.152102
0.734142 0.000000 0.157946
1.000000 0.498405 0.251011
1.000000 0.933364 0.756390
0.000000 0.734386 0.000000
0.000000 0.733806 0.000000
0.688304 0.720974 0.000000
1.000000 0.781643 0.087541
1.000000 0.944778 0.751263
0.534096 0.997925 0.185504
0.583612 0.996445 0.187640
0.772549 0.989105 0.204456
0.992142 0.977951 0.334966
1.000000 0.985519 0.759213
0.959945 1.000000 0.864729
0.960540 1.000000 0.864790
0.964691 1.000000 0.865232
0.987335 1.000000 0.869398
1.000000 1.000000 0.901289
0.000000 0.000000 0.707012
0.000000 0.000000 0.707256
0.739910 0.000000 0.702098
1.000000 0.166049 0.724193
1.000000 0.928252 0.845930
0.000000 0.000000 0.704997
0.000000 0.000000 0.705272
0.750500 0.000000 0.699931
1.000000 0.351965 0.719753
1.000000 0.930159 0.845548
0.000000 0.675349 0.662623
0.000000 0.675792 0.662959
0.664485 0.664485 0.664485
1.000000 0.752026 0.691051
1.000000 0.942321 0.842817
0.536889 0.996338 0.515816
0.584710 0.994919 0.516716
0.768902 0.987762 0.524025
0.986450 0.976745 0.589731
1.000000 0.984924 0.822553
0.960632 1.000000 0.864652
0.961196 1.000000 0.864714
0.965270 1.000000 0.865156
0.987564 1.000000 0.869337
1.000000 1.000000 0.901289
0.000000 0.000000 1.000000
0.000000 0.000000 1.000000
0.000000 0.000000 1.000000
1.000000 0.000000 1.000000
1.000000 0.885451 0.978897
0.000000 0.000000 1.000000
0.000000 0.000000 1.000000
0.000000 0.000000 1.000000
1.000000 0.000000 1.000000
1.000000 0.889586 0.978592
0.000000 0.000000 1.000000
0.000000 0.000000 1.000000
0.302571 0.000000 1.000000
1.000000 0.000000 1.000000
1.000000 0.914397 0.976745
0.000000 0.997711 0.968734
0.000000 0.995514 0.968536
0.599527 0.982116 0.967376
0.966506 0.966506 0.966506
1.000000 0.980102 0.970764
0.956939 1.000000 0.943343
0.957488 1.000000 0.943359
0.961456 1.000000 0.943496
0.983398 1.000000 0.944854
1.000000 1.000000 0.956130
0.000000 0.254139 1.000000
0.000000 0.254139 1.000000
0.000000 0.254154 1.000000
0.000000 0.254292 1.000000
1.000000 0.631968 1.000000
0.000000 0.254124 1.000000
0.000000 0.254124 1.000000
0.000000 0.254139 1.000000
0.000000 0.254276 1.000000
1.000000 0.632105 1.000000
0.000000 0.254017 1.000000
0.000000 0.254017 1.000000
0.000000 0.254032 1.000000
0.334478 0.235904 1.000000
1.000000 0.633173 1.000000
0.000000 0.252964 1.000000
0.000000 0.252964 1.000000
0.000000 0.252979 1.000000
1.000000 0.000000 1.000000
1.000000 0.636591 1.000000
0.879377 1.000000 1.000000
0.881956 1.000000 1.000000
0.898817 1.000000 1.000000
0.962875 1.000000 1.000000
1.000000 1.000000 1.000000
