BBLuts/BB_101_0280_LUT.cube
TITLE "Generated by Resolve"
LUT_3D_SIZE 5
0 0 0
0.160876 0 0
0.726543 0 0
1 0.444434 0.124071
1 0.938781 0.759823
0 0.170352 0
0.127596 0.171099 0
0.706218 0 0
1 0.486442 0.0774243
1 0.934249 0.737881
0 0.698665 0
0 0.691112 0
0.622965 0.673808 0
1 0.741009 0
1 0.93846 0.709209
0.416419 0.994461 0.0595712
0.470695 0.992096 0
0.70367 0.983398 0
0.981674 0.968841 0.242039
1 0.978683 0.71548
0.95198 1 0.844282
0.951186 1 0.840467
0.953994 1 0.836942
0.979644 1 0.837705
1 1 0.874678
0 0 0.16733
0.13994 0 0.163897
0.72314 0 0.162814
1 0.424567 0.26009
1 0.937835 0.77348
0 0.140841 0.142229
0.135729 0.135729 0.135729
0.696071 0 0.137682
1 0.470832 0.22681
1 0.933242 0.753735
0 0.691463 0
0 0.683772 0
0.62858 0.666362 0
1 0.736217 0
1 0.937499 0.727977
0.421241 0.993896 0.028809
0.474464 0.991516 0
0.703899 0.982895 0
0.981399 0.968353 0.237949
1 0.978347 0.713039
0.951583 1 0.842969
0.950774 1 0.839109
0.953613 1 0.835554
0.9794 1 0.836316
1 1 0.87364
0 0 0.711421
0 0 0.704021
0.726589 0 0.691402
1 0.20885 0.709087
1 0.934585 0.847486
0 0 0.683589
0 0 0.676127
0.708064 0 0.663706
1 0.326558 0.680201
1 0.929839 0.833844
0 0.628168 0.617426
0 0.621485 0.610437
0.604837 0.604837 0.604837
1 0.69926 0.626078
1 0.934539 0.816785
0.430671 0.992081 0.416419
0.481285 0.989715 0.40827
0.702678 0.981292 0.406989
0.977447 0.966888 0.475883
1 0.977432 0.776883
0.951751 1 0.841566
0.950942 1 0.837674
0.953735 1 0.834089
0.979385 1 0.834867
1 1 0.872587
0 0 1
0 0 1
0 0 1
1 0 1
1 0.897978 0.977859
0 0 1
0 0 1
0 0 1
1 0 1
1 0.892332 0.97435
0 0 1
0 0 1
0 0 1
1 0 0.996948
1 0.904921 0.969162
0 0.990524 0.960403
0 0.98735 0.958877
0.443534 0.974441 0.956466
0.953979 0.953964 0.953964
1 0.971267 0.958358
0.948226 1 0.921904
0.947341 1 0.919799
0.94992 1 0.9178
0.974945 1 0.917556
1 1 0.932845
0 0.286931 1
0 0.281621 1
0 0.276402 1
0 0.271366 1
1 0.652232 1
0 0.269352 1
0 0.264271 1
0 0.259266 1
0 0.254429 1
1 0.623667 1
0 0.252415 1
0 0.247547 1
0 0.242741 1
0 0.238102 1
1 0.59443 1
0 0.235325 1
0 0.230655 1
0 0.226047 1
0.952148 0 1
1 0.567147 1
0.8551 1 1
0.854597 1 1
0.869154 1 1
0.945891 1 1
1 1 1
