BBLuts/BB_101_0110_LUT.cube
TITLE "Generated by Resolve"
LUT_3D_SIZE 33
0 0 0
0 0 0
0 0 0
0 0 0
0.000869764 0 0
0.0576333 0 0
0.115358 0 0
0.156786 0 0
0.198001 0 0
0.245563 0 0
0.299001 0 0
0.356481 0 0
0.418769 0 0.00112917
0.488975 0 0.00350958
0.569406 0.00230411 0.00631724
0.654521 0.00569161 0.0093843
0.7411 0.00914015 0.0125124
0.827619 0.012604 0.0156252
0.905425 0.0157473 0.0184024
0.967605 0.0182498 0.0205844
0.982818 0.0188754 0.0211185
0.983703 0.0189059 0.021149
0.944549 0.275715 0
0.924483 0.429847 0.0166629
0.909285 0.547555 0.0588998
0.896666 0.650614 0.105303
0.885679 0.741756 0.158175
0.877089 0.813687 0.22385
0.870771 0.867445 0.303822
0.865995 0.909026 0.382834
0.862531 0.940276 0.460563
0.859876 0.965118 0.535012
0.857877 0.984604 0.600458
0 0 0
0 0 0
0 0 0
0 0 0
0.00149538 0 0
0.0686809 0 0
0.118914 0 0
0.159655 0 0
0.202564 0 0
0.250721 0 0
0.304204 0 0
0.36051 0 0
0.42002 0 0.00117494
0.490425 0 0.00355535
0.570764 0.00236515 0.00636301
0.655344 0.00572213 0.00941482
0.741802 0.00917067 0.0125429
0.827619 0.012604 0.0156252
0.905348 0.0157473 0.0183871
0.967193 0.0182345 0.0205692
0.982788 0.0188754 0.0211185
0.979339 0.0396582 0.0168307
0.94136 0.300404 0
0.923156 0.442191 0
0.908492 0.554314 0.0541238
0.896162 0.654932 0.103059
0.88539 0.744106 0.157397
0.876951 0.814862 0.223651
0.870695 0.868055 0.303532
0.86595 0.909331 0.382666
0.862516 0.940414 0.460487
0.859861 0.965209 0.534966
0.857862 0.984649 0.600427
0 0 0
0 0 0
0 0 0
0 0 0
0.00144961 0 0
0.0744182 0 0
0.119387 0 0
0.161898 0 0
0.206851 0 0
0.254307 0 0
0.306416 0 0
0.361456 0 0
0.421698 0 0.00123598
0.492241 0 0.00361639
0.572122 0.00241093 0.00640879
0.656489 0.00576791 0.00944533
0.742184 0.00918593 0.0125429
0.827939 0.0126192 0.0156405
0.905241 0.0157321 0.0183871
0.966751 0.0182193 0.0205539
0.982757 0.0188754 0.0211185
0.968322 0.104616 0.00633249
0.938262 0.32462 0
0.92195 0.453559 0
0.907729 0.5608 0.0497139
0.895705 0.658793 0.101045
0.885145 0.746273 0.15668
0.876814 0.815946 0.223453
0.870634 0.868605 0.303258
0.865919 0.909636 0.382498
0.862486 0.940581 0.46038
0.859846 0.965301 0.534905
0.857862 0.984695 0.600412
0 0 0
0 0 0
0 0 0
0 0 0
0.02121 0 0
0.0754559 0 0
0.116701 0 0
0.159136 0 0
0.204974 0 0
0.255192 0 0
0.308492 0 0
0.363165 0 0
0.423728 0 0.00129702
0.494072 0 0.00367742
0.573526 0.00247196 0.00645457
0.657343 0.00579843 0.00947585
0.742885 0.00921645 0.0125734
0.828229 0.0126345 0.0156405
0.905104 0.0157321 0.0183871
0.966323 0.018204 0.0205386
0.982712 0.0188754 0.0211185
0.958404 0.172488 0
0.935836 0.343832 0
0.920989 0.463142 0
0.907073 0.5664 0.0458991
0.895293 0.662272 0.0992447
0.884901 0.748287 0.156008
0.876692 0.816999 0.22327
0.870558 0.869184 0.302983
0.865888 0.909941 0.38233
0.86247 0.940749 0.460288
0.859846 0.965377 0.534859
0.857862 0.984741 0.600381
0 0.0494087 0
0 0.0528572 0
0 0.0561837 0
0 0.0594492 0
0 0.0607919 0
0.0578927 0.0599374 0
0.104143 0.0582284 0
0.148806 0.0534981 0
0.197375 0.0419013 0
0.253956 0 0
0.30869 0 0
0.364935 0 0
0.425711 0 0.00137331
0.495949 0 0.00375372
0.57528 0.002533 0.0065156
0.658534 0.00584421 0.00952163
0.743587 0.00923171 0.012604
0.828504 0.0126497 0.0156558
0.904952 0.0157321 0.0183719
0.965805 0.0181888 0.0205234
0.982666 0.0188754 0.0211185
0.953155 0.210681 0
0.933745 0.360433 0
0.919829 0.472663 0
0.906371 0.572335 0.0410468
0.894865 0.665843 0.0972305
0.884672 0.75021 0.155367
0.87657 0.818036 0.223087
0.870497 0.869749 0.302708
0.865843 0.910216 0.382193
0.862455 0.940887 0.460212
0.859831 0.965469 0.534798
0.857847 0.984787 0.600351
0 0.0875868 0
0 0.0902724 0
0 0.0930648 0
0 0.0952163 0
0 0.0963149 0
0.033051 0.0957961 0
0.0908217 0.0953536 0
0.139498 0.0938277 0
0.189593 0.0901656 0
0.243854 0.0822309 0
0.300526 0.0657664 0
0.363958 0.0103456 0
0.426123 0.00645457 0
0.49781 0.000442512 0.00363165
0.576928 0.00260929 0.00657664
0.659556 0.00588998 0.00956741
0.744366 0.00926223 0.0126345
0.828824 0.012665 0.015671
0.904784 0.0157168 0.0183719
0.96527 0.0181582 0.0204929
0.976928 0.0467079 0.0155032
0.948959 0.242054 0
0.93193 0.374899 0
0.918822 0.480873 0
0.90573 0.577874 0.0363622
0.894438 0.669535 0.0950027
0.884413 0.752361 0.15465
0.876448 0.819013 0.222904
0.870436 0.870283 0.302449
0.865812 0.910521 0.382025
0.862425 0.941054 0.460121
0.859831 0.96556 0.534752
0.857847 0.984833 0.60032
0 0.126589 0
0 0.128801 0
0 0.130953 0
0 0.13228 0
0 0.133211 0
0 0.133516 0
0.066041 0.132586 0
0.126223 0.132097 0
0.179904 0.13048 0
0.236408 0.12668 0
0.29369 0.119036 0
0.353384 0.106157 0
0.418509 0.0810254 0
0.497246 0.0199588 0.000793469
0.577356 0.013962 0.00474556
0.660945 0.00704967 0.00939956
0.744976 0.00929274 0.0126497
0.828855 0.012665 0.015671
0.90428 0.0157015 0.0183566
0.964614 0.0181277 0.0204776
0.966567 0.108843 0.00567636
0.944915 0.272984 0
0.929946 0.390738 0
0.917647 0.490517 0
0.905028 0.583963 0.0311894
0.893935 0.673716 0.0925002
0.884108 0.75491 0.15378
0.87628 0.820417 0.22269
0.870359 0.870924 0.302129
0.865782 0.910857 0.381842
0.862409 0.941253 0.460014
0.859815 0.965652 0.534691
0.857847 0.984894 0.60029
0 0.169909 0
0 0.171786 0
0 0.173159 0
0 0.174243 0
0 0.174884 0
0 0.175463 0
0.0124514 0.174777 0
0.0998398 0.174151 0
0.165072 0.173327 0
0.225284 0.171237 0
0.285267 0.166339 0
0.34728 0.159091 0
0.412589 0.147997 0
0.486046 0.128832 0
0.569451 0.0866865 0
0.658366 0.0327459 0.00508125
0.742489 0.0294652 0.0089723
0.828901 0.0147555 0.0152438
0.90396 0.0156863 0.0183413
0.953231 0.069337 0.0109255
0.955184 0.187106 0
0.940291 0.308812 0
0.927443 0.410803 0
0.91606 0.503578 0
0.904036 0.592767 0.0208896
0.893294 0.67924 0.0891432
0.883711 0.758343 0.152636
0.876066 0.822293 0.222416
0.870222 0.872007 0.30164
0.865721 0.911345 0.381582
0.862379 0.941497 0.459861
0.8598 0.965805 0.5346
0.857832 0.984955 0.600244
0 0.219486 0
0 0.220859 0
0 0.22182 0
0 0.222568 0
0 0.223102 0
0 0.223682 0
0 0.223941 0
0.0531777 0.222354 0
0.137667 0.221088 0
0.207095 0.219196 0
0.272282 0.216114 0
0.338491 0.211383 0
0.406912 0.204654 0
0.481621 0.19408 0
0.561318 0.179324 0
0.643778 0.158267 0
0.729427 0.12604 0
0.821637 0.05832 0.00756847
0.893507 0.0694591 0.00863661
0.93756 0.164355 0
0.945418 0.258717 0
0.935286 0.34818 0
0.924468 0.434943 0
0.914031 0.520409 0
0.902739 0.604517 0.00460822
0.892363 0.687175 0.0840772
0.883162 0.76289 0.151125
0.875761 0.824857 0.222019
0.870039 0.873487 0.300954
0.865614 0.912184 0.381155
0.862333 0.941894 0.459648
0.85977 0.966018 0.534478
0.857816 0.985092 0.600168
0 0.273686 0
0 0.274311 0
0 0.274693 0
0 0.275013 0
0 0.275471 0
0 0.275532 0
0 0.275486 0
0 0.275166 0
0.08365 0.272618 0
0.177646 0.271153 0
0.252613 0.269337 0
0.324681 0.266346 0
0.398169 0.261784 0
0.476402 0.25478 0
0.556695 0.246799 0
0.636896 0.237461 0
0.718212 0.228031 0
0.799329 0.221378 0
0.869703 0.230198 0
0.922011 0.266178 0
0.936934 0.323308 0
0.929763 0.392187 0
0.92076 0.46511 0
0.911467 0.541619 0
0.901564 0.620096 0
0.891127 0.697719 0.0771038
0.882414 0.769284 0.148989
0.875349 0.828305 0.221515
0.86981 0.875517 0.300038
0.865476 0.913298 0.380591
0.862257 0.942535 0.459251
0.859739 0.966308 0.534295
0.857801 0.985245 0.600061
0 0.330449 0
0 0.331044 0
0 0.331426 0
0 0.331731 0
0 0.33196 0
0 0.332113 0
0 0.332189 0
0 0.332403 0
0 0.332036 0
0.116701 0.328725 0
0.221393 0.327596 0
0.303212 0.325826 0
0.383642 0.322744 0
0.467399 0.318181 0
0.550896 0.313542 0
0.63151 0.308904 0
0.710948 0.305562 0
0.789258 0.305745 0
0.857527 0.316381 0
0.909194 0.343648 0
0.928771 0.386419 0
0.923888 0.439612 0
0.916365 0.501137 0
0.908217 0.568597 0
0.899657 0.63978 0
0.889525 0.711421 0.0686351
0.881407 0.777722 0.146181
0.874784 0.833051 0.220874
0.86949 0.878187 0.298802
0.865293 0.914824 0.379797
0.86215 0.94342 0.458732
0.859663 0.966827 0.533959
0.857771 0.985489 0.599924
0 0.395422 0
0 0.395682 0
0 0.396033 0
0 0.396597 0
0 0.396826 0
0 0.396994 0
0 0.397162 0
0 0.397238 0
0 0.397162 0
0.00639353 0.395666 0
0.157717 0.393332 0
0.268727 0.39234 0
0.360327 0.390829 0
0.45127 0.388357 0
0.539986 0.385229 0
0.623545 0.382712 0
0.70338 0.382467 0
0.779644 0.385458 0
0.845396 0.396155 0
0.896223 0.417365 0
0.920119 0.449149 0
0.91754 0.491402 0
0.91133 0.542702 0
0.904311 0.60116 0
0.896773 0.664485 0
0.887556 0.728389 0.0588083
0.88014 0.788556 0.142596
0.874037 0.839414 0.220096
0.869032 0.881971 0.298131
0.865049 0.916838 0.378775
0.861997 0.94461 0.45803
0.859586 0.967529 0.533501
0.85771 0.985885 0.599664
0 0.468528 0
0 0.468696 0
0 0.468986 0
0 0.469245 0
0 0.469444 0
0 0.469963 0
0 0.470146 0
0 0.470314 0
0 0.470451 0
0 0.470542 0
0.0508583 0.467933 0
0.204364 0.466789 0
0.323598 0.465888 0
0.424887 0.464561 0
0.520562 0.462699 0
0.609567 0.46125 0
0.692744 0.461006 0
0.769116 0.463859 0
0.832868 0.472679 0
0.882292 0.489204 0
0.911772 0.514229 0
0.910719 0.547784 0
0.905653 0.589929 0
0.899779 0.639216 0
0.893248 0.694194 0
0.885115 0.749523 0.0443427
0.878569 0.801862 0.138293
0.873075 0.847547 0.219242
0.868452 0.886961 0.298207
0.864713 0.919676 0.377447
0.861814 0.946212 0.457069
0.859464 0.96849 0.532876
0.857649 0.98645 0.599298
0 0.550271 0
0 0.550332 0
0 0.550576 0
0 0.55079 0
0 0.550958 0
0 0.551125 0
0 0.551293 0
0 0.551507 0
0 0.551965 0
0 0.552041 0
0 0.551949 0
0.0944991 0.548058 0
0.262165 0.54667 0
0.386572 0.545235 0
0.491844 0.543755 0
0.588083 0.542123 0
0.676875 0.541482 0
0.755734 0.543023 0
0.818982 0.549462 0
0.866896 0.562402 0
0.902251 0.581781 0
0.903395 0.608194 0
0.899443 0.641993 0
0.894636 0.68249 0
0.88922 0.728176 0
0.882307 0.774014 0.0259098
0.876661 0.817975 0.132937
0.871885 0.857603 0.218387
0.867689 0.893339 0.298466
0.864271 0.9234 0.375784
0.86154 0.948455 0.455772
0.859312 0.969757 0.532067
0.857557 0.987198 0.59881
0 0.633799 0
0 0.633799 0
0 0.63389 0
0 0.634028 0
0 0.634134 0
0 0.634226 0
0 0.634318 0
0 0.634424 0
0 0.634485 0
0 0.634455 0
0 0.634607 0
0 0.634134 0
0.155489 0.628824 0
0.33257 0.627161 0
0.45391 0.625452 0
0.558526 0.623911 0
0.654002 0.622568 0
0.736843 0.623056 0
0.801862 0.627161 0
0.849439 0.636393 0
0.886168 0.651209 0
0.894743 0.671412 0
0.892821 0.69781 0
0.889052 0.729686 0
0.884855 0.76524 0
0.879271 0.801114 0.0010071
0.874495 0.836362 0.127825
0.870405 0.870024 0.217685
0.866773 0.901152 0.29897
0.863706 0.928176 0.37528
0.861173 0.951446 0.454093
0.859098 0.971542 0.530907
0.857435 0.98819 0.598169
0 0.716487 0
0 0.716487 0
0 0.716487 0
0 0.716564 0
0 0.716594 0
0 0.71664 0
0 0.716655 0
0 0.716686 0
0 0.716655 0
0 0.716533 0
0 0.716243 0
0 0.716014 0
0.000396735 0.712535 0
0.240406 0.708125 0
0.405249 0.706416 0
0.52137 0.704494 0
0.624002 0.702907 0
0.711757 0.702281 0
0.779599 0.704585 0
0.82919 0.710628 0
0.866026 0.72105 0
0.885695 0.736034 0
0.886046 0.754742 0
0.883421 0.777386 0
0.8804 0.803098 0
0.876204 0.829938 0
0.872099 0.856687 0.123003
0.868711 0.884367 0.218128
0.865644 0.910628 0.299947
0.863005 0.934035 0.376547
0.860716 0.955306 0.452903
0.858808 0.973922 0.529381
0.857267 0.989609 0.597223
0 0.796643 0
0 0.796643 0
0 0.796643 0
0 0.796643 0
0 0.796628 0
0 0.796613 0
0 0.796567 0
0 0.796521 0
0 0.796368 0
0 0.796094 0
0 0.795666 0
0 0.794934 0
0 0.794049 0
0.137758 0.787274 0
0.344228 0.7841 0
0.478996 0.78201 0
0.589395 0.779644 0
0.681788 0.778058 0
0.753292 0.778103 0
0.805966 0.780896 0
0.845212 0.786526 0
0.87303 0.795529 0
0.878935 0.80763 0
0.878141 0.822385 0
0.876097 0.83975 0
0.873777 0.859083 0
0.86952 0.878599 0.120836
0.866835 0.900236 0.220111
0.864363 0.921431 0.30222
0.86215 0.941329 0.378363
0.860151 0.960052 0.452583
0.858442 0.976959 0.527733
0.857038 0.991485 0.595941
0 0.864073 0
0 0.864073 0
0 0.864073 0
0 0.864073 0
0 0.864073 0
0 0.864027 0
0 0.86392 0
0 0.863767 0
0 0.863478 0
0 0.863066 0
0 0.86244 0
0 0.861463 0
0 0.860075 0
0.0467536 0.854154 0
0.27953 0.849577 0
0.441749 0.846494 0
0.559274 0.843549 0
0.654261 0.841123 0
0.727703 0.839734 0
0.783413 0.839872 0
0.825147 0.8421 0
0.855192 0.846555 0
0.872221 0.853284 0
0.873411 0.862455 0
0.872114 0.873854 0
0.869657 0.886946 0
0.86688 0.900847 0.125658
0.864851 0.917006 0.224643
0.862974 0.933333 0.306004
0.861158 0.949844 0.381476
0.859464 0.965911 0.454643
0.857984 0.980682 0.526009
0.856733 0.993896 0.594339
0 0.915602 0
0 0.915602 0
0 0.915602 0
0 0.915602 0
0 0.915602 0
0 0.915602 0
0 0.915602 0
0 0.915419 0
0 0.915068 0
0 0.914473 0
0 0.913649 0
0 0.91252 0
0 0.910994 0
0 0.90602 0
0.230564 0.899931 0
0.417868 0.896452 0
0.538735 0.893202 0
0.633768 0.890181 0
0.706783 0.88809 0
0.763516 0.886992 0
0.807065 0.887175 0
0.838941 0.889097 0
0.863127 0.892699 0
0.868437 0.898039 0
0.868452 0.90518 0
0.866041 0.912947 0.00375372
0.864302 0.92253 0.139681
0.862882 0.9337 0.232456
0.861448 0.946227 0.31191
0.860029 0.959411 0.386007
0.858671 0.972686 0.458137
0.85745 0.985245 0.528115
0.856367 0.996872 0.592432
0 0.955703 0
0 0.955703 0
0 0.955703 0
0 0.955703 0
0 0.955703 0
0 0.955703 0
0 0.955703 0
0 0.955703 0
0 0.95552 0
0 0.954864 0
0 0.953826 0
0 0.952544 0
0 0.950973 0
0 0.94583 0
0.23299 0.939529 0
0.41091 0.93579 0
0.528756 0.93257 0
0.620356 0.929473 0
0.691127 0.92694 0
0.747051 0.9252 0
0.79089 0.924331 0
0.824216 0.924498 0
0.850004 0.925887 0
0.863874 0.928512 0
0.865263 0.932433 0
0.86302 0.936187 0.046891
0.861906 0.942489 0.159457
0.860899 0.950439 0.245228
0.859876 0.959594 0.320363
0.858824 0.969757 0.392584
0.857801 0.980209 0.463096
0.85684 0.99057 0.531731
0.85594 1 0.593729
0 0.985214 0
0 0.985214 0
0 0.985214 0
0 0.985214 0
0 0.985214 0
0 0.985214 0
0 0.985214 0
0 0.985214 0
0 0.985214 0
0 0.985168 0
0 0.984054 0
0 0.982574 0
0 0.980865 0
0 0.977371 0
0.275532 0.968933 0
0.42327 0.965469 0
0.531319 0.962234 0
0.615717 0.959304 0
0.682109 0.956741 0
0.735805 0.954635 0
0.778393 0.953216 0
0.811902 0.952544 0
0.838682 0.952621 0
0.859037 0.953719 0
0.862303 0.955566 0
0.860365 0.957122 0.0894942
0.859663 0.961166 0.186175
0.859007 0.966567 0.262943
0.858305 0.973022 0.332967
0.857588 0.980331 0.401572
0.856855 0.988312 0.470024
0.856138 0.996567 0.536645
0.855451 1 0.596582
0 1 0
0 1 0
0 1 0
0 1 0
0 1 0
0 1 0
0 1 0
0 1 0
0 1 0
0 1 0
0 1 0
0 1 0
0 1 0
0.0905928 0.996551 0
0.331472 0.991821 0
0.451087 0.988678 0
0.543481 0.985733 0
0.617975 0.982986 0
0.678401 0.980545 0
0.728725 0.978485 0
0.769131 0.976837 0
0.80177 0.975769 0
0.828534 0.975189 0
0.849485 0.975189 0
0.857633 0.974563 0.0440986
0.858015 0.975692 0.144579
0.857649 0.978073 0.219471
0.857267 0.98143 0.286152
0.85684 0.985702 0.349966
0.856382 0.990845 0.414435
0.855894 0.996674 0.479164
0.855406 1 0.543313
0.854902 1 0.600702
0 1 0
0 1 0
0 1 0
0 1 0
0 1 0
0 1 0
0 1 0
0 1 0
0 1 0
0 1 0
0 1 0
0 1 0
0 1 0
0.263294 1 0
0.392905 1 0
0.487861 1 0
0.563745 1 0
0.626963 1 0
0.680323 0.999954 0
0.72578 0.997436 0
0.763104 0.995773 0
0.794339 0.9944 0
0.820264 0.993439 0
0.840192 0.991684 0.0274052
0.854459 0.991165 0.124239
0.856062 0.991547 0.195697
0.855924 0.992706 0.257404
0.855726 0.99469 0.31458
0.855497 0.997421 0.372076
0.855238 1 0.431189
0.854948 1 0.491783
0.854658 1 0.551858
0.854322 1 0.60621
0.230228 1 0
0.230228 1 0
0.230228 1 0
0.230228 1 0
0.230213 1 0
0.230213 1 0
0.230213 1 0
0.230213 1 0
0.230198 1 0
0.230182 1 0
0.230182 1 0
0.230152 1 0
0.230121 1 0
0.35285 1 0
0.453971 1 0
0.527687 1 0
0.588937 1 0
0.640909 1 0
0.686946 1 0
0.726925 1 0
0.759854 1 0
0.788388 1 0.0400702
0.81294 1 0.0870985
0.833051 1 0.138842
0.849531 1 0.192966
0.854124 1 0.246006
0.854444 1 0.297307
0.854383 1 0.347784
0.854292 1 0.399207
0.854185 1 0.452628
0.854063 1 0.508034
0.853925 1 0.563394
0.853758 1 0.613153
0.441291 1 0.114565
0.441291 1 0.114565
0.441291 1 0.114565
0.441291 1 0.114565
0.441291 1 0.114565
0.441291 1 0.114565
0.441291 1 0.114565
0.441291 1 0.114565
0.441291 1 0.114565
0.441276 1 0.114565
0.441276 1 0.114565
0.441276 1 0.114565
0.44126 1 0.114565
0.441245 1 0.114565
0.50309 1 0.117845
0.565301 1 0.122728
0.614145 1 0.12842
0.65687 1 0.135149
0.695766 1 0.143801
0.729671 1 0.15433
0.759411 1 0.1673
0.785702 1 0.183078
0.808469 1 0.202396
0.827695 1 0.22475
0.843778 1 0.257542
0.852186 1 0.296773
0.853223 1 0.339345
0.853269 1 0.38439
0.853284 1 0.430747
0.853284 1 0.478737
0.853284 1 0.528527
0.853254 1 0.5776
0.853193 1 0.622324
0.559167 1 0.241184
0.559167 1 0.241184
0.559167 1 0.241184
0.559167 1 0.241184
0.559167 1 0.241184
0.559167 1 0.241184
0.559167 1 0.241184
0.559167 1 0.241184
0.559167 1 0.241184
0.559167 1 0.241184
0.559167 1 0.241184
0.559167 1 0.241184
0.559152 1 0.241184
0.559152 1 0.241184
0.559136 1 0.241184
0.598123 1 0.243427
0.640681 1 0.246769
0.676524 1 0.250782
0.708293 1 0.255573
0.736629 1 0.261799
0.762234 1 0.269459
0.785718 1 0.278782
0.806287 1 0.290425
0.824109 1 0.30518
0.839353 1 0.322942
0.850538 1 0.35024
0.852277 1 0.384909
0.852384 1 0.423789
0.852476 1 0.465537
0.852552 1 0.508644
0.852628 1 0.552468
0.852674 1 0.594659
0.852689 1 0.633356
0.636851 1 0.337133
0.636851 1 0.337133
0.636851 1 0.337133
0.636851 1 0.337133
0.636851 1 0.337133
0.636851 1 0.337133
0.636851 1 0.337133
0.636851 1 0.337133
0.636835 1 0.337133
0.636835 1 0.337133
0.636835 1 0.337133
0.636835 1 0.337133
0.636835 1 0.337133
0.636835 1 0.337133
0.63682 1 0.337133
0.63682 1 0.337133
0.664836 1 0.339071
0.696361 1 0.34197
0.72221 1 0.345312
0.745403 1 0.34931
0.767361 1 0.354513
0.787625 1 0.36112
0.805814 1 0.369451
0.822034 1 0.37995
0.836133 1 0.393301
0.847883 1 0.409476
0.851347 1 0.43447
0.851713 1 0.466575
0.85185 1 0.502617
0.851972 1 0.541009
0.852094 1 0.578531
0.852186 1 0.613931
0.852247 1 0.646326
0.693263 1 0.423224
0.693263 1 0.423224
0.693263 1 0.423224
0.693263 1 0.423224
0.693263 1 0.423224
0.693263 1 0.423224
0.693263 1 0.423224
0.693263 1 0.423224
0.693263 1 0.423224
