BBLuts/BB_103_0640_LUT.cube
TITLE "Generated by Resolve"
LUT_3D_SIZE 5
0 0 0
0.205753 0 0
0.818982 0 0
0.864118 0.520577 0.0789197
0.836805 0.901335 0.584009
0 0.23035 0
0.153979 0.22536 0
0.802747 0.179843 0
0.858106 0.597208 0.0510109
0.836606 0.903975 0.582879
0 0.82855 0
0 0.826108 0
0.681834 0.805875 0
0.839338 0.834058 0
0.835294 0.922484 0.572671
0.523613 0.9673 0.197375
0.558236 0.967269 0.199054
0.705089 0.963149 0.215457
0.83238 0.957137 0.314534
0.832242 0.960616 0.61799
0.793698 0.969528 0.703563
0.794507 0.969543 0.703655
0.801144 0.969604 0.704509
0.823362 0.969818 0.709941
0.830854 0.969802 0.73994
0 0 0.150881
0.190524 0 0.144488
0.823362 0 0.151904
0.866682 0.503395 0.245548
0.836728 0.900603 0.610666
0 0.192859 0.132097
0.160311 0.187457 0.127214
0.809064 0.0915236 0.135912
0.860655 0.585611 0.230594
0.83653 0.903273 0.609705
0 0.826078 0
0 0.823575 0
0.684352 0.803601 0
0.841581 0.835218 0.119188
0.835187 0.921996 0.60119
0.529351 0.967285 0.19704
0.562707 0.967239 0.198718
0.706279 0.963043 0.215183
0.832395 0.957076 0.314473
0.832242 0.960601 0.617853
0.79382 0.969528 0.703548
0.794629 0.969543 0.703639
0.801236 0.969604 0.704494
0.823392 0.969818 0.709941
0.830854 0.969802 0.73994
0 0 0.70071
0 0 0.700847
0.825727 0 0.687846
0.887236 0.183078 0.695186
0.836561 0.894102 0.725155
0 0 0.699702
0 0 0.699779
0.830961 0 0.686778
0.873838 0.39086 0.689494
0.836347 0.897154 0.724697
0 0.793408 0.652369
0 0.792081 0.652384
0.666972 0.771786 0.647822
0.842847 0.814313 0.659785
0.834821 0.918029 0.721172
0.508431 0.967483 0.577157
0.543999 0.967422 0.577569
0.693462 0.961547 0.582284
0.824186 0.9552 0.612299
0.83183 0.959518 0.705592
0.794965 0.969543 0.703426
0.795727 0.969558 0.703502
0.802106 0.969619 0.704356
0.823682 0.969818 0.709804
0.830854 0.969802 0.73991
0 0 0.846525
0 0 0.846525
0.365484 0 0.84155
0.898863 0 0.842435
0.841901 0.813153 0.82858
0 0 0.846525
0 0 0.846525
0.411719 0 0.841382
0.898863 0 0.842435
0.841016 0.825223 0.827726
0 0 0.846525
0 0 0.846525
0.643885 0 0.841154
0.896895 0.00154116 0.842741
0.836606 0.884947 0.823209
0 0.969757 0.82153
0 0.96939 0.821149
0.613672 0.955489 0.81442
0.811948 0.947005 0.814481
0.831464 0.954894 0.816724
0.787579 0.969131 0.801556
0.788403 0.969146 0.801587
0.795087 0.969207 0.801709
0.817609 0.969436 0.802609
0.830427 0.969558 0.808057
0 0.22118 0.845502
0 0.221195 0.845502
0 0.221225 0.845502
0.82417 0 0.842023
0.857908 0.599893 0.83975
0 0.221164 0.845502
0 0.221164 0.845502
0 0.221195 0.845502
0.824247 0 0.842023
0.857893 0.600092 0.83975
0 0.220951 0.845502
0 0.220951 0.845502
0 0.220981 0.845502
0.866026 0 0.842298
0.857771 0.601709 0.839719
0 0.21944 0.845518
0 0.21944 0.845518
0 0.219471 0.845518
0.898863 0 0.842435
0.853788 0.654276 0.839109
0.704982 0.968277 0.835523
0.710338 0.968322 0.835538
0.743404 0.968597 0.83563
0.804486 0.969177 0.835859
0.830243 0.969436 0.835981
