BBLuts/BB_103_0320_LUT.cube
TITLE "Generated by Resolve"
LUT_3D_SIZE 5
0 0 0
0.138064 0 0
0.729549 0 0
0.906233 0.570367 0.0130312
0.872282 0.970794 0.650248
0 0.152575 0
0.0760204 0.156161 0
0.74197 0.0439765 0
0.898817 0.630869 0
0.872236 0.971283 0.649958
0 0.797269 0
0 0.796597 0
0.638773 0.799435 0
0.878645 0.851804 0
0.871794 0.978012 0.645487
0.511391 1 0.116136
0.511376 1 0.116136
0.68011 1 0.125231
0.866529 1 0.269734
0.869169 1 0.680217
0.836255 1 0.767575
0.836255 1 0.767575
0.836255 1 0.767575
0.853742 1 0.770611
0.867247 1 0.796551
0 0 0.106447
0.105318 0 0.100252
0.733928 0 0.0604257
0.912276 0.558221 0.180056
0.872267 0.970794 0.650248
0 0.112566 0.0900587
0.0769055 0.113619 0.0889143
0.738643 0 0.0628519
0.906325 0.626429 0.162722
0.872236 0.971283 0.649958
0 0.792096 0
0 0.79147 0
0.641962 0.794797 0
0.882445 0.854185 0.0164492
0.871809 0.978012 0.645487
0.518898 1 0.115053
0.518898 1 0.115053
0.682124 1 0.124697
0.866606 1 0.269505
0.869169 1 0.680217
0.836301 1 0.767575
0.836301 1 0.767575
0.836301 1 0.767575
0.853758 1 0.770596
0.867247 1 0.796551
0 0 0.674784
0 0 0.67509
0.715496 0 0.637522
0.931228 0.204135 0.695659
0.871565 0.967391 0.751446
0 0 0.673671
0 0 0.673747
0.724941 0 0.63592
0.922377 0.411215 0.697383
0.871519 0.967926 0.751308
0 0.740353 0.633722
0 0.74049 0.633783
0.61294 0.745434 0.645228
0.88368 0.826185 0.662531
0.871015 0.975021 0.749416
0.501381 1 0.544488
0.501381 1 0.544488
0.664973 1 0.543877
0.857588 1 0.589151
0.868788 1 0.732219
0.836866 1 0.767514
0.836866 1 0.767514
0.836866 1 0.767514
0.853956 1 0.77052
0.867247 1 0.796521
0 0 0.871183
0 0 0.871183
0 0 0.871183
0.909606 0 0.844862
0.873625 0.927199 0.866285
0 0 0.871183
0 0 0.871183
0 0 0.871183
0.909606 0 0.844862
0.873503 0.928923 0.866148
0 0 0.871183
0 0 0.871183
0 0 0.871183
0.909606 0 0.844862
0.87216 0.947463 0.864698
0 1 0.872618
0 1 0.872618
0 1 0.87277
0.840162 0.990356 0.857359
0.868315 1 0.859648
0.832105 1 0.84213
0.832105 1 0.84213
0.832105 1 0.84213
0.848737 1 0.842878
0.866941 1 0.849531
0 0.197024 0.878355
0 0.197024 0.878355
0 0.197024 0.878355
0 0.197131 0.878355
0.899474 0.681743 0.892134
0 0.197024 0.878355
0 0.197024 0.878355
0 0.197024 0.878355
0 0.197131 0.878355
0.899474 0.681743 0.892134
0 0.197024 0.878355
0 0.197024 0.878355
0 0.197024 0.878355
0 0.197131 0.878355
0.899474 0.681743 0.892134
0 0.195529 0.87837
0 0.195529 0.87837
0 0.195529 0.87837
0 0.182315 0.882612
0.898878 0.686366 0.891814
0.771511 1 0.879896
0.771511 1 0.879896
0.771511 1 0.879896
0.779538 1 0.879942
0.867048 1 0.880873
