BBLuts/BB_103_0350_LUT.cube
TITLE "Generated by Resolve"
LUT_3D_SIZE 5
0 0 0
0.117525 0 0
0.651667 0 0
0.81529 0.44033 0.0471962
0.777401 0.85803 0.592798
0 0.134325 0
0.0816815 0.135897 0
0.655207 0.00848402 0
0.807843 0.525963 0.0225223
0.77731 0.859236 0.592218
0 0.707088 0
0 0.706645 0
0.575204 0.702953 0
0.785489 0.753735 0
0.776791 0.867018 0.587991
0.446067 0.912352 0.100526
0.491341 0.909728 0.100282
0.632807 0.900923 0.109529
0.774166 0.893767 0.233188
0.774502 0.894606 0.607935
0.747433 0.904143 0.679393
0.747799 0.904158 0.679438
0.750408 0.904189 0.679744
0.764675 0.904311 0.682582
0.772854 0.904265 0.70367
0 0 0.0835584
0.101839 0 0.0804608
0.654948 0 0.0604715
0.819165 0.42388 0.175219
0.777279 0.857588 0.606668
0 0.107698 0.0704814
0.0936751 0.10338 0.0655833
0.655573 0 0.0495155
0.8121 0.516594 0.159167
0.777188 0.858808 0.60618
0 0.703441 0
0 0.702953 0
0.579889 0.699504 0
0.787884 0.754742 0.0207523
0.776654 0.866651 0.602487
0.453696 0.911879 0.0998093
0.497017 0.909316 0.0996567
0.634241 0.900786 0.109194
0.774243 0.893721 0.233143
0.774502 0.894591 0.607858
0.747478 0.904143 0.679393
0.747845 0.904158 0.679438
0.750454 0.904189 0.679744
0.764706 0.904311 0.682567
0.772854 0.904265 0.70367
0 0 0.574548
0 0 0.574716
0.657633 0 0.551827
0.833646 0.126802 0.591241
0.776944 0.854932 0.667536
0 0 0.573068
0 0 0.573266
0.664973 0 0.550256
0.824872 0.352468 0.5944
0.776837 0.856245 0.667262
0 0.662882 0.535576
0 0.663249 0.535851
0.569482 0.660227 0.539147
0.788296 0.732601 0.561135
0.776242 0.864576 0.665385
0.453864 0.909194 0.419562
0.495705 0.906661 0.418524
0.629648 0.897993 0.420737
0.767865 0.890166 0.479912
0.774182 0.893904 0.651514
0.747906 0.904158 0.679347
0.748257 0.904158 0.679377
0.75082 0.904189 0.679698
0.764843 0.904326 0.682536
0.772854 0.904265 0.70367
0 0 0.773663
0 0 0.773663
0 0 0.773663
0.829465 0 0.762127
0.778576 0.825315 0.756024
0 0 0.773663
0 0 0.773663
0 0 0.773663
0.829465 0 0.762127
0.778363 0.828153 0.755795
0 0 0.773663
0 0 0.773663
0.251087 0 0.766873
0.829465 0 0.762127
0.777096 0.845151 0.754391
0 0.918349 0.768643
0 0.916762 0.76846
0.505013 0.89427 0.751736
0.753185 0.880796 0.747311
0.773861 0.890272 0.750088
0.745312 0.90399 0.731441
0.745663 0.90399 0.731441
0.74815 0.904021 0.731548
0.761959 0.904173 0.732525
0.772671 0.904189 0.739986
0 0.211398 0.774487
0 0.211398 0.774487
0 0.211429 0.774487
0 0.211582 0.774487
0.79855 0.64181 0.77911
0 0.211383 0.774487
0 0.211383 0.774487
0 0.211398 0.774487
0 0.211566 0.774487
0.798535 0.641901 0.77911
0 0.211261 0.774487
0 0.211261 0.774487
0 0.211276 0.774487
0.283589 0.196902 0.776425
0.798413 0.642741 0.779049
0 0.210025 0.774502
0 0.210025 0.774502
0 0.210056 0.774502
0.829465 0 0.762127
0.798062 0.645411 0.778851
0.696391 0.903319 0.76939
0.698009 0.903334 0.76939
0.708614 0.903426 0.769436
0.748791 0.903883 0.769665
0.772763 0.904418 0.770047
