BBLuts/BB_106_0440_LUT.cube
TITLE "Generated by Resolve"
LUT_3D_SIZE 9
0 0 0
0 0 0
0.154757 0 0
0.414603 0 0
0.738659 0 0
0.900847 0 0
0.895537 0.475502 0.101869
0.890181 0.745586 0.341772
0.886671 0.814969 0.59707
0 0.00993362 0
0 0.0254063 0
0.167422 0.0055848 0
0.42623 0 0
0.740688 0 0
0.900847 0 0
0.895674 0.5093 0.0905623
0.890227 0.748669 0.339742
0.886671 0.81532 0.596933
0 0.173846 0
0 0.177035 0
0.132036 0.170703 0
0.423362 0.145754 0
0.732662 0.0480659 0
0.891875 0.185809 0
0.895476 0.553552 0.0674449
0.890318 0.753368 0.336522
0.886687 0.815869 0.596689
0 0.425727 0
0 0.426886 0
0 0.427527 0
0.373938 0.42446 0
0.741512 0.419532 0
0.896101 0.486458 0
0.895445 0.642435 0
0.890623 0.765606 0.327108
0.886717 0.817472 0.595987
0 0.728206 0
0 0.728145 0
0 0.727825 0
0 0.725734 0
0.704234 0.707134 0
0.874022 0.715694 0
0.896101 0.749157 0
0.891066 0.789487 0.330053
0.886824 0.821668 0.593835
0.0507057 0.858381 0.0142061
0.0504005 0.857877 0.0139162
0.0498207 0.857069 0.0133516
0.0482948 0.854551 0.0117037
0.698192 0.824201 0
0.850156 0.816602 0
0.898833 0.817853 0
0.891081 0.819104 0.366674
0.887007 0.830518 0.591272
0.598489 0.868986 0.164218
0.616281 0.867536 0.16318
0.641154 0.865476 0.161913
0.692607 0.860929 0.160555
0.770428 0.854917 0.167025
0.842603 0.849775 0.199786
0.888655 0.845335 0.291478
0.889494 0.841413 0.468956
0.887053 0.842084 0.606531
0.813886 0.851484 0.52903
0.814847 0.851469 0.529137
0.816373 0.851453 0.52929
0.820768 0.851423 0.529778
0.831907 0.851347 0.531289
0.85301 0.851209 0.536004
0.878248 0.850889 0.549767
0.88719 0.850156 0.584283
0.88661 0.849393 0.634806
0.865125 0.849439 0.64976
0.865232 0.849439 0.649775
0.865431 0.849439 0.64979
0.866011 0.849439 0.649836
0.867643 0.849439 0.649958
0.871763 0.849439 0.650355
0.879698 0.849454 0.651576
0.886717 0.849393 0.654917
0.886793 0.849424 0.663859
0 0 0.0102235
0 0 0.0105135
0.157107 0 0.0185855
0.415 0 0.0203098
0.738506 0 0.0150759
0.900191 0 0.0692149
0.895964 0.469688 0.156451
0.889677 0.744335 0.372061
0.886625 0.814847 0.600656
0 0 0
0 0 0
0.175509 0 0.0102998
0.421225 0 0.00581369
0.739528 0 0
0.900526 0 0.038819
0.896101 0.504524 0.146151
0.889708 0.747433 0.370321
0.886641 0.815183 0.600519
0 0.165774 0
0 0.16846 0
0.148989 0.162509 0
0.421164 0.136995 0
0.737774 0.014023 0
0.89073 0.169406 0
0.895827 0.550057 0.127382
0.889769 0.752148 0.367529
0.886641 0.815732 0.600305
0 0.421302 0
0 0.422385 0
0 0.422827 0
0.385443 0.419455 0
0.741131 0.415534 0
0.896056 0.483268 0
0.894392 0.639643 0.0251316
0.890028 0.764462 0.359487
0.886687 0.817334 0.599664
0 0.727184 0
0 0.727092 0
0 0.726772 0
0 0.724636 0
0.706462 0.706188 0
0.874067 0.715053 0
0.896101 0.748837 0
0.890929 0.789181 0.337545
0.886778 0.821546 0.597696
0.0505989 0.858213 0.0141146
0.0502785 0.85771 0.0138094
0.0496986 0.856901 0.0132296
0.048188 0.854368 0.0115816
0.699733 0.824002 0
0.85037 0.81651 0
0.898833 0.817792 0
0.891081 0.819074 0.366491
0.887007 0.830503 0.591638
0.601267 0.868757 0.163775
0.618738 0.867338 0.162783
0.643137 0.865293 0.161563
0.693828 0.860822 0.160296
0.770916 0.854871 0.166888
0.842725 0.84976 0.199695
0.88867 0.845319 0.291463
0.889494 0.841413 0.468894
0.887053 0.842069 0.606516
0.814038 0.851484 0.529015
0.815 0.851469 0.529122
0.816526 0.851453 0.529274
0.82089 0.851423 0.529763
0.831998 0.851347 0.531273
0.853056 0.851209 0.535973
0.878264 0.850889 0.549752
0.88719 0.850156 0.584283
0.88661 0.849393 0.634806
0.865141 0.849439 0.64976
0.865248 0.849439 0.649775
0.865446 0.849439 0.64979
0.866026 0.849439 0.649821
0.867658 0.849439 0.649958
0.871778 0.849439 0.650355
0.879713 0.849454 0.651576
0.886717 0.849393 0.654917
0.886793 0.849424 0.663859
0 0 0.131579
0 0 0.131762
0.139147 0 0.139193
0.427649 0 0.140566
0.737881 0 0.143832
0.900603 0 0.1832
0.896452 0.457511 0.242298
0.889021 0.742443 0.414527
0.88658 0.814633 0.60589
0 0 0.128237
0 0 0.128542
0.165957 0 0.137362
0.425986 0 0.137301
0.739757 0 0.14023
0.900557 0 0.177111
0.896574 0.494026 0.235416
0.889036 0.745586 0.413001
0.886595 0.814969 0.605768
0 0.140826 0.12108
0 0.14287 0.12079
0.136858 0.132097 0.112215
0.40383 0.11162 0.11043
0.738598 0 0.130068
0.88864 0.114702 0.154055
0.896361 0.542062 0.223697
0.889082 0.750362 0.410559
0.886595 0.815534 0.60557
0 0.407324 0.0352789
0 0.408606 0.0362707
0 0.409216 0.0376745
0.384894 0.405722 0.0434119
0.7364 0.402197 0.0557259
0.895506 0.471489 0.102678
0.894209 0.634607 0.185641
0.889281 0.762798 0.403586
0.886641 0.817136 0.60499
0 0.725048 0
0 0.724956 0
0 0.72462 0
0 0.722454 0
0.708309 0.704219 0
0.873945 0.713573 0
0.89395 0.745571 0.0595865
0.889998 0.787686 0.385351
0.886732 0.821363 0.60325
0.0504311 0.857923 0.0139467
0.0500801 0.857435 0.013611
0.0495308 0.856611 0.0130617
0.0480354 0.854093 0.0114137
0.70222 0.823682 0
0.85069 0.816358 0
0.898833 0.817685 0
0.891081 0.819013 0.366217
0.886931 0.830335 0.597971
0.605722 0.868391 0.163088
0.622675 0.867002 0.162142
0.646235 0.865019 0.160998
0.695811 0.860655 0.159884
0.771695 0.85481 0.166644
0.842924 0.849729 0.199527
0.888716 0.845304 0.291432
0.889494 0.841413 0.468788
0.887053 0.842069 0.606485
0.814267 0.851484 0.528984
0.815229 0.851469 0.529091
0.816739 0.851453 0.529244
0.821103 0.851423 0.529732
0.832151 0.851347 0.531243
0.853132 0.851209 0.535958
0.878294 0.850889 0.549737
0.88719 0.850156 0.584283
0.88661 0.849393 0.634791
0.865156 0.849439 0.64976
0.865278 0.849439 0.64976
0.865476 0.849439 0.64979
0.866041 0.849439 0.649821
0.867674 0.849439 0.649958
0.871794 0.849439 0.650355
0.879713 0.849454 0.65156
0.886717 0.849393 0.654917
0.886793 0.849424 0.663859
0 0 0.341787
0 0 0.341939
0 0 0.342016
0.403479 0 0.351156
0.75375 0 0.355703
0.901778 0 0.386633
0.897337 0.414359 0.421424
0.887602 0.73724 0.505104
0.886503 0.814084 0.618585
0 0 0.339773
0 0 0.339956
0.0524147 0 0.343725
0.420005 0 0.348913
0.752148 0 0.353368
0.901762 0 0.384131
0.897017 0.456748 0.416785
0.887572 0.74052 0.504128
0.886519 0.814435 0.618494
0 0.0375525 0.337057
0 0.0433051 0.336996
0.0802167 0.0347143 0.333837
0.426688 0 0.345296
0.747234 0 0.349462
0.901717 0 0.379431
0.896849 0.51342 0.409995
0.887556 0.74551 0.502571
0.886534 0.815 0.618341
0 0.361624 0.306706
0 0.363424 0.306966
0 0.36466 0.307561
0.37467 0.361654 0.307332
0.724636 0.35877 0.316243
0.896834 0.433326 0.34786
0.893812 0.619486 0.388418
0.887602 0.75845 0.498207
0.886564 0.816632 0.617884
0 0.714488 0.24007
0 0.714473 0.240696
0 0.714214 0.241611
0 0.712215 0.243992
0.702296 0.693004 0.23798
0.868666 0.702525 0.270665
0.89015 0.737224 0.342535
0.88806 0.784146 0.487007
0.886641 0.820905 0.616541
0.0498817 0.85716 0.0133974
0.049546 0.856641 0.013077
0.0490425 0.855817 0.0125582
0.0475624 0.853269 0.0109407
0.702037 0.82295 0
0.846876 0.811978 0.120409
0.892866 0.810376 0.265888
0.88925 0.816464 0.459174
0.886824 0.829953 0.612665
0.618479 0.867308 0.161059
0.634058 0.866026 0.160266
0.655009 0.864179 0.159335
0.701595 0.860121 0.158679
0.77406 0.854612 0.165927
0.843534 0.849653 0.199008
0.888853 0.845243 0.291341
0.889509 0.841367 0.468452
0.887053 0.842054 0.606394
0.814984 0.851484 0.528893
0.815915 0.851469 0.528984
0.817426 0.851453 0.529152
0.821714 0.851423 0.529641
0.832624 0.851347 0.531151
0.853376 0.851209 0.535866
0.87837 0.850889 0.549661
0.88719 0.850156 0.584268
0.88661 0.849393 0.63476
0.865248 0.849439 0.64976
0.86537 0.849439 0.64976
0.865553 0.849439 0.649775
0.866133 0.849439 0.649821
0.86775 0.849439 0.649958
0.871855 0.849439 0.650355
0.879744 0.849454 0.65156
0.886717 0.849393 0.654917
0.886793 0.849424 0.663859
0 0 0.603845
0 0 0.603891
0 0 0.603967
0.240116 0 0.604898
0.745846 0 0.606592
0.90483 0 0.617777
0.897032 0.178393 0.614221
0.886778 0.723705 0.610315
0.886183 0.812711 0.642832
0 0 0.603464
0 0 0.60351
0 0 0.603601
0.268452 0 0.604608
0.750286 0 0.606378
0.904814 0 0.61738
0.900465 0.286381 0.613275
0.886625 0.727733 0.609781
0.886183 0.813077 0.642771
0 0 0.602823
0 0 0.602884
0 0 0.602975
0.307088 0 0.604013
0.752972 0 0.605798
0.904799 0 0.616693
0.900023 0.391623 0.609155
0.886427 0.733684 0.608988
0.886198 0.813672 0.642664
0 0.192309 0.590341
0 0.194995 0.590326
0 0.198444 0.590295
0.302235 0.186816 0.584939
0.739696 0.0911116 0.588922
0.89868 0.224781 0.601389
0.89688 0.561135 0.598871
0.886137 0.748623 0.606973
0.886229 0.815396 0.642359
0 0.680354 0.57229
0 0.680629 0.572396
0 0.680705 0.572503
0 0.679316 0.572641
0.686351 0.660258 0.560327
0.860822 0.674815 0.566796
0.887037 0.719829 0.576135
0.886076 0.777554 0.60267
0.886305 0.819867 0.641505
0.0437934 0.849851 0.561028
0.0435645 0.849348 0.56109
0.043183 0.848524 0.561196
0.0420081 0.845975 0.561517
0.66862 0.810315 0.535927
0.833051 0.800183 0.538735
0.886946 0.801297 0.557488
0.886625 0.811872 0.594491
0.886473 0.82919 0.639185
0.601572 0.861173 0.46894
0.617945 0.859785 0.467964
0.641032 0.857801 0.466667
0.689143 0.853422 0.464454
0.763577 0.847257 0.465202
0.83447 0.842741 0.477943
0.880796 0.839521 0.51368
0.887358 0.838437 0.574334
0.886687 0.841581 0.633082
0.817121 0.851469 0.528618
0.818021 0.851469 0.52871
0.819455 0.851453 0.528862
0.82356 0.851423 0.529366
0.834043 0.851347 0.530892
0.854124 0.851225 0.535622
0.878614 0.850889 0.549447
0.88719 0.850156 0.584222
0.88661 0.849393 0.634684
0.865522 0.849439 0.649729
0.865644 0.849439 0.649729
0.865827 0.849439 0.64976
0.866377 0.849439 0.64979
0.867979 0.849439 0.649927
0.872023 0.849439 0.650324
0.879835 0.849454 0.651545
0.886717 0.849393 0.654902
0.886793 0.849424 0.663859
0 0 0.703243
0 0 0.703243
0 0 0.703258
0 0 0.703288
0.65568 0 0.701793
0.90901 0 0.71104
0.909041 0 0.711482
0.891569 0.665171 0.676204
0.88629 0.808698 0.671534
0 0 0.703212
0 0 0.703212
0 0 0.703212
0 0 0.703243
0.662806 0 0.701793
0.90901 0 0.710994
0.909041 0 0.711452
0.890806 0.673899 0.675151
0.88629 0.80914 0.671489
0 0 0.703151
0 0 0.703151
0 0 0.703166
0 0 0.703182
0.673854 0 0.701808
0.90901 0 0.710933
0.909026 0 0.711391
0.889784 0.686473 0.673655
0.886305 0.809842 0.671427
0 0 0.702953
0 0 0.702953
0 0 0.702968
0 0 0.7028
0.697993 0 0.7019
0.908995 0 0.710719
0.90898 0 0.71043
0.88777 0.715511 0.670298
0.886336 0.811856 0.671229
0 0.494759 0.684764
0 0.496193 0.684749
0 0.498497 0.684718
0 0.502098 0.684459
0.672923 0.487694 0.677394
0.899046 0.526726 0.685191
0.892821 0.650233 0.674037
0.886259 0.761501 0.665736
0.886427 0.817075 0.67071
0.0425116 0.841321 0.687831
0.0423896 0.841016 0.687785
0.0421302 0.840406 0.687709
0.0411231 0.83801 0.687373
0.596155 0.805081 0.665171
0.823789 0.789853 0.657969
0.88336 0.793133 0.658671
0.886183 0.806912 0.661524
0.886625 0.827543 0.66949
0.450309 0.867384 0.666209
0.486183 0.864713 0.664332
0.533486 0.861189 0.661952
0.62504 0.853574 0.657053
0.733654 0.843824 0.651926
0.820478 0.838315 0.650858
0.872175 0.83592 0.652583
0.886702 0.836561 0.657252
0.88687 0.840909 0.667079
0.809476 0.849531 0.633341
0.810407 0.849531 0.633356
0.811887 0.849515 0.633387
0.816144 0.849485 0.633478
0.826978 0.849439 0.633783
0.847715 0.849424 0.634852
0.873137 0.849439 0.638132
0.886671 0.849378 0.646571
0.886778 0.849424 0.661601
0.866331 0.849439 0.649653
0.866438 0.849439 0.649668
0.866606 0.849439 0.649683
0.86714 0.849439 0.649729
0.868666 0.849439 0.649851
0.872557 0.849439 0.650263
0.880125 0.849454 0.651469
0.886717 0.849393 0.654841
0.886793 0.849424 0.663859
0 0 0.729854
0 0 0.729854
0 0 0.729854
0 0 0.729854
0 0 0.729854
0.897627 0 0.741314
0.910704 0 0.742107
0.910704 0 0.742107
0.886229 0.791012 0.694408
0 0 0.729854
0 0 0.729854
0 0 0.729854
0 0 0.729854
0 0 0.729854
0.898604 0 0.741375
0.910704 0 0.742107
0.910704 0 0.742107
0.886229 0.791836 0.694347
0 0 0.729854
0 0 0.729854
0 0 0.729854
0 0 0.729854
0 0 0.729854
0.900175 0 0.741482
0.910704 0 0.742107
0.910704 0 0.742107
0.886244 0.793133 0.694255
0 0 0.729854
0 0 0.729854
0 0 0.729854
0 0 0.729854
0 0 0.729854
0.904768 0 0.741772
0.910704 0 0.742107
0.910704 0 0.742107
0.886275 0.79678 0.693996
0 0 0.729854
0 0 0.729854
0 0 0.729854
0 0 0.729854
0.329488 0 0.729198
0.910704 0 0.742107
0.910704 0 0.742107
0.901106 0.568689 0.716335
0.886412 0.805768 0.693355
0.0137026 0.76672 0.720653
0.0137942 0.766934 0.720668
0.013962 0.767315 0.720684
0.0144503 0.768429 0.720745
0.0125887 0.764355 0.719783
0.827237 0.731472 0.697276
0.886809 0.748211 0.695705
0.886168 0.786191 0.693095
0.886687 0.821683 0.692195
0.0598917 0.889677 0.723293
0.0598001 0.88922 0.723247
0.0596628 0.888472 0.723171
0.0592203 0.886275 0.722942
0.649592 0.84712 0.695033
0.806027 0.835157 0.689494
0.868864 0.832349 0.689235
0.886915 0.833722 0.689479
0.887037 0.839231 0.6907
0.790173 0.849805 0.68661
0.79144 0.84979 0.686595
0.793454 0.84976 0.686564
0.799176 0.849699 0.686488
0.813352 0.849577 0.686351
0.839139 0.849515 0.686259
0.868254 0.849561 0.686397
0.887007 0.849531 0.687053
0.887037 0.849531 0.68896
0.863813 0.849531 0.680034
0.863935 0.849531 0.680049
0.864103 0.849531 0.680049
0.864652 0.849531 0.680064
0.866209 0.849531 0.680095
0.870161 0.849546 0.680217
0.877867 0.849546 0.680598
0.886732 0.849561 0.681773
0.886992 0.849515 0.68484
0 0.0299687 0.724361
0 0.0299687 0.724361
0 0.0299687 0.724361
0 0.029984 0.724361
0 0.0300755 0.724346
0 0.0302739 0.724285
0.910704 0 0.742107
0.910704 0 0.742107
0.897856 0.611765 0.715511
0 0.0299229 0.724376
0 0.0299229 0.724376
0 0.0299535 0.724376
0 0.0299687 0.724361
0 0.0300603 0.724346
0 0.0302586 0.724285
0.910704 0 0.742107
0.910704 0 0.742107
0.897871 0.611734 0.715511
0 0.0298619 0.724392
0 0.0298619 0.724392
0 0.0298924 0.724376
0 0.0299077 0.724376
0 0.0299687 0.724361
0 0.0301976 0.724315
0.910704 0 0.742107
0.910704 0 0.742107
0.897871 0.611704 0.715526
0 0.0297093 0.724422
0 0.0296941 0.724422
0 0.0297093 0.724422
0 0.0297246 0.724422
0 0.0298161 0.724407
0 0 0.729168
0.910704 0 0.742107
0.910704 0 0.742107
0.897887 0.611582 0.715526
0 0.02916 0.724529
0 0.02916 0.724529
0 0.0291752 0.724529
0 0.0292058 0.724514
0 0.0292515 0.724514
0.367056 0 0.729229
0.910704 0 0.742107
0.910704 0 0.742107
0.897902 0.6112 0.715557
0 0.027512 0.724804
0 0.027512 0.724804
0 0.027512 0.724804
0 0.0275425 0.724804
0 0.0276188 0.724788
0.765881 0 0.733577
0.910704 0 0.742107
0.903548 0.047013 0.734417
0.88658 0.764065 0.703639
0.0547799 0.866896 0.734386
0.0547951 0.866926 0.734386
0.0547951 0.866957 0.734386
0.0548409 0.867063 0.734401
0.0549325 0.867414 0.734417
0.725338 0.817426 0.704662
0.870054 0.810925 0.702541
0.886656 0.816815 0.702373
0.886946 0.831037 0.702235
0.666911 0.855467 0.706538
0.673945 0.854994 0.706157
0.684413 0.854322 0.705623
0.710765 0.852827 0.704402
0.760662 0.850782 0.702434
0.818097 0.849592 0.701503
0.862699 0.849607 0.701259
0.886336 0.848829 0.701366
0.887327 0.849119 0.701427
0.856992 0.849592 0.700236
0.857145 0.849592 0.700236
0.857389 0.849592 0.700236
0.858122 0.849592 0.700236
0.860182 0.849592 0.700221
0.865293 0.849607 0.700221
0.874678 0.849622 0.700206
0.884825 0.849638 0.700236
0.887129 0.849577 0.700435
0 0.255573 0.718318
0 0.255573 0.718318
0 0.255573 0.718318
0 0.255589 0.718318
0 0.255589 0.718318
0 0.25565 0.718318
0 0.255756 0.718318
0.906203 0.274907 0.729839
0.894194 0.647837 0.711986
0 0.255573 0.718318
0 0.255573 0.718318
0 0.255573 0.718318
0 0.255573 0.718318
0 0.255589 0.718318
0 0.255634 0.718318
0 0.255756 0.718318
0.906218 0.275181 0.729839
0.894194 0.647868 0.711986
0 0.255558 0.718318
0 0.255558 0.718318
0 0.255558 0.718318
0 0.255573 0.718318
0 0.255573 0.718318
0 0.255634 0.718318
0 0.255741 0.718318
0.906218 0.275624 0.729839
0.894194 0.647929 0.711971
0 0.255543 0.718318
0 0.255543 0.718318
0 0.255543 0.718318
0 0.255543 0.718318
0 0.255558 0.718318
0 0.255589 0.718318
0 0.255695 0.718318
0.906249 0.276967 0.729824
0.894179 0.648112 0.711955
0 0.255436 0.718318
0 0.255436 0.718318
0 0.255436 0.718318
0 0.255436 0.718318
0 0.255451 0.718318
0 0.255482 0.718318
0.362097 0.234852 0.715206
0.906325 0.281071 0.729763
0.894118 0.648615 0.71191
0 0.255131 0.718318
0 0.255131 0.718318
0 0.255131 0.718318
0 0.255161 0.718318
0 0.255161 0.718318
0 0.255177 0.718318
0.775082 0.0565194 0.723674
0.906508 0.293187 0.729595
0.894041 0.649378 0.711833
0 0.254215 0.718318
0 0.254215 0.718318
0 0.254215 0.718318
0 0.254231 0.718318
0 0.254231 0.718318
0 0.254261 0.718318
0.910704 0 0.742107
0.906706 0.316701 0.729137
0.893904 0.650828 0.711696
0.0600748 0.891188 0.73547
0.0600748 0.891188 0.73547
0.0600748 0.891188 0.73547
0.0600748 0.891188 0.73547
0.0600748 0.891188 0.73547
0.0600748 0.891188 0.73547
0.836118 0.842573 0.702251
0.886915 0.840757 0.702174
0.88719 0.842985 0.702113
0.822843 0.849561 0.702052
0.823377 0.849561 0.702052
0.824231 0.849561 0.702037
0.826688 0.849561 0.702037
0.833219 0.849546 0.702007
0.847211 0.849561 0.701991
0.86714 0.849607 0.701976
0.883024 0.849622 0.701961
0.887388 0.849821 0.702098
