BBLuts/BB_101_0170_LUT.cube
TITLE "Generated by Resolve"
LUT_3D_SIZE 33
0.0195621 0.0195621 0.0195621
0.0195621 0.0195621 0.0195621
0.0195621 0.0195621 0.0195621
0.0195621 0.0195621 0.0195621
0.0233005 0.0190585 0.0190433
0.0808576 0.0191196 0.0191653
0.143465 0.0191348 0.0192721
0.190539 0.018967 0.0191348
0.239384 0.0184634 0.018677
0.297993 0.0172732 0.0175174
0.368002 0.0149996 0.0152743
0.445945 0.0114595 0.0117342
0.530404 0.00672923 0.00697337
0.602701 0.00131228 0.00154116
0.67393 0 0
0.750546 0 0
0.826017 0 0
0.897047 0 0
0.958862 0 0
1 0 0
1 0 0
1 0 0
1 0.318013 0.0296635
1 0.530053 0.0885634
1 0.64387 0.153536
1 0.733623 0.222568
1 0.810513 0.301946
1 0.867063 0.406241
1 0.906554 0.533989
1 0.935714 0.62591
1 0.956878 0.707149
1 0.973404 0.784955
1 0.986511 0.850309
0.0195621 0.0195621 0.0195621
0.0195621 0.0195621 0.0195621
0.0195621 0.0195621 0.0195621
0.0195621 0.0195621 0.0195621
0.0238956 0.0190585 0.0190585
0.0925765 0.0191348 0.0191958
0.147433 0.0191348 0.0192569
0.193881 0.0189364 0.0191196
0.244862 0.0183871 0.0186007
0.30457 0.0170901 0.0173495
0.375051 0.014725 0.0149996
0.451667 0.0111849 0.0114443
0.531929 0.00662242 0.00686656
0.603967 0.0011902 0.00143435
0.675135 0 0
0.751278 0 0
0.826596 0 0
0.897047 0 0
0.958801 0 0
1 0 0
1 0 0
1 0.0128481 0
1 0.352361 0.0323339
1 0.544167 0.0662852
1 0.649653 0.148531
1 0.737316 0.220066
1 0.812406 0.301122
1 0.867964 0.406104
1 0.906996 0.533669
1 0.935943 0.625772
1 0.95697 0.707088
1 0.973465 0.784924
1 0.986526 0.850278
0.0195621 0.0195621 0.0195621
0.0195621 0.0195621 0.0195621
0.0195621 0.0195621 0.0195621
0.0195621 0.0195621 0.0195621
0.0240787 0.0192569 0.0192569
0.0987259 0.0191348 0.0192111
0.147951 0.0191348 0.0192569
0.196506 0.0189212 0.0191043
0.250034 0.0182956 0.0185245
0.309163 0.016968 0.0172274
0.378058 0.0146029 0.0148775
0.45301 0.0111086 0.0113832
0.533959 0.00648508 0.00674449
0.605539 0.00105287 0.00129702
0.676371 0 0
0.7523 0 0
0.826917 0 0
0.897307 0 0
0.958709 0 0
1 0 0
1 0 0
1 0.09131 0.00143435
1 0.386221 0.0343175
1 0.556725 0.0488594
1 0.655192 0.143954
1 0.740627 0.217838
1 0.81416 0.300374
1 0.868803 0.405982
1 0.907408 0.533364
1 0.936156 0.62565
1 0.957107 0.707012
1 0.973541 0.784863
1 0.986572 0.850263
0.019379 0.0202029 0.019379
0.0193942 0.0202945 0.019379
0.0193942 0.0207065 0.019379
0.0199283 0.0275578 0.0195315
0.0451972 0.0331579 0.0195468
0.100694 0.0215 0.0196689
0.145846 0.0214084 0.0197147
0.194217 0.0212558 0.0195621
0.248676 0.0202792 0.0189822
0.310445 0.0170443 0.0173037
0.380896 0.0144961 0.0147555
0.455451 0.0109865 0.0112459
0.536431 0.00633249 0.00657664
0.607141 0.000915541 0.00114443
0.677607 0 0
0.753048 0 0
0.827512 0 0
0.897536 0 0
0.958602 0 0
1 0 0
1 0 0
1 0.178393 0.0133669
1 0.41236 0.0353857
1 0.566903 0.0365911
1 0.659983 0.140002
1 0.743587 0.215824
1 0.815793 0.299672
1 0.869612 0.405829
1 0.907835 0.533074
1 0.93637 0.625513
1 0.957214 0.706935
1 0.973587 0.784833
1 0.986603 0.850248
0.0204471 0.0813611 0.0195773
0.0205081 0.0847181 0.0195926
0.0205692 0.0879835 0.0196078
0.0206149 0.0911879 0.0196078
0.0206455 0.0925154 0.0196231
0.0892348 0.0919051 0.0196841
0.13994 0.0896162 0.0196689
0.190509 0.0838636 0.0194858
0.246967 0.0705425 0.0188602
0.311055 0.0257115 0.0175631
0.382849 0.0193942 0.0151217
0.458427 0.0111849 0.0114443
0.538781 0.00616464 0.00642405
0.608774 0.000762951 0.000991836
0.679194 0 0
0.754116 0 0
0.828107 0 0
0.897765 0 0
0.958495 0 0
1 0 0
1 0 0
1 0.229435 0.0201114
1 0.435187 0.0359808
1 0.577157 0.0366522
1 0.665064 0.134829
1 0.746624 0.21355
1 0.817334 0.299016
1 0.87039 0.405707
1 0.908263 0.532769
1 0.936584 0.625391
1 0.957321 0.706874
1 0.973663 0.784787
1 0.986633 0.850217
0.0210422 0.119142 0.0196536
0.0210727 0.121843 0.0196384
0.0211185 0.124636 0.0196536
0.021149 0.126802 0.0196384
0.0211643 0.127916 0.0196384
0.0663462 0.128038 0.0197147
0.12932 0.127352 0.0197299
0.184787 0.125048 0.0196231
0.244358 0.119875 0.0191043
0.311238 0.109148 0.017731
0.3841 0.0882734 0.015198
0.460563 0.0263828 0.0113832
0.541573 0.0154879 0.00666819
0.610803 0.00137331 0.00129702
0.680659 0 0
0.755032 0 0
0.828763 0 0
0.898024 0 0
0.958358 0 0
1 0 0
1 0.0212406 0
1 0.271733 0.0251011
1 0.455467 0.0362402
1 0.585138 0.0367132
1 0.669795 0.129854
1 0.749752 0.211032
1 0.819059 0.298268
1 0.871153 0.405585
1 0.90866 0.532479
1 0.936812 0.625269
1 0.957443 0.706783
1 0.973724 0.784741
1 0.986664 0.850202
0.0214542 0.158831 0.019501
0.0214694 0.16112 0.0194705
0.0214847 0.163348 0.0194553
0.0214847 0.164706 0.01944
0.0214847 0.165682 0.01944
0.0214847 0.166003 0.01944
0.105867 0.166094 0.0196231
0.17406 0.165225 0.0196994
0.238193 0.162463 0.019379
0.308629 0.156283 0.0182498
0.384207 0.144671 0.0159762
0.464622 0.125994 0.0123903
0.545647 0.0927901 0.00740063
0.613184 0.0210422 0.00115969
0.683162 0.00573739 0
0.756695 0 0
0.829267 0 0
0.898054 0 0
0.957946 0 0
1 0 0
1 0.0967117 0.0021973
1 0.314229 0.0293278
1 0.477836 0.0363928
1 0.593011 0.03682
1 0.674983 0.124346
1 0.753277 0.208194
1 0.821118 0.297368
1 0.872221 0.405478
1 0.909133 0.532143
1 0.937057 0.625116
1 0.95758 0.706691
1 0.973785 0.784695
1 0.986709 0.850172
0.0214694 0.204364 0.0188602
0.0214542 0.206378 0.0188144
0.0214389 0.207858 0.0187839
0.0214389 0.209018 0.0187686
0.0214237 0.20972 0.0187533
0.0214237 0.21033 0.0187381
0.0519265 0.210605 0.0189212
0.148379 0.210742 0.0193637
0.225757 0.209369 0.0194553
0.30103 0.205463 0.0187533
0.380957 0.19707 0.016907
0.466316 0.184527 0.0137789
0.550271 0.166476 0.00955215
0.618662 0.13846 0.00448615
0.687465 0.0836347 0
0.758892 0.0167086 0
0.831159 0.00679026 0
0.898741 0 0
0.957702 0 0
1 0.048188 0
1 0.197879 0.0160525
1 0.364126 0.0330968
1 0.504509 0.0364843
1 0.603845 0.0370336
1 0.682429 0.113146
1 0.757931 0.204395
1 0.823865 0.296178
1 0.87364 0.40531
1 0.909941 0.531624
1 0.937423 0.624918
1 0.957763 0.706569
1 0.973907 0.784619
1 0.986755 0.850141
0.0205997 0.258122 0.0172274
0.0205539 0.259648 0.0171511
0.0205234 0.260685 0.0171054
0.0205081 0.261509 0.0170748
0.0204776 0.262119 0.0170443
0.0204623 0.26276 0.0170291
0.0204623 0.263035 0.0170138
0.100008 0.263615 0.017792
0.198001 0.263081 0.0187533
0.284321 0.260304 0.0188449
0.371374 0.254673 0.017731
0.463767 0.245548 0.0153201
0.553399 0.232883 0.0119478
0.624155 0.214969 0.00819409
0.694911 0.191226 0.00373846
0.767376 0.16025 0
0.837446 0.117601 0
0.901259 0.0358892 0
0.960647 0.0482185 0
1 0.167254 0.0105592
1 0.294636 0.027512
1 0.418311 0.0355688
1 0.534646 0.0365301
1 0.618296 0.0372015
1 0.692332 0.0954604
1 0.764584 0.198657
1 0.827497 0.294621
1 0.875608 0.405097
1 0.91104 0.530892
1 0.938033 0.624582
1 0.958053 0.706386
1 0.97406 0.784512
1 0.986847 0.85008
0.0182956 0.319524 0.0140078
0.018265 0.320241 0.013962
0.0182498 0.320699 0.0139467
0.0182193 0.321065 0.0139162
0.018204 0.321599 0.0138705
0.018204 0.321691 0.0138705
0.018204 0.321614 0.0138705
0.0182193 0.321248 0.013901
0.138582 0.322454 0.0160678
0.253132 0.322072 0.0177768
0.352361 0.319036 0.0178225
0.453559 0.312734 0.0163577
0.552438 0.303212 0.0139162
0.627985 0.290257 0.0114443
0.701381 0.275715 0.00888075
0.774884 0.260105 0.00709544
0.846571 0.246342 0.00741588
0.914397 0.238544 0.010544
0.97409 0.252644 0.0169833
1 0.304006 0.0266728
1 0.384482 0.0342412
1 0.479835 0.036408
1 0.569055 0.0365911
1 0.636622 0.0372473
1 0.705364 0.0706188
1 0.773373 0.190784
1 0.832593 0.292439
1 0.878218 0.404822
1 0.912551 0.529915
1 0.938842 0.62414
1 0.958526 0.706065
1 0.974273 0.78436
1 0.986969 0.850004
0.0147402 0.387488 0.00941482
0.0147097 0.38819 0.00936904
0.0146792 0.388632 0.00932326
0.0146639 0.388998 0.009308
0.0146487 0.389258 0.00927749
0.0146334 0.389441 0.00927749
0.0146334 0.389548 0.00926223
0.0146181 0.389776 0.00924697
0.0146334 0.389349 0.00927749
0.18233 0.392309 0.0139925
0.317189 0.39266 0.0164187
0.432013 0.389395 0.0163729
0.544228 0.382925 0.0150912
0.628122 0.373907 0.013901
0.705928 0.364584 0.0128481
0.781476 0.356054 0.0128634
0.853284 0.351247 0.0151369
0.920684 0.35346 0.0201114
0.979187 0.371252 0.0267491
1 0.41117 0.0332952
1 0.47187 0.0363622
1 0.5402 0.0365301
1 0.601755 0.0369879
1 0.659998 0.0370489
1 0.721675 0.037583
1 0.784741 0.18146
1 0.839261 0.289601
1 0.881819 0.404547
1 0.914534 0.528572
1 0.939956 0.623514
1 0.959167 0.705623
1 0.974655 0.784085
1 0.987137 0.849897
0.0102235 0.468559 0.00361639
0.0102083 0.46891 0.00358587
0.010193 0.469368 0.00355535
0.0101472 0.470115 0.00350958
0.0101472 0.47042 0.00349432
0.0101167 0.470665 0.00347906
0.0101167 0.470878 0.0034638
0.0101167 0.470985 0.00344854
0.0101167 0.470878 0.0034638
0.0568399 0.472389 0.00529488
0.24007 0.477317 0.0122988
0.392538 0.477882 0.0150912
0.524529 0.474647 0.0150759
0.621546 0.469368 0.0148623
0.705043 0.462806 0.0147402
0.784283 0.457771 0.01561
0.857328 0.457801 0.0186618
0.923568 0.464286 0.0238041
0.97969 0.482002 0.0294499
1 0.511971 0.0340429
1 0.551278 0.0364996
1 0.593698 0.0368353
1 0.637552 0.0372473
1 0.688212 0.0364843
1 0.742962 0.0347753
1 0.798657 0.170901
1 0.847807 0.286046
1 0.886625 0.404318
1 0.917311 0.528176
1 0.941436 0.622721
1 0.960037 0.705028
1 0.975174 0.783703
1 0.987427 0.849683
0.00723278 0.555459 0
0.00723278 0.555627 0
0.00723278 0.555947 0
0.00721752 0.556222 0
0.00721752 0.556435 0
0.00721752 0.556985 0
0.00721752 0.557183 0
0.00721752 0.557351 0
0.00721752 0.557504 0
0.00720226 0.55761 0
0.114534 0.561166 0.00450141
0.312322 0.566293 0.0127108
0.485679 0.566186 0.0148318
0.605722 0.563851 0.0150301
0.695888 0.56051 0.0151064
0.780697 0.557824 0.0158083
0.856962 0.557748 0.018555
0.9234 0.56257 0.0235142
0.977813 0.574289 0.0290227
1 0.59115 0.0338445
1 0.613001 0.0370794
1 0.641962 0.037232
1 0.678477 0.0367132
1 0.721096 0.035523
1 0.768246 0.0338903
1 0.816037 0.155322
1 0.858183 0.281865
1 0.892744 0.404257
1 0.920974 0.529
1 0.943511 0.621683
1 0.961196 0.70425
1 0.97586 0.783169
1 0.987839 0.849393
0.00822461 0.628031 0
0.00822461 0.628092 0
0.00822461 0.62829 0
0.00823987 0.628473 0
0.00823987 0.628611 0
0.00823987 0.628763 0
0.00823987 0.628901 0
0.00823987 0.629068 0
0.00825513 0.629465 0
0.00825513 0.629541 0
0.00825513 0.62945 0
0.179797 0.633997 0.00793469
0.408911 0.636942 0.0150912
0.579705 0.635279 0.0153048
0.678035 0.633082 0.015198
0.770062 0.6309 0.0157626
0.852308 0.630701 0.0187381
0.921263 0.633539 0.0239261
0.975174 0.640909 0.0293431
1 0.653574 0.0337072
1 0.671397 0.0366827
1 0.694362 0.0364538
1 0.723507 0.0354467
1 0.758343 0.0342412
1 0.796613 0.0330358
1 0.835538 0.135775
1 0.870634 0.276707
1 0.900267 0.404501
1 0.925628 0.530251
1 0.946227 0.620432
1 0.962844 0.703166
1 0.976776 0.782498
1 0.988388 0.849027
0.0105592 0.699565 0
0.0105592 0.699565 0
0.0105592 0.699657 0
0.0105745 0.699779 0
0.0105745 0.69987 0
0.0105745 0.699947 0
0.0105898 0.700023 0
0.0105898 0.700114 0
0.0105898 0.700175 0
0.0105898 0.700145 0
0.0105898 0.700267 0
0.0105745 0.69987 0
0.271763 0.705684 0.0118563
0.525139 0.706157 0.0153506
0.651576 0.704158 0.0155642
0.751797 0.702083 0.0158999
0.841184 0.701137 0.0183566
0.914015 0.702968 0.0231174
0.969177 0.708217 0.0281376
1 0.71754 0.0319219
1 0.731334 0.0345006
1 0.748943 0.0346685
1 0.771298 0.0337987
1 0.797864 0.0330053
1 0.827115 0.032517
1 0.856687 0.10959
1 0.884657 0.272312
1 0.909483 0.405341
1 0.931319 0.532052
1 0.949676 0.620432
1 0.965026 0.701762
1 0.978088 0.781537
1 0.98912 0.848508
0.0153658 0.771176 0.0016022
0.0153658 0.771176 0.0016022
0.0153658 0.771176 0.0016022
0.0153658 0.771237 0.0016022
0.0153811 0.771267 0.00161746
0.0153811 0.771298 0.00161746
0.0153811 0.771313 0.00161746
0.0153811 0.771344 0.00161746
0.0153811 0.771313 0.00161746
0.0153658 0.771206 0.0016022
0.0153353 0.770962 0.00158694
0.0153201 0.770764 0.00155642
0.0911421 0.772107 0.00588998
0.407889 0.776974 0.018204
0.616556 0.77554 0.018616
0.726802 0.772992 0.0180972
0.82388 0.771267 0.0190433
0.901534 0.771618 0.0225223
0.958862 0.774899 0.0266728
1 0.781064 0.0299077
1 0.790463 0.0320745
1 0.803128 0.032929
1 0.818708 0.0327611
1 0.836851 0.0324407
1 0.857176 0.0324102
1 0.878614 0.0723888
1 0.899947 0.268666
1 0.920058 0.408194
1 0.938201 0.534752
1 0.953887 0.622263
1 0.967819 0.700984
1 0.979828 0.780255
1 0.990143 0.847761
0.0268864 0.840558 0.0113832
0.0268864 0.840558 0.0113832
0.0268864 0.840558 0.0113832
0.0268864 0.840558 0.0113832
0.0268864 0.840558 0.0113832
0.0268864 0.840543 0.0113832
0.0268864 0.840497 0.011368
0.0268711 0.840452 0.011368
0.0268406 0.84033 0.0113375
0.0267796 0.840085 0.0112917
0.0267185 0.839734 0.0112306
0.0265812 0.839094 0.0111086
0.0264134 0.838331 0.010956
0.284993 0.843656 0.0240787
0.571054 0.842908 0.0262913
0.698497 0.839887 0.0243534
0.802792 0.836606 0.0229038
0.885435 0.835233 0.024155
0.945602 0.835996 0.0268711
0.989059 0.838926 0.0293584
1 0.8439 0.0311589
1 0.851255 0.0322881
1 0.860792 0.0325628
1 0.87219 0.0325475
1 0.885512 0.0327459
1 0.900252 0.0360266
1 0.916259 0.268879
1 0.93167 0.413642
1 0.945983 0.539345
1 0.959106 0.624796
1 0.971237 0.701152
1 0.982025 0.778927
1 0.991516 0.846738
0.0412757 0.897826 0.0243687
0.0412757 0.897826 0.0243687
0.0412757 0.897826 0.0243687
0.0412757 0.897826 0.0243687
0.0412757 0.897826 0.0243687
0.0412604 0.89778 0.0243687
0.0412451 0.897704 0.0243381
0.0411994 0.897566 0.0242924
0.0411383 0.897322 0.0242466
0.0410315 0.896971 0.024155
0.0408942 0.896452 0.0240177
0.0406653 0.895628 0.0238041
0.0403449 0.894453 0.0235142
0.188983 0.89691 0.0310521
0.505745 0.897978 0.0365911
0.674464 0.893446 0.0323949
0.785016 0.888777 0.0285496
0.870497 0.885863 0.0275883
0.932357 0.884855 0.028748
0.977813 0.885298 0.0303807
1 0.887266 0.031693
1 0.890776 0.0325933
1 0.895872 0.0330663
1 0.90277 0.0332494
1 0.911238 0.0333257
1 0.921416 0.0614328
1 0.932631 0.278553
1 0.943832 0.423117
1 0.954528 0.546044
1 0.965194 0.628748
1 0.975402 0.703853
1 0.984741 0.7776
1 0.993271 0.845472
0.053727 0.940764 0.0357824
0.053727 0.940764 0.0357824
0.053727 0.940764 0.0357824
0.053727 0.940764 0.0357824
0.053727 0.940764 0.0357824
0.053727 0.940764 0.0357824
0.053727 0.940764 0.0357824
0.0536812 0.940612 0.0357519
0.0535897 0.940322 0.0356603
0.0534524 0.939834 0.0355383
0.053254 0.939162 0.0353552
0.0529793 0.938231 0.0350958
0.0525978 0.93695 0.0347601
0.139223 0.937499 0.0386511
0.451545 0.939101 0.0455787
0.661082 0.933608 0.0393835
0.774105 0.928038 0.0338293
0.859922 0.92401 0.0312352
0.921584 0.921965 0.0311437
0.967651 0.921141 0.0319677
1 0.921324 0.0327764
1 0.922759 0.0333867
1 0.925353 0.0337682
1 0.929259 0.0339361
1 0.934462 0.0339361
1 0.941085 0.127047
1 0.948409 0.300801
1 0.95584 0.437659
1 0.963729 0.555505
1 0.971984 0.634226
1 0.980209 0.708095
1 0.987991 0.780163
1 0.995438 0.843961
0.0632486 0.973632 0.0445258
0.0632486 0.973632 0.0445258
0.0632486 0.973632 0.0445258
0.0632486 0.973632 0.0445258
0.0632486 0.973632 0.0445258
0.0632486 0.973632 0.0445258
0.0632486 0.973632 0.0445258
0.0632486 0.973632 0.0445258
0.0632181 0.97348 0.0444953
0.0630655 0.972961 0.044358
0.0628214 0.972107 0.0441291
0.0625162 0.971054 0.0438544
0.0621653 0.969787 0.043534
0.149752 0.970062 0.0469978
0.467948 0.97055 0.0517891
0.661479 0.964233 0.0441596
0.771191 0.958297 0.0376593
0.85391 0.953841 0.0340887
0.913787 0.951125 0.0331273
0.959152 0.949584 0.033341
0.994156 0.948852 0.0337987
1 0.948898 0.034165
1 0.949813 0.0344091
1 0.951629 0.0345312
1 0.954406 0.0344701
1 0.958267 0.182025
1 0.962814 0.331518
1 0.967742 0.460441
1 0.973205 0.567941
1 0.979309 0.64181
1 0.985519 0.713878
1 0.99176 0.784298
1 0.998093 0.845533
0.0697185 0.997467 0.0504158
0.0697185 0.997467 0.0504158
0.0697185 0.997467 0.0504158
0.0697185 0.997467 0.0504158
0.0697185 0.997467 0.0504158
0.0697185 0.997467 0.0504158
0.0697185 0.997467 0.0504158
0.0697185 0.997467 0.0504158
0.0697185 0.997467 0.0504158
0.0697185 0.997436 0.0504005
0.0694743 0.996536 0.0501869
0.0691691 0.995346 0.0499123
0.0688029 0.993973 0.0495918
0.100557 0.993027 0.0505531
0.532708 0.992828 0.0542458
0.677806 0.986389 0.0462501
0.778088 0.980407 0.0395361
0.853986 0.976043 0.0357824
0.910109 0.973159 0.0344549
0.953658 0.971222 0.0343175
0.987579 0.970031 0.0345312
1 0.969406 0.0347601
1 0.969314 0.0349126
1 0.96997 0.0349737
1 0.971405 0.041886
1 0.973541 0.239002
1 0.976104 0.373236
1 0.97911 0.490471
1 0.982651 0.584436
1 0.98674 0.651881
1 0.991211 0.721736
1 0.996002 0.789776
1 1 0.84863
0.0741436 1 0.0543984
0.0741436 1 0.0543984
0.0741436 1 0.0543984
0.0741436 1 0.0543984
0.0741436 1 0.0543984
0.0741436 1 0.0543984
0.0741436 1 0.0543984
0.0741436 1 0.0543984
0.0741436 1 0.0543984
0.0741436 1 0.0543984
0.0741436 1 0.0543984
0.0738689 1 0.0541543
0.0795605 1 0.0541695
0.29163 1 0.0600595
0.598154 1 0.0535897
0.707164 1 0.0460517
0.792645 0.99736 0.0400092
0.859037 0.993347 0.0366369
0.909957 0.990585 0.0352636
0.950744 0.988647 0.0349584
0.982879 0.987228 0.0350195
1 0.986282 0.0351568
1 0.985718 0.0352483
1 0.985656 0.0392462
1 0.986114 0.183856
1 0.986831 0.315496
1 0.987945 0.424994
1 0.989456 0.525902
1 0.991485 0.601526
1 0.994064 0.665843
1 0.99707 0.731868
1 1 0.796994
1 1 0.852934
0.0843977 1 0.0574044
0.0843977 1 0.0574044
0.0843977 1 0.0574044
0.0843977 1 0.0574044
0.0843977 1 0.0574044
0.0843977 1 0.0574044
0.0843977 1 0.0574044
0.0843977 1 0.0574044
0.0843977 1 0.0574044
0.0843977 1 0.0574044
0.0843977 1 0.0574044
0.0843977 1 0.0574044
0.0869306 1 0.0572366
0.527321 1 0.0590524
0.656382 1 0.0510414
0.743893 1 0.0443122
0.813779 1 0.0395056
0.869108 1 0.0368353
0.913741 1 0.0356451
0.9505 1 0.0352941
0.980209 1 0.0363775
1 0.999878 0.0382544
1 0.999054 0.0404669
1 0.998535 0.16585
1 0.998138 0.28983
1 0.997971 0.391913
1 0.998001 0.486244
1 0.99852 0.565225
1 0.999557 0.624292
1 1 0.683757
1 1 0.745602
1 1 0.806043
1 1 0.858549
0.488289 1 0.0659953
0.488289 1 0.0659953
0.488289 1 0.0659953
0.488289 1 0.0659953
0.488258 1 0.0659953
0.488258 1 0.0659953
0.488258 1 0.0659953
0.488258 1 0.0659953
0.488243 1 0.0660105
0.488228 1 0.0660105
0.488228 1 0.0660105
0.488182 1 0.0660105
0.488136 1 0.0660105
0.62237 1 0.0585946
0.714656 1 0.0515297
0.782803 1 0.0463722
0.838056 1 0.0431067
0.88278 1 0.0413672
0.920897 1 0.0406653
0.953109 1 0.0406348
0.979812 1 0.10634
1 1 0.18381
1 1 0.243198
1 1 0.312169
1 1 0.390005
1 1 0.470695
1 1 0.544366
1 1 0.601434
1 1 0.652323
1 1 0.706386
1 1 0.76289
1 1 0.818158
1 1 0.865461
0.705776 1 0.297688
0.705776 1 0.297688
0.705776 1 0.297688
0.705776 1 0.297688
0.705776 1 0.297688
0.705776 1 0.297688
0.705776 1 0.297688
0.705776 1 0.297688
0.705776 1 0.297688
0.705776 1 0.297704
0.705776 1 0.297704
0.705776 1 0.297704
0.70576 1 0.297704
0.705745 1 0.297704
0.76286 1 0.297276
0.819654 1 0.29955
0.862348 1 0.304662
0.89839 1 0.312215
0.930159 1 0.323201
0.957275 1 0.337407
0.980774 1 0.355596
1 1 0.378363
1 1 0.40621
1 1 0.43949
1 1 0.490242
1 1 0.545174
1 1 0.594415
1 1 0.638376
1 1 0.684977
1 1 0.733684
1 1 0.784115
1 1 0.83238
1 1 0.874357
0.813581 1 0.474449
0.813581 1 0.474449
0.813581 1 0.474449
0.813581 1 0.474449
0.813581 1 0.474449
0.813581 1 0.474449
0.813581 1 0.474449
0.813581 1 0.474449
0.813581 1 0.474449
0.813581 1 0.474449
0.813581 1 0.474449
0.813581 1 0.474449
0.813565 1 0.474449
0.813565 1 0.474449
0.81355 1 0.474449
0.84802 1 0.475944
0.884749 1 0.479866
0.914382 1 0.484779
0.940017 1 0.491112
0.962539 1 0.49958
0.982681 1 0.510033
1 1 0.522988
1 1 0.538659
1 1 0.557733
1 1 0.579492
1 1 0.605707
1 1 0.639704
1 1 0.678691
1 1 0.720958
1 1 0.764782
1 1 0.808301
1 1 0.849027
1 1 0.884825
0.87982 1 0.595926
0.87982 1 0.595926
0.87982 1 0.595926
0.87982 1 0.595926
0.87982 1 0.595926
0.87982 1 0.595926
0.87982 1 0.595926
0.87982 1 0.595926
0.87982 1 0.595926
0.87982 1 0.595926
0.87982 1 0.595926
0.87982 1 0.595926
0.87982 1 0.595926
0.87982 1 0.595926
0.879805 1 0.595926
0.879805 1 0.595926
0.903243 1 0.597253
0.929046 1 0.599619
0.949859 1 0.602609
0.968353 1 0.606317
0.985962 1 0.61149
1 1 0.617746
1 1 0.625742
1 1 0.63592
1 1 0.649058
1 1 0.66511
1 1 0.690242
1 1 0.722637
1 1 0.759274
1 1 0.797589
1 1 0.834195
1 1 0.867399
1 1 0.896864
0.925078 1 0.680293
0.925078 1 0.680293
0.925078 1 0.680293
0.925078 1 0.680293
0.925078 1 0.680293
0.925078 1 0.680293
0.925078 1 0.680293
0.925078 1 0.680293
0.925078 1 0.680293
