BBLuts/BB_101_0300_LUT.cube
TITLE "Generated by Resolve"
LUT_3D_SIZE 33
0.0128786 0.0128786 0.0128786
0.0128786 0.0128786 0.0128786
0.0128786 0.0128786 0.0128786
0.0128786 0.0128786 0.0128786
0.0128786 0.0128786 0.0128786
0.0162203 0.013611 0.0130007
0.0246586 0.0138705 0.0137331
0.0331579 0.0158389 0.0137942
0.0464027 0.0191501 0.0138857
0.0652934 0.0197604 0.0141146
0.0961624 0.0221561 0.0145571
0.135149 0.0251316 0.015259
0.199145 0.0269474 0.0161288
0.313726 0.0249943 0.0188449
0.453101 0.0239109 0.0239109
0.585382 0.0298924 0.0298924
0.705928 0.0353246 0.0353246
0.819013 0.0405432 0.0405432
0.930068 0.0457465 0.0457465
1 0.0490578 0.0490578
1 0.0490883 0.0490883
1 0.0490883 0.0490883
0.996338 0.0488746 0.0488746
0.957427 0.222309 0.0309911
0.931472 0.410513 0.0234531
0.916747 0.52192 0.0208438
0.90753 0.605707 0.0704814
0.909743 0.680476 0.247105
0.914626 0.741115 0.399069
0.919905 0.790143 0.519234
0.924727 0.82652 0.617563
0.927581 0.854337 0.710719
0.931258 0.876829 0.775647
0.0128786 0.0128786 0.0128786
0.0128786 0.0128786 0.0128786
0.0128786 0.0128786 0.0128786
0.0128786 0.0128786 0.0128786
0.0128786 0.0128786 0.0128786
0.0178836 0.0136263 0.0130312
0.025391 0.0140078 0.0137484
0.0341802 0.0161898 0.0137942
0.0481575 0.0192569 0.013901
0.0677348 0.019791 0.0141451
0.099321 0.0227512 0.0146181
0.139208 0.0253147 0.0153201
0.203082 0.0269932 0.0161593
0.317113 0.0248417 0.0189517
0.455833 0.0240177 0.0240177
0.58703 0.0299687 0.0299687
0.706737 0.0353552 0.0353552
0.819287 0.0405432 0.0405432
0.9299 0.0457465 0.0457465
1 0.0490578 0.0490578
1 0.0490883 0.0490883
1 0.0490883 0.0490883
0.987503 0.0484474 0.0484474
0.95201 0.248127 0.0295109
0.928527 0.421744 0.0231022
0.915465 0.527001 0.020737
0.906935 0.609186 0.0750744
0.909651 0.682673 0.250217
0.914656 0.742489 0.40119
0.919905 0.790799 0.520195
0.924758 0.826947 0.618265
0.927611 0.854551 0.711009
0.931273 0.877043 0.775921
0.0128786 0.0128786 0.0128786
0.0128786 0.0128786 0.0128786
0.0128786 0.0128786 0.0128786
0.0128786 0.0128786 0.0128786
0.0128786 0.0128786 0.0128786
0.0188754 0.0136263 0.0130465
0.0256504 0.0140536 0.0137484
0.035111 0.0165103 0.0138094
0.0500191 0.0193637 0.0139162
0.0705882 0.0198825 0.0141756
0.101793 0.0232395 0.0146487
0.141466 0.0254063 0.0153658
0.206363 0.027039 0.0161898
0.320714 0.0246738 0.0190738
0.458534 0.0241245 0.0241245
0.58851 0.0300298 0.0300298
0.70753 0.0354009 0.0354009
0.81973 0.0405737 0.0405737
0.929732 0.0457313 0.0457313
1 0.0490578 0.0490578
1 0.0490883 0.0490883
1 0.0490883 0.0490883
0.980133 0.0480964 0.0480964
0.946822 0.272831 0.0282597
0.926024 0.431601 0.022797
0.914244 0.531929 0.0206455
0.90634 0.612665 0.0794995
0.909545 0.684764 0.253086
0.914687 0.74374 0.403113
0.91989 0.791577 0.521279
0.924788 0.827375 0.619028
0.927626 0.854765 0.711315
0.931273 0.87715 0.776089
0.0128786 0.0128786 0.0128786
0.0128786 0.0128786 0.0128786
0.0128786 0.0128786 0.0128786
0.013138 0.0138857 0.0130312
0.014847 0.0152438 0.0133364
0.0196384 0.0136416 0.0131075
0.0257572 0.0140841 0.0137484
0.0351873 0.0165408 0.0138094
0.0503548 0.0193942 0.0139162
0.07187 0.0199435 0.0142061
0.103334 0.0235294 0.0146792
0.143374 0.0254978 0.0153964
0.209476 0.0270848 0.0162051
0.324514 0.024506 0.0192111
0.461433 0.0242313 0.0242313
0.590158 0.0301213 0.0301213
0.708339 0.0354314 0.0354314
0.820157 0.040589 0.040589
0.929564 0.0457313 0.0457313
1 0.0490578 0.0490578
1 0.0490883 0.0490883
1 0.0490883 0.0490883
0.974441 0.0614176 0.0457618
0.941375 0.294591 0.0272221
0.923568 0.440955 0.0225223
0.913024 0.53669 0.0205539
0.905852 0.616037 0.0842756
0.909453 0.686961 0.256229
0.914702 0.744991 0.405035
0.919875 0.79237 0.522408
0.924834 0.827802 0.61973
0.927672 0.855085 0.711788
0.931289 0.877256 0.776211
0.0166781 0.0205539 0.0146029
0.0170443 0.0208286 0.0147402
0.0173953 0.021088 0.0148623
0.0177462 0.0213474 0.0149844
0.0178836 0.0214389 0.0150301
0.0201267 0.0242313 0.0179599
0.0258946 0.0239109 0.0170596
0.0341039 0.0235142 0.0145571
0.0479744 0.0246586 0.0142367
0.0724193 0.0199741 0.0142061
0.10428 0.0237125 0.0146944
0.14519 0.0255741 0.0154269
0.212436 0.0271153 0.0162203
0.328298 0.0243229 0.0193332
0.464103 0.0243381 0.0243381
0.591974 0.0301976 0.0301976
0.709148 0.0354772 0.0354772
0.820447 0.0406043 0.0406043
0.929229 0.045716 0.045716
1 0.0490578 0.0490578
1 0.0490883 0.0490883
0.997574 0.0489357 0.0489357
0.967498 0.0876631 0.0420539
0.936309 0.313664 0.0263828
0.921141 0.449928 0.0222782
0.911833 0.541421 0.0204623
0.905394 0.619318 0.0889143
0.909377 0.689052 0.25919
0.914733 0.746242 0.406973
0.919875 0.793027 0.523308
0.924865 0.828122 0.620295
0.927703 0.855299 0.712077
0.931289 0.87747 0.776532
0.0186923 0.0269474 0.0170443
0.0187076 0.0276341 0.0172885
0.0187076 0.0283055 0.0175174
0.0187076 0.0288701 0.0177157
0.0187076 0.029099 0.0178073
0.0206455 0.0301671 0.0191501
0.0262608 0.0301671 0.0197147
0.0344549 0.0314336 0.0179294
0.0489967 0.0341039 0.0170291
0.0710155 0.035172 0.0154421
0.10927 0.0318456 0.0146639
0.146777 0.0256504 0.0154574
0.215549 0.0271611 0.0162509
0.332296 0.0241398 0.0194705
0.467155 0.0244602 0.0244602
0.593652 0.0302739 0.0302739
0.709941 0.0355077 0.0355077
0.820737 0.0406195 0.0406195
0.929061 0.0457008 0.0457008
1 0.0490578 0.0490578
1 0.0490883 0.0490883
0.992264 0.0486763 0.0486763
0.960143 0.135576 0.0369879
0.931411 0.332952 0.0256046
0.918669 0.458839 0.022034
0.910506 0.546685 0.0203708
0.90518 0.622599 0.0942397
0.9093 0.691127 0.262104
0.914763 0.747509 0.408896
0.919936 0.79379 0.524483
0.924895 0.82855 0.620996
0.927718 0.855512 0.712383
0.931289 0.877592 0.776654
0.0187533 0.0387121 0.0193942
0.0187533 0.0394903 0.0194553
0.0187686 0.040238 0.019501
0.0187686 0.04065 0.0195468
0.0187686 0.0409247 0.0195621
0.0187686 0.0410163 0.0195621
0.0273899 0.0411536 0.0213169
0.0364538 0.0443427 0.0204776
0.053727 0.0476997 0.019791
0.0793011 0.0523232 0.0185702
0.119051 0.0530709 0.0155947
0.172045 0.0506905 0.0145113
0.240681 0.0399786 0.0160525
0.337514 0.0238956 0.0196536
0.471122 0.0246281 0.0246281
0.596002 0.0303807 0.0303807
0.711009 0.0355535 0.0355535
0.821164 0.0406348 0.0406348
0.928557 0.0456855 0.0456855
1 0.0490578 0.0490578
1 0.0490883 0.0490883
0.986023 0.0483864 0.0483864
0.95285 0.187167 0.0328985
0.926177 0.354879 0.0247959
0.915557 0.469917 0.0217441
0.908934 0.553216 0.0202487
0.905043 0.626642 0.101167
0.909209 0.693858 0.265995
0.914794 0.749218 0.411505
0.920027 0.794781 0.525979
0.924941 0.829084 0.621897
0.927779 0.85594 0.713024
0.931304 0.877806 0.776928
0.0183413 0.0605783 0.0206302
0.0182956 0.0618143 0.0206912
0.018265 0.0627604 0.020737
0.0182498 0.0633249 0.0207675
0.0182345 0.0637064 0.0207828
0.0182345 0.0639963 0.020798
0.0191501 0.0637827 0.0207065
0.0384833 0.0665293 0.0246586
0.0613413 0.0723278 0.0232547
0.0922713 0.0785229 0.0200656
0.137423 0.082887 0.0191348
0.193439 0.0845197 0.0147097
0.267643 0.0816968 0.0153201
0.36347 0.0632486 0.018143
0.477378 0.0258183 0.0247807
0.599222 0.0305333 0.0305333
0.712489 0.0356298 0.0356298
0.821729 0.0406653 0.0406653
0.928069 0.045655 0.045655
1 0.0490578 0.0490578
0.995544 0.0488441 0.0488441
0.978637 0.0480354 0.0480354
0.945098 0.234867 0.0299077
0.921614 0.379736 0.0240024
0.91165 0.483833 0.0213931
0.906996 0.561669 0.0201267
0.90486 0.631891 0.110277
0.909117 0.697368 0.270985
0.914839 0.751263 0.414618
0.920134 0.795987 0.527749
0.925017 0.829847 0.623163
0.927825 0.856352 0.713619
0.931304 0.878019 0.777203
0.0141909 0.105028 0.025864
0.0140383 0.10634 0.0260471
0.0139467 0.10721 0.0261692
0.0138857 0.107958 0.0262608
0.013901 0.108659 0.0262608
0.013901 0.109194 0.0262608
0.0139162 0.109361 0.026276
0.0218509 0.11014 0.0261082
0.0630198 0.112383 0.0308385
0.0988632 0.118318 0.0267948
0.150744 0.124636 0.0193484
0.213153 0.129458 0.0182803
0.286412 0.128756 0.0151827
0.376013 0.123964 0.0163577
0.47686 0.101564 0.0197757
0.580682 0.0471962 0.0278172
0.699748 0.03505 0.03505
0.822599 0.0407111 0.0407111
0.92723 0.0456245 0.0456245
0.989166 0.0485237 0.0485237
0.984894 0.0483253 0.0483253
0.962432 0.119493 0.0385138
0.936645 0.285588 0.0274205
0.916625 0.407919 0.0231479
0.908263 0.499733 0.0210574
0.904906 0.571771 0.0202182
0.904662 0.63856 0.121874
0.909041 0.701732 0.277287
0.914931 0.754116 0.418982
0.920287 0.79762 0.530159
0.925093 0.830701 0.624628
0.927901 0.856886 0.714336
0.931334 0.878447 0.777798
0.0150607 0.169619 0.0271763
0.0150759 0.170123 0.0271916
0.0150912 0.170626 0.0271916
0.0150912 0.17113 0.0272068
0.0151064 0.171298 0.0272068
0.0151064 0.171298 0.0272068
0.0151064 0.171298 0.0272068
0.0150912 0.170794 0.0271916
0.0238041 0.172747 0.0266728
0.103639 0.169665 0.0398413
0.153994 0.178866 0.0289311
0.222538 0.180285 0.024445
0.296437 0.181109 0.0195773
0.379934 0.178836 0.0154269
0.466346 0.172152 0.0171969
0.558495 0.154711 0.0203861
0.664897 0.115114 0.0261692
0.78172 0.0578775 0.0363317
0.891768 0.0460059 0.0436255
0.966827 0.0495613 0.0471656
0.968353 0.0841077 0.0425116
0.946609 0.225467 0.0304265
0.928008 0.342138 0.0252232
0.910948 0.439445 0.0222782
0.904356 0.517876 0.020676
0.90312 0.583047 0.0214389
0.904418 0.646891 0.136446
0.909194 0.707362 0.286397
0.915022 0.757534 0.424063
0.920485 0.79971 0.533242
0.9252 0.831876 0.626566
0.927993 0.857633 0.715404
0.93135 0.878889 0.778363
0.0166323 0.24094 0.0281834
0.0166323 0.241382 0.0282444
0.0166476 0.24181 0.0283055
0.0166476 0.2421 0.0283513
0.0166629 0.242252 0.0283665
0.0166629 0.242405 0.028397
0.0166629 0.242542 0.0284123
0.0166629 0.242405 0.028397
0.0166476 0.241962 0.0283207
0.0421149 0.236042 0.0366522
0.15317 0.228901 0.0549325
0.213123 0.23621 0.03122
0.293217 0.235645 0.0250858
0.379675 0.233661 0.0203555
0.463004 0.231815 0.0160983
0.545998 0.22826 0.0179446
0.639475 0.216739 0.0207675
0.746151 0.197208 0.0247959
0.851499 0.171038 0.0299535
0.934051 0.164858 0.0336309
0.946136 0.228473 0.0302586
0.932601 0.312184 0.0263218
0.918517 0.397787 0.0234531
0.90573 0.473732 0.0214694
0.900145 0.53872 0.0202945
0.901167 0.597391 0.0240482
0.904097 0.657542 0.155184
0.909499 0.714244 0.297841
0.915175 0.762097 0.430884
0.920729 0.802335 0.537026
0.925338 0.833387 0.629068
0.928115 0.858595 0.716762
0.931365 0.879438 0.779034
0.0180667 0.307118 0.0350652
0.0180667 0.3075 0.0350805
0.0180819 0.307881 0.0350958
0.0180972 0.308141 0.035111
0.0180972 0.308263 0.035111
0.0180972 0.308522 0.0351263
0.0180972 0.308644 0.0351415
0.0180972 0.308644 0.0351415
0.0180972 0.308522 0.0351263
0.0180667 0.307118 0.0350195
0.100618 0.294713 0.0563211
0.206027 0.290227 0.0702068
0.278233 0.298573 0.0348211
0.373846 0.29543 0.0291752
0.462348 0.294728 0.0202945
0.542412 0.295796 0.016846
0.623728 0.296452 0.018555
0.7187 0.296208 0.0207828
0.816907 0.293263 0.0235142
0.902129 0.300511 0.0257877
0.928862 0.337072 0.0254063
0.919356 0.392935 0.0236057
0.908629 0.452628 0.0219425
0.901427 0.509438 0.0207675
0.898375 0.561044 0.0199893
0.900359 0.615488 0.0310063
0.903868 0.670466 0.178027
0.909987 0.722576 0.313436
0.915709 0.767605 0.439689
0.92105 0.805615 0.54168
0.925505 0.835325 0.632166
0.928267 0.859754 0.71841
0.931395 0.880201 0.780026
0.0198062 0.381994 0.0401007
0.0198215 0.382391 0.0401312
0.0198215 0.38265 0.0401465
0.0198215 0.38291 0.040177
0.0198215 0.383032 0.0401923
0.0198367 0.383291 0.0402075
0.0198367 0.383413 0.0402228
0.0198367 0.383551 0.040238
0.019852 0.383673 0.040238
0.019852 0.38381 0.0402533
0.019791 0.38143 0.040116
0.172122 0.361257 0.085832
0.268589 0.362478 0.0892195
0.358068 0.370748 0.0388647
0.456352 0.368627 0.033875
0.540551 0.369299 0.0213169
0.615885 0.375235 0.0173953
0.700069 0.384573 0.0187839
0.785595 0.392966 0.0204166
0.870604 0.404837 0.0221103
0.913161 0.42681 0.0225986
0.906996 0.463661 0.0216831
0.902068 0.503883 0.0208591
0.899947 0.545922 0.0202029
0.898009 0.586892 0.0197299
0.900801 0.636179 0.0636454
0.904433 0.685664 0.205066
0.910658 0.732677 0.332448
0.916426 0.77438 0.450401
0.921477 0.809796 0.547478
0.92575 0.837781 0.636164
0.928481 0.861357 0.720546
0.931441 0.881178 0.781308
0.0219577 0.460151 0.0448005
0.0219577 0.460395 0.0448005
0.0219577 0.460624 0.0448157
0.021973 0.460746 0.0448157
0.021973 0.46099 0.0448157
0.021973 0.461112 0.044831
0.0219883 0.461234 0.044831
0.0219883 0.461357 0.044831
0.0219883 0.461479 0.044831
0.0219883 0.461479 0.044831
0.0219883 0.461357 0.044831
0.0225681 0.456687 0.050248
0.247028 0.434714 0.123781
0.344564 0.43949 0.104097
0.443214 0.447028 0.0452888
0.535241 0.447578 0.0420233
0.612161 0.451286 0.0261234
0.692378 0.461418 0.0180667
0.769162 0.472389 0.0189059
0.846662 0.486275 0.0200961
0.902373 0.501228 0.0209049
0.900282 0.524468 0.0205081
0.899367 0.551553 0.0201114
0.897902 0.581476 0.0197757
0.899306 0.618677 0.0275578
0.902007 0.660304 0.108904
0.905653 0.703334 0.236469
0.911681 0.744823 0.355627
0.917311 0.782574 0.463172
0.922042 0.814954 0.554513
0.926101 0.841031 0.641321
0.928771 0.863386 0.723323
0.931655 0.88246 0.782681
0.024155 0.533074 0.057969
0.0241703 0.533272 0.0580453
0.0241703 0.533364 0.0580758
0.0241703 0.533455 0.0581216
0.0241703 0.533455 0.0581216
0.0241703 0.533562 0.0581521
0.0241703 0.533654 0.0581979
0.0241703 0.533654 0.0581979
0.0241703 0.533654 0.0581979
0.0241703 0.533654 0.0581979
0.0241703 0.533455 0.0581216
0.024155 0.533074 0.057969
0.114 0.521355 0.0982376
0.344991 0.507393 0.165682
0.437034 0.517113 0.122621
0.526375 0.523613 0.0692454
0.607248 0.524422 0.0772259
0.68838 0.529961 0.0609751
0.763409 0.537728 0.0248569
0.829114 0.549035 0.0191806
0.886641 0.56109 0.0198062
0.897826 0.576608 0.0198215
0.898344 0.597116 0.0210117
0.899519 0.623438 0.0328679
0.901518 0.65333 0.0792248
0.904738 0.687053 0.161471
0.908644 0.723568 0.271427
0.912917 0.759091 0.382498
0.918532 0.792401 0.480125
0.922728 0.821118 0.562753
0.926513 0.844938 0.647334
0.929107 0.865827 0.726558
0.932036 0.88394 0.784054
0.0260624 0.601511 0.098146
0.0260624 0.601511 0.098146
0.0260777 0.601602 0.0982071
0.0260777 0.601602 0.0982071
0.0260777 0.601602 0.0982071
0.0260777 0.601602 0.0982071
0.0260777 0.601602 0.0982071
0.0260777 0.601602 0.0982071
0.0260777 0.601602 0.0982071
0.0260624 0.601404 0.0980697
0.0260624 0.601099 0.0978561
0.0260471 0.60058 0.0975052
0.0259861 0.598764 0.0980087
0.325765 0.575906 0.183032
0.453483 0.57319 0.213352
0.525673 0.5832 0.156039
0.601221 0.588312 0.125231
0.682185 0.590143 0.135256
0.757961 0.596048 0.131167
0.820478 0.603616 0.102296
0.871626 0.616892 0.0590982
0.899901 0.631693 0.0420691
0.900908 0.647334 0.0656138
0.902968 0.667353 0.110262
0.905852 0.690669 0.159792
0.90927 0.716442 0.211322
0.911925 0.745663 0.309407
0.915267 0.77525 0.410437
0.920256 0.803479 0.498299
0.923827 0.828199 0.571389
0.927031 0.849714 0.654536
0.929549 0.86891 0.730648
0.932555 0.885954 0.78587
0.0381628 0.672587 0.1626
0.0381628 0.672587 0.1626
0.0381628 0.672587 0.1626
0.0381628 0.672587 0.1626
0.0381628 0.672587 0.1626
0.0381018 0.67248 0.162493
0.0381018 0.67248 0.162493
0.0380255 0.672374 0.162387
0.0379034 0.672175 0.162173
0.0377661 0.671962 0.161944
0.0375067 0.671534 0.161517
0.0370336 0.670802 0.160739
0.0363775 0.669764 0.159655
0.271885 0.653834 0.183337
0.472114 0.637217 0.267567
0.541848 0.641535 0.268757
0.602792 0.651713 0.206088
0.679042 0.655146 0.19147
0.752697 0.658396 0.201389
0.813504 0.664317 0.20235
0.862272 0.673609 0.187915
0.899702 0.685908 0.158587
0.906722 0.697398 0.173632
0.908766 0.711482 0.199298
0.911208 0.727962 0.228656
0.914092 0.746548 0.259083
0.915557 0.769329 0.349844
0.917998 0.792706 0.439231
0.92221 0.815763 0.518273
0.92517 0.836576 0.585061
0.927932 0.85568 0.661555
0.930083 0.87274 0.735592
0.93315 0.888289 0.7879
0.223713 0.733242 0.216526
0.223713 0.733242 0.216526
0.223438 0.733135 0.216419
0.223178 0.733028 0.216312
0.222904 0.732921 0.216205
0.222644 0.732799 0.216098
0.22237 0.732692 0.215991
0.221836 0.732479 0.215793
0.221302 0.73225 0.215579
0.220249 0.731807 0.215152
0.218647 0.731151 0.214527
0.216526 0.730266 0.213687
0.213336 0.728954 0.212436
0.263478 0.723033 0.214115
0.478782 0.70518 0.295308
0.563287 0.700023 0.34406
0.620829 0.706676 0.322621
0.682475 0.715938 0.264088
0.750957 0.718486 0.255344
0.810437 0.721752 0.265614
0.856641 0.726467 0.268299
0.892622 0.734127 0.258564
0.913558 0.743008 0.253285
0.914916 0.751781 0.267689
0.916655 0.762875 0.285161
0.918624 0.77612 0.30631
0.919387 0.793439 0.390585
0.921157 0.810651 0.468116
0.924468 0.828824 0.537163
0.92665 0.846128 0.601862
0.928985 0.862547 0.671778
0.930724 0.877104 0.741039
0.933913 0.891249 0.790478
0.331212 0.789044 0.27039
0.330983 0.788922 0.270268
0.330755 0.7888 0.270146
0.330526 0.788678 0.270024
0.330297 0.788571 0.269902
0.329854 0.788327 0.269657
0.329397 0.788083 0.269398
0.328939 0.787854 0.269154
0.328267 0.787488 0.268788
0.327138 0.786892 0.268162
0.325551 0.786053 0.267308
0.323278 0.784863 0.266072
0.320546 0.783429 0.264591
0.328527 0.779248 0.2645
0.492683 0.766049 0.317769
0.588479 0.755566 0.393057
0.649287 0.756024 0.40647
0.699611 0.762966 0.367498
0.755749 0.768414 0.320943
0.808652 0.771099 0.314214
0.853101 0.774044 0.322438
0.888029 0.777493 0.326207
0.915969 0.782803 0.31812
0.920684 0.78851 0.324117
0.921843 0.795758 0.334173
0.922744 0.804471 0.352667
0.923171 0.81648 0.426963
0.924086 0.828534 0.496162
0.926894 0.842557 0.557336
0.928389 0.856504 0.620661
0.930098 0.870146 0.685969
0.931807 0.882185 0.746746
0.934813 0.894743 0.793439
0.409613 0.83331 0.317327
0.409201 0.833051 0.317037
0.408988 0.832929 0.316899
0.408576 0.832654 0.316625
0.408362 0.832532 0.316487
0.40795 0.832273 0.316213
0.407538 0.831998 0.315923
0.406912 0.831617 0.315511
0.406073 0.831083 0.314946
0.404822 0.830304 0.314107
0.403357 0.829374 0.31313
0.401282 0.828061 0.311727
0.398566 0.826368 0.309911
0.414755 0.820706 0.310094
0.527642 0.811841 0.350515
0.618814 0.801373 0.420676
0.680446 0.799313 0.451484
0.72604 0.80116 0.446494
0.767208 0.807309 0.406256
0.811917 0.810117 0.367926
0.852064 0.812818 0.363409
0.885008 0.814527 0.367651
0.911864 0.816983 0.366598
0.925826 0.820447 0.36611
0.926452 0.824369 0.370138
0.926406 0.829587 0.395407
0.926497 0.837797 0.461555
0.926863 0.846159 0.524163
0.92929 0.856718 0.57995
0.930282 0.867384 0.640955
0.931273 0.878264 0.702052
0.933364 0.887816 0.755718
0.935882 0.898863 0.79678
0.460761 0.866697 0.348669
0.460365 0.866438 0.348424
0.459983 0.866178 0.34818
0.459785 0.866041 0.348058
0.459403 0.865782 0.347814
0.459007 0.865522 0.347585
0.458625 0.865263 0.347326
0.457847 0.864744 0.346853
0.457069 0.86421 0.346365
0.456092 0.863569 0.345754
0.45452 0.862516 0.344793
0.452552 0.861204 0.343572
0.450187 0.859632 0.342123
0.497932 0.851331 0.348074
0.576104 0.844297 0.386297
0.655985 0.835859 0.444114
0.712459 0.832563 0.481254
0.752239 0.83183 0.489723
0.785122 0.835279 0.470054
0.820005 0.839643 0.428748
0.853483 0.842313 0.402594
0.88336 0.843351 0.397711
0.90898 0.844373 0.396582
0.929427 0.846693 0.391714
0.930571 0.848737 0.391821
0.929625 0.852934 0.437125
0.929808 0.85716 0.498405
0.93022 0.86424 0.552041
0.931609 0.870665 0.606058
0.932143 0.878538 0.66334
0.933349 0.886519 0.71809
0.935088 0.894072 0.766049
0.937133 0.903395 0.803265
0.502724 0.889845 0.360647
0.50251 0.889723 0.360586
0.502083 0.889479 0.360464
0.501671 0.88925 0.360357
0.501244 0.889006 0.360235
0.500816 0.888777 0.360113
0.500404 0.888533 0.360006
0.499763 0.888167 0.359823
0.498909 0.887694 0.359594
0.497642 0.886976 0.359243
0.496147 0.886152 0.358831
0.494224 0.885069 0.358312
0.52575 0.878325 0.363561
0.576226 0.873533 0.381384
0.639078 0.867857 0.419455
0.699458 0.862058 0.469352
0.744732 0.858732 0.503227
0.77705 0.85745 0.516014
0.804166 0.858793 0.511513
0.831479 0.862638 0.481315
0.858198 0.865263 0.443656
0.884001 0.867002 0.421698
0.907546 0.867857 0.412619
0.927153 0.868849 0.400076
0.933349 0.869444 0.418677
0.933043 0.872114 0.483803
0.932937 0.874907 0.537011
0.933074 0.879774 0.583642
0.934112 0.88333 0.63621
0.934661 0.889479 0.68603
0.935592 0.894713 0.735027
0.936889 0.901045 0.777447
0.938491 0.908232 0.810941
0.537163 0.906416 0.426993
0.536889 0.906294 0.426169
0.536339 0.906081 0.424521
0.535805 0.905852 0.422873
0.535531 0.905745 0.422049
0.534981 0.905516 0.420401
0.534447 0.905303 0.418738
0.533623 0.904967 0.416251
0.532525 0.904524 0.412924
0.54078 0.900771 0.406317
0.559899 0.898497 0.402914
0.584649 0.897261 0.402625
0.618769 0.892638 0.409125
0.659541 0.889204 0.425208
0.705348 0.885359 0.458625
0.744839 0.881529 0.494789
0.775784 0.878294 0.517021
0.8 0.877333 0.525338
0.822721 0.878172 0.520745
0.84477 0.880873 0.489799
0.865675 0.88278 0.46508
0.887663 0.884352 0.481193
0.907988 0.885588 0.452689
0.925078 0.885832 0.428504
0.936645 0.886961 0.458885
0.935866 0.887831 0.521355
0.935531 0.890288 0.572
0.936339 0.892073 0.620737
0.936782 0.895598 0.668254
0.937087 0.899687 0.710475
0.937804 0.902724 0.752712
0.938689 0.908461 0.789471
0.940505 0.913252 0.819242
0.597665 0.914366 0.488136
0.602243 0.91429 0.486625
0.60647 0.914153 0.486046
0.610132 0.913848 0.484993
0.614115 0.913436 0.484642
0.61825 0.912551 0.483879
0.623484 0.911528 0.483268
0.631189 0.910369 0.482918
0.641032 0.909285 0.483589
0.653162 0.908125 0.484947
0.668284 0.906767 0.487709
0.686854 0.905501 0.492454
0.709957 0.903609 0.501656
0.734249 0.901183 0.515175
0.759396 0.898939 0.528115
0.782132 0.895949 0.538643
0.802472 0.894408 0.543816
0.820554 0.893446 0.543359
0.839994 0.894133 0.530419
0.857313 0.895552 0.492836
0.873549 0.896437 0.483238
0.891829 0.897368 0.44329
0.908965 0.898802 0.460792
0.924208 0.900008 0.462364
0.936553 0.900938 0.518776
0.938155 0.901991 0.570764
0.938155 0.902296 0.619562
0.939315 0.903716 0.663737
0.939132 0.906783 0.700618
0.939452 0.908431 0.737133
0.940368 0.910307 0.770947
0.941192 0.915663 0.802472
0.942596 0.918288 0.828183
0.703517 0.919463 0.544961
0.706035 0.919448 0.545357
0.708614 0.919264 0.545861
0.711147 0.919081 0.546349
0.71368 0.918898 0.546853
0.71606 0.918593 0.547051
0.71931 0.918395 0.547799
0.723461 0.917983 0.548775
0.72871 0.917281 0.550271
0.735485 0.916503 0.552972
0.74377 0.91548 0.55613
0.75407 0.914382 0.560342
0.766766 0.91339 0.566644
0.781064 0.911971 0.575616
0.796109 0.910246 0.585779
0.811444 0.908995 0.596704
0.826932 0.908064 0.60705
0.842527 0.907057 0.614725
0.857511 0.906096 0.618463
0.872007 0.906371 0.616602
0.885237 0.907408 0.605005
0.899519 0.909422 0.589014
0.913329 0.91107 0.578851
0.925414 0.911727 0.580072
0.936477 0.912367 0.600916
0.941573 0.912459 0.637995
0.942245 0.913008 0.675212
0.941909 0.914855 0.708003
0.941695 0.915297 0.735546
0.942565 0.915938 0.762646
0.943145 0.918135 0.791348
0.943603 0.921401 0.815656
0.944854 0.923201 0.837201
0.774075 0.919875 0.542077
0.775464 0.919829 0.543908
0.776791 0.919799 0.545663
0.778134 0.919768 0.547326
0.779461 0.919738 0.54905
0.780774 0.919692 0.550774
0.782483 0.919661 0.553017
0.78471 0.9196 0.555795
0.787549 0.919539 0.559442
0.791104 0.919707 0.567025
0.795651 0.920043 0.577768
0.801312 0.920424 0.590951
0.808606 0.920623 0.603555
0.817594 0.920562 0.614511
0.827893 0.920348 0.632059
0.839033 0.919539 0.655833
0.850629 0.91809 0.667475
0.862379 0.917296 0.682597
0.874067 0.917128 0.695155
0.885359 0.917266 0.701335
0.895964 0.917815 0.703365
0.907317 0.918517 0.695537
0.918013 0.918959 0.686198
0.928191 0.919493 0.681331
0.938094 0.920348 0.685679
0.94493 0.922423 0.701549
0.944427 0.922621 0.72398
0.943984 0.922255 0.744305
0.944442 0.922103 0.761166
0.945418 0.922576 0.787518
0.94548 0.925475 0.810407
0.945739 0.926528 0.829038
0.946838 0.927672 0.846265
0.815915 0.923232 0.642084
0.816724 0.923201 0.642756
0.817594 0.923156 0.643702
0.818387 0.923125 0.644556
0.819272 0.923079 0.645426
0.820142 0.923049 0.646372
0.821241 0.922988 0.647517
0.822629 0.922927 0.648951
0.824506 0.92285 0.65095
0.826917 0.922728 0.653452
0.829969 0.922591 0.656641
0.833829 0.922408 0.660609
0.838849 0.922164 0.666316
0.845121 0.921843 0.673609
0.852674 0.921462 0.682612
