BBLuts/BB_104_0370_LUT.cube
TITLE "Generated by Resolve"
LUT_3D_SIZE 9
0 0 0
0 0 0
0.122576 0 0
0.359182 0 0
0.637583 0 0.254658
0.762692 0 0.539773
0.765637 0.422339 0.559701
0.746014 0.713161 0.377584
0.739544 0.782269 0.614786
0 0.0144045 0
0 0.0230411 0
0.130556 0.00486763 0
0.370047 0 0
0.639048 0 0.258305
0.762692 0 0.539773
0.763714 0.476432 0.558114
0.746105 0.716213 0.330724
0.739528 0.782589 0.614008
0 0.155184 0
0 0.15877 0
0.0876936 0.158511 0
0.373571 0.127535 0
0.641535 0 0.261997
0.762692 0 0.539391
0.761151 0.534249 0.554772
0.746502 0.721065 0.140017
0.739498 0.783093 0.612726
0 0.418128 0
0 0.419257 0
0 0.419898 0
0.296651 0.428672 0
0.64329 0.417548 0.248646
0.765118 0.436423 0.557168
0.754269 0.616983 0.536339
0.745632 0.731807 0
0.739406 0.784543 0.608743
0 0.677867 0
0 0.677821 0
0 0.677562 0
0 0.675883 0
0.593225 0.675837 0
0.731701 0.681315 0.317266
0.747082 0.710307 0.0690013
0.744335 0.754238 0
0.739239 0.788403 0.595331
0 0.78996 0
0 0.789502 0
0 0.788724 0
0 0.786374 0
0.55555 0.778744 0
0.701869 0.77203 0
0.74313 0.773114 0
0.742519 0.782971 0
0.739101 0.797238 0.54638
0 0.823438 0.00421149
0 0.823117 0.00416571
0 0.822644 0.00408942
0.497917 0.817823 0
0.625757 0.811917 0
0.694972 0.808255 0
0.737026 0.806165 0
0.740795 0.806561 0
0.738048 0.807996 0.583551
0.675135 0.816907 0
0.676005 0.816907 0
0.677394 0.816907 0
0.681361 0.816907 0
0.691386 0.816922 0
0.710155 0.816983 0
0.732433 0.817121 0
0.740414 0.817487 0
0.73756 0.814923 0.659922
0.721172 0.814847 0.686961
0.721263 0.814847 0.686992
0.721416 0.814847 0.687007
0.721889 0.814847 0.687129
0.723201 0.814862 0.687434
0.726558 0.814878 0.688334
0.733043 0.814908 0.690837
0.738796 0.814939 0.696773
0.739605 0.814984 0.710491
0 0 0.0266117
0 0 0.0269169
0.132158 0 0.0305486
0.361212 0 0.0386816
0.637461 0 0.271763
0.762692 0 0.541299
0.765972 0.41352 0.561059
0.745769 0.712383 0.4215
0.739544 0.782269 0.622415
0 0.00315862 0.013611
0.0170138 0.0130617 0.0112459
0.146136 0 0.021622
0.366415 0 0.0265049
0.638148 0 0.264271
0.762692 0 0.540841
0.763943 0.469718 0.559457
0.745739 0.715343 0.394354
0.739513 0.782574 0.621744
0 0.146044 0
0 0.149096 0
0.102754 0.149187 0
0.371939 0.117983 0
0.639796 0 0.258061
0.762692 0 0.539437
0.761349 0.530388 0.556344
0.745892 0.720043 0.321416
0.739483 0.783078 0.620645
0 0.413794 0
0 0.414862 0
0 0.41529 0
0.309239 0.42359 0
0.643168 0.413123 0.249531
0.765316 0.431128 0.55729
0.754406 0.615702 0.538033
0.745663 0.731441 0
0.739391 0.784527 0.617227
0 0.677043 0
0 0.676966 0
0 0.676707 0
0 0.674983 0
0.594995 0.675029 0
0.731777 0.680735 0.324361
0.747158 0.710109 0.0960861
0.744335 0.754116 0
0.739178 0.788357 0.606027
0 0.789807 0
0 0.789334 0
0 0.788556 0
0 0.786206 0
0.5579 0.778576 0
0.702052 0.771954 0
0.74313 0.773053 0
0.742519 0.782925 0
0.739086 0.797192 0.549371
0 0.823377 0.00419623
0 0.823072 0.00415045
0 0.822599 0.00407416
0.501884 0.817685 0
0.626261 0.811872 0
0.695079 0.80824 0
0.737057 0.806149 0
0.740795 0.806546 0
0.738048 0.807996 0.583474
0.675258 0.816907 0
0.676143 0.816907 0
0.677531 0.816907 0
0.681483 0.816907 0
0.691463 0.816922 0
0.710201 0.816983 0
0.732433 0.817121 0
0.740414 0.817487 0
0.73756 0.814923 0.659907
0.721187 0.814847 0.686961
0.721279 0.814847 0.686992
0.721431 0.814847 0.687007
0.721904 0.814847 0.687114
0.723217 0.814862 0.687434
0.726574 0.814878 0.688334
0.733059 0.814908 0.690837
0.738796 0.814939 0.696773
0.739605 0.814984 0.710491
0.0122988 0.00750744 0.169268
0.0123445 0.00756847 0.169451
0.136858 0.00723278 0.170581
0.374517 0 0.170871
0.637293 0 0.304601
0.762692 0 0.543618
0.766537 0.397894 0.564492
0.74548 0.711254 0.477317
0.739559 0.7823 0.632868
0.0115969 0.00653086 0.165652
0.0116579 0.00662242 0.165972
0.155169 0.00598154 0.166964
0.372992 0 0.16759
0.638682 0 0.305776
0.762692 0 0.543435
0.764416 0.456779 0.562951
0.745373 0.714153 0.461265
0.739528 0.782605 0.632334
0 0.15639 0.13489
0 0.158083 0.134249
0.123827 0.153567 0.134112
0.360937 0.133761 0.147189
0.637873 0 0.30161
0.762692 0 0.542901
0.761791 0.522225 0.560037
0.745266 0.718669 0.428641
0.739498 0.783108 0.631434
0 0.403006 0
0 0.404227 0
0 0.404852 0
0.313603 0.412482 0
0.640513 0.403113 0.280232
0.765896 0.415488 0.559853
0.754757 0.61239 0.543923
0.745724 0.730877 0
0.739406 0.784543 0.628672
0 0.675319 0
0 0.675258 0
0 0.674983 0
0 0.673243 0
0.596658 0.673381 0
0.731746 0.679408 0.336156
0.747127 0.709361 0.226291
0.744381 0.753796 0
0.739147 0.788327 0.619898
0 0.789532 0
0 0.789059 0
0 0.788296 0
0 0.785946 0
0.561563 0.778286 0
0.702342 0.771801 0
0.743145 0.772961 0
0.742519 0.782879 0
0.738766 0.796887 0.58677
0 0.823285 0.00418097
0 0.82298 0.0041352
0 0.822507 0.0040589
0.507988 0.817456 0
0.627085 0.81181 0
0.695262 0.808209 0
0.737087 0.806134 0
0.740795 0.806546 0
0.738048 0.80798 0.583368
0.675471 0.816907 0
0.676341 0.816907 0
0.677729 0.816907 0
0.681651 0.816907 0
0.6916 0.816922 0
0.710277 0.816983 0
0.732464 0.817121 0
0.740414 0.817487 0
0.73756 0.814923 0.659892
0.721202 0.814847 0.686961
0.721309 0.814847 0.686976
0.721462 0.814847 0.687007
0.72192 0.814847 0.687114
0.723247 0.814862 0.687419
0.726589 0.814878 0.688334
0.733059 0.814908 0.690822
0.738796 0.814939 0.696773
0.739605 0.814984 0.710491
0.145068 0.181491 0.392599
0.145235 0.181704 0.392737
0.145327 0.181827 0.392813
0.366674 0.176455 0.390661
0.650462 0.125154 0.430121
0.762692 0 0.558007
0.766979 0.387594 0.58407
0.745007 0.708568 0.572061
0.739757 0.782528 0.65539
0.142641 0.178531 0.390585
0.142855 0.178805 0.390768
0.185031 0.17882 0.390845
0.379126 0.172732 0.388479
0.64918 0.121492 0.427466
0.762692 0 0.557656
0.765118 0.439643 0.582925
0.744793 0.711467 0.568063
0.739727 0.782834 0.655039
0.134417 0.215656 0.385931
0.13434 0.218601 0.386007
0.19266 0.216587 0.386435
0.383871 0.166964 0.384833
0.645365 0.117556 0.422187
0.762692 0 0.557015
0.762661 0.505379 0.580789
0.744488 0.715908 0.560922
0.739696 0.783322 0.654475
0.0750591 0.391272 0.343557
0.0750896 0.392752 0.343679
0.0756542 0.393881 0.344289
0.332036 0.396643 0.352667
0.631251 0.386374 0.403754
0.767254 0.37763 0.573114
0.755703 0.603113 0.568353
0.743832 0.727626 0.532647
0.739574 0.784756 0.65275
0 0.667979 0
0 0.667964 0
0 0.667765 0
0 0.666178 0
0.594751 0.666697 0
0.730404 0.673716 0.426596
0.746212 0.705211 0.439307
0.744533 0.752972 0
0.739269 0.788495 0.647501
0 0.7888 0
0 0.788327 0
0 0.787549 0
0 0.785214 0
0.561791 0.7776 0
0.702022 0.771176 0
0.743191 0.772457 0
0.742626 0.782605 0
0.738628 0.796765 0.630762
0 0.822995 0.0041352
0 0.822705 0.00408942
0.0690013 0.824048 0.00688182
0.524178 0.816815 0
0.62948 0.811627 0
0.695811 0.808133 0
0.737209 0.806073 0
0.740795 0.8065 0
0.738048 0.80798 0.58291
0.676127 0.816907 0
0.676982 0.816907 0
0.67834 0.816907 0
0.6822 0.816907 0
0.692027 0.816922 0
0.710491 0.816983 0
0.732525 0.817121 0
0.740414 0.817487 0
0.73756 0.814923 0.659815
0.721279 0.814847 0.686946
0.72137 0.814847 0.686961
0.721523 0.814847 0.686992
0.721996 0.814847 0.687114
0.723293 0.814862 0.687419
0.726635 0.814878 0.688319
0.733089 0.814908 0.690806
0.738796 0.814939 0.696757
0.739605 0.814984 0.710491
0.505058 0.57435 0.638941
0.505135 0.574426 0.638987
0.505257 0.574533 0.639048
0.510307 0.573617 0.638514
0.641321 0.571389 0.63856
0.759731 0.572 0.655116
0.758434 0.587777 0.661295
0.745464 0.707103 0.665171
0.740688 0.783536 0.690715
0.504372 0.573739 0.638575
0.504448 0.5738 0.638621
0.504601 0.573953 0.638697
0.510796 0.572869 0.638041
0.644205 0.570809 0.638331
0.759777 0.571283 0.654826
0.758282 0.588815 0.660533
0.74519 0.709957 0.664378
0.740658 0.783856 0.690547
0.503273 0.572732 0.637964
0.503365 0.572824 0.638025
0.503517 0.572961 0.638102
0.511742 0.571618 0.637308
0.64596 0.569726 0.637781
0.759854 0.570047 0.654322
0.757885 0.591897 0.659205
0.744793 0.71429 0.663142
0.740612 0.784344 0.690272
0.496376 0.571359 0.634394
0.496391 0.571481 0.634409
0.496376 0.571588 0.634409
0.50631 0.570397 0.633829
0.64506 0.567361 0.634928
0.759899 0.568414 0.651453
0.75523 0.614099 0.654185
0.743786 0.725643 0.659464
0.74049 0.785779 0.689418
0.436088 0.661112 0.609979
0.43621 0.661295 0.610056
0.436408 0.661341 0.610147
0.437217 0.660533 0.610498
0.597574 0.655329 0.611475
0.72636 0.663615 0.625513
0.7458 0.698466 0.634318
0.741863 0.749249 0.648432
0.740139 0.789517 0.686976
0 0.78703 0
0 0.786587 0
0 0.785824 0
0 0.783505 0
0.549996 0.776196 0
0.697887 0.769451 0
0.741039 0.768978 0.534127
0.739727 0.779339 0.613535
0.739391 0.797665 0.680262
0 0.822599 0.00407416
0 0.822293 0.00402838
0.146609 0.823972 0.00709544
0.519905 0.816571 0
0.626474 0.811322 0
0.693248 0.807797 0
0.734752 0.805844 0
0.741299 0.806714 0
0.738231 0.808225 0.662776
0.678035 0.816892 0
0.678859 0.816892 0
0.680156 0.816892 0
0.683848 0.816892 0
0.693263 0.816922 0
0.711116 0.816983 0
0.732738 0.817105 0
0.740414 0.817487 0
0.73756 0.814923 0.659648
0.721492 0.814847 0.686931
0.721584 0.814847 0.686946
0.721736 0.814847 0.686976
0.722194 0.814847 0.687083
0.723491 0.814862 0.687388
0.726772 0.814878 0.688289
0.733166 0.814908 0.690791
0.738796 0.814939 0.696727
0.739605 0.814984 0.710491
0.641062 0.705272 0.738827
0.641077 0.705272 0.738842
0.641093 0.705287 0.738857
0.641108 0.705318 0.738872
0.649042 0.7019 0.73608
0.750393 0.699214 0.735683
0.750378 0.699794 0.736141
0.748592 0.713146 0.730953
0.743038 0.78526 0.727703
0.641032 0.705226 0.738796
0.641032 0.705226 0.738796
0.641032 0.705242 0.738811
0.641062 0.705272 0.738827
0.649821 0.701778 0.735973
0.750393 0.699168 0.735637
0.750393 0.699733 0.736095
0.748394 0.714977 0.73051
0.743008 0.785595 0.727611
0.640955 0.70515 0.738735
0.640955 0.70515 0.738735
0.64097 0.705165 0.738735
0.640986 0.70518 0.738766
0.651179 0.701579 0.735821
0.750393 0.699077 0.735576
0.750393 0.699657 0.736034
0.748058 0.718059 0.729809
0.742962 0.786114 0.727459
0.640726 0.70489 0.738521
0.640742 0.704906 0.738521
0.640742 0.704906 0.738537
0.640574 0.704707 0.738369
0.654704 0.701076 0.735424
0.750393 0.698802 0.735363
0.750408 0.698421 0.735073
0.747082 0.727489 0.727855
0.742824 0.78764 0.727031
0.633494 0.70045 0.732006
0.633463 0.700465 0.731975
0.633417 0.700481 0.731945
0.633082 0.700252 0.73164
0.647166 0.698009 0.730037
0.74847 0.696681 0.73019
0.748837 0.706615 0.727474
0.744961 0.750195 0.723445
0.742458 0.791608 0.725811
0.604105 0.780697 0.710735
0.604135 0.780484 0.71075
0.604196 0.780056 0.710781
0.604425 0.778363 0.710918
0.614954 0.773159 0.71104
0.69633 0.767636 0.711452
0.740948 0.770291 0.713466
0.742245 0.781704 0.715602
0.74168 0.800031 0.722866
0.580575 0.8159 0.688014
0.582422 0.815534 0.688121
0.585595 0.814969 0.688273
0.596674 0.813352 0.688594
0.63331 0.809949 0.689311
0.687907 0.806455 0.691936
0.728237 0.8047 0.697139
0.739956 0.805844 0.704463
0.74052 0.810773 0.717174
0.67509 0.814755 0.649989
0.675822 0.814755 0.65008
0.676982 0.814755 0.650233
0.680339 0.814755 0.650706
0.688975 0.814755 0.65211
0.705791 0.814801 0.656077
0.726802 0.814878 0.665446
0.738186 0.814923 0.682811
0.739391 0.814969 0.707118
0.722133 0.814847 0.686839
0.72221 0.814847 0.68687
0.722362 0.814847 0.686885
0.722789 0.814862 0.686992
0.724025 0.814862 0.687312
0.727184 0.814878 0.688197
0.733379 0.814908 0.6907
0.738781 0.814939 0.696651
0.739605 0.814984 0.710475
0.669978 0.738079 0.755108
0.669978 0.738079 0.755108
0.669978 0.738079 0.755108
0.669978 0.738079 0.755108
0.669978 0.738079 0.755108
0.743954 0.738048 0.755093
0.748867 0.737926 0.755032
0.748867 0.737926 0.755032
0.745846 0.780667 0.754528
0.669978 0.738079 0.755108
0.669978 0.738079 0.755108
0.669978 0.738079 0.755108
0.669978 0.738079 0.755108
0.669978 0.738079 0.755108
0.744549 0.738048 0.755093
0.748867 0.737926 0.755032
0.748867 0.737926 0.755032
0.74583 0.78114 0.754528
0.669978 0.738079 0.755108
0.669978 0.738079 0.755108
0.669978 0.738079 0.755108
0.669978 0.738079 0.755108
0.669978 0.738079 0.755108
0.745495 0.738048 0.755093
0.748867 0.737926 0.755032
0.748867 0.737926 0.755032
0.745769 0.781888 0.754513
0.669978 0.738079 0.755108
0.669978 0.738079 0.755108
0.669978 0.738079 0.755108
0.669978 0.738079 0.755108
0.669978 0.738079 0.755108
0.748287 0.738018 0.755077
0.748867 0.737926 0.755032
0.748867 0.737926 0.755032
0.745632 0.784054 0.754513
0.669978 0.738079 0.755108
0.669978 0.738079 0.755108
0.669978 0.738079 0.755108
0.669978 0.738079 0.755108
0.670344 0.738079 0.755108
0.748867 0.737926 0.755032
0.748867 0.737926 0.755032
0.748882 0.737682 0.755047
0.745296 0.78967 0.75407
0.661906 0.75903 0.754986
0.661906 0.759091 0.754986
0.661875 0.759197 0.754986
0.661784 0.759487 0.754986
0.661204 0.757855 0.755001
0.711437 0.754192 0.754879
0.747295 0.759136 0.754711
0.746075 0.777157 0.754559
0.74461 0.800671 0.751766
0.642756 0.815015 0.745388
0.642771 0.815015 0.745403
0.642802 0.815015 0.745434
0.642893 0.815015 0.745541
0.65098 0.814008 0.745861
0.691829 0.809735 0.746151
0.731014 0.807797 0.746914
0.743862 0.809018 0.747463
0.74377 0.813504 0.748394
0.6813 0.814832 0.740429
0.68191 0.814832 0.740444
0.682872 0.814832 0.740429
0.685725 0.814832 0.740444
0.693324 0.814862 0.74049
0.70898 0.814923 0.740688
0.728969 0.815045 0.741268
0.742687 0.815106 0.74255
0.743008 0.815106 0.745037
0.724468 0.814984 0.732662
0.724559 0.814984 0.732662
0.724681 0.814984 0.732662
0.725078 0.815 0.732708
0.726223 0.815 0.732784
0.729152 0.815015 0.733028
0.734966 0.815045 0.7337
0.741817 0.815076 0.7355
0.742321 0.815091 0.739635
0.669978 0.738109 0.755108
0.669978 0.738109 0.755108
0.669978 0.738109 0.755108
0.669978 0.738109 0.755108
0.669978 0.738109 0.755108
0.669978 0.738109 0.755108
0.748867 0.737926 0.755032
0.748867 0.737926 0.755032
0.748531 0.742153 0.754955
0.669978 0.738109 0.755108
0.669978 0.738109 0.755108
0.669978 0.738109 0.755108
0.669978 0.738109 0.755108
0.669978 0.738109 0.755108
0.669978 0.738109 0.755108
0.748867 0.737926 0.755032
0.748867 0.737926 0.755032
0.748531 0.742153 0.754955
0.669978 0.738109 0.755108
0.669978 0.738109 0.755108
0.669978 0.738109 0.755108
0.669978 0.738109 0.755108
0.669978 0.738109 0.755108
0.669978 0.738109 0.755108
0.748867 0.737926 0.755032
0.748867 0.737926 0.755032
0.748531 0.742153 0.754955
0.669978 0.738109 0.755108
0.669978 0.738109 0.755108
0.669978 0.738109 0.755108
0.669978 0.738109 0.755108
0.669978 0.738109 0.755108
0.669978 0.738094 0.755108
0.748867 0.737926 0.755032
0.748867 0.737926 0.755032
0.748531 0.742138 0.754955
0.669978 0.738109 0.755108
0.669978 0.738109 0.755108
0.669978 0.738109 0.755108
0.669978 0.738109 0.755108
0.669978 0.738109 0.755108
0.670451 0.738079 0.755108
0.748867 0.737926 0.755032
0.748867 0.737926 0.755032
0.748531 0.742123 0.754955
0.669978 0.738109 0.755108
0.669978 0.738109 0.755108
0.669978 0.738109 0.755108
0.669978 0.738109 0.755108
0.669978 0.738109 0.755108
0.689128 0.738079 0.755077
0.748867 0.737926 0.755032
0.748852 0.737972 0.755032
0.746471 0.771176 0.754604
0.661799 0.807767 0.754589
0.661799 0.807782 0.754589
0.661799 0.807797 0.754589
0.661768 0.807874 0.754589
0.661738 0.808087 0.754589
0.676677 0.799435 0.754589
0.736248 0.796735 0.754498
0.744595 0.800565 0.754406
0.743969 0.810361 0.75436
0.666056 0.814847 0.754299
0.666651 0.814847 0.754299
0.667659 0.814847 0.754284
0.670893 0.814832 0.754269
0.681117 0.814832 0.754223
0.703136 0.814908 0.754192
0.728908 0.815061 0.754223
0.743709 0.815305 0.754376
0.743709 0.815305 0.754376
0.72491 0.81503 0.754223
0.725002 0.81503 0.754223
0.725155 0.81503 0.754208
0.725628 0.815045 0.754223
0.726955 0.815045 0.754223
0.730297 0.815061 0.754223
0.736614 0.815091 0.754223
0.743709 0.815305 0.754376
0.743709 0.815305 0.754376
0.669963 0.738323 0.755108
0.669963 0.738323 0.755108
0.669963 0.738323 0.755108
0.669963 0.738323 0.755108
0.669963 0.738323 0.755108
0.669963 0.738323 0.755108
0.669963 0.738323 0.755108
0.748852 0.738155 0.755032
0.748333 0.744701 0.75491
0.669963 0.738323 0.755108
0.669963 0.738323 0.755108
0.669963 0.738323 0.755108
0.669963 0.738323 0.755108
0.669963 0.738323 0.755108
0.669963 0.738323 0.755108
0.669963 0.738323 0.755108
0.748852 0.738155 0.755032
0.748333 0.744717 0.75491
0.669963 0.738323 0.755108
0.669963 0.738323 0.755108
0.669963 0.738323 0.755108
0.669963 0.738323 0.755108
0.669963 0.738323 0.755108
0.669963 0.738323 0.755108
0.669963 0.738323 0.755108
0.748852 0.738155 0.755032
0.748333 0.744717 0.75491
0.669963 0.738323 0.755108
0.669963 0.738323 0.755108
0.669963 0.738323 0.755108
0.669963 0.738323 0.755108
0.669963 0.738323 0.755108
0.669963 0.738323 0.755108
0.669963 0.738323 0.755108
0.748852 0.738155 0.755032
0.748333 0.744732 0.75491
0.669963 0.738323 0.755108
0.669963 0.738323 0.755108
0.669963 0.738323 0.755108
0.669963 0.738323 0.755108
0.669963 0.738323 0.755108
0.669963 0.738323 0.755108
0.670436 0.738293 0.755108
0.748852 0.73817 0.755032
0.748333 0.744778 0.75491
0.669963 0.738323 0.755108
0.669963 0.738323 0.755108
0.669963 0.738323 0.755108
0.669963 0.738323 0.755108
0.669963 0.738323 0.755108
0.669963 0.738323 0.755108
0.693874 0.73814 0.755077
0.748837 0.738186 0.755032
0.748333 0.744854 0.75491
0.669963 0.738323 0.755108
0.669963 0.738323 0.755108
0.669963 0.738323 0.755108
0.669963 0.738323 0.755108
0.669963 0.738323 0.755108
0.669963 0.738323 0.755108
0.748867 0.737926 0.755032
0.748837 0.738231 0.755032
0.748318 0.744991 0.75491
0.659236 0.814878 0.75436
0.659236 0.814878 0.75436
0.659236 0.814878 0.75436
0.659236 0.814878 0.75436
0.659236 0.814878 0.75436
0.659236 0.814878 0.75436
0.713069 0.814969 0.754208
0.743709 0.815305 0.754376
0.743709 0.815305 0.754376
0.705745 0.814923 0.754208
0.70602 0.814923 0.754208
0.706462 0.814923 0.754192
0.707744 0.814939 0.754208
0.711284 0.814954 0.754208
0.719371 0.815 0.754208
0.731975 0.815076 0.754223
0.742794 0.815122 0.754208
0.743709 0.815305 0.754376
