BBLuts/BB_101_0180_LUT.cube
TITLE "Generated by Resolve"
LUT_3D_SIZE 9
0.0245212 0.0245212 0.0245212
0.0245212 0.0245212 0.0245212
0.258717 0.0251316 0.0253605
0.549798 0.0165866 0.0168765
0.813428 0.00224308 0.00257877
0.97911 0.012192 0.0131075
0.996933 0.604837 0.215579
0.99469 0.853071 0.568765
0.991928 0.932403 0.830076
0.0257267 0.0912642 0.0247807
0.0260166 0.103349 0.0248875
0.271763 0.0776684 0.0247196
0.560235 0.0160067 0.0162814
0.815381 0.00225834 0.00259403
0.97911 0.012192 0.0131075
0.997147 0.629221 0.199435
0.994736 0.856397 0.56669
0.991943 0.932784 0.829877
0.0275578 0.277974 0.0237888
0.0274815 0.281971 0.0236362
0.231861 0.280919 0.0243076
0.572473 0.248447 0.0176089
0.819562 0.117311 0.00479133
0.989654 0.280262 0.0385901
0.997086 0.663645 0.166674
0.994812 0.861509 0.563317
0.991958 0.93341 0.829557
0.016495 0.568322 0.00712596
0.016495 0.569345 0.0071107
0.016495 0.569894 0.00709544
0.525582 0.574395 0.0208896
0.835889 0.5664 0.0275731
0.996155 0.611399 0.0491798
0.996231 0.741741 0.0451362
0.995087 0.874846 0.553262
0.991989 0.93521 0.828611
0.0436561 0.817868 0.0262303
0.0436255 0.817807 0.0261997
0.043534 0.817502 0.0261234
0.0429389 0.815442 0.0255894
0.796231 0.81004 0.0314031
0.973617 0.816678 0.0415198
0.996963 0.851728 0.043183
0.995483 0.90135 0.556924
0.992081 0.939941 0.825742
0.0925917 0.953887 0.0715343
0.0924086 0.953323 0.0713512
0.0920882 0.952392 0.0710613
0.0911116 0.949554 0.070161
0.78616 0.9337 0.0489967
0.945922 0.925978 0.0452583
0.999039 0.927184 0.0457313
0.99556 0.934981 0.592294
0.992264 0.94995 0.822446
0.694972 0.983841 0.317845
0.71017 0.982757 0.317372
0.732052 0.981201 0.316991
0.782589 0.977615 0.317998
0.862531 0.972381 0.330968
0.940902 0.96762 0.38143
0.992187 0.963729 0.512383
0.9944 0.961212 0.681239
0.992279 0.963043 0.844251
0.911925 0.972793 0.743557
0.912963 0.972778 0.743679
0.914641 0.972763 0.743877
0.919448 0.972747 0.744503
0.931685 0.972686 0.74641
0.95494 0.97258 0.752316
0.982849 0.97232 0.769268
0.992416 0.971725 0.813565
0.992004 0.971283 0.886549
0.968261 0.971313 0.909056
0.968383 0.971313 0.909072
0.968597 0.971313 0.909102
0.969223 0.971313 0.909163
0.971023 0.971313 0.909377
0.97557 0.971313 0.910002
0.984298 0.971313 0.911864
0.991974 0.971237 0.917006
0.991989 0.971237 0.930678
0.0239872 0.0239719 0.0907607
0.0239872 0.0239567 0.0910964
0.259007 0.0250553 0.0934615
0.550301 0.0163424 0.0869917
0.81323 0.00205997 0.0786755
0.979217 0.0125582 0.130938
0.997299 0.600732 0.299474
0.994308 0.851957 0.595697
0.991897 0.932265 0.835157
0.0251011 0.0624094 0.0799268
0.0783856 0.0767376 0.0781567
0.280339 0.0249332 0.0825513
0.555688 0.0160678 0.0715038
0.814145 0.002121 0.038117
0.979156 0.0123903 0.0961013
0.997559 0.625788 0.284977
0.994339 0.855314 0.594293
0.991897 0.932647 0.834974
0.0277256 0.267781 0.0241093
0.0276646 0.271168 0.0240024
0.253742 0.270436 0.0245212
0.570397 0.23711 0.017319
0.816373 0.0779278 0.00267033
0.988602 0.25922 0.0361944
0.997543 0.661021 0.258183
0.994415 0.860441 0.592142
0.991913 0.933272 0.834684
0.016495 0.564385 0.00723278
0.0164797 0.565362 0.00720226
0.0164797 0.565759 0.007187
0.537102 0.569894 0.0208438
0.835508 0.5626 0.0276036
0.996124 0.609125 0.0491646
0.996399 0.740291 0.11223
0.994644 0.873884 0.586175
0.991943 0.935073 0.833783
0.0433509 0.816861 0.0259556
0.0433356 0.81677 0.0259251
0.0432288 0.816449 0.0258488
0.0426337 0.814343 0.0253147
0.798459 0.809079 0.0313115
0.973693 0.816022 0.0415198
0.996948 0.851392 0.0431678
0.995377 0.901091 0.565072
0.992035 0.939834 0.831067
0.0925307 0.953689 0.0714733
0.0923476 0.953124 0.0712902
0.0920119 0.952193 0.0710002
0.0910353 0.949355 0.0700999
0.787961 0.933501 0.0488746
0.946151 0.925887 0.0452583
0.999039 0.927108 0.0457313
0.99556 0.934951 0.592142
0.992264 0.94992 0.822919
0.697322 0.983658 0.317342
0.712291 0.982589 0.316915
0.733883 0.981064 0.316564
0.783795 0.977508 0.317662
0.86305 0.972335 0.330755
0.941039 0.967605 0.381277
0.992203 0.963714 0.512367
0.9944 0.961196 0.681193
0.992279 0.963043 0.844221
0.912077 0.972793 0.743526
0.91313 0.972778 0.743664
0.914794 0.972763 0.743847
0.919585 0.972747 0.744472
0.931777 0.972686 0.746395
0.955001 0.97258 0.7523
0.982864 0.97232 0.769238
0.992416 0.971725 0.813565
0.992004 0.971283 0.886534
0.968277 0.971313 0.909056
0.968399 0.971313 0.909072
0.968612 0.971313 0.909102
0.969238 0.971313 0.909163
0.971038 0.971313 0.909377
0.97557 0.971313 0.910002
0.984298 0.971313 0.911864
0.991974 0.971237 0.917006
0.991989 0.971237 0.930678
0.0246128 0.0244755 0.263951
0.0246128 0.0244755 0.264225
0.232639 0.0251316 0.264729
0.561303 0.0154574 0.25243
0.813184 0.002121 0.248753
0.979522 0.0132753 0.295995
0.997543 0.592142 0.426825
0.993774 0.850233 0.631388
0.991836 0.932036 0.842771
0.0246128 0.0244755 0.25893
0.0246128 0.0244755 0.259403
0.264881 0.0250248 0.259464
0.559853 0.0155642 0.247562
0.815045 0.00215152 0.243305
0.979507 0.0132601 0.286931
0.997833 0.618189 0.418219
0.993805 0.853635 0.630152
0.991836 0.932433 0.842603
0.0278477 0.237507 0.243671
0.0278477 0.240116 0.243229
0.239322 0.232944 0.238437
0.555398 0.205859 0.235401
0.813962 0.00215152 0.228275
0.986053 0.1897 0.282307
0.99794 0.654765 0.403311
0.993866 0.858839 0.628199
0.991852 0.933074 0.842329
0.0178378 0.55288 0.124605
0.0178531 0.55407 0.125902
0.0178683 0.554635 0.127718
0.53785 0.558572 0.144106
0.832044 0.551736 0.157122
0.996902 0.601968 0.216648
0.996963 0.736477 0.352621
0.994049 0.87245 0.622553
0.991882 0.934874 0.841505
0.0427558 0.814755 0.0254063
0.0427253 0.814664 0.025391
0.0426337 0.814343 0.0253147
0.0420386 0.812207 0.0247654
0.800336 0.80708 0.0311284
0.973571 0.814481 0.0414893
0.99675 0.850187 0.165469
0.994675 0.899916 0.607538
0.991974 0.939651 0.839033
0.0924239 0.953368 0.0713664
0.0922255 0.952804 0.0711833
0.0919051 0.951873 0.0708934
0.0909285 0.94905 0.0699931
0.790417 0.933196 0.0486763
0.946502 0.925719 0.045243
0.999039 0.927001 0.0457313
0.995575 0.93489 0.591928
0.992187 0.949752 0.831632
0.701091 0.983383 0.316564
0.715709 0.982345 0.316182
0.736828 0.980819 0.315892
0.785763 0.977356 0.317128
0.863874 0.972259 0.330404
0.941268 0.967575 0.381018
0.992264 0.963699 0.512322
0.9944 0.961196 0.681086
0.992279 0.963027 0.844175
0.912337 0.972793 0.743496
0.91339 0.972778 0.743618
0.915038 0.972763 0.743816
0.919814 0.972747 0.744442
0.93196 0.972686 0.746365
0.955093 0.97258 0.752255
0.982895 0.97232 0.769223
0.992416 0.971725 0.813565
0.992004 0.971283 0.886534
0.968292 0.971313 0.909056
0.968429 0.971313 0.909072
0.968643 0.971313 0.909102
0.969268 0.971313 0.909163
0.971069 0.971313 0.909361
0.975586 0.971313 0.909987
0.984314 0.971298 0.911864
0.991974 0.971237 0.917006
0.991989 0.971237 0.930678
0.0225528 0.0223087 0.55314
0.0225528 0.0223087 0.553292
0.0225528 0.0223087 0.553368
0.536492 0.0135958 0.54728
0.827207 9.15541e-05 0.543542
0.979141 0.0120089 0.570214
0.99733 0.556176 0.627207
0.992569 0.845228 0.715206
0.991714 0.931441 0.861723
0.0225834 0.0223392 0.550958
0.0225834 0.0223392 0.551156
0.123278 0.0222782 0.551095
0.55201 0.0127718 0.544427
0.825635 6.10361e-05 0.540978
0.979141 0.0120241 0.567605
0.997467 0.591577 0.624475
0.992569 0.848798 0.714275
0.99173 0.931838 0.861601
0.023331 0.108736 0.546349
0.0234073 0.115282 0.546517
0.162097 0.108949 0.54609
0.558114 0.0124971 0.540185
0.820829 1.5259e-05 0.536706
0.979156 0.0120699 0.562615
0.997757 0.632563 0.620188
0.992584 0.854246 0.712779
0.99173 0.932479 0.861372
0.0205386 0.507561 0.514076
0.0205081 0.509468 0.514382
0.0204776 0.510765 0.515129
0.526757 0.514977 0.525139
0.819455 0.507729 0.532906
0.997406 0.574441 0.563684
0.996445 0.721859 0.605524
0.992676 0.868421 0.708583
0.99176 0.934325 0.860731
0.0443732 0.806836 0.415381
0.0443732 0.806806 0.416266
0.0443122 0.806561 0.417594
0.0438087 0.804608 0.421118
0.796933 0.798932 0.436164
0.971054 0.806867 0.481804
0.994644 0.844007 0.569406
0.993133 0.89688 0.697765
0.991852 0.939147 0.858793
0.0921187 0.952483 0.0710918
0.0919203 0.951904 0.0709087
0.0915999 0.950973 0.0706188
0.0906081 0.948135 0.0697032
0.790265 0.932372 0.0486
0.945296 0.924193 0.259541
0.996796 0.92401 0.477531
0.994141 0.932937 0.671824
0.992035 0.949355 0.853162
0.712062 0.982544 0.314244
0.725704 0.981582 0.313985
0.745449 0.980163 0.313893
0.791791 0.976913 0.315587
0.866361 0.972061 0.329366
0.941939 0.967483 0.380255
0.992401 0.963623 0.5122
0.994415 0.961151 0.680766
0.992279 0.963012 0.844038
0.913115 0.972778 0.743389
0.914153 0.972778 0.743511
0.915785 0.972763 0.743709
0.920485 0.972747 0.744335
0.932479 0.972686 0.746258
0.955352 0.97258 0.752163
0.982971 0.97232 0.769131
0.992416 0.971725 0.813535
0.992004 0.971283 0.886488
0.968399 0.971313 0.909056
0.968536 0.971313 0.909056
0.968734 0.971313 0.909072
0.96936 0.971313 0.909148
0.971145 0.971313 0.909361
0.975662 0.971313 0.909987
0.984344 0.971313 0.911849
0.991974 0.971237 0.916991
0.991989 0.971237 0.930678
0.0183566 0.0179904 0.806012
0.0183566 0.0180056 0.806073
0.0183566 0.0180056 0.80618
0.34316 0.0155489 0.804578
0.816144 0 0.79556
0.979065 0.0111086 0.804776
0.991547 0.267521 0.828031
0.991516 0.830961 0.846937
0.991577 0.92987 0.897932
0.0183566 0.0180056 0.805493
0.0183566 0.0180056 0.805554
0.0183566 0.0180056 0.805676
0.378012 0.0146334 0.803601
0.820508 0 0.795071
0.979065 0.0111086 0.804211
0.996597 0.405905 0.831159
0.99144 0.835325 0.846296
0.991592 0.930297 0.897841
0.0183566 0.0180056 0.804639
0.0183566 0.0180056 0.804715
0.0183719 0.0180056 0.804822
0.423529 0.0131228 0.801984
0.823163 0 0.794171
0.979065 0.0110933 0.80325
0.997864 0.532235 0.829664
0.991348 0.84181 0.845365
0.991592 0.930968 0.897704
0.0213626 0.299046 0.798932
0.0213931 0.302449 0.798932
0.0214237 0.306828 0.798932
0.440223 0.299641 0.799863
0.827298 0.168521 0.794247
0.994171 0.327901 0.811749
0.997299 0.670192 0.82182
0.991211 0.858198 0.842878
0.991623 0.932906 0.897276
0.0371405 0.772778 0.775845
0.0371862 0.773037 0.775982
0.0372015 0.773114 0.77612
0.0369573 0.771771 0.776318
0.780987 0.7664 0.778958
0.962676 0.779263 0.786206
0.991852 0.826749 0.799954
0.991333 0.890318 0.837324
0.991714 0.937957 0.896071
0.0878004 0.947677 0.758358
0.0876478 0.947143 0.75845
0.0873884 0.946242 0.758587
0.0865949 0.943465 0.758999
0.76144 0.924804 0.749264
0.933181 0.915419 0.754772
0.992233 0.916762 0.778058
0.991913 0.928878 0.826459
0.991882 0.948501 0.892729
0.699168 0.978439 0.676997
0.713237 0.977417 0.676539
0.733608 0.975921 0.675959
0.780972 0.972473 0.675151
0.857466 0.967376 0.677119
0.934157 0.962783 0.689601
0.985458 0.959503 0.726024
0.992599 0.958785 0.800397
0.992096 0.962493 0.883803
0.91545 0.972778 0.743053
0.916442 0.972778 0.743175
0.917998 0.972763 0.743374
0.922499 0.972747 0.743999
0.93402 0.972686 0.745937
0.956176 0.972595 0.751858
0.983246 0.972335 0.768872
0.992416 0.971725 0.813489
0.992004 0.971283 0.886366
0.968704 0.971313 0.90901
0.968826 0.971313 0.909026
0.969024 0.971313 0.909056
0.96965 0.971313 0.909117
0.971405 0.971313 0.909316
0.97586 0.971313 0.909957
0.984451 0.971298 0.911818
0.991974 0.971237 0.916976
0.991989 0.971237 0.930678
0.0198825 0.0193332 0.947921
0.0198825 0.0193332 0.947936
0.0198672 0.0193332 0.947951
0.0198825 0.0193332 0.947982
0.727245 0 0.937331
0.980941 0.0154574 0.941009
0.980957 0.0155032 0.941695
0.994095 0.76817 0.942657
0.991485 0.925246 0.941665
0.0198825 0.0193332 0.947875
0.0198672 0.0193332 0.947875
0.0198672 0.0193332 0.94789
0.0198825 0.0193332 0.947921
0.733944 0 0.937148
0.980941 0.0154574 0.940948
0.980957 0.0154879 0.941634
0.993652 0.777264 0.941634
0.991485 0.925734 0.941619
0.0198672 0.0193332 0.947784
0.0198672 0.0193332 0.947784
0.0198825 0.0193332 0.947799
0.0198672 0.0193332 0.947814
0.744472 0 0.936858
0.980941 0.0154574 0.940841
0.980957 0.0154879 0.941543
0.993042 0.790753 0.940139
0.991501 0.926543 0.941527
0.0198672 0.0193332 0.947494
0.0198672 0.0193332 0.947494
0.0198672 0.0193179 0.947509
0.0198672 0.0193179 0.947265
0.767178 0 0.936278
0.980926 0.0154421 0.940536
0.980926 0.0154269 0.940093
0.991852 0.821805 0.93669
0.991531 0.928817 0.941268
0.0303655 0.615732 0.938186
0.0304265 0.616739 0.93817
0.0305028 0.618357 0.938125
0.0306096 0.62089 0.937713
0.765484 0.617319 0.940841
0.996963 0.641169 0.947494
0.994842 0.752758 0.938308
0.991043 0.872282 0.931609
0.991623 0.934722 0.940566
0.0859846 0.937758 0.937209
0.0859083 0.937423 0.937148
0.0857252 0.936751 0.937026
0.085008 0.934157 0.936584
0.695201 0.917082 0.926238
0.922866 0.904112 0.920256
0.988403 0.907744 0.921614
0.991455 0.923278 0.926284
0.991821 0.946532 0.938903
0.58439 0.981338 0.92221
0.609751 0.979583 0.920821
0.644678 0.977218 0.919005
0.7196 0.971756 0.915068
0.826535 0.964157 0.91078
0.919112 0.958755 0.910277
0.976043 0.956054 0.9131
0.991974 0.956756 0.920302
0.99205 0.961639 0.935439
0.907225 0.97142 0.883986
0.908232 0.97142 0.884031
0.90985 0.971405 0.884077
0.914488 0.971389 0.88423
0.92636 0.971359 0.884764
0.949157 0.971344 0.886458
0.977157 0.971344 0.891493
0.991974 0.971252 0.904311
0.991974 0.971237 0.927214
0.969573 0.971313 0.908904
0.969696 0.971313 0.908919
0.969894 0.971313 0.908949
0.970474 0.971313 0.90901
0.972168 0.971313 0.909224
0.976425 0.971313 0.90985
0.984756 0.971313 0.911727
0.991974 0.971237 0.916884
0.991989 0.971237 0.930663
0.0205539 0.0199588 0.987366
0.0205539 0.0199588 0.987366
0.0205539 0.0199588 0.987366
0.0205539 0.0199588 0.987366
0.0205539 0.0199588 0.987366
0.968093 0.0159304 0.987457
0.981796 0.0175021 0.988113
0.981796 0.0175021 0.988113
0.991226 0.905211 0.976471
0.0205539 0.0199588 0.987366
0.0205539 0.0199588 0.987366
0.0205539 0.0199588 0.987366
0.0205539 0.0199588 0.987366
0.0205539 0.0199588 0.987366
0.969131 0.0160678 0.987518
0.981796 0.0175021 0.988113
0.981796 0.0175021 0.988113
0.991241 0.906142 0.976394
0.0205539 0.0199588 0.987366
0.0205539 0.0199588 0.987366
0.0205539 0.0199588 0.987366
0.0205539 0.0199588 0.987366
0.0205539 0.0199588 0.987366
0.970764 0.0162814 0.987594
0.981796 0.0175021 0.988113
0.981796 0.0175021 0.988113
0.991257 0.907591 0.976287
0.0205539 0.0199588 0.987366
0.0205539 0.0199588 0.987366
0.0205539 0.0199588 0.987366
0.0205539 0.0199588 0.987366
0.0205539 0.0199588 0.987366
0.975586 0.0168765 0.987854
0.981796 0.0175021 0.988113
0.981796 0.0175021 0.988113
0.991302 0.911696 0.975967
0.0205539 0.0199588 0.987366
0.0205539 0.0199588 0.987366
0.0205539 0.0199588 0.987366
0.0205539 0.0199588 0.987366
0.444877 0.014374 0.985382
0.981796 0.0175021 0.988113
0.981796 0.0175021 0.988113
0.999481 0.674983 0.996841
0.99144 0.921859 0.975174
0.0645762 0.857954 0.989654
0.0646372 0.858183 0.98967
0.064744 0.858579 0.989685
0.0650797 0.859739 0.989731
0.0638285 0.855497 0.988357
0.926009 0.839323 0.979034
0.991196 0.857389 0.977172
0.99118 0.899779 0.974334
0.991714 0.939834 0.973709
0.0979782 0.990356 0.990784
0.0979019 0.989853 0.990707
0.0977798 0.989029 0.9906
0.0974289 0.986618 0.99028
0.741543 0.965454 0.974243
0.903044 0.955001 0.969375
0.972076 0.951873 0.969268
0.991943 0.953429 0.969741
0.992035 0.959625 0.971725
0.885878 0.971466 0.965087
0.887251 0.97145 0.965087
0.889433 0.971435 0.965057
0.895613 0.971389 0.965011
0.91104 0.971313 0.96492
0.939315 0.971267 0.96492
0.971389 0.971298 0.96524
0.99202 0.971237 0.966323
0.99202 0.971237 0.969253
0.966552 0.971298 0.955444
0.96669 0.971283 0.955444
0.966873 0.971298 0.955444
0.967483 0.971298 0.955474
0.969192 0.971298 0.955535
0.973541 0.971298 0.955734
0.982025 0.971298 0.956359
0.991745 0.971298 0.95819
0.992004 0.971237 0.962921
0.0199283 0.0903029 0.986496
0.0199283 0.0903029 0.986496
0.0199283 0.0903029 0.986496
0.0199283 0.0903182 0.986496
0.0199283 0.0904097 0.986496
0.0199283 0.0906081 0.986496
0.981796 0.0175021 0.988113
0.981796 0.0175021 0.988113
0.997665 0.7131 0.998444
0.0199283 0.0902571 0.986496
0.0199283 0.0902571 0.986496
0.0199283 0.0902724 0.986496
0.0199283 0.0903029 0.986496
0.0199283 0.0903792 0.986511
0.0199283 0.0905928 0.986496
0.981796 0.0175021 0.988113
0.981796 0.0175021 0.988113
0.997665 0.713069 0.998444
0.0199283 0.0901961 0.986511
0.0199283 0.0901961 0.986511
0.0199283 0.0902113 0.986511
0.0199283 0.0902419 0.986511
0.0199283 0.0903029 0.986496
0.0199283 0.0905318 0.986496
0.981796 0.0175021 0.988113
0.981796 0.0175021 0.988113
0.997665 0.713039 0.998444
0.0199283 0.0900282 0.986511
0.0199283 0.090013 0.986511
0.0199283 0.0900282 0.986511
0.0199283 0.0900587 0.986511
0.0199283 0.090135 0.986511
0.0200656 0.0550088 0.986847
0.981796 0.0175021 0.988113
0.981796 0.0175021 0.988113
0.997681 0.712932 0.998459
0.0199283 0.0894484 0.986511
0.0199283 0.0894484 0.986511
0.0199283 0.0894636 0.986511
0.0199283 0.0894942 0.986511
0.0199283 0.0895552 0.986511
0.489891 0.0126802 0.984771
0.981796 0.0175021 0.988113
0.981796 0.0175021 0.988113
0.997696 0.712581 0.998474
0.019913 0.0876631 0.986511
0.019913 0.0876631 0.986511
0.019913 0.0876631 0.986511
0.019913 0.0876783 0.986511
0.019913 0.0877699 0.986511
0.83238 0.00187686 0.981628
0.981796 0.0175021 0.988113
0.984726 0.0956436 0.990616
0.991058 0.874952 0.989517
0.0938735 0.96553 1
0.0938888 0.965545 1
0.0938888 0.965591 1
0.0939193 0.965713 1
0.0939803 0.96611 1
0.81767 0.934035 0.990707
0.973358 0.927642 0.989288
0.991592 0.934279 0.989227
0.991867 0.950347 0.989273
0.758694 0.975021 0.992386
0.765637 0.974716 0.992065
0.775998 0.974273 0.991592
0.802716 0.973266 0.990524
0.854276 0.971878 0.988983
0.916091 0.971283 0.988205
0.965148 0.971283 0.988052
0.99115 0.970382 0.988266
0.992218 0.970718 0.988357
0.958862 0.971283 0.98645
0.95903 0.971283 0.98645
0.959304 0.971283 0.98645
0.960098 0.971283 0.98645
0.962371 0.971283 0.98645
0.968002 0.971283 0.98645
0.978332 0.971298 0.986465
0.989487 0.971298 0.986557
0.99202 0.971237 0.986862
0.0275425 0.374166 0.987564
0.0275425 0.374166 0.987564
0.0275425 0.374166 0.987564
0.0275425 0.374182 0.987564
0.0275425 0.374182 0.987564
0.0275425 0.374258 0.987564
0.0275425 0.374395 0.987564
0.999207 0.387411 1
0.995544 0.749859 0.995789
0.0275425 0.374166 0.987564
0.0275425 0.374166 0.987564
0.0275425 0.374166 0.987564
0.0275425 0.374166 0.987564
0.0275425 0.374182 0.987564
0.0275425 0.374243 0.987564
0.0275425 0.374395 0.987564
0.999222 0.387747 1
0.995544 0.749889 0.995789
0.0275425 0.374151 0.987564
0.0275425 0.374151 0.987564
0.0275425 0.374151 0.987564
0.0275425 0.374166 0.987564
0.0275425 0.374166 0.987564
0.0275425 0.374243 0.987564
0.0275425 0.374365 0.987564
0.999237 0.388281 1
0.995529 0.74995 0.995773
0.0275425 0.374121 0.987564
0.0275425 0.374121 0.987564
0.0275425 0.374121 0.987564
0.0275425 0.374121 0.987564
0.0275425 0.374151 0.987564
0.0275425 0.374182 0.987564
0.0275425 0.374319 0.987564
0.999283 0.389914 1
0.995529 0.750134 0.995773
0.0275425 0.373983 0.987564
0.0275425 0.373983 0.987564
0.0275425 0.373983 0.987564
0.0275425 0.373983 0.987564
0.0275425 0.374014 0.987564
0.0275425 0.37406 0.987564
0.505913 0.355108 0.991165
0.999405 0.39501 1
0.995499 0.750652 0.995727
0.0275425 0.373617 0.987564
0.0275425 0.373617 0.987564
0.0275425 0.373617 0.987564
0.0275425 0.373648 0.987564
0.0275425 0.373648 0.987564
0.0275273 0.373678 0.987564
0.855222 0.117708 0.984985
0.999771 0.410117 1
0.995453 0.751446 0.995666
0.027512 0.372473 0.987564
0.027512 0.372473 0.987564
0.027512 0.372473 0.987564
0.027512 0.372488 0.987564
0.027512 0.372488 0.987564
0.027512 0.372534 0.987564
0.981796 0.0175021 0.988113
1 0.439628 1
0.995361 0.752941 0.99556
0.0978561 0.991882 1
0.0978561 0.991882 1
0.0978561 0.991882 1
0.0978561 0.991882 1
0.0978561 0.991882 1
0.0978561 0.991882 1
0.935851 0.963363 0.989303
0.991791 0.961288 0.989364
0.992096 0.963806 0.989303
0.921279 0.971252 0.989075
0.921874 0.971252 0.989075
0.922805 0.971252 0.989075
0.925505 0.971237 0.989075
0.932662 0.971237 0.989075
0.948058 0.971237 0.98909
0.970016 0.971267 0.989151
0.987503 0.971283 0.989181
0.992294 0.971496 0.98941
