BBLuts/BB_103_0610_LUT.cube
TITLE "Generated by Resolve"
LUT_3D_SIZE 9
0.00999466 0.0103304 0.0108949
0.00999466 0.0103304 0.0108949
0.305974 0.015198 0.0161746
0.579065 0.0102693 0.0111238
0.740261 0.0009308 0.00137331
0.840116 0.0200961 0.021622
0.829175 0.619379 0.271
0.821302 0.772671 0.624659
0.817472 0.820966 0.790921
0.00935378 0.101137 0.0122225
0.0093843 0.117021 0.0125887
0.317464 0.0848402 0.0134279
0.583841 0.00978103 0.0106203
0.741466 0.00102235 0.00146487
0.840116 0.0200961 0.021622
0.828824 0.634714 0.250309
0.821271 0.774731 0.623636
0.817472 0.821195 0.790799
0.00619516 0.337835 0.0140383
0.00596628 0.342763 0.0138857
0.26125 0.339376 0.0126497
0.581292 0.30222 0.00450141
0.736919 0.148867 0
0.83357 0.350057 0.0426947
0.828199 0.656321 0.207828
0.821241 0.777874 0.622019
0.817456 0.821576 0.7906
0 0.598245 0
0 0.598733 0
0 0.599023 0
0.554604 0.59968 0.00924697
0.734691 0.596551 0.0205234
0.829511 0.624063 0.0523842
0.826825 0.705516 0.0454719
0.821164 0.786068 0.617273
0.817456 0.822675 0.790005
0.0103914 0.754528 0.0276646
0.0103609 0.754482 0.0276341
0.0102541 0.754299 0.027512
0.00952163 0.753017 0.026688
0.706127 0.747326 0.0252232
0.811963 0.751675 0.0399939
0.825162 0.773297 0.0423743
0.82089 0.802319 0.619043
0.817426 0.825574 0.78819
0.0695659 0.838102 0.0927138
0.0693523 0.837766 0.0924697
0.0689708 0.837186 0.0920577
0.0678264 0.835447 0.0908064
0.697978 0.823407 0.0507668
0.793484 0.818784 0.0452277
0.824994 0.819593 0.0459602
0.820203 0.822843 0.638956
0.817349 0.831678 0.78613
0.640452 0.8533 0.398398
0.649683 0.852613 0.39765
0.663066 0.851621 0.396948
0.693568 0.849378 0.397803
0.741344 0.846113 0.413275
0.7879 0.843122 0.473838
0.817884 0.840513 0.600488
0.818753 0.838697 0.696376
0.81706 0.839643 0.799924
0.769406 0.845624 0.736294
0.770031 0.845624 0.736385
0.771023 0.845624 0.736507
0.773877 0.845609 0.736904
0.781155 0.845579 0.738125
0.794965 0.845518 0.741878
0.811475 0.845365 0.752667
0.817044 0.844968 0.780575
0.816663 0.844633 0.826581
0.802533 0.844617 0.840711
0.802609 0.844617 0.840726
0.802731 0.844617 0.840742
0.803113 0.844617 0.840787
0.804181 0.844617 0.840909
0.806867 0.844633 0.841306
0.812039 0.844633 0.842481
0.816587 0.844587 0.845701
0.816556 0.844587 0.854292
0.00933852 0.00981155 0.102953
0.00933852 0.00981155 0.10341
0.305913 0.0149081 0.110369
0.578897 0.00939956 0.109819
0.739528 0 0.115206
0.839261 0.018967 0.190372
0.829099 0.616602 0.376104
0.821012 0.771954 0.641047
0.817441 0.820874 0.794125
0.00917067 0.0625925 0.0884871
0.0787518 0.0814679 0.0859236
0.33167 0.0151522 0.0961318
0.581415 0.00924697 0.0890822
0.740337 0 0.0583505
0.839429 0.018967 0.143969
0.828733 0.632349 0.357656
0.820981 0.774014 0.640146
0.817426 0.821103 0.794018
0.00672923 0.325246 0.0143282
0.00654612 0.329427 0.0142367
0.287755 0.326574 0.0128634
0.580621 0.288411 0.00410468
0.73666 0.0996414 0
0.833631 0.325048 0.0397345
0.828061 0.654444 0.323705
0.82092 0.777173 0.638697
0.817426 0.821485 0.79382
0 0.596338 0
0 0.596796 0
0 0.596994 0
0.558892 0.597482 0.00915541
0.734524 0.594751 0.0205844
0.829541 0.622644 0.0523995
0.82649 0.704326 0.136187
0.820829 0.785428 0.634485
0.817411 0.822583 0.793256
0.0100252 0.753902 0.0272526
0.00999466 0.753841 0.0272221
0.00987259 0.753643 0.0271
0.00914015 0.752346 0.026276
0.707485 0.746731 0.0251011
0.812024 0.751263 0.0399939
0.825162 0.773098 0.042359
0.820798 0.802152 0.622934
0.817395 0.825498 0.791562
0.0694896 0.83798 0.0926375
0.0692607 0.837644 0.0923934
0.0688945 0.837064 0.0919661
0.0677501 0.835325 0.0907149
0.698909 0.823285 0.0505989
0.793622 0.818723 0.0452277
0.824994 0.819547 0.0459602
0.820203 0.822812 0.638849
0.817349 0.831662 0.786435
0.641886 0.853178 0.397757
0.650965 0.852506 0.397055
0.664179 0.85153 0.396414
0.694301 0.849317 0.397375
0.74165 0.846098 0.413031
0.787976 0.843122 0.473655
0.817899 0.840513 0.600473
0.818753 0.838697 0.696345
0.81706 0.839643 0.799908
0.769497 0.845624 0.736278
0.770123 0.845624 0.73637
0.771115 0.845624 0.736492
0.773968 0.845609 0.736889
0.781216 0.845579 0.738109
0.794995 0.845518 0.741863
0.81149 0.845365 0.752651
0.817044 0.844968 0.78056
0.816663 0.844633 0.826581
0.802548 0.844617 0.840711
0.802625 0.844617 0.840726
0.802747 0.844617 0.840742
0.803128 0.844617 0.840772
0.804181 0.844633 0.840909
0.806882 0.844633 0.841306
0.812039 0.844633 0.842481
0.816587 0.844587 0.845701
0.816556 0.844587 0.854292
0.0110475 0.0119478 0.327977
0.0110475 0.0119631 0.328328
0.274037 0.0150607 0.331212
0.583398 0.00842298 0.324483
0.738766 0 0.335882
0.838682 0.0194247 0.399725
0.828916 0.61088 0.530617
0.82063 0.77084 0.664118
0.817395 0.820722 0.798932
0.0110018 0.011902 0.32163
0.0110018 0.011902 0.322225
0.312978 0.0154116 0.325185
0.582742 0.00851453 0.318303
0.73991 0 0.329137
0.838697 0.0194095 0.388464
0.828504 0.627314 0.521187
0.820584 0.772931 0.663325
0.81738 0.820966 0.798825
0.00648508 0.287007 0.303624
0.00639353 0.290227 0.303105
0.270314 0.279606 0.294926
0.573495 0.248966 0.293431
0.7393 0 0.310201
0.833173 0.240452 0.3635
0.827787 0.650202 0.503426
0.820523 0.776135 0.662074
0.81738 0.821363 0.798657
0 0.590341 0.157275
0 0.590875 0.159014
0 0.591134 0.16141
0.558602 0.591638 0.176059
0.731807 0.589258 0.194903
0.829206 0.617578 0.272404
0.825696 0.701274 0.439338
0.820386 0.784482 0.658457
0.817365 0.822461 0.798138
0.00927749 0.75259 0.0264286
0.00924697 0.752544 0.0263828
0.00914015 0.752346 0.026276
0.0083772 0.751019 0.0254368
0.708644 0.745495 0.0248264
0.811978 0.750317 0.0399634
0.824262 0.771832 0.205264
0.820279 0.801343 0.648814
0.817334 0.825376 0.796582
0.0693675 0.837797 0.0925002
0.0691386 0.837446 0.0922408
0.0687724 0.836866 0.0918288
0.0676127 0.835142 0.0905776
0.700389 0.823102 0.050309
0.793835 0.818616 0.0452277
0.824994 0.819486 0.0459602
0.820218 0.822782 0.638697
0.817288 0.831556 0.791928
0.644175 0.85301 0.39675
0.653178 0.852338 0.396109
0.665965 0.851392 0.39556
0.695476 0.849226 0.396719
0.742153 0.846052 0.412604
0.788113 0.843091 0.473335
0.817945 0.840497 0.600458
0.818753 0.838697 0.696269
0.81706 0.839643 0.799878
0.76965 0.845624 0.736263
0.770275 0.845624 0.736339
0.771267 0.845624 0.736461
0.774105 0.845609 0.736873
0.781323 0.845579 0.738079
0.795041 0.845518 0.741848
0.811505 0.845365 0.752636
0.817044 0.844968 0.78056
0.816663 0.844633 0.826566
0.802563 0.844617 0.840711
0.80264 0.844617 0.840711
0.802762 0.844617 0.840742
0.803143 0.844617 0.840772
0.804211 0.844617 0.840909
0.806882 0.844633 0.841291
0.812055 0.844633 0.842481
0.816587 0.844587 0.845701
0.816556 0.844587 0.854292
0.0108949 0.0122988 0.614679
0.0108949 0.0122835 0.61474
0.0108949 0.0122988 0.614786
0.572168 0.00642405 0.614694
0.746822 0 0.617548
0.837995 0.0179446 0.631464
0.829084 0.591241 0.661753
0.819791 0.767651 0.718029
0.817288 0.820356 0.81088
0.0109102 0.0122988 0.613642
0.0109102 0.0122988 0.613748
0.141619 0.0121157 0.613794
0.578988 0.00564584 0.613565
0.745876 0 0.616373
0.83801 0.0179599 0.630182
0.828412 0.6103 0.659861
0.819715 0.769848 0.717433
0.817288 0.8206 0.810803
0.00581369 0.126131 0.611307
0.00560006 0.134554 0.611414
0.182742 0.125353 0.611032
0.581781 0.00538643 0.611719
0.742947 0 0.61442
0.83801 0.0179904 0.627741
0.827604 0.636072 0.656947
0.819623 0.77319 0.716487
0.817288 0.820981 0.810666
0 0.571176 0.601038
0 0.571771 0.60116
0 0.572183 0.601434
0.553658 0.572702 0.604089
0.723476 0.571054 0.607675
0.828916 0.599878 0.622385
0.824872 0.691814 0.647349
0.819425 0.781903 0.71368
0.817273 0.82211 0.810254
0.00817884 0.746395 0.525292
0.00817884 0.74638 0.526223
0.00810254 0.746227 0.527611
0.00746166 0.745007 0.531258
0.704616 0.739208 0.538048
0.808392 0.74432 0.578332
0.821454 0.767102 0.624964
0.819165 0.799359 0.706813
0.817227 0.825055 0.809049
0.0690013 0.837247 0.0921035
0.0687724 0.836896 0.0918441
0.0684062 0.836316 0.0914321
0.0672465 0.834592 0.0901656
0.700313 0.822599 0.0501869
0.791852 0.816892 0.324285
0.821454 0.816312 0.575097
0.819165 0.821454 0.690272
0.817151 0.831296 0.805524
0.650843 0.852476 0.393744
0.659236 0.851865 0.393301
0.671183 0.85098 0.392996
0.69897 0.848951 0.394766
0.743633 0.84593 0.411368
0.78851 0.843046 0.472389
0.818021 0.840452 0.600381
0.818769 0.838666 0.696071
0.81706 0.839628 0.799786
0.770123 0.845624 0.736187
0.770733 0.845624 0.736263
0.77171 0.845624 0.7364
0.774502 0.845609 0.736797
0.781628 0.845579 0.738018
0.795209 0.845518 0.741787
0.811551 0.845365 0.752575
0.817044 0.844968 0.780545
0.816663 0.844633 0.826535
0.802625 0.844617 0.840711
0.802701 0.844617 0.840711
0.802823 0.844617 0.840726
0.803189 0.844617 0.840772
0.804257 0.844617 0.840894
0.806928 0.844633 0.841291
0.81207 0.844633 0.842466
0.816587 0.844587 0.845701
0.816556 0.844587 0.854292
0.0105287 0.0121767 0.775357
0.0105287 0.012192 0.775387
0.010544 0.012192 0.775464
0.411994 0.00955215 0.775113
0.740398 0 0.774685
0.838071 0.0183261 0.781811
0.832822 0.333837 0.791028
0.819181 0.758801 0.801434
0.817166 0.819379 0.833646
0.0105287 0.0121767 0.775021
0.0105287 0.0121767 0.775051
0.0105287 0.0121767 0.775128
0.453178 0.0087129 0.774701
0.743053 0 0.774426
0.838071 0.0183108 0.781445
0.831525 0.494957 0.792538
0.819043 0.761471 0.801038
0.817166 0.819623 0.8336
0.0105135 0.0121614 0.774472
0.0105135 0.0121614 0.774517
0.0105135 0.0121767 0.774594
0.503136 0.00721752 0.774014
0.744656 0 0.773877
0.838056 0.0182803 0.78085
0.829541 0.580804 0.79118
0.81886 0.765454 0.800443
0.817151 0.820035 0.833509
0 0.366049 0.770459
0 0.370169 0.770489
0 0.375479 0.770504
0.499657 0.363455 0.770459
0.737484 0.21146 0.769009
0.832456 0.40441 0.780453
0.826093 0.659449 0.785672
0.818463 0.775525 0.798886
0.817136 0.821225 0.833249
0 0.725124 0.758755
0 0.725292 0.758846
0 0.725338 0.758923
0 0.724498 0.75906
0.694957 0.718853 0.758251
0.803204 0.727077 0.763088
0.819547 0.756237 0.771725
0.817899 0.795224 0.795422
0.81709 0.824308 0.832502
0.0586709 0.832853 0.748394
0.0584878 0.832517 0.748455
0.0581826 0.831968 0.748531
0.0572671 0.830259 0.748775
0.680339 0.816312 0.739849
0.783078 0.810575 0.743282
0.818051 0.811444 0.758129
0.817533 0.818814 0.788632
0.816999 0.830747 0.830427
0.641855 0.849302 0.693904
0.650385 0.848646 0.693568
0.662852 0.847715 0.693141
0.691432 0.845548 0.692546
0.737209 0.842405 0.693721
0.782956 0.839612 0.701701
0.813367 0.837598 0.725124
0.817426 0.837095 0.772213
0.816892 0.839277 0.824842
0.771511 0.845624 0.735973
0.772091 0.845624 0.736065
0.773022 0.845624 0.736187
0.775708 0.845609 0.736584
0.782544 0.845579 0.737819
0.795697 0.845518 0.741588
0.811704 0.845365 0.752407
0.817044 0.844968 0.780514
0.816663 0.844633 0.826459
0.802808 0.844617 0.840681
0.802869 0.844617 0.840696
0.802991 0.844617 0.840711
0.803357 0.844617 0.840742
0.80441 0.844633 0.840879
0.807034 0.844633 0.841276
0.812131 0.844633 0.842451
0.816587 0.844587 0.845685
0.816556 0.844587 0.854292
0.0151827 0.0171359 0.865766
0.0151827 0.0171359 0.865782
0.0151827 0.0171359 0.865782
0.0151827 0.0171511 0.865812
0.68629 0 0.8636
0.838941 0.0252689 0.867826
0.838941 0.02533 0.868269
0.821851 0.720272 0.861616
0.817121 0.816526 0.861082
0.0151827 0.0171359 0.865736
0.0151827 0.0171359 0.865736
0.0151827 0.0171359 0.865751
0.0151827 0.0171359 0.865766
0.69041 0 0.863554
0.838941 0.0252689 0.867796
0.838941 0.0253147 0.868223
0.821393 0.725887 0.86096
0.817121 0.816831 0.861051
0.0151827 0.0171359 0.865675
0.0151675 0.0171359 0.86569
0.0151827 0.0171359 0.86569
0.0151675 0.0171359 0.865705
0.696864 0 0.863493
0.838941 0.0252689 0.867735
0.838941 0.0253147 0.868162
0.820752 0.734035 0.860029
0.817105 0.817319 0.86099
0.0151675 0.0171206 0.865492
0.0151675 0.0171206 0.865507
0.0151675 0.0171206 0.865507
0.0151522 0.0171054 0.865354
0.710781 0 0.863355
0.838926 0.0252384 0.867536
0.838926 0.0252079 0.867247
0.819409 0.75314 0.857862
0.81709 0.818708 0.860838
0 0.626291 0.86009
0 0.626917 0.860075
0 0.627955 0.860059
0 0.629557 0.859815
0.688502 0.625818 0.860151
0.826429 0.641398 0.864897
0.822629 0.710765 0.8589
0.817914 0.784131 0.854704
0.817029 0.822309 0.86041
0.0564279 0.826719 0.861112
0.0563211 0.826505 0.861082
0.0561227 0.826108 0.861006
0.055314 0.824506 0.860716
0.639979 0.811551 0.85153
0.776822 0.80354 0.847578
0.815671 0.805829 0.848493
0.817166 0.81532 0.851438
0.816922 0.829526 0.859388
0.570855 0.851225 0.849668
0.586908 0.850065 0.848676
0.60827 0.848493 0.847395
0.653941 0.844984 0.844694
0.718227 0.840238 0.84181
0.773587 0.836942 0.841443
0.807431 0.835325 0.843214
0.816846 0.835767 0.847745
0.81677 0.838727 0.857252
0.766323 0.844678 0.824948
0.766918 0.844678 0.824979
0.76788 0.844678 0.82501
0.770657 0.844663 0.825116
0.777707 0.844648 0.825437
0.791257 0.844648 0.826505
0.807858 0.844663 0.829679
0.816602 0.844602 0.837736
0.816571 0.844587 0.85211
0.803326 0.844617 0.84062
0.803388 0.844617 0.840635
0.80351 0.844617 0.840635
0.803861 0.844633 0.840681
0.804852 0.844633 0.840818
0.807385 0.844633 0.841215
0.812314 0.844633 0.84239
0.816587 0.844587 0.84564
0.816556 0.844587 0.854276
0.0167849 0.0188296 0.890715
0.0167849 0.0188296 0.890715
0.0167849 0.0188296 0.890715
0.0167849 0.0188296 0.890715
0.0167849 0.0188296 0.890715
0.83122 0.0259709 0.89688
0.839307 0.0284428 0.897322
0.839307 0.0284428 0.897322
0.817304 0.804273 0.882826
0.0167849 0.0188296 0.890715
0.0167849 0.0188296 0.890715
0.0167849 0.0188296 0.890715
0.0167849 0.0188296 0.890715
0.0167849 0.0188296 0.890715
0.83183 0.0261692 0.89691
0.839307 0.0284428 0.897322
0.839307 0.0284428 0.897322
0.817288 0.804837 0.88278
0.0167849 0.0188296 0.890715
0.0167849 0.0188296 0.890715
0.0167849 0.0188296 0.890715
0.0167849 0.0188296 0.890715
0.0167849 0.0188296 0.890715
0.832792 0.0264897 0.896971
0.839307 0.0284428 0.897322
0.839307 0.0284428 0.897322
0.817273 0.805722 0.882719
0.0167849 0.0188296 0.890715
0.0167849 0.0188296 0.890715
0.0167849 0.0188296 0.890715
0.0167849 0.0188296 0.890715
0.0167849 0.0188296 0.890715
0.83563 0.0274357 0.897139
0.839307 0.0284428 0.897322
0.839307 0.0284428 0.897322
0.817212 0.80824 0.882521
0.0167849 0.0188296 0.890715
0.0167849 0.0188296 0.890715
0.0167849 0.0188296 0.890715
0.0167849 0.0188296 0.890715
0.523888 0.0119631 0.890471
0.839307 0.0284428 0.897322
0.839307 0.0284428 0.897322
0.82707 0.66247 0.895689
0.817105 0.814435 0.882048
0.0319066 0.777661 0.893599
0.0319829 0.777798 0.893614
0.0321202 0.778042 0.893629
0.0325017 0.778759 0.89366
0.0310369 0.77615 0.89279
0.779873 0.763806 0.884291
0.818235 0.77499 0.883223
0.81738 0.800961 0.881483
0.816922 0.825422 0.881148
0.0695811 0.858961 0.894942
0.0695048 0.85864 0.894896
0.0693828 0.858137 0.89482
0.0690318 0.856657 0.894606
0.667185 0.841093 0.881682
0.763973 0.834623 0.878447
0.805066 0.832746 0.878386
0.8168 0.833722 0.878691
0.816739 0.837491 0.879957
0.75346 0.844663 0.875822
0.754284 0.844663 0.875807
0.755566 0.844648 0.875792
0.759258 0.844617 0.875761
0.768444 0.844572 0.8757
0.78526 0.844556 0.8757
0.804288 0.844587 0.875914
0.81651 0.844572 0.8766
0.81651 0.844572 0.878431
0.80145 0.844587 0.86978
0.801526 0.844587 0.86978
0.801633 0.844587 0.86978
0.801984 0.844587 0.869795
0.803006 0.844587 0.869841
0.805585 0.844602 0.869963
0.810605 0.844602 0.870359
0.816373 0.844617 0.871504
0.81651 0.844572 0.874464
0.00764477 0.110475 0.888945
0.00764477 0.110475 0.888945
0.00764477 0.110475 0.888945
0.00764477 0.110506 0.888945
0.00764477 0.110597 0.888945
0.00762951 0.110872 0.888945
0.839307 0.0284428 0.897322
0.839307 0.0284428 0.897322
0.825101 0.686244 0.89659
0.00764477 0.110414 0.888945
0.00764477 0.110414 0.888945
0.00764477 0.110445 0.888945
0.00764477 0.110475 0.888945
0.00764477 0.110582 0.888945
0.00762951 0.110842 0.888945
0.839307 0.0284428 0.897322
0.839307 0.0284428 0.897322
0.825101 0.686229 0.89659
0.00766003 0.110338 0.888945
0.00766003 0.110338 0.888945
0.00766003 0.110369 0.888945
0.00766003 0.110399 0.888945
0.00764477 0.110475 0.888945
0.00764477 0.110765 0.888945
0.839307 0.0284428 0.897322
0.839307 0.0284428 0.897322
0.825116 0.686213 0.89659
0.00767529 0.110124 0.888945
0.00767529 0.110109 0.888945
0.00767529 0.110124 0.888945
0.00767529 0.110155 0.888945
0.00766003 0.110262 0.888945
0.0110323 0.065095 0.889509
0.839307 0.0284428 0.897322
0.839307 0.0284428 0.897322
0.825116 0.686137 0.896605
0.00770581 0.109392 0.88896
0.00770581 0.109392 0.88896
0.00770581 0.109407 0.88896
0.00770581 0.109438 0.88896
0.00770581 0.109514 0.88896
0.555291 0.0101167 0.890471
0.839307 0.0284428 0.897322
0.839307 0.0284428 0.897322
0.825132 0.685924 0.89662
0.00784314 0.107103 0.888975
0.00784314 0.107103 0.888975
0.00784314 0.107103 0.888975
0.00782788 0.107134 0.888975
0.00782788 0.10724 0.888975
0.750225 0.00373846 0.892485
0.839307 0.0284428 0.897322
0.835401 0.128038 0.895338
0.817792 0.785763 0.890959
0.0653544 0.843732 0.905638
0.0653544 0.843748 0.905638
0.0653697 0.843778 0.905653
0.0653849 0.843854 0.905653
0.0654765 0.844099 0.905669
0.713329 0.82182 0.891752
0.806256 0.81796 0.890852
0.816938 0.822034 0.890837
0.816785 0.83183 0.890898
0.677333 0.846906 0.893019
0.681514 0.846708 0.892805
0.687755 0.846433 0.892485
0.703655 0.845792 0.891783
0.734554 0.844923 0.890761
0.77142 0.844556 0.890242
0.800549 0.844572 0.89015
0.815976 0.844038 0.890303
0.816602 0.844236 0.890364
0.796826 0.844572 0.889158
0.796933 0.844572 0.889158
0.797086 0.844572 0.889158
0.797559 0.844572 0.889158
0.798901 0.844572 0.889158
0.802243 0.844572 0.889158
0.808377 0.844587 0.889174
0.814984 0.844602 0.889235
0.81648 0.844556 0.889433
0.00300603 0.457099 0.890043
0.00300603 0.457099 0.890043
0.00300603 0.457099 0.890043
0.00300603 0.45713 0.890043
0.00300603 0.45713 0.890043
0.00300603 0.457221 0.890043
0.00300603 0.457374 0.890043
0.833555 0.475257 0.900984
0.823041 0.70898 0.894881
0.00300603 0.457099 0.890043
0.00300603 0.457099 0.890043
0.00300603 0.457099 0.890043
0.00300603 0.457099 0.890043
0.00300603 0.45713 0.890043
0.00300603 0.457191 0.890043
0.00300603 0.457374 0.890043
0.833539 0.475685 0.900984
0.823026 0.70901 0.894865
0.00300603 0.457084 0.890043
0.00300603 0.457084 0.890043
0.00300603 0.457084 0.890043
0.00300603 0.457099 0.890043
0.00300603 0.457099 0.890043
0.00300603 0.457191 0.890043
0.00300603 0.457343 0.890043
0.833539 0.476326 0.900984
0.823026 0.709041 0.894865
0.00300603 0.457053 0.890043
0.00300603 0.457053 0.890043
0.00300603 0.457053 0.890043
0.00300603 0.457053 0.890043
0.00300603 0.457084 0.890043
0.00300603 0.45713 0.890043
0.00300603 0.457298 0.890043
0.833509 0.478309 0.900999
0.823011 0.709148 0.894865
0.00300603 0.456886 0.890043
0.00300603 0.456886 0.890043
0.00300603 0.456886 0.890043
0.00300603 0.456886 0.890043
0.00300603 0.456916 0.890043
0.00300603 0.456977 0.890043
0.548424 0.43032 0.891417
0.833432 0.484199 0.901045
0.822995 0.709468 0.894835
0.00302129 0.456428 0.890043
0.00302129 0.456428 0.890043
0.00302129 0.456428 0.890043
0.00302129 0.456458 0.890043
0.00302129 0.456458 0.890043
0.00302129 0.456504 0.890043
0.756451 0.151629 0.890303
0.833219 0.499977 0.901167
0.82295 0.709972 0.894804
0.0030518 0.455009 0.890043
0.0030518 0.455009 0.890043
0.0030518 0.455009 0.890043
0.0030518 0.455039 0.890043
0.0030518 0.455039 0.890043
0.0030518 0.455085 0.890043
0.839307 0.0284428 0.897322
0.832761 0.52755 0.901289
0.822858 0.710887 0.894728
0.069337 0.859892 0.90663
0.069337 0.859892 0.90663
0.069337 0.859892 0.90663
0.069337 0.859892 0.90663
0.069337 0.859892 0.90663
0.069337 0.859892 0.90663
0.783307 0.839734 0.890913
0.816526 0.838499 0.890974
0.816663 0.84004 0.890944
0.774502 0.844526 0.890791
0.774853 0.844526 0.890791
0.775402 0.844526 0.890791
0.777005 0.844526 0.890791
0.781262 0.844526 0.890791
0.790402 0.844541 0.890806
0.803433 0.844572 0.890837
0.813794 0.844587 0.890867
0.816632 0.844724 0.89102
