BBLuts/BB_106_0050_LUT.cube
TITLE "Generated by Resolve"
LUT_3D_SIZE 5
0.0184176 0.0175479 0.0163119
0.179187 0.0174716 0.0160067
0.70135 0.0184634 0.0146487
0.916167 0.475914 0.125444
0.922881 0.889128 0.656001
0.0162509 0.196231 0.0145876
0.158633 0.197436 0.0145418
0.707012 0.0822156 0.013962
0.915084 0.537972 0.103395
0.923598 0.889937 0.656046
0.0081178 0.71368 0.00941482
0.00227359 0.715648 0.00880446
0.645594 0.703838 0.00755322
0.912917 0.758648 0.00640879
0.922026 0.897963 0.651881
0.560952 0.935699 0.217884
0.584405 0.939574 0.215946
0.730953 0.932052 0.228504
0.914046 0.922301 0.330419
0.92752 0.926253 0.669779
0.903685 0.934615 0.743862
0.901579 0.935546 0.742245
0.900252 0.937041 0.739834
0.918883 0.936065 0.744106
0.929946 0.935149 0.767788
0.019028 0.0179294 0.162997
0.160143 0.0179599 0.163333
0.702052 0.0188754 0.161532
0.918593 0.461753 0.248539
0.927001 0.887373 0.668879
0.0175174 0.167483 0.149081
0.161837 0.164843 0.144839
0.703655 0.0187381 0.149432
0.919722 0.526711 0.235996
0.928344 0.887953 0.669337
0.00970474 0.709499 0.00961318
0.00192264 0.712215 0.0087892
0.652308 0.699779 0.00770581
0.914961 0.756741 0.116258
0.924605 0.896819 0.664103
0.565713 0.936019 0.21735
0.590051 0.938949 0.215991
0.732723 0.931868 0.228321
0.914961 0.92195 0.330694
0.9281 0.926024 0.670085
0.903975 0.934524 0.744015
0.90428 0.934539 0.74403
0.900359 0.937026 0.739864
0.919631 0.93579 0.744595
0.927626 0.936034 0.766171
0.0209506 0.019089 0.615869
0.0209506 0.0194247 0.607172
0.710338 0.0202029 0.602594
0.929534 0.284077 0.624842
0.933318 0.883131 0.727001
0.0209354 0.0190433 0.615564
0.0209506 0.0193942 0.606653
0.720485 0.0199893 0.603281
0.930251 0.405768 0.621759
0.937224 0.882811 0.729427
0.0177768 0.657252 0.577661
0.00579843 0.663005 0.566629
0.637766 0.650965 0.571099
0.930648 0.729442 0.598733
0.937881 0.890425 0.72813
0.581094 0.932189 0.448295
0.593683 0.93872 0.43975
0.732113 0.93135 0.448035
0.925475 0.915801 0.514885
0.941711 0.920195 0.716396
0.91046 0.932219 0.748089
0.895247 0.938125 0.737591
0.901152 0.936858 0.740108
0.930816 0.931609 0.751995
0.934737 0.933333 0.771084
0.0218814 0.0195163 0.843305
0.0218967 0.0201724 0.826246
0.0218967 0.0201724 0.826139
0.928008 0.021088 0.827359
0.940948 0.852506 0.826154
0.0218814 0.0196536 0.839582
0.0218967 0.0201724 0.826261
0.0218967 0.0201419 0.826993
0.929854 0.0207065 0.831373
0.93434 0.857343 0.820844
0.0218967 0.0196841 0.839109
0.0218967 0.0201724 0.826276
0.214908 0.0204166 0.825483
0.932769 0.0201114 0.837629
0.929702 0.87425 0.816144
0.0133516 0.936065 0.810346
0 0.942733 0.795682
0.581033 0.931823 0.793561
0.898573 0.912291 0.804135
0.935592 0.919249 0.816312
0.903502 0.934249 0.792157
0.87834 0.943984 0.773877
0.880842 0.943954 0.774029
0.911665 0.938048 0.786206
0.942718 0.930434 0.809964
0.0177005 0.306447 0.830518
0.0152438 0.307851 0.823072
0.0152132 0.307881 0.82298
0.0153048 0.307958 0.82324
0.92549 0.668833 0.828275
0.0171969 0.306722 0.828992
0.0152438 0.307836 0.823056
0.0152285 0.307866 0.82298
0.0153964 0.307881 0.823529
0.916426 0.672145 0.819974
0.0159915 0.307317 0.825299
0.0152285 0.307744 0.823026
0.0152285 0.307759 0.82298
0.01738 0.306661 0.829557
0.916442 0.672831 0.820005
0.0161746 0.306188 0.825833
0.015259 0.306706 0.823041
0.0152438 0.306737 0.822995
0.926345 0.0214237 0.823789
0.916152 0.675425 0.81976
0.823606 0.94313 0.816083
0.822766 0.944045 0.814282
0.833432 0.944045 0.814267
0.87982 0.944106 0.814145
0.91194 0.942245 0.817807
