BBLuts/BB_103_0520_LUT.cube
TITLE "Generated by Resolve"
LUT_3D_SIZE 5
0 0 0
0.172274 0 0
0.776883 0 0
0.96527 0.543053 0.059556
0.92314 1 0.704814
0 0.188449 0
0.122362 0.189822 0
0.787533 0.0570687 0
0.956802 0.635187 0.0278782
0.923018 1 0.70399
0 0.843153 0
0 0.842054 0
0.691295 0.84358 0
0.930755 0.898497 0
0.922271 1 0.697734
0.536767 1 0.142748
0.584649 1 0.143191
0.752682 1 0.157931
0.918868 1 0.305333
0.919249 1 0.72604
0.883787 1 0.818097
0.884321 1 0.818143
0.888167 1 0.818631
0.90721 1 0.823072
0.917098 1 0.850996
0 0 0.123659
0.153307 0 0.116808
0.782055 0 0.0798962
0.970367 0.523949 0.238575
0.922957 1 0.724743
0 0.153216 0.103883
0.133227 0.151202 0.101472
0.785504 0 0.0777295
0.962692 0.626062 0.21944
0.922835 1 0.724041
0 0.83856 0
0 0.837415 0
0.695735 0.839368 0
0.935546 0.9019 0.0677806
0.922057 1 0.718654
0.544701 1 0.141939
0.590784 1 0.142489
0.754391 1 0.157519
0.918975 1 0.305257
0.919249 1 0.725933
0.883864 1 0.818082
0.884398 1 0.818143
0.888228 1 0.818631
0.90724 1 0.823056
0.917098 1 0.850996
0 0 0.703334
0 0 0.703563
0.781338 0 0.663737
0.981918 0.130846 0.71957
0.922454 1 0.809735
0 0 0.701595
0 0 0.701762
0.789364 0 0.661814
0.97586 0.431098 0.729763
0.922316 1 0.809369
0 0.79115 0.653635
0 0.79118 0.65391
0.67953 0.793164 0.66537
0.934859 0.873686 0.690211
0.921462 1 0.806714
0.536202 1 0.535454
0.582284 1 0.534752
0.74583 1 0.538689
0.910704 1 0.599557
0.918776 1 0.788922
0.884489 1 0.818006
0.885008 1 0.818067
0.888762 1 0.81854
0.907439 1 0.822995
0.917098 1 0.85098
0 0 0.932708
0 0 0.932708
0.0367437 0 0.931258
0.963409 0 0.906004
0.924773 0.969467 0.923583
0 0 0.932708
0 0 0.932708
0.0607309 0 0.930816
0.963409 0 0.906004
0.924437 0.974044 0.923201
0 0 0.932708
0 0 0.932708
0.380957 0 0.918318
0.963409 0 0.906004
0.922515 1 0.921035
0 1 0.928695
0 1 0.929351
0.603616 1 0.915084
0.892958 1 0.911849
0.918242 1 0.915221
0.880385 1 0.892409
0.880888 1 0.892439
0.884581 1 0.892576
0.903181 1 0.893843
0.916777 1 0.90277
0 0.235019 0.937774
0 0.235019 0.937774
0 0.23505 0.937774
0.17879 0.167407 0.942046
0.949325 0.735424 0.951247
0 0.235004 0.937774
0 0.235004 0.937774
0 0.235035 0.937774
0.17879 0.167391 0.942046
0.94931 0.735576 0.951232
0 0.234836 0.937774
0 0.234836 0.937774
0 0.234852 0.937774
0.550072 0.136431 0.936294
0.949157 0.736812 0.951156
0 0.233295 0.937789
0 0.23331 0.937789
0 0.233326 0.937789
0.963409 0 0.906004
0.948699 0.740307 0.950912
0.816938 1 0.939178
0.819287 1 0.939193
0.834607 1 0.9393
0.886992 1 0.939712
0.916854 1 0.940261
