BBLuts/BB_103_0480_LUT.cube
TITLE "Generated by Resolve"
LUT_3D_SIZE 33
0 0 0
0 0 0
0 0 0
0 0 0
0.0205386 0 0
0.064271 0 0
0.0974289 0 0
0.131533 0 0
0.172885 0 0
0.223926 0 0
0.282445 0 0
0.348928 0 0
0.423774 0 0
0.508888 0 0
0.59646 0 0
0.680278 0 0
0.761486 0 0
0.835599 0 0
0.898772 0 0
0.937407 0 0
0.944717 0 0
0.951095 0 0
0.963851 0.197116 0.00140383
0.959564 0.38497 0.033753
0.952514 0.528496 0.0666667
0.944732 0.647105 0.110323
0.936233 0.746319 0.16878
0.929397 0.825895 0.248692
0.923919 0.883635 0.343587
0.919585 0.926253 0.440345
0.915953 0.958389 0.532311
0.912734 0.983017 0.618402
0.910262 1 0.690669
0 0 0
0 0 0
0 0 0
0 0 0
0.026566 0 0
0.0662699 0 0
0.0999008 0 0
0.135821 0 0
0.178134 0 0
0.228611 0 0
0.285786 0 0
0.351553 0 0
0.425742 0 0
0.510475 0 0
0.59765 0 0
0.681056 0 0
0.761898 0 0
0.835691 0 0
0.898543 0 0
0.937148 0 0
0.944717 0 0
0.951705 0 0
0.962966 0.225956 0
0.958541 0.399939 0.0304112
0.951736 0.537591 0.0645304
0.944015 0.652766 0.107973
0.936004 0.750057 0.167575
0.929137 0.827863 0.247745
0.923995 0.884779 0.343221
0.919539 0.92697 0.440024
0.915938 0.958801 0.532143
0.912718 0.983276 0.61828
0.910231 1 0.690593
0 0 0
0 0 0
0 0 0
0 0 0
0.0317388 0 0
0.0656138 0 0
0.0996109 0 0
0.136995 0 0
0.180453 0 0
0.231586 0 0
0.288548 0 0
0.353857 0 0
0.427955 0 0
0.512322 0 0
0.598886 0 0
0.681849 0 0
0.76231 0 0
0.835752 0 0
0.898283 0 0
0.936873 0 0
0.944717 0 0
0.95201 0.00352483 0
0.96257 0.252018 0
0.957473 0.413443 0.0268254
0.950957 0.546349 0.0622873
0.943526 0.658274 0.10605
0.935622 0.753796 0.166049
0.928954 0.829938 0.246769
0.923903 0.886 0.342687
0.919493 0.927687 0.439704
0.915908 0.959197 0.532006
0.912703 0.98352 0.618173
0.910231 1 0.690517
0 0.0104829 0
0 0.0125429 0
0 0.0144656 0
0 0.0155032 0
0.021088 0.0141604 0
0.0592508 0.0118563 0
0.0951095 0.007187 0
0.135348 0 0
0.18175 0 0
0.233478 0 0
0.290852 0 0
0.356298 0 0
0.430228 0 0
0.51426 0 0
0.600168 0 0
0.682673 0 0
0.762707 0 0
0.835798 0 0
0.898024 0 0
0.936599 0 0
0.946365 0 0
0.953979 0.0288701 0
0.961913 0.2757 0
0.95642 0.426398 0.0227359
0.950408 0.555093 0.0601358
0.942977 0.663615 0.103822
0.93521 0.757137 0.164477
0.928771 0.832059 0.245823
0.923705 0.887083 0.342031
0.919448 0.928405 0.439384
0.915877 0.959594 0.531853
0.912688 0.98378 0.618051
0.910216 1 0.690455
0 0.0411231 0
0 0.0430304 0
0 0.0447852 0
0 0.0456397 0
0.00805676 0.0452735 0
0.0497444 0.0437476 0
0.0888991 0.0409094 0
0.130571 0.0345617 0
0.178912 0.0222324 0
0.233433 0.00677501 0
0.293202 0 0
0.358801 0 0
0.432456 0 0
0.516335 0 0
0.601541 0 0
0.683528 0 0
0.763088 0 0
0.835843 0 0
0.897719 0 0
0.936278 0 0
0.948882 0 0
0.958694 0.103685 0
0.960998 0.297917 0
0.9552 0.439261 0.0175631
0.949599 0.563561 0.0576791
0.942519 0.669184 0.10161
0.934829 0.760845 0.162921
0.928588 0.834226 0.244831
0.923506 0.888167 0.341329
0.919387 0.929137 0.439033
0.915846 0.960006 0.531701
0.912673 0.984039 0.617914
0.910216 1 0.690379
0 0.0700847 0
0 0.071931 0
0 0.073106 0
0 0.0737621 0
0 0.0742962 0
0.0297551 0.073228 0
0.0788891 0.0717174 0
0.123919 0.0685893 0
0.174762 0.0627756 0
0.230991 0.0517739 0
0.292561 0.0309758 0
0.360967 0.00663767 0
0.436118 0 0
0.518791 0 0
0.603235 0 0
0.684611 0 0
0.763516 0 0
0.835874 0 0
0.897337 0 0
0.935897 0 0
0.950744 0 0
0.961425 0.163943 0
0.959533 0.322484 0
0.953689 0.454032 0.00869764
0.948623 0.573648 0.0545968
0.941619 0.675685 0.0987259
0.934569 0.765225 0.161212
0.928527 0.836774 0.243809
0.923384 0.889647 0.340658
0.919326 0.930022 0.438621
0.915755 0.960433 0.531456
0.912642 0.984344 0.617761
0.910201 1 0.690303
0 0.103624 0
0 0.104875 0
0 0.105623 0
0 0.106111 0
0 0.106416 0
0.00256352 0.106584 0
0.0602121 0.10602 0
0.11313 0.104402 0
0.167132 0.100664 0
0.226673 0.0932631 0
0.290852 0.0818647 0
0.362188 0.0644083 0
0.438834 0.0348669 0
0.523247 0 0
0.606653 0 0
0.685985 0 0
0.764172 0 0
0.835935 0 0
0.896819 0 0
0.938354 0 0
0.955306 0.0484932 0
0.961975 0.216419 0
0.957717 0.35172 0
0.951598 0.47248 0
0.947372 0.586389 0.0504311
0.940673 0.68397 0.0956436
0.933776 0.770596 0.15874
0.928023 0.839841 0.241978
0.923278 0.891554 0.339803
0.919264 0.931167 0.438117
0.915618 0.960983 0.531044
0.912627 0.984771 0.617563
0.910201 1 0.690181
0 0.143328 0
0 0.144213 0
0 0.144854 0
0 0.145281 0
0 0.145556 0
0 0.146181 0
0.0262455 0.146441 0
0.0919814 0.14551 0
0.153002 0.142885 0
0.216938 0.137606 0
0.286397 0.129244 0
0.361959 0.117403 0
0.441642 0.100389 0
0.526894 0.0738994 0
0.610269 0.0377661 0
0.69073 0.00195315 0
0.767498 0 0
0.835996 0 0
0.899504 0 0
0.943816 0.0309758 0
0.960647 0.143877 0
0.961334 0.270634 0
0.955398 0.386618 0
0.949844 0.495979 0
0.945922 0.602213 0.0450599
0.939666 0.694453 0.0923476
0.933257 0.777661 0.155718
0.927687 0.844053 0.240116
0.923232 0.89395 0.338796
0.919326 0.93257 0.437568
0.915496 0.961746 0.530571
0.912581 0.985306 0.617288
0.910185 1 0.690044
0 0.190051 0
0 0.190585 0
0 0.191058 0
0 0.191363 0
0 0.191531 0
0 0.191562 0
0 0.192294 0
0.0482185 0.192508 0
0.128069 0.191485 0
0.199741 0.187991 0
0.275319 0.182132 0
0.357671 0.173083 0
0.442802 0.160616 0
0.530617 0.14493 0
0.614389 0.125673 0
0.69572 0.102022 0
0.773404 0.0702678 0
0.844175 0.0505989 0
0.90663 0.0768749 0
0.949355 0.145754 0
0.962051 0.232929 0
0.958907 0.328115 0
0.952926 0.42594 0
0.947936 0.524376 0
0.943938 0.621271 0.0369573
0.938354 0.707637 0.0883192
0.932326 0.786206 0.151629
0.927367 0.849302 0.237736
0.923003 0.897078 0.337362
0.919188 0.934478 0.436667
0.91548 0.962829 0.530098
0.912535 0.986007 0.616938
0.91017 1 0.689845
0 0.244038 0
0 0.244465 0
0 0.244785 0
0 0.245014 0
0 0.245136 0
0 0.245151 0
0 0.244968 0
0 0.245869 0
0.0717327 0.247562 0
0.170565 0.247211 0
0.25568 0.243519 0
0.345708 0.236881 0
0.438773 0.227985 0
0.531701 0.216983 0
0.617182 0.205066 0
0.698894 0.194293 0
0.777325 0.186206 0
0.848417 0.187427 0
0.909056 0.207599 0
0.948882 0.251514 0
0.959701 0.313954 0
0.955123 0.389532 0
0.950103 0.471122 0
0.945296 0.557107 0
0.94136 0.642878 0.022858
0.93669 0.723995 0.0829328
0.931395 0.796689 0.146456
0.926787 0.855543 0.234272
0.922667 0.90071 0.335531
0.918944 0.936797 0.435386
0.915496 0.964202 0.529488
0.912428 0.986816 0.616434
0.910124 1 0.689586
0 0.308186 0
0 0.308507 0
0 0.308766 0
0 0.308995 0
0 0.309163 0
0 0.30927 0
0 0.309285 0
0 0.309071 0
0 0.31252 0
0.113115 0.315465 0
0.221317 0.315022 0
0.323018 0.311345 0
0.425956 0.305547 0
0.526375 0.29839 0
0.615686 0.291066 0
0.698863 0.285878 0
0.776654 0.284794 0
0.846082 0.291844 0
0.904234 0.311635 0
0.942626 0.346288 0
0.954925 0.394965 0
0.951095 0.45333 0
0.947066 0.522347 0
0.941939 0.594812 0
0.937545 0.668467 0.00401312
0.934478 0.743481 0.0758526
0.930114 0.809461 0.141848
0.926207 0.863401 0.230533
0.922301 0.905653 0.332998
0.918593 0.939666 0.433738
0.915373 0.966018 0.528572
0.912367 0.987716 0.615824
0.910079 1 0.689296
0 0.386313 0
0 0.386679 0
0 0.386984 0
0 0.387198 0
0 0.38735 0
0 0.387503 0
0 0.38761 0
0 0.38761 0
0 0.389242 0
0.0278782 0.394278 0
0.157885 0.398276 0
0.28397 0.398215 0
0.401038 0.395453 0
0.510658 0.391028 0
0.6065 0.386267 0
0.693034 0.383566 0
0.771298 0.385016 0
0.838758 0.393011 0
0.894774 0.409857 0
0.933989 0.437003 0
0.949996 0.474586 0
0.947082 0.521965 0
0.943236 0.577142 0
0.938231 0.636286 0
0.934066 0.699443 0
0.932143 0.766003 0.0677348
0.928878 0.824414 0.138003
0.92546 0.872694 0.225559
0.921965 0.911574 0.32987
0.918517 0.943358 0.432105
0.915221 0.968322 0.527382
0.912261 0.989197 0.615045
0.910002 1 0.688945
0 0.475608 0
0 0.475868 0
0 0.476081 0
0 0.476265 0
0 0.476417 0
0 0.47657 0
0 0.476707 0
0 0.476799 0
0 0.47686 0
0 0.480064 0
0.0609598 0.48719 0
0.219745 0.491585 0
0.362066 0.490639 0
0.484031 0.487709 0
0.588327 0.484138 0
0.680842 0.481849 0
0.76228 0.483818 0
0.82974 0.491112 0
0.884108 0.505409 0
0.924681 0.527123 0
0.944671 0.555795 0
0.941955 0.591745 0
0.938567 0.634516 0
0.934218 0.681651 0
0.930694 0.735164 0
0.929549 0.79144 0.0578164
0.927275 0.841398 0.134234
0.924529 0.883574 0.221363
0.921462 0.9187 0.325994
0.918196 0.947982 0.429541
0.915007 0.971633 0.525826
0.912154 0.991058 0.614023
0.909926 1 0.688426
0 0.571145 0
0 0.571344 0
0 0.571511 0
0 0.571649 0
0 0.571786 0
0 0.571893 0
0 0.572015 0
0 0.572091 0
0 0.572091 0
0 0.571939 0
0 0.575952 0
0.110063 0.583597 0
0.303288 0.585489 0
0.445472 0.583749 0
0.5617 0.581247 0
0.661707 0.579614 0
0.748363 0.580819 0
0.817655 0.586191 0
0.871534 0.597009 0
0.912245 0.613306 0
0.935531 0.634287 0
0.93611 0.660121 0
0.933257 0.692805 0
0.929808 0.731029 0
0.927108 0.773388 0
0.926986 0.81886 0.045594
0.92575 0.860197 0.131472
0.92369 0.896147 0.219654
0.920806 0.927108 0.321065
0.9178 0.953216 0.426169
0.914748 0.974914 0.523995
0.911986 0.993393 0.612924
0.909834 1 0.687663
0 0.66125 0
0 0.661357 0
0 0.661433 0
0 0.661494 0
0 0.661555 0
0 0.661585 0
0 0.661616 0
0 0.661585 0
0 0.661509 0
0 0.661265 0
0 0.660761 0
0 0.66746 0
0.204135 0.673503 0
0.394461 0.673396 0
0.528328 0.671763 0
0.635828 0.670069 0
0.728313 0.670314 0
0.800809 0.673991 0
0.855467 0.681346 0
0.896254 0.692699 0
0.922621 0.708385 0
0.930068 0.728145 0
0.927947 0.752514 0
0.92578 0.78085 0
0.92369 0.812314 0
0.923888 0.846906 0.0301518
0.924269 0.880674 0.129854
0.922576 0.910246 0.220157
0.920043 0.936782 0.318776
0.917525 0.959655 0.4224
0.914443 0.979278 0.521385
0.911971 0.996216 0.611353
0.909712 1 0.686671
0 0.748486 0
0 0.748501 0
0 0.748516 0
0 0.748501 0
0 0.748501 0
0 0.74847 0
0 0.748425 0
0 0.748318 0
0 0.748119 0
0 0.747738 0
0 0.747082 0
0 0.748791 0
0.091722 0.757076 0
0.330983 0.759991 0
0.487083 0.758404 0
0.605509 0.756024 0
0.7037 0.754986 0
0.779553 0.756695 0
0.83595 0.760937 0
0.877852 0.768277 0
0.907973 0.778668 0
0.922988 0.792325 0
0.923369 0.808454 0
0.92192 0.827588 0
0.920714 0.849561 0
0.92105 0.874495 0.0108034
0.922759 0.901854 0.130007
0.921492 0.92578 0.222507
0.919234 0.947662 0.320165
0.916976 0.966857 0.418814
0.91429 0.984466 0.518242
0.911543 0.999496 0.608881
0.909728 1 0.685527
0 0.828626 0
0 0.82858 0
0 0.828519 0
0 0.828443 0
0 0.828367 0
0 0.82826 0
0 0.828107 0
0 0.827863 0
0 0.827497 0
0 0.826947 0
0 0.826093 0
0 0.824872 0
0.0161746 0.832456 0
0.258412 0.837201 0
0.4477 0.835355 0
0.576989 0.831846 0
0.679301 0.82916 0
0.757702 0.828717 0
0.816083 0.830152 0
0.860151 0.833814 0
0.893004 0.839277 0
0.913741 0.847318 0
0.91986 0.857328 0
0.919127 0.869535 0
0.918196 0.884047 0
0.918685 0.901854 0.00291447
0.921126 0.923659 0.133013
0.920363 0.942199 0.227405
0.918425 0.959167 0.324468
0.916289 0.975494 0.419318
0.913848 0.99028 0.514366
0.911254 1 0.605936
0.909331 1 0.683589
0 0.893446 0
0 0.893339 0
0 0.893217 0
0 0.89308 0
0 0.892943 0
0 0.892775 0
0 0.892531 0
0 0.89218 0
0 0.891676 0
0 0.890959 0
0 0.889937 0
0 0.888579 0
0 0.893614 0
0.202106 0.898772 0
0.421393 0.896101 0
0.557137 0.891493 0
0.660792 0.887434 0
0.739635 0.885359 0
0.798871 0.885161 0
0.844221 0.885969 0
0.878294 0.888487 0
0.9028 0.892576 0
0.915709 0.898314 0
0.916732 0.905913 0
0.916396 0.915633 0
0.917876 0.929091 0.0195621
0.919783 0.944854 0.140673
0.919127 0.958358 0.235355
0.917403 0.971817 0.331044
0.915541 0.984604 0.424399
0.913512 0.997101 0.513893
0.911116 1 0.602609
0.909117 1 0.681483
0 0.943267 0
0 0.94313 0
0 0.942992 0
0 0.942855 0
0 0.942718 0
0 0.942519 0
0 0.942245 0
0 0.941817 0
0 0.941253 0
0 0.940444 0
0 0.939345 0
0 0.937896 0
0 0.942275 0
0.198489 0.946273 0
0.416648 0.94258 0
0.549783 0.93724 0
0.650507 0.932616 0
0.72668 0.929702 0
0.784558 0.9281 0
0.830335 0.927718 0
0.865385 0.928298 0
0.891936 0.930083 0
0.909697 0.933043 0
0.914702 0.937438 0
0.914931 0.943923 0
0.917433 0.954589 0.0523384
0.91841 0.964889 0.154498
0.917906 0.97499 0.247623
0.916518 0.984512 0.34078
0.914763 0.994522 0.431861
0.912688 1 0.518517
0.910689 1 0.601175
0.90901 1 0.678874
0 0.981735 0
0 0.981537 0
0 0.981338 0
0 0.98114 0
0 0.980911 0
0 0.980652 0
0 0.980285 0
0 0.979828 0
0 0.979217 0
0 0.978393 0
0 0.977295 0
0 0.975845 0
0.0220493 0.981338 0
0.256886 0.982879 0
0.435843 0.978134 0
0.556085 0.972625 0
0.648661 0.967742 0
0.719478 0.964446 0
0.774563 0.961883 0
0.818738 0.960678 0
0.854017 0.960266 0
0.881437 0.960739 0
0.902113 0.961837 0
0.912276 0.964385 0
0.913664 0.968841 0
0.916854 0.977172 0.0859083
0.917281 0.983703 0.176013
0.916564 0.990417 0.265232
0.915404 0.997406 0.353994
0.913848 1 0.441718
0.911955 1 0.52546
0.910201 1 0.605188
0.908568 1 0.677089
0 1 0
0 1 0
0 1 0
0 1 0
0 1 0
0 1 0
0 1 0
0 1 0
0 1 0
0 1 0
0 1 0
0 1 0
0.133867 1 0
0.344503 1 0
0.4766 1 0
0.575326 0.998505 0
0.655161 0.993957 0
0.718639 0.99089 0
0.769451 0.988525 0
0.811048 0.987015 0
0.844999 0.985977 0
0.872389 0.985733 0
0.89453 0.985779 0
0.909285 0.987213 0
0.913878 0.991241 0.0220951
0.91603 0.996811 0.124865
0.916243 1 0.20621
0.91548 1 0.289479
0.914443 1 0.372412
0.912978 1 0.455467
0.911147 1 0.535058
0.909575 1 0.612177
0.908263 1 0.67982
0 1 0
0 1 0
0 1 0
0 1 0
0 1 0
0 1 0
0 1 0
0 1 0
0 1 0
0 1 0
0 1 0
0.145892 1 0
0.324224 1 0
0.436927 1 0
0.527657 1 0
0.603769 1 0
0.668833 1 0
0.722972 1 0
0.768582 1 0
0.806821 1 0
0.83859 1 0
0.864851 1 0
0.887129 1 0
0.905257 1 0.0151369
0.914565 1 0.0941634
0.915114 1 0.170703
0.914855 1 0.244541
0.914168 1 0.319631
0.913069 1 0.395895
0.912093 1 0.473121
0.910521 1 0.547814
0.909117 1 0.621134
0.907927 1 0.685344
0 1 0
0 1 0
0 1 0
0 1 0
0 1 0
0.000503548 1 0
0.00590524 1 0
0.0125124 1 0
0.121675 1 0
0.234775 1 0
0.315724 1 0
0.388449 1 0
0.45771 1 0
0.522103 1 0
0.581872 1 0
0.637613 1 0
0.688045 1 0
0.732509 1 0
0.771801 1 0
0.805859 1 0
0.835431 1 0
0.860899 1 0.000167849
0.883314 1 0.0211643
0.902174 1 0.0884108
0.913191 1 0.157107
0.914031 1 0.222522
0.913725 1 0.289998
0.912917 1 0.356359
0.912077 1 0.425437
0.911025 1 0.495705
0.909636 1 0.564202
0.908446 1 0.632624
0.907317 1 0.692195
0.307683 1 0.0112917
0.320882 1 0.0111849
0.333593 1 0.0110323
0.345373 1 0.0108949
0.357076 1 0.0106203
0.370825 1 0.0104829
0.387762 1 0.0103304
0.407797 1 0.00993362
0.431571 1 0.00967422
0.458717 1 0.00918593
0.489967 1 0.00880446
0.522835 1 0.00813306
0.558633 1 0.00749218
0.596857 1 0.00708019
0.63624 1 0.0068513
0.675181 1 0.00712596
0.712505 1 0.00750744
0.747799 1 0.00825513
0.780301 1 0.00961318
0.809873 1 0.024094
0.837171 1 0.0610208
0.860746 1 0.0933394
0.881071 1 0.126909
0.897871 1 0.170596
0.90985 1 0.222431
0.912856 1 0.279652
0.91223 1 0.338064
0.911788 1 0.399115
0.910872 1 0.460395
0.909941 1 0.522148
0.908736 1 0.584741
0.907652 1 0.646586
0.907027 1 0.701228
0.52517 1 0.142687
0.529488 1 0.142626
0.533806 1 0.142519
0.538079 1 0.14258
0.542351 1 0.142641
0.547631 1 0.142702
0.554284 1 0.142809
0.562524 1 0.142977
0.5729 1 0.143206
0.585351 1 0.143313
0.600641 1 0.143664
0.618647 1 0.144198
0.639063 1 0.145083
0.662089 1 0.146715
0.686763 1 0.149004
0.713115 1 0.151995
0.740383 1 0.156634
0.767132 1 0.1626
0.792813 1 0.17026
0.816922 1 0.180514
0.839673 1 0.193362
0.860166 1 0.209796
0.878309 1 0.229984
0.893858 1 0.256565
0.906065 1 0.294957
0.911589 1 0.340047
0.911147 1 0.391363
0.910597 1 0.445029
0.909667 1 0.500053
0.908873 1 0.553643
0.907835 1 0.609827
0.907118 1 0.66392
0.906325 1 0.711879
0.638773 1 0.26833
0.640772 1 0.268437
0.642939 1 0.268513
0.645075 1 0.268559
0.647166 1 0.268544
0.64947 1 0.268544
0.652796 1 0.26865
0.65687 1 0.268864
0.662058 1 0.269154
0.668696 1 0.269505
0.676753 1 0.270008
0.68658 1 0.27071
0.698161 1 0.271183
0.712581 1 0.272801
0.728206 1 0.274449
0.745998 1 0.276875
0.765026 1 0.279881
0.784344 1 0.284092
0.803662 1 0.289342
0.823529 1 0.296391
0.842466 1 0.305379
0.860121 1 0.316442
0.87628 1 0.330632
0.890379 1 0.348165
0.90248 1 0.371832
0.909728 1 0.405783
0.909895 1 0.447532
0.909346 1 0.49395
0.908522 1 0.540551
0.907835 1 0.589563
0.907088 1 0.638041
0.906477 1 0.683619
0.90605 1 0.724819
0.711086 1 0.381384
0.712108 1 0.381506
0.713176 1 0.381598
0.71429 1 0.381674
0.71545 1 0.38175
0.716854 1 0.381842
0.718654 1 0.381964
0.72079 1 0.382177
0.723766 1 0.382406
0.727367 1 0.382757
0.731991 1 0.382971
0.737606 1 0.383322
0.744656 1 0.383993
0.753155 1 0.384985
0.76318 1 0.386313
0.774258 1 0.387854
0.786831 1 0.390204
0.800626 1 0.392996
0.815091 1 0.396719
0.831205 1 0.401953
0.846311 1 0.40824
0.861326 1 0.416358
0.87512 1 0.42649
0.887877 1 0.439643
0.899031 1 0.455604
0.906935 1 0.476555
0.908446 1 0.506981
0.907988 1 0.543282
0.907393 1 0.584222
0.906737 1 0.62681
0.906294 1 0.667613
0.905715 1 0.705119
0.905516 1 0.739284
0.761181 1 0.485328
0.761807 1 0.485374
0.762387 1 0.485435
0.762875 1 0.485512
0.76347 1 0.485557
0.764233 1 0.485618
0.765225 1 0.48571
0.766506 1 0.485801
0.76817 1 0.485985
