BBLuts/BB_104_0250_LUT.cube
TITLE "Generated by Resolve"
LUT_3D_SIZE 33
0 0 0
0 0 0
0 0 0
0 0 0
0 0 0
0.0202792 0 0
0.0719463 0 0
0.109194 0 0
0.147372 0 0
0.194705 0 0.00108339
0.250034 0 0.00314336
0.310155 0 0.00669871
0.377798 0 0.0136263
0.452857 0.00750744 0.0289158
0.531701 0.0344396 0.06598
0.595438 0.101198 0.156252
0.648859 0.224384 0.27071
0.702647 0.33727 0.377188
0.751369 0.429862 0.46627
0.789761 0.498604 0.528786
0.796826 0.509865 0.538979
0.796826 0.509865 0.538979
0.796826 0.513329 0.539422
0.796811 0.521385 0.539513
0.796765 0.538674 0.538888
0.796658 0.569024 0.536477
0.796475 0.604883 0.529824
0.796155 0.642329 0.515373
0.795697 0.674479 0.491966
0.795117 0.700572 0.469322
0.794476 0.72108 0.496117
0.793866 0.737057 0.568811
0.793393 0.750103 0.621759
0 0 0
0 0 0
0 0 0
0 0 0
0 0 0
0.0307317 0 0
0.0755474 0 0
0.112139 0 0
0.152285 0 0
0.200534 0 0.0012665
0.255833 0 0.00340276
0.31516 0 0.00708019
0.380835 0 0.0140536
0.454902 0.00791943 0.0294804
0.533074 0.0352178 0.0670481
0.596078 0.102495 0.157763
0.649271 0.22533 0.271565
0.702846 0.337667 0.377554
0.751308 0.429755 0.466163
0.789502 0.498177 0.528405
0.796826 0.509865 0.538979
0.796826 0.509865 0.538979
0.796826 0.514076 0.539162
0.796811 0.522637 0.539361
0.796765 0.540505 0.538689
0.796658 0.57113 0.536171
0.796475 0.606516 0.529229
0.796139 0.643488 0.514443
0.795682 0.675181 0.490578
0.795102 0.701015 0.467445
0.794461 0.721309 0.494972
0.793866 0.737209 0.568429
0.793393 0.750195 0.621653
0 0 0
0 0 0
0 0 0
0 0 0
0 0 0
0.0369268 0 0
0.0767834 0 0
0.114931 0 0
0.157412 0 0.000106813
0.205936 0 0.00143435
0.260243 0 0.00363165
0.317815 0 0.00730907
0.383337 0 0.0144198
0.457069 0.0083772 0.0301061
0.534478 0.0360113 0.0681621
0.596719 0.103792 0.159243
0.649683 0.226246 0.272404
0.703029 0.338033 0.37792
0.751232 0.429618 0.466026
0.789242 0.497765 0.528023
0.796826 0.509865 0.538979
0.796826 0.509865 0.538979
0.796826 0.514839 0.538689
0.796796 0.523934 0.539193
0.79675 0.542367 0.538506
0.796658 0.573236 0.535851
0.796445 0.608148 0.528618
0.796124 0.644617 0.513466
0.795682 0.675868 0.489174
0.795087 0.701442 0.465492
0.794461 0.721553 0.493782
0.793851 0.737346 0.568048
0.793393 0.750286 0.62153
0 0 0
0 0 0
0 0 0
0 0 0
0 0 0
0.0416724 0 0
0.0773632 0 0
0.115175 0 0
0.158297 0 0.000122072
0.208133 0 0.00151064
0.263096 0 0.00376898
0.320241 0 0.00750744
0.385702 0 0.0147555
0.459266 0.00883497 0.0307469
0.535882 0.0368505 0.0693065
0.597391 0.105135 0.160769
0.650095 0.227146 0.273243
0.703197 0.338384 0.378241
0.751141 0.429465 0.465858
0.788952 0.497292 0.527596
0.796826 0.509865 0.538979
0.796826 0.509865 0.538979
0.796811 0.51574 0.538643
0.796796 0.525307 0.53901
0.79675 0.544274 0.538293
0.796643 0.575341 0.535515
0.796445 0.609735 0.528038
0.796109 0.645747 0.512489
0.795651 0.676555 0.487724
0.795087 0.701869 0.463508
0.794446 0.721798 0.492592
0.793851 0.737499 0.567666
0.793378 0.750378 0.621424
0 0.0245823 0
0 0.0268559 0
0 0.0290532 0
0 0.0311742 0
0 0.0319982 0
0.027512 0.0320745 0
0.0666056 0.0308385 0
0.106615 0.0272984 0
0.153323 0.018616 0
0.20911 0 0.00154116
0.264744 0 0.00386053
0.322438 0 0.00769055
0.38793 0 0.0151064
0.461509 0.009308 0.0314031
0.537316 0.037705 0.0704967
0.598062 0.106493 0.162295
0.650492 0.228046 0.274052
0.703349 0.338689 0.378531
0.751049 0.429282 0.465675
0.788663 0.496834 0.527169
0.796826 0.509865 0.538979
0.796826 0.510948 0.538918
0.796811 0.516686 0.538598
0.796796 0.526741 0.538781
0.79675 0.546212 0.538079
0.796628 0.577447 0.53518
0.796429 0.611307 0.527428
0.796109 0.64686 0.511482
0.795651 0.677241 0.486259
0.795071 0.702281 0.461494
0.79443 0.722042 0.491402
0.793835 0.737652 0.567285
0.793378 0.750469 0.621302
0 0.0496376 0
0 0.0514382 0
0 0.0532235 0
0 0.054612 0
0 0.0552987 0
0.00672923 0.0556191 0
0.0564431 0.0555581 0
0.0989242 0.0544137 0
0.146899 0.0515297 0
0.203983 0.0457008 0
0.263081 0.0338293 0
0.324392 0 0.00784314
0.390173 0 0.0154726
0.463859 0.00984207 0.0321202
0.538827 0.0386511 0.0717937
0.598795 0.107988 0.163928
0.650919 0.228977 0.274907
0.703517 0.339025 0.378851
0.750927 0.429068 0.465476
0.788342 0.4963 0.526696
0.796826 0.509865 0.538979
0.796826 0.512642 0.538811
0.796811 0.517723 0.538521
0.796796 0.528283 0.538537
0.796735 0.548272 0.537835
0.796628 0.579599 0.534813
0.796429 0.61294 0.526787
0.796078 0.64799 0.51043
0.795636 0.677943 0.484672
0.795056 0.702724 0.459373
0.794415 0.722286 0.490105
0.79382 0.737804 0.566873
0.793362 0.750561 0.62118
0 0.0759136 0
0 0.0774243 0
0 0.0789044 0
0 0.0797436 0
0 0.0802777 0
0 0.0804761 0
0.0387274 0.0809186 0
0.0880293 0.080705 0
0.13846 0.0794995 0
0.199435 0.076936 0
0.260807 0.071931 0
0.32369 0.0639353 0.00180056
0.391714 0.0485237 0.0114595
0.466896 0.0105287 0.0330663
0.54078 0.0399023 0.0735027
0.599756 0.109941 0.166033
0.651469 0.230198 0.276036
0.703716 0.339422 0.379232
0.750774 0.428779 0.465187
0.787915 0.495598 0.52607
0.796826 0.509865 0.538979
0.796826 0.513726 0.538766
0.796811 0.519188 0.538445
0.79678 0.530343 0.538048
0.796735 0.550942 0.537514
0.796613 0.582177 0.53431
0.796399 0.615015 0.525948
0.796063 0.649454 0.509026
0.795621 0.678843 0.482567
0.795041 0.703273 0.45655
0.7944 0.722606 0.488457
0.793805 0.738003 0.566339
0.793362 0.750683 0.621027
0 0.105577 0
0 0.106874 0
0 0.107851 0
0 0.108492 0
0 0.108934 0
0 0.109194 0
0 0.109422 0
0.069398 0.109865 0
0.124819 0.109575 0
0.190753 0.108141 0
0.256291 0.105318 0
0.323247 0.101854 0
0.393637 0.0980087 0.0077821
0.469474 0.0940719 0.0271153
0.542947 0.0878614 0.0717937
0.601038 0.112581 0.168872
0.652216 0.23183 0.277546
0.70399 0.339956 0.379767
0.750546 0.428367 0.464759
0.78732 0.494606 0.525185
0.796826 0.511803 0.538857
0.796811 0.515175 0.538674
0.796811 0.521279 0.538323
0.79678 0.533242 0.537499
0.796719 0.554559 0.537057
0.796597 0.585321 0.533623
0.796384 0.6177 0.524788
0.796048 0.651316 0.507118
0.79559 0.680003 0.479683
0.795026 0.704005 0.45272
0.794385 0.723018 0.486168
0.79379 0.738277 0.565652
0.793347 0.750835 0.620813
0 0.145129 0
0 0.14638 0
0 0.147082 0
0 0.147799 0
0 0.148302 0
0 0.148638 0
0 0.148852 0
0.0283055 0.149157 0
0.101686 0.148363 0
0.174014 0.146715 0
0.247028 0.144442 0
0.319738 0.141924 0
0.394751 0.140276 0.00460822
0.473045 0.142824 0.0244907
0.545724 0.158221 0.068925
0.602457 0.195682 0.166491
0.653147 0.259953 0.278004
0.704341 0.340673 0.380438
0.750195 0.427726 0.464118
0.78645 0.495796 0.523766
0.796826 0.513924 0.53875
0.796811 0.517372 0.538552
0.796796 0.52433 0.538125
0.796765 0.537346 0.537179
0.796689 0.559426 0.536385
0.796582 0.589181 0.532647
0.796353 0.621164 0.523171
0.796017 0.653727 0.504524
0.79556 0.681514 0.47567
0.794995 0.704936 0.447517
0.794369 0.723568 0.483009
0.793774 0.738613 0.564706
0.793332 0.751034 0.620539
0 0.19527 0
0 0.195666 0
0 0.196048 0
0 0.196384 0
0 0.196567 0
0 0.196628 0
0 0.196521 0
0 0.19617 0
0.0583352 0.195651 0
0.142611 0.194583 0
0.229374 0.192935 0
0.310643 0.19089 0
0.392462 0.189151 0
0.475593 0.190417 0.0205539
0.54902 0.202197 0.0674449
0.604501 0.232471 0.167407
0.654429 0.287297 0.278813
0.704738 0.362387 0.37998
0.749645 0.436377 0.462547
0.785199 0.497078 0.521737
0.796811 0.516533 0.538598
0.796811 0.520821 0.538338
0.79678 0.528893 0.53782
0.79675 0.543145 0.53669
0.796674 0.565957 0.535378
0.796536 0.594079 0.531243
0.796323 0.625605 0.520928
0.795972 0.656764 0.500908
0.795514 0.683436 0.470069
0.794965 0.706157 0.440345
0.794339 0.724285 0.47863
0.793744 0.739055 0.563455
0.793317 0.751308 0.620172
0 0.2495 0
0 0.249866 0
0 0.250263 0
0 0.250538 0
0 0.250767 0
0 0.250904 0
0 0.25095 0
0 0.250843 0
0 0.250446 0
0.0843519 0.249622 0
0.194766 0.248447 0
0.292012 0.246815 0
0.384161 0.244984 0
0.474662 0.245167 0.0116884
0.551278 0.252415 0.0614939
0.606622 0.273503 0.166339
0.655924 0.315221 0.279576
0.705165 0.377569 0.379797
0.748775 0.442832 0.460456
0.783398 0.499046 0.51873
0.796811 0.520943 0.538338
0.796796 0.526284 0.537987
0.796765 0.535714 0.537316
0.796719 0.551278 0.535943
0.796643 0.574655 0.533715
0.796506 0.6009 0.529137
0.796262 0.631205 0.517708
0.795911 0.660609 0.495857
0.795468 0.685908 0.462043
0.794903 0.707698 0.430259
0.794293 0.7252 0.47248
0.793713 0.739635 0.561791
0.793286 0.751659 0.619699
0 0.312581 0
0 0.312963 0
0 0.313283 0
0 0.313573 0
0 0.313787 0
0 0.313954 0
0 0.314076 0
0 0.314137 0
0 0.314 0
0 0.31368 0
0.109895 0.312535 0
0.253422 0.311254 0
0.364645 0.309895 0
0.466239 0.309331 0
0.549645 0.312627 0.0432441
0.607584 0.325383 0.155871
0.657145 0.354086 0.277485
0.705303 0.400641 0.378103
0.747341 0.45507 0.456779
0.780819 0.504143 0.51426
0.796796 0.528374 0.537835
0.796765 0.534997 0.537362
0.796735 0.545892 0.536446
0.796674 0.562585 0.534676
0.796597 0.585275 0.531136
0.796445 0.609842 0.525948
0.796201 0.638163 0.513054
0.79585 0.665309 0.489021
0.795392 0.689021 0.45037
0.794842 0.709667 0.415488
0.794247 0.726375 0.463661
0.793667 0.740383 0.559518
0.793256 0.752102 0.619074
0 0.386053 0
0 0.386374 0
0 0.386664 0
0 0.386892 0
0 0.387076 0
0 0.387243 0
0 0.387396 0
0 0.387518 0
0 0.38764 0
0 0.387701 0
0 0.387701 0
0.139788 0.386633 0
0.321904 0.385657 0
0.444892 0.384573 0
0.541024 0.38497 0
0.605005 0.390295 0.114
0.656794 0.406012 0.265766
0.704723 0.436271 0.37261
0.745266 0.477317 0.45069
0.777478 0.515419 0.507836
0.79675 0.540658 0.536904
0.796735 0.548547 0.536187
0.796689 0.560616 0.53492
0.796628 0.577874 0.532555
0.796521 0.596902 0.527962
0.796353 0.620905 0.52105
0.796094 0.646601 0.506142
0.795758 0.671 0.478859
0.795316 0.692897 0.433188
0.794781 0.712123 0.392691
0.794186 0.727886 0.450797
0.793606 0.741344 0.556451
0.79321 0.752697 0.618219
0 0.465354 0
0 0.465614 0
0 0.465843 0
0 0.466026 0
0 0.466209 0
0 0.466361 0
0 0.466514 0
0 0.466667 0
0 0.466773 0
0 0.466804 0
0 0.466667 0
0 0.46627 0
0.19202 0.464363 0
0.402564 0.462699 0
0.522347 0.461555 0
0.597635 0.462501 0.013489
0.653193 0.469383 0.22623
0.702586 0.486244 0.357916
0.74226 0.510292 0.440101
0.773175 0.536156 0.498146
0.796689 0.559731 0.535012
0.796658 0.568383 0.533944
0.796613 0.580728 0.532067
0.796536 0.594354 0.528725
0.796414 0.61265 0.522515
0.796246 0.634089 0.513252
0.795972 0.656489 0.495506
0.795636 0.67776 0.462882
0.795193 0.697597 0.406149
0.79469 0.715145 0.352285
0.794095 0.729793 0.431876
0.79353 0.742565 0.552224
0.793149 0.753445 0.617121
0 0.538811 0
0 0.538933 0
0 0.53904 0
0 0.539132 0
0 0.539193 0
0 0.539254 0
0 0.539315 0
0 0.539361 0
0 0.539376 0
0 0.53933 0
0 0.539162 0
0 0.53875 0
0 0.537957 0
0.279713 0.535744 0
0.484596 0.534234 0
0.584634 0.533333 0
0.644984 0.534401 0.0497292
0.697047 0.540307 0.315007
0.737392 0.552087 0.418357
0.767636 0.567346 0.481651
0.791821 0.583688 0.523369
0.796551 0.592203 0.529351
0.79649 0.601877 0.526436
0.796399 0.615106 0.521477
0.796262 0.631098 0.513085
0.796078 0.649073 0.500328
0.795804 0.667643 0.478202
0.795468 0.685725 0.436866
0.795056 0.703166 0.360845
0.794598 0.718807 0.258793
0.793988 0.732158 0.401282
0.793439 0.744106 0.546319
0.793072 0.754391 0.615641
0 0.595499 0
0 0.595544 0
0 0.59556 0
0 0.59559 0
0 0.59559 0
0 0.595605 0
0 0.595621 0
0 0.59559 0
0 0.59556 0
0 0.595468 0
0 0.5953 0
0 0.594965 0
0 0.594385 0
0 0.593561 0
0.374533 0.591791 0
0.554925 0.590692 0
0.630808 0.590112 0
0.687007 0.591043 0.0659953
0.729137 0.594644 0.358877
0.760113 0.601358 0.445747
0.783978 0.610376 0.498497
0.796368 0.619501 0.519478
0.796292 0.62797 0.514992
0.796185 0.638575 0.50782
0.796033 0.651164 0.49604
0.79585 0.665125 0.477256
0.79559 0.679728 0.447532
0.79527 0.694804 0.390005
0.794919 0.709621 0.24007
0.794751 0.723354 0
0.793866 0.735073 0.340185
0.793317 0.746014 0.537896
0.792981 0.755581 0.613703
0 0.641642 0
0 0.641627 0
0 0.641627 0
0 0.641596 0
0 0.641596 0
0 0.641566 0
0 0.64152 0
0 0.641459 0
0 0.641352 0
0 0.641184 0
0 0.640909 0
0 0.640452 0
0 0.63975 0
0 0.638788 0
0 0.637552 0
0.475563 0.635172 0
0.608667 0.633722 0
0.672023 0.633143 0
0.71751 0.634256 0
0.750271 0.637034 0.341741
0.775143 0.641993 0.441901
0.793225 0.648524 0.491234
0.796002 0.654826 0.491661
0.79588 0.662333 0.480644
0.795743 0.671244 0.462287
0.79556 0.681376 0.431205
0.795316 0.692714 0.386908
0.795056 0.704784 0.251347
0.79498 0.717006 0
0.794537 0.728206 0
0.793896 0.738735 0.0687877
0.793164 0.748318 0.525444
0.792859 0.757061 0.611093
0 0.680827 0
0 0.680781 0
0 0.680735 0
0 0.680674 0
0 0.680629 0
0 0.680568 0
0 0.680476 0
0 0.680354 0
0 0.680186 0
0 0.679927 0
0 0.67953 0
0 0.67895 0
0 0.678141 0
0 0.677073 0
0 0.6757 0
0 0.674022 0
0.576028 0.671107 0
0.654261 0.669642 0
0.703822 0.669169 0
0.739651 0.669963 0
0.766033 0.67187 0.16463
0.785046 0.675212 0.393606
0.79559 0.679484 0.438071
0.795499 0.68426 0.419196
0.795377 0.690364 0.385626
0.795209 0.697719 0.310536
0.795193 0.706279 0.0449226
0.795026 0.715404 0
0.794675 0.724514 0
0.794278 0.733745 0
0.793835 0.742901 0
0.792966 0.751064 0.505913
0.792691 0.758877 0.607614
0 0.710918 0
0 0.710842 0
0 0.710765 0
0 0.710689 0
0 0.710613 0
0 0.710521 0
0 0.710399 0
0 0.710231 0
0 0.710002 0
0 0.709667 0
0 0.709194 0
0 0.708553 0
0 0.707683 0
0 0.706554 0
0 0.705104 0
0 0.703334 0
0.492653 0.700267 0
0.635554 0.698405 0
0.690288 0.697246 0
0.728664 0.696895 0
0.757 0.69749 0
0.777478 0.699107 0
0.793042 0.701549 0.0740826
0.795285 0.704677 0.00753796
0.795254 0.70869 0
0.795087 0.713542 0
0.794873 0.719234 0
0.794614 0.725521 0
0.794308 0.732448 0
0.793942 0.739849 0
0.793561 0.747387 0
0.792752 0.754192 0.476432
0.792508 0.761028 0.602899
0 0.734432 0
0 0.73434 0
0 0.734249 0
0 0.734127 0
0 0.734035 0
0 0.733913 0
0 0.733761 0
0 0.733562 0
0 0.733288 0
0 0.732906 0
0 0.732418 0
0 0.731746 0
0 0.730877 0
0 0.729732 0
0 0.728313 0
0 0.726543 0
0 0.724559 0
0.61474 0.721523 0
0.677363 0.720088 0
0.718044 0.719158 0
0.747707 0.718883 0
0.769543 0.719326 0
0.786435 0.720455 0
0.794751 0.722164 0
0.794659 0.724346 0
0.794537 0.727275 0
0.794354 0.730999 0
0.794141 0.735485 0
0.793866 0.740658 0
0.793561 0.746319 0
0.79324 0.752255 0
0.792493 0.757702 0.463584
0.792264 0.763531 0.59649
0 0.751797 0
0 0.751659 0
0 0.751553 0
0 0.751431 0
0 0.751308 0
0 0.751186 0
0 0.751034 0
0 0.750805 0
0 0.750515 0
0 0.750149 0
0 0.749645 0
0 0.748974 0
0 0.748119 0
0 0.747021 0
0 0.745617 0
0 0.743923 0
0 0.742092 0
0.59527 0.739101 0
0.667018 0.737606 0
0.709545 0.736431 0
0.739635 0.735729 0
0.76231 0.735515 0
0.780163 0.735821 0
0.79353 0.73666 0
0.794003 0.737804 0
0.793912 0.739605 0
0.793759 0.742046 0
0.793591 0.745113 0
0.793362 0.748745 0
0.793118 0.75285 0
0.792859 0.757305 0
0.792203 0.761578 0.45156
0.792035 0.766369 0.596201
0 0.76495 0
0 0.764813 0
0 0.764706 0
0 0.764584 0
0 0.764446 0
0 0.76434 0
0 0.764187 0
0 0.763943 0
0 0.763668 0
0 0.763317 0
0 0.762829 0
0 0.762203 0
0 0.761379 0
0 0.760342 0
0 0.759045 0
0 0.757534 0
0 0.755917 0
0.580423 0.753124 0
0.659739 0.751675 0
0.703014 0.750469 0
0.732891 0.749599 0
0.755779 0.749096 0
0.774075 0.748913 0
0.788067 0.749142 0
0.793271 0.74966 0
0.79321 0.750576 0
0.793118 0.75201 0
0.792996 0.753948 0
0.792828 0.756344 0
0.792645 0.759197 0
0.792462 0.762493 0
0.791867 0.765667 0.446693
0.791775 0.769451 0.597742
0 0.774716 0
0 0.774609 0
0 0.774487 0
0 0.77438 0
0 0.774258 0
0 0.774151 0
0 0.773999 0
0 0.7738 0
0 0.773526 0
0 0.77319 0
0 0.772747 0
0 0.772152 0
0 0.771405 0
0 0.770459 0
0 0.769345 0
0 0.768078 0
0 0.766735 0
0.579553 0.764172 0
0.657572 0.762844 0
0.69929 0.761685 0
0.728069 0.760784 0
0.750652 0.760098 0
0.76878 0.759655 0
0.783017 0.759518 0
0.792538 0.759625 0
0.792508 0.759915 0
0.792462 0.760647 0
0.79237 0.761791 0
0.792264 0.763333 0
0.792142 0.765286 0
0.79202 0.76762 0
0.791516 0.769818 0.457282
0.791501 0.772686 0.600977
0 0.781613 0
0 0.781521 0
0 0.781415 0
0 0.781308 0
0 0.781201 0
0 0.781094 0
0 0.780957 0
0 0.780774 0
0 0.780545 0
0 0.780224 0
0 0.779828 0
0 0.779339 0
0 0.778729 0
0 0.777981 0
0 0.777096 0
0 0.776104 0
0 0.775067 0
0.598596 0.772656 0
0.661814 0.771542 0
0.698894 0.77052 0
0.725551 0.76965 0
0.747143 0.768933 0
0.764645 0.768383 0
0.778622 0.768032 0
0.78996 0.76791 0
0.791806 0.767895 0
0.791791 0.768154 0
0.79176 0.768734 0
0.791699 0.769665 0
0.791638 0.770916 0
0.791592 0.772473 0
0.79115 0.773831 0.487694
0.791211 0.775891 0.6065
0 0.786358 0
0 0.786267 0
0 0.786191 0
0 0.786114 0
0 0.786023 0
0 0.785946 0
0 0.78584 0
0 0.785718 0
0 0.785534 0
0 0.785306 0
0 0.785 0
0 0.784649 0
0 0.784207 0
0 0.783658 0
0 0.783017 0
0 0.7823 0
0.505241 0.78027 0
0.627176 0.779278 0
0.671489 0.778363 0
0.701656 0.777508 0
0.725475 0.776715 0
0.745312 0.775998 0
0.761685 0.775418 0
0.775128 0.77499 0
0.786191 0.774716 0
0.79115 0.774517 0
0.79118 0.774487 0
0.79118 0.77467 0
0.791165 0.775128 0
0.791165 0.77586 0
0.791196 0.776822 0
0.790799 0.777539 0.527352
0.790936 0.779004 0.614664
0 0.787381 0
0 0.787381 0
0 0.787381 0
0 0.787381 0
0 0.787381 0
0 0.787381 0
0 0.787381 0
0 0.787396 0
0 0.787396 0
0 0.787396 0
0 0.787396 0
0 0.787396 0
0 0.787411 0
0 0.787411 0
0 0.787305 0
0.532219 0.785519 0
0.61651 0.784833 0
0.65597 0.784146 0
0.684596 0.783444 0
0.707805 0.782757 0
0.727947 0.782071 0
0.745357 0.781415 0
0.760113 0.78085 0
0.772671 0.780392 0
0.783246 0.780041 0
0.790585 0.779782 0
0.790631 0.779583 0
0.790661 0.779538 0
0.790707 0.779706 0
0.790753 0.780072 0
0.790845 0.780652 0
0.790494 0.780941 0.5664
0.790707 0.781933 0.625406
0 0.787442 0
0 0.787442 0
0 0.787442 0
0 0.787442 0
0 0.787442 0
0 0.787442 0
0 0.787457 0
0 0.787457 0
0 0.787457 0
0 0.787457 0
0.354757 0.786404 0
0.500618 0.786252 0
0.560067 0.786206 0
0.594659 0.786175 0
0.620096 0.786175 0
0.642695 0.786175 0
0.663203 0.786191 0
0.681971 0.786221 0
0.699763 0.786252 0
0.71667 0.786313 0
0.732555 0.786099 0
0.747082 0.78555 0
0.759869 0.785046 0
0.771237 0.784588 0
0.781003 0.784207 0
0.789044 0.783932 0
0.790173 0.783673 0
0.790249 0.783505 0
0.790326 0.78349 0
0.790433 0.783642 0
0.790112 0.783475 0.489677
0.79028 0.783917 0.596918
0.790539 0.784558 0.638285
0.63006 0.786206 0
0.631342 0.786206 0
0.632609 0.786206 0
0.633844 0.786206 0
0.63505 0.786206 0
0.636286 0.786221 0
0.637842 0.786221 0
0.639826 0.786206 0
0.642374 0.786206 0
