BBLuts/BB_104_0280_LUT.cube
TITLE "Generated by Resolve"
LUT_3D_SIZE 5
0 0 0
0.165805 0 0
0.732921 0 0
0.903441 0.466438 0.0928206
0.905577 0.820142 0.656947
0.00352483 0.16463 0.00180056
0.155566 0.165194 0
0.748425 0.0377661 0
0.904402 0.55967 0.0643015
0.905577 0.820951 0.65655
0.00424201 0.72076 0
0.00416571 0.72047 0
0.749462 0.717113 0
0.90277 0.750637 0
0.905638 0.826169 0.653605
0.638651 0.856123 0.147662
0.687495 0.854505 0.147768
0.802182 0.848844 0.158679
0.903639 0.844038 0.293339
0.905669 0.844633 0.666835
0.887083 0.851087 0.714992
0.887343 0.851087 0.715023
0.88922 0.851102 0.715251
0.899504 0.851194 0.717205
0.90547 0.851179 0.731456
0 0 0.124788
0.148226 0 0.120317
0.735897 0 0.0910506
0.905333 0.448264 0.232624
0.905516 0.819867 0.666362
0.00631724 0.138003 0.116793
0.16318 0.132921 0.111345
0.736309 0 0.0788586
0.907149 0.547982 0.215183
0.905531 0.820676 0.666026
0.00364691 0.718395 0
0.00358587 0.718074 0
0.752453 0.714824 0
0.904692 0.751339 0.0607462
0.905577 0.825925 0.663447
0.647211 0.855833 0.146944
0.693248 0.854261 0.147143
0.803204 0.848753 0.158328
0.9037 0.844007 0.293278
0.905669 0.844617 0.666789
0.887114 0.851087 0.714992
0.887373 0.851087 0.715023
0.88925 0.851102 0.715251
0.899519 0.851194 0.717205
0.90547 0.851179 0.731456
0 0 0.639689
0 0 0.639811
0.738216 0 0.61912
0.890852 0.146593 0.656031
0.905394 0.818112 0.707576
0 0 0.638697
0 0 0.638834
0.74342 0 0.618051
0.905318 0.372229 0.661311
0.905409 0.818998 0.707393
0.0111849 0.69218 0.618357
0.0112154 0.692424 0.618585
0.745968 0.689647 0.622553
0.905882 0.736477 0.636576
0.905455 0.824567 0.706035
0.648524 0.854017 0.501213
0.69308 0.852461 0.500359
0.801205 0.846876 0.503685
0.900084 0.841627 0.566552
0.905592 0.84419 0.696345
0.887419 0.851087 0.714961
0.887678 0.851087 0.714992
0.889525 0.851102 0.715221
0.899611 0.851194 0.717174
0.90547 0.851179 0.731456
0 0 0.773388
0 0 0.773388
0 0 0.773388
0.862623 0 0.760037
0.905272 0.798383 0.767529
0 0 0.773388
0 0 0.773388
0 0 0.773388
0.862623 0 0.760037
0.905287 0.800275 0.767346
0 0 0.773388
0 0 0.773388
0.304311 0 0.765469
0.862623 0 0.760037
0.905364 0.811627 0.766247
0.0468605 0.859373 0.771313
0.0467689 0.85832 0.771221
0.70341 0.844282 0.76286
0.890211 0.835492 0.761059
0.905608 0.84184 0.76289
0.885801 0.851026 0.750103
0.886046 0.851026 0.750103
0.887831 0.851041 0.750195
0.897765 0.851133 0.750881
0.905516 0.851148 0.755947
0.00384527 0.234775 0.782864
0.00384527 0.234775 0.782864
0.00384527 0.234791 0.782864
0.00384527 0.234943 0.782864
0.908598 0.674678 0.784405
0.00383001 0.23476 0.782864
0.00383001 0.23476 0.782864
0.00384527 0.234775 0.782864
0.00384527 0.234928 0.782864
0.908598 0.674769 0.784405
0.00383001 0.234638 0.782864
0.00383001 0.234638 0.782864
0.00384527 0.234653 0.782864
0.381003 0.219516 0.782361
0.908583 0.675532 0.78436
0.00378424 0.233433 0.782864
0.00378424 0.233433 0.782864
0.00378424 0.233463 0.782864
0.862623 0 0.760037
0.908492 0.677943 0.784192
0.850843 0.850599 0.775494
0.852003 0.850599 0.775494
0.859617 0.850675 0.77557
0.888472 0.85098 0.775845
0.90573 0.851331 0.776181
