BBLuts/BB_103_0380_LUT.cube
TITLE "Generated by Resolve"
LUT_3D_SIZE 33
0 0 0
0 0 0
0 0 0
0 0 0
0 0 0
0.0231937 0 0
0.0756542 0 0
0.113939 0 0
0.15314 0 0
0.200519 0 0
0.257374 0 0
0.32224 0 0
0.39646 0 0
0.480278 0 0
0.566186 0 0
0.64181 0 0
0.714702 0 0
0.783017 0 0
0.842054 0 0
0.889158 0 0
0.900832 0 0
0.901778 0 0
0.897108 0.23093 0
0.887037 0.423468 0.0110933
0.877546 0.570123 0.0467689
0.869612 0.672068 0.0885176
0.862379 0.754192 0.140276
0.857221 0.814832 0.213748
0.853162 0.857191 0.314504
0.849607 0.888304 0.419562
0.846479 0.911101 0.509514
0.843809 0.928527 0.585138
0.84181 0.942275 0.64921
0 0 0
0 0 0
0 0 0
0 0 0
0 0 0
0.0332494 0 0
0.0789197 0 0
0.116625 0 0
0.157549 0 0
0.205859 0 0
0.263096 0 0
0.326925 0 0
0.39794 0 0
0.481941 0 0
0.567544 0 0
0.642527 0 0
0.715267 0 0
0.783017 0 0
0.841993 0 0
0.888853 0 0
0.900816 0 0
0.901122 0 0
0.896101 0.260517 0
0.885237 0.438193 6.10361e-05
0.87686 0.577417 0.0437171
0.8692 0.67599 0.0868849
0.862196 0.756191 0.139696
0.85713 0.815793 0.213626
0.853117 0.857664 0.314214
0.849592 0.888548 0.419409
0.846479 0.911223 0.509453
0.843809 0.928588 0.585092
0.84181 0.942306 0.64918
0 0 0
0 0 0
0 0 0
0 0 0
0 0 0
0.0384527 0 0
0.0793317 0 0
0.11873 0 0
0.16173 0 0
0.209583 0 0
0.265538 0 0
0.328008 0 0
0.399954 0 0
0.483986 0 0
0.568917 0 0
0.643519 0 0
0.715572 0 0
0.783261 0 0
0.841917 0 0
0.888518 0 0
0.900786 0 0
0.898863 0.0390936 0
0.894774 0.28986 0
0.883589 0.451774 0
0.876204 0.584329 0.0409247
0.868818 0.679484 0.0854353
0.862013 0.758038 0.139162
0.857069 0.816678 0.213519
0.853086 0.858106 0.313939
0.849592 0.888792 0.419242
0.846464 0.911345 0.509377
0.843793 0.928679 0.585046
0.841794 0.942336 0.64918
0 0 0
0 0 0
0 0 0
0 0 0
0 0 0
0.0399329 0 0
0.077409 0 0
0.116686 0 0
0.160464 0 0
0.210605 0 0
0.267842 0 0
0.329992 0 0
0.402396 0 0
0.486076 0 0
0.570321 0 0
0.644251 0 0
0.716152 0 0
0.783475 0 0
0.84181 0 0
0.888167 0 0
0.900755 0 0
0.898528 0.11252 0
0.893462 0.313329 0
0.882338 0.463355 0
0.875624 0.590249 0.038529
0.868482 0.682612 0.0841382
0.86186 0.759777 0.138674
0.856992 0.817533 0.213413
0.853056 0.858564 0.313649
0.849561 0.889021 0.419089
0.846464 0.911467 0.5093
0.843793 0.928725 0.585016
0.841794 0.942382 0.649149
0 0.0226596 0
0 0.0255894 0
0 0.0284276 0
0 0.0312047 0
0 0.0323491 0
0.0236973 0.0303807 0
0.0661173 0.0280003 0
0.107652 0.0229191 0
0.154025 0.0114595 0
0.210254 0 0
0.268971 0 0
0.332357 0 0
0.404746 0 0
0.488182 0 0
0.572076 0 0
0.645289 0 0
0.716716 0 0
0.783703 0 0
0.841703 0 0
0.887785 0 0
0.90071 0 0
0.89839 0.155322 0
0.892149 0.333684 0
0.881407 0.475715 0
0.874998 0.596445 0.0354467
0.868147 0.685817 0.0826734
0.861692 0.76141 0.138201
0.856931 0.818372 0.213306
0.853025 0.859007 0.313375
0.849561 0.88925 0.418936
0.846448 0.911574 0.509239
0.843793 0.928801 0.584955
0.841794 0.942412 0.649134
0 0.0553597 0
0 0.0576791 0
0 0.06009 0
0 0.0619669 0
0 0.0629129 0
0.000610361 0.0619669 0
0.0542 0.060502 0
0.0995651 0.0582895 0
0.147677 0.0538033 0
0.202457 0.0447547 0
0.263142 0.0271916 0
0.33257 0 0
0.406668 0 0
0.490745 0 0
0.573709 0 0
0.646174 0 0
0.717357 0 0
0.783932 0 0
0.841566 0 0
0.887373 0 0
0.899702 0 0
0.897993 0.191226 0
0.890883 0.351507 0
0.880629 0.486336 0
0.874403 0.602182 0.0325017
0.867781 0.689128 0.0810407
0.861524 0.763241 0.137682
0.856855 0.819165 0.213214
0.852995 0.859434 0.3131
0.849546 0.889479 0.418769
0.846448 0.911711 0.509163
0.843793 0.928862 0.584924
0.841794 0.942443 0.649104
0 0.0894331 0
0 0.0913863 0
0 0.0932937 0
0 0.0944533 0
0 0.0952926 0
0 0.0955673 0
0.0315099 0.093843 0
0.0876173 0.092607 0
0.139223 0.0901045 0
0.196429 0.0849012 0
0.258473 0.0752575 0
0.326436 0.0598001 0
0.403082 0.0321965 0
0.491905 0 0
0.575372 0 0
0.64773 0 0
0.717845 0 0
0.783963 0 0
0.841184 0 0
0.88687 0 0
0.897688 0.0436408 0
0.8972 0.22768 0
0.889418 0.37113 0
0.879744 0.498619 0
0.873747 0.608423 0.0292668
0.867384 0.692866 0.0792248
0.861326 0.765423 0.137041
0.856764 0.82031 0.213107
0.852964 0.859937 0.312795
0.849531 0.889738 0.418601
0.846433 0.911849 0.509087
0.843778 0.928939 0.584863
0.841794 0.942489 0.649088
0 0.128237 0
0 0.129946 0
0 0.131212 0
0 0.132189 0
0 0.132769 0
0 0.133303 0
0 0.132891 0
0.0630655 0.131365 0
0.125505 0.12987 0
0.186328 0.126543 0
0.251575 0.119631 0
0.323018 0.109422 0
0.401633 0.0947433 0
0.487984 0.0718853 0
0.572488 0.0264439 0
0.647486 0 0
0.71783 0 0
0.784466 0 0
0.840955 0 0
0.883787 0.00213626 0
0.897307 0.128862 0
0.895674 0.270665 0
0.88748 0.396521 0
0.878614 0.514595 0
0.87277 0.616785 0.0228275
0.86685 0.69778 0.0767987
0.861051 0.768338 0.136217
0.856641 0.82182 0.212985
0.852903 0.860792 0.312306
0.8495 0.89012 0.418341
0.846418 0.912047 0.508965
0.843778 0.929061 0.584802
0.841794 0.94255 0.649042
0 0.174166 0
0 0.175463 0
0 0.176364 0
0 0.177081 0
0 0.177584 0
0 0.178149 0
0 0.178393 0
0.018555 0.17705 0
0.0990311 0.175723 0
0.16849 0.173159 0
0.239277 0.168429 0
0.316106 0.160967 0
0.399573 0.150759 0
0.488777 0.136477 0
0.571237 0.11751 0
0.64332 0.0924849 0
0.713939 0.0576638 0
0.782345 0 0
0.837964 0.0011902 0
0.881407 0.102815 0
0.896284 0.210803 0
0.893126 0.318639 0
0.885115 0.427237 0
0.87718 0.534524 0
0.871443 0.62678 0.0130465
0.866072 0.704799 0.0731518
0.8607 0.772183 0.135119
0.856474 0.823896 0.212802
0.852827 0.861952 0.31162
0.849454 0.890761 0.417929
0.846403 0.912352 0.508797
0.843763 0.929213 0.584695
0.841779 0.942641 0.648981
0 0.227359 0
0 0.227985 0
0 0.228367 0
0 0.228687 0
0 0.22916 0
0 0.229236 0
0 0.229175 0
0 0.228855 0
0.0459297 0.227497 0
0.138445 0.22652 0
0.218784 0.22385 0
0.302556 0.218662 0
0.393011 0.210971 0
0.487648 0.20061 0
0.570947 0.189075 0
0.64303 0.176761 0
0.712825 0.166155 0
0.7785 0.160708 0
0.834852 0.173739 0
0.878676 0.218509 0
0.8934 0.288289 0
0.889281 0.37293 0
0.882139 0.465919 0
0.875334 0.55877 0
0.869535 0.639918 0.000564584
0.865064 0.714076 0.0681773
0.860212 0.777584 0.133593
0.856245 0.826673 0.212573
0.85272 0.863554 0.310719
0.849409 0.89163 0.417365
0.846372 0.912856 0.508492
0.843748 0.929458 0.584543
0.841779 0.942763 0.648905
0 0.286793 0
0 0.287434 0
0 0.287846 0
0 0.288182 0
0 0.288426 0
0 0.288579 0
0 0.288685 0
0 0.288899 0
0 0.288502 0
0.0759289 0.288289 0
0.184421 0.288167 0
0.278798 0.285344 0
0.378317 0.279973 0
0.4813 0.272938 0
0.568521 0.265782 0
0.642145 0.259388 0
0.711376 0.25626 0
0.775845 0.259251 0
0.830762 0.275639 0
0.872374 0.311879 0
0.888182 0.365774 0
0.884642 0.433204 0
0.878813 0.51165 0
0.872953 0.588373 0
0.867018 0.656565 0
0.863783 0.726055 0.0623178
0.859586 0.784649 0.131609
0.85594 0.830488 0.212345
0.852567 0.865644 0.309483
0.849332 0.892821 0.416602
0.846326 0.913527 0.50808
0.843732 0.929854 0.584268
0.841764 0.942946 0.648798
0 0.359426 0
0 0.359716 0
0 0.360128 0
0 0.3608 0
0 0.361074 0
0 0.361273 0
0 0.361471 0
0 0.361563 0
0 0.361471 0
0 0.361959 0
0.115267 0.363851 0
0.238743 0.364157 0
0.351583 0.361624 0
0.465537 0.357702 0
0.56022 0.352865 0
0.637064 0.349416 0
0.707088 0.350454 0
0.770092 0.357092 0
0.822705 0.373739 0
0.862715 0.403418 0
0.881743 0.445396 0
0.879667 0.499702 0
0.875242 0.559976 0
0.870146 0.621317 0
0.864851 0.679179 0
0.862272 0.740749 0.0557259
0.858793 0.793683 0.129122
0.855543 0.835584 0.212116
0.852354 0.868589 0.309102
0.849226 0.894377 0.41561
0.846281 0.914458 0.50753
0.843702 0.930404 0.583886
0.841749 0.943252 0.6486
0 0.447486 0
0 0.447669 0
0 0.448051 0
0 0.448356 0
0 0.4486 0
0 0.449226 0
0 0.449454 0
0 0.449653 0
0 0.449836 0
0 0.449943 0
0.00427253 0.451911 0
0.165133 0.45626 0
0.307378 0.456214 0
0.43653 0.454124 0
0.543221 0.451118 0
0.625025 0.448936 0
0.698146 0.449805 0
0.761349 0.456291 0
0.812497 0.471061 0
0.851621 0.495171 0
0.87541 0.52726 0
0.8748 0.565652 0
0.871061 0.610864 0
0.867002 0.655909 0
0.862364 0.706096 0
0.860426 0.75874 0.0461585
0.857862 0.804685 0.126207
0.855055 0.842069 0.212009
0.852064 0.87248 0.309804
0.849088 0.896574 0.414328
0.846204 0.915694 0.506783
0.843656 0.931136 0.583368
0.841718 0.943694 0.648295
0 0.545663 0
0 0.545724 0
0 0.545983 0
0 0.546227 0
0 0.546426 0
0 0.546624 0
0 0.546807 0
0 0.547036 0
0 0.547555 0
0 0.547646 0
0 0.547539 0
0.049485 0.550515 0
0.235294 0.55346 0
0.391608 0.55172 0
0.51548 0.549645 0
0.606287 0.547631 0
0.685222 0.548287 0
0.751003 0.55288 0
0.802029 0.56318 0
0.840085 0.579858 0
0.868376 0.602335 0
0.869261 0.627588 0
0.866773 0.658473 0
0.86334 0.695552 0
0.859648 0.736263 0
0.858396 0.779202 0.0344549
0.856779 0.817853 0.122637
0.854444 0.850065 0.212131
0.851698 0.877409 0.310903
0.84889 0.899458 0.412757
0.846098 0.917433 0.50576
0.843595 0.932113 0.582681
0.841672 0.944274 0.647913
0 0.631632 0
0 0.631632 0
0 0.631724 0
0 0.631861 0
0 0.631952 0
0 0.632044 0
0 0.63212 0
0 0.632227 0
0 0.632273 0
0 0.632242 0
0 0.632395 0
0 0.631952 0
0.115816 0.634668 0
0.327459 0.634989 0
0.477592 0.633555 0
0.581262 0.632151 0
0.667201 0.631998 0
0.736873 0.634791 0
0.789105 0.641077 0
0.827161 0.65156 0
0.856397 0.666667 0
0.863432 0.685542 0
0.862058 0.709331 0
0.859525 0.737575 0
0.856962 0.768368 0
0.856199 0.801297 0.0193942
0.855619 0.8327 0.11957
0.853727 0.859846 0.212665
0.85124 0.883452 0.31249
0.84863 0.903105 0.412726
0.84596 0.919753 0.504448
0.843503 0.933486 0.581735
0.841627 0.945037 0.647395
0 0.708415 0
0 0.708415 0
0 0.708415 0
0 0.708476 0
0 0.708507 0
0 0.708537 0
0 0.708553 0
0 0.708583 0
0 0.708553 0
0 0.708446 0
0 0.708186 0
0 0.707958 0
0 0.708354 0
0.219776 0.710643 0
0.427543 0.70959 0
0.550439 0.707652 0
0.643992 0.706645 0
0.718471 0.70782 0
0.772961 0.711986 0
0.812345 0.719066 0
0.841382 0.729458 0
0.857114 0.74316 0
0.857404 0.759426 0
0.856138 0.778714 0
0.854505 0.80029 0
0.853758 0.82388 0.000274662
0.854429 0.848905 0.117006
0.852918 0.871077 0.214694
0.85069 0.890745 0.3149
0.84828 0.907576 0.414939
0.845762 0.922698 0.503685
0.843397 0.935332 0.580468
0.84155 0.94612 0.646647
0 0.78233 0
0 0.78233 0
0 0.78233 0
0 0.78233 0
0 0.782315 0
0 0.782315 0
0 0.782269 0
0 0.782208 0
0 0.782071 0
0 0.781826 0
0 0.781445 0
0 0.780758 0
0 0.77995 0
0.112627 0.782025 0
0.360922 0.780972 0
0.517357 0.7785 0
0.61796 0.775769 0
0.697154 0.775082 0
0.75465 0.776532 0
0.796139 0.780163 0
0.826719 0.785824 0
0.848615 0.793942 0
0.853605 0.804135 0
0.853376 0.816236 0
0.852415 0.830396 0
0.851453 0.846052 0
0.853223 0.866209 0.117021
0.852033 0.883406 0.218647
0.850065 0.899016 0.319112
0.847822 0.913466 0.41799
0.845487 0.926314 0.503807
0.843244 0.937667 0.579126
0.841459 0.947585 0.645624
0 0.843473 0
0 0.843473 0
0 0.843473 0
0 0.843473 0
0 0.843473 0
0 0.843427 0
0 0.843336 0
0 0.843183 0
0 0.842939 0
0 0.842557 0
0 0.842008 0
0 0.841123 0
0 0.839887 0
0.0291295 0.839872 0
0.290242 0.839597 0
0.486076 0.835431 0
0.596048 0.831174 0
0.678187 0.828794 0
0.737469 0.828321 0
0.78114 0.829297 0
0.813306 0.831769 0
0.836591 0.835782 0
0.850034 0.841367 0
0.850965 0.848707 0
0.85066 0.857694 0
0.850477 0.868971 0
0.852079 0.883635 0.123339
0.851087 0.89633 0.22562
0.849348 0.90808 0.325368
0.847288 0.919905 0.422721
0.845121 0.930724 0.506279
0.843061 0.940536 0.577798
0.841337 0.949447 0.644358
0 0.88922 0
0 0.88922 0
0 0.88922 0
0 0.88922 0
0 0.88922 0
0 0.88922 0
0 0.88922 0
0 0.889052 0
0 0.888747 0
0 0.888212 0
0 0.887495 0
0 0.886503 0
0 0.885161 0
0 0.884459 0
0.240131 0.883497 0
0.466972 0.878111 0
0.581949 0.872847 0
0.664561 0.869245 0
0.723781 0.867643 0
0.767819 0.867247 0
0.80148 0.867826 0
0.825895 0.869627 0
0.844602 0.872587 0
0.84892 0.876799 0
0.849134 0.882307 0
0.85037 0.891096 0.0286107
0.850996 0.900526 0.138231
0.850141 0.909117 0.236378
0.848524 0.918227 0.334478
0.846677 0.927108 0.429236
0.844678 0.935821 0.51017
0.842756 0.943969 0.580285
0.841199 0.951751 0.642832
0 0.924575 0
0 0.924575 0
0 0.924575 0
0 0.924575 0
0 0.924575 0
0 0.924575 0
0 0.924575 0
0 0.924575 0
0 0.924422 0
0 0.923858 0
0 0.922942 0
0 0.921828 0
0 0.92047 0
0 0.919463 0
0.25037 0.917403 0
0.464561 0.911086 0
0.576349 0.905364 0
0.656062 0.900862 0
0.713649 0.898512 0
0.757107 0.897337 0
0.79086 0.896925 0
0.81619 0.897261 0
0.835935 0.898451 0
0.846693 0.900511 0
0.847822 0.903456 0
0.849729 0.910338 0.0612192
0.849958 0.916335 0.159289
0.849104 0.922179 0.253101
0.847669 0.928283 0.346914
0.845975 0.934874 0.438193
0.84416 0.941436 0.515602
0.84239 0.947967 0.584314
0.84097 0.954543 0.644373
0 0.949966 0
0 0.949966 0
0 0.949966 0
0 0.949966 0
0 0.949966 0
0 0.949966 0
0 0.949966 0
0 0.949966 0
0 0.949966 0
0 0.949935 0
0 0.948974 0
0 0.947707 0
0 0.946242 0
0 0.944808 0
0.306905 0.941131 0
0.481209 0.934722 0
0.581003 0.928893 0
0.654078 0.924788 0
0.708095 0.92221 0
0.749844 0.920592 0
0.78262 0.919661 0
0.808011 0.91928 0
0.828367 0.919417 0
0.843992 0.920287 0
0.846433 0.92195 0
0.849012 0.927047 0.0969253
0.848905 0.930663 0.188495
0.848035 0.934325 0.27599
0.846723 0.938323 0.364858
0.845228 0.942748 0.449866
0.843565 0.947463 0.523171
0.841978 0.952438 0.589654
0.840681 0.957763 0.64741
0 0.968948 0
0 0.968948 0
0 0.968948 0
0 0.968948 0
0 0.968948 0
0 0.968948 0
0 0.968948 0
0 0.968948 0
0 0.968948 0
0 0.968948 0
0 0.968948 0
0 0.967712 0
0 0.966217 0
0.101183 0.964584 0
0.380407 0.958328 0
0.510842 0.952285 0
0.593469 0.946975 0
0.657343 0.943191 0
0.70634 0.940688 0
0.745464 0.939025 0
0.776562 0.937835 0
0.801251 0.937118 0
0.821546 0.936736 0
0.837644 0.936904 0
0.84683 0.939834 0.0621347
0.848203 0.941695 0.147982
0.847807 0.94345 0.226612
0.846922 0.945373 0.306371
0.845747 0.947723 0.388418
0.844388 0.9505 0.465751
0.842924 0.953643 0.532982
0.841489 0.957259 0.596719
0.84036 0.961334 0.651652
0 0.983063 0
0 0.983063 0
0 0.983063 0
0 0.983063 0
0 0.983063 0
0 0.983063 0
0 0.983063 0
0 0.983063 0
0 0.983063 0
0 0.983063 0
0 0.983063 0
0 0.983063 0
0 0.981598 0
0.298451 0.976761 0
0.453376 0.970611 0
0.544884 0.965179 0
0.61236 0.960739 0
0.665766 0.957549 0
0.708705 0.955276 0
0.743969 0.953613 0
0.772778 0.952438 0
0.796429 0.951507 0
0.816083 0.950881 0
0.83389 0.952667 0.0510109
0.845701 0.953475 0.130373
0.846937 0.953887 0.201892
0.846616 0.954299 0.272404
0.845762 0.955093 0.343908
0.844724 0.956298 0.416983
0.843503 0.957885 0.485695
0.842206 0.959838 0.546319
0.84097 0.962203 0.60557
0.840009 0.965148 0.657176
0.260975 0.990387 0
0.260975 0.990387 0
0.260975 0.990387 0
0.260975 0.990387 0
0.26096 0.990387 0
0.26096 0.990387 0
0.26096 0.990387 0
0.26096 0.990387 0
0.260945 0.990402 0
0.260929 0.990402 0
0.260929 0.990402 0
0.260899 0.990402 0
0.260853 0.990402 0
0.410498 0.984726 0
0.515572 0.979126 0
0.581689 0.97464 0
0.634867 0.971206 0
0.677989 0.968658 0
0.714641 0.966705 0
0.745541 0.965194 0
0.772671 0.965331 0.0162356
0.795331 0.965316 0.0616922
0.814374 0.964965 0.0992142
0.829877 0.96466 0.145449
0.84239 0.964309 0.200381
0.845518 0.963882 0.260334
0.84538 0.963546 0.323278
0.844572 0.963577 0.388174
0.843641 0.963958 0.450187
0.842573 0.964614 0.508339
0.841459 0.965621 0.563165
0.840421 0.967056 0.617197
0.839628 0.968994 0.663996
0.50901 0.992248 0.134707
0.50901 0.992248 0.134707
0.50901 0.992248 0.134707
0.50901 0.992248 0.134707
0.50901 0.992248 0.134707
0.50901 0.992248 0.134707
0.50901 0.992248 0.134707
0.50901 0.992248 0.134707
0.50901 0.992248 0.134707
0.50901 0.992248 0.134707
0.50901 0.992248 0.134707
0.50901 0.992248 0.134707
0.508995 0.992248 0.134707
0.50898 0.992248 0.134707
0.564141 0.988449 0.134417
0.618967 0.984787 0.136019
0.660227 0.982223 0.13959
0.695003 0.98024 0.144869
0.725582 0.978607 0.15256
0.751659 0.977295 0.162524
0.774563 0.976165 0.175357
0.794369 0.975143 0.191546
0.811475 0.974273 0.212192
0.825879 0.973434 0.237125
0.837812 0.972671 0.275456
0.843717 0.971893 0.32398
0.844114 0.97113 0.378531
0.843381 0.970672 0.433814
0.842527 0.970413 0.486931
0.841611 0.970459 0.5346
0.840681 0.970779 0.583932
0.839872 0.971542 0.631205
0.839231 0.972778 0.672816
0.613245 0.989258 0.262287
0.613245 0.989258 0.262287
0.613245 0.989258 0.262287
0.613245 0.989258 0.262287
0.613245 0.989258 0.262287
0.613245 0.989258 0.262287
0.613245 0.989258 0.262287
0.613245 0.989258 0.262287
0.613245 0.989258 0.262287
0.613245 0.989258 0.262287
0.613245 0.989258 0.262287
0.613245 0.989258 0.262287
0.61323 0.989258 0.262287
0.61323 0.989258 0.262287
0.613214 0.989258 0.262287
0.646448 0.988342 0.263462
0.681758 0.987488 0.266545
0.710277 0.985977 0.270481
0.734905 0.984649 0.275669
0.756512 0.983474 0.28278
0.776165 0.982406 0.291783
0.793774 0.981384 0.303258
0.809155 0.980438 0.317601
0.822446 0.979568 0.336049
0.833768 0.978744 0.358557
0.841871 0.97792 0.393576
0.842863 0.97702 0.435325
0.842191 0.976257 0.479927
0.841443 0.975677 0.522179
0.840681 0.975341 0.564935
0.839948 0.975296 0.607675
0.839338 0.975631 0.647639
0.838849 0.976333 0.683192
0.677119 0.986587 0.379995
0.677119 0.986587 0.379995
0.677119 0.986587 0.379995
0.677119 0.986587 0.379995
0.677119 0.986587 0.379995
0.677119 0.986587 0.379995
0.677119 0.986587 0.379995
0.677119 0.986587 0.379995
0.677104 0.986587 0.379995
0.677104 0.986587 0.379995
0.677104 0.986587 0.379995
0.677104 0.986587 0.379995
0.677104 0.986587 0.379995
0.677104 0.986587 0.379995
0.677089 0.986587 0.379995
0.677089 0.986587 0.379995
0.699565 0.986343 0.381888
0.724239 0.986221 0.385138
0.744121 0.986221 0.389105
0.761761 0.986267 0.393973
0.778897 0.986114 0.400595
0.79411 0.985519 0.408469
0.807706 0.984649 0.418357
0.819806 0.983841 0.430671
0.830289 0.983063 0.446189
0.838956 0.982315 0.464637
0.841108 0.981506 0.492576
0.841031 0.980606 0.523766
0.840421 0.979873 0.559503
0.839796 0.97937 0.597086
0.839261 0.979126 0.632929
0.838834 0.979171 0.665843
0.838483 0.979477 0.695171
0.720333 0.984894 0.481163
0.720333 0.984894 0.481163
0.720333 0.984894 0.481163
0.720333 0.984894 0.481163
0.720333 0.984894 0.481163
0.720333 0.984894 0.481163
0.720333 0.984894 0.481163
0.720333 0.984894 0.481163
0.720333 0.984894 0.481163
