BBLuts/BB_104_0050_LUT.cube
TITLE "Generated by Resolve"
LUT_3D_SIZE 9
0.00480659 0.0147555 0.0320592
0.00480659 0.0147555 0.0320592
0.196155 0.0166476 0.0351873
0.491814 0.0166171 0.0396124
0.72723 0.295354 0.386923
0.85594 0.623804 0.6692
0.854917 0.644144 0.668727
0.847547 0.766125 0.629969
0.841978 0.829236 0.745235
0 0.0603037 0.0286107
0 0.0686198 0.027985
0.202472 0.0529946 0.0324712
0.504189 0.0170596 0.0406195
0.728878 0.300633 0.392309
0.85594 0.623804 0.6692
0.854597 0.649729 0.667918
0.847471 0.768643 0.626047
0.841962 0.829541 0.744747
0 0.197406 0.016556
0 0.201129 0.0161288
0.139239 0.202808 0.0203403
0.513756 0.185473 0.0343786
0.731991 0.346532 0.401541
0.855817 0.626581 0.668986
0.854002 0.659785 0.666255
0.847349 0.772503 0.619104
0.841917 0.83003 0.743954
0 0.504952 0
0 0.506233 0
0 0.50695 0
0.406958 0.516625 0
0.734554 0.546288 0.388449
0.854841 0.645609 0.667094
0.85182 0.693233 0.658381
0.847211 0.782803 0.592737
0.841825 0.831449 0.741543
0 0.726497 0
0 0.726452 0
0 0.726207 0
0 0.724559 0
0.683757 0.72517 0.00106813
0.832044 0.736599 0.598291
0.847974 0.7635 0.610834
0.848356 0.80502 0.0167544
0.84155 0.835172 0.734051
0 0.836484 0.0259098
0 0.836027 0.0257267
0 0.835264 0.0254063
0 0.832959 0.024445
0 0.827146 0.0219883
0.802594 0.820737 0.0165408
0.847364 0.822843 0.0178225
0.846738 0.83212 0.0183413
0.84094 0.843168 0.717922
0 0.869154 0.0382086
0 0.868849 0.0381018
0 0.868391 0.0379492
0 0.86714 0.0375372
0.6047 0.862959 0.0322881
0.790631 0.855497 0.0188296
0.840497 0.853941 0.0192416
0.844572 0.854292 0.0192721
0.839506 0.853452 0.737942
0.758541 0.863737 0.0194553
0.760006 0.863737 0.0194247
0.762295 0.863706 0.0193637
0.768612 0.863691 0.0192569
0.783413 0.863691 0.0191501
0.808179 0.863813 0.0192264
0.834638 0.864118 0.0194553
0.840253 0.861585 0.623835
0.838468 0.859831 0.792813
0.818463 0.859831 0.817578
0.81857 0.859831 0.817609
0.818769 0.859831 0.817639
0.819318 0.859846 0.817761
0.82092 0.859861 0.818082
0.824918 0.859907 0.819043
0.832502 0.860014 0.821637
0.838956 0.860182 0.827695
0.839353 0.860471 0.841794
0.0108186 0.0187533 0.0797742
0.0108492 0.0187686 0.0800031
0.20206 0.0206455 0.0837262
0.493217 0.020798 0.0894942
0.727214 0.297749 0.405783
0.855924 0.623911 0.670176
0.854963 0.64329 0.669596
0.847471 0.765545 0.637263
0.841947 0.829145 0.751278
0.00556954 0.043946 0.0695811
0.0459449 0.0541085 0.0682841
0.220005 0.0199893 0.076051
0.499397 0.0201114 0.0790265
0.727916 0.29865 0.398001
0.85594 0.62388 0.669886
0.854643 0.648829 0.668803
0.847379 0.768063 0.633661
0.841917 0.82945 0.750851
0 0.187976 0.0175479
0 0.191073 0.0172427
0.160113 0.193469 0.0216678
0.511635 0.175937 0.0344091
0.730022 0.329473 0.395331
0.855833 0.626322 0.668986
0.854047 0.658839 0.667216
0.847257 0.771939 0.627375
0.841886 0.829938 0.750118
0 0.500038 0
0 0.501274 0
0 0.501778 0
0.427024 0.511254 0
0.73431 0.543267 0.388449
0.854871 0.645106 0.667155
0.851865 0.692409 0.659251
0.847059 0.782284 0.604028
0.841779 0.831357 0.747921
0 0.725689 0
0 0.725628 0
0 0.725368 0
0 0.72369 0
0.686091 0.724392 0.000991836
0.832135 0.736126 0.599023
0.847974 0.763241 0.611261
0.848371 0.804913 0.0167544
0.841489 0.835081 0.741176
0 0.836316 0.0258488
0 0.835859 0.0256504
0 0.835111 0.0253452
0 0.832792 0.0243687
0 0.827008 0.0219272
0.802808 0.820661 0.0165408
0.847379 0.822782 0.0178073
0.846738 0.832074 0.0183261
0.84094 0.843137 0.71873
0 0.869093 0.0381781
0 0.868788 0.0380865
0 0.86833 0.0379339
0 0.867094 0.0375067
0.609964 0.86273 0.031693
0.790768 0.855482 0.0188296
0.840528 0.853925 0.0192416
0.844587 0.854292 0.0192721
0.839506 0.853437 0.737896
0.75877 0.863737 0.0194553
0.76022 0.863722 0.0194247
0.762493 0.863722 0.0193637
0.76878 0.863691 0.0192569
0.783536 0.863691 0.0191501
0.808225 0.863813 0.0192264
0.834653 0.864118 0.01944
0.840253 0.861585 0.623774
0.838468 0.859831 0.792813
0.818479 0.859831 0.817578
0.818586 0.859831 0.817609
0.818769 0.859831 0.817639
0.819333 0.859846 0.817746
0.820935 0.859861 0.818082
0.824918 0.859907 0.819043
0.832502 0.860014 0.821637
0.838956 0.860182 0.827695
0.839353 0.860471 0.841794
0.0267033 0.0292973 0.209796
0.0267338 0.0293126 0.210056
0.194873 0.0308232 0.212253
0.5075 0.0314336 0.214099
0.72723 0.303517 0.444541
0.855924 0.624094 0.671717
0.855024 0.641779 0.671916
0.847333 0.764569 0.65005
0.841901 0.829007 0.760052
0.0261845 0.0289616 0.205447
0.026215 0.0289769 0.205844
0.219699 0.0304723 0.20798
0.505791 0.0310216 0.210163
0.728756 0.308049 0.447196
0.855924 0.624079 0.671595
0.854734 0.647105 0.671122
0.847242 0.767102 0.646967
0.841886 0.829313 0.75967
0 0.176455 0.180087
0 0.178424 0.179583
0.172854 0.175647 0.180224
0.496757 0.165743 0.193896
0.727855 0.304692 0.441337
0.855833 0.625834 0.67126
0.85417 0.65687 0.669566
0.847105 0.771023 0.641642
0.84184 0.829816 0.759045
0 0.486229 0.0123903
0 0.487724 0.0124056
0 0.488441 0.0132601
0.43415 0.497993 0.0497749
0.731319 0.533333 0.413809
0.854948 0.643565 0.668803
0.851987 0.690288 0.662455
0.846815 0.781445 0.622568
0.841733 0.83122 0.757137
0 0.72401 0
0 0.723934 0
0 0.723674 0
0 0.721981 0
0.688273 0.722805 0.000839246
0.832105 0.735027 0.600107
0.847974 0.762493 0.61471
0.84799 0.80441 0.329961
0.841428 0.834943 0.751339
0 0.836072 0.025742
0 0.835599 0.0255436
0 0.834852 0.0252384
0 0.832532 0.0242771
0 0.826795 0.0218509
0.803143 0.820523 0.0165408
0.847379 0.82269 0.0178073
0.846754 0.832029 0.0183261
0.840787 0.842939 0.732876
0 0.869001 0.0381476
0 0.868711 0.038056
0 0.868238 0.0379034
0 0.867018 0.0374914
0.617685 0.862379 0.030808
0.791012 0.855467 0.0188296
0.840574 0.85391 0.0192416
0.844587 0.854276 0.0192721
0.839506 0.853437 0.737835
0.759121 0.863737 0.01944
0.760571 0.863722 0.0194095
0.762829 0.863722 0.0193637
0.76907 0.863691 0.0192569
0.783734 0.863691 0.0191501
0.808316 0.863813 0.0192264
0.834684 0.864118 0.0194553
0.840253 0.861585 0.623774
0.838468 0.859831 0.792798
0.818494 0.859831 0.817578
0.818616 0.859831 0.817594
0.818814 0.859831 0.817639
0.819364 0.859846 0.817746
0.820951 0.859861 0.818067
0.824933 0.859907 0.819028
0.832517 0.860014 0.821622
0.838956 0.860182 0.827695
0.839353 0.860471 0.841794
0.124468 0.0927749 0.508995
0.124605 0.0928664 0.509178
0.124681 0.0929122 0.509285
0.492195 0.0951247 0.503304
0.739574 0.369558 0.573571
0.855833 0.625345 0.681666
0.855146 0.638529 0.687114
0.846952 0.761685 0.691249
0.841886 0.828717 0.780728
0.122301 0.0913863 0.506355
0.122515 0.0914931 0.5066
0.202762 0.0920882 0.506523
0.507744 0.0945144 0.500237
0.738308 0.365454 0.571878
0.855833 0.625299 0.681407
0.854887 0.643061 0.686229
0.846815 0.764294 0.689342
0.841871 0.829023 0.780453
0.108949 0.149355 0.501122
0.10837 0.154192 0.501305
0.218311 0.1514 0.501686
0.513634 0.0924239 0.495293
0.734432 0.353826 0.567132
0.855833 0.625238 0.680949
0.854398 0.651789 0.684596
0.846616 0.768307 0.686122
0.841825 0.829511 0.780011
0 0.441733 0.445045
0 0.443839 0.445212
0 0.445365 0.446067
0.448218 0.456397 0.467002
0.721416 0.500893 0.542611
0.855131 0.639475 0.678065
0.852308 0.68397 0.67776
0.846143 0.778958 0.675563
0.841703 0.83093 0.778668
0 0.716503 0
0 0.716487 0
0 0.716289 0
0 0.714733 0
0.686488 0.715877 0
0.830808 0.729961 0.61648
0.847807 0.759396 0.638163
0.845563 0.80116 0.633173
0.841367 0.834653 0.774655
0 0.83534 0.0254368
0 0.834882 0.0252384
0 0.834104 0.024918
0 0.8318 0.0239567
0 0.826062 0.0215305
0.802792 0.819898 0.0164645
0.847425 0.822187 0.0177768
0.84683 0.831678 0.0183108
0.840604 0.842603 0.762722
0 0.868711 0.038056
0 0.868437 0.0379644
0 0.867994 0.0378119
0 0.866804 0.0374151
0.636469 0.861524 0.0286564
0.791745 0.85539 0.0188296
0.840696 0.853849 0.0192416
0.844587 0.854246 0.0192721
0.839506 0.853422 0.737636
0.760189 0.863722 0.0194095
0.761608 0.863722 0.0193942
0.763821 0.863706 0.0193484
0.769924 0.863691 0.0192416
0.784314 0.863691 0.0191348
0.808591 0.863828 0.0192264
0.834745 0.864118 0.01944
0.840253 0.861585 0.623636
0.838468 0.859831 0.792737
0.818586 0.859831 0.817578
0.818708 0.859831 0.817594
0.818891 0.859831 0.817624
0.81944 0.859846 0.817746
0.821027 0.859861 0.818067
0.824994 0.859907 0.819028
0.832532 0.860014 0.821622
0.838956 0.860182 0.827695
0.839353 0.860471 0.841794
0.580575 0.559823 0.743282
0.580621 0.559915 0.743328
0.580697 0.560052 0.74342
0.587152 0.559182 0.742763
0.733761 0.574807 0.743832
0.85478 0.646052 0.766705
0.854536 0.65095 0.774441
0.846876 0.75494 0.783276
0.842268 0.828214 0.816968
0.580179 0.559091 0.742824
0.580224 0.559182 0.74287
0.580301 0.559335 0.742977
0.588113 0.558297 0.742199
0.736889 0.575204 0.743603
0.854795 0.645914 0.766354
0.854444 0.652293 0.773587
0.846677 0.757824 0.782528
0.842237 0.828519 0.816815
0.579553 0.55787 0.742077
0.579599 0.557977 0.742153
0.57969 0.558145 0.742245
0.589837 0.556878 0.741299
0.738781 0.575067 0.742931
0.854795 0.64567 0.765743
0.8542 0.655604 0.772137
0.846372 0.762188 0.781369
0.842191 0.829038 0.816571
0.575113 0.564141 0.737758
0.575113 0.564385 0.737774
0.575082 0.564675 0.737774
0.58616 0.563348 0.737102
0.737819 0.575662 0.739467
0.854704 0.64683 0.762356
0.852781 0.6748 0.767086
0.845624 0.773541 0.777951
0.842054 0.830488 0.815839
0 0.69604 0.705455
0 0.696239 0.705547
0 0.6963 0.705669
0 0.695338 0.706004
0.685206 0.696651 0.714717
0.826108 0.714656 0.735378
0.847196 0.750103 0.748745
0.844175 0.796948 0.76846
0.841672 0.834302 0.813733
0 0.833173 0.0245365
0 0.832715 0.0243534
0 0.831968 0.024033
0 0.829648 0.0230564
0 0.823713 0.0205234
0.795331 0.815579 0.607767
0.843534 0.816922 0.695644
0.842237 0.826459 0.743236
0.840787 0.842298 0.807965
0 0.868238 0.0379034
0 0.867948 0.0377966
0 0.867506 0.037644
0 0.866316 0.0372473
0.61117 0.862043 0.0314641
0.788251 0.854948 0.0187839
0.837888 0.853422 0.0191958
0.841337 0.851011 0.641764
0.839399 0.853025 0.793332
0.763348 0.863706 0.0193637
0.76466 0.863706 0.0193332
0.76672 0.863691 0.0192874
0.772442 0.863676 0.0192111
0.786053 0.863691 0.0191348
0.809369 0.863828 0.0192416
0.834989 0.864118 0.0194553
0.840269 0.861601 0.623316
0.838453 0.859831 0.792584
0.818845 0.859831 0.817548
0.818967 0.859831 0.817563
0.81915 0.859831 0.817609
0.819699 0.859846 0.817716
0.821241 0.859861 0.818036
0.825162 0.859907 0.819013
0.832624 0.860014 0.821591
0.838956 0.860182 0.827665
0.839353 0.860471 0.841794
0.707286 0.698024 0.86656
0.707286 0.698039 0.866575
0.707301 0.698054 0.86659
0.707332 0.698085 0.866621
0.725002 0.695018 0.863554
0.852598 0.710262 0.865675
0.852583 0.710719 0.866194
0.849973 0.738903 0.859525
0.843687 0.826658 0.857328
0.70724 0.697978 0.866514
0.70724 0.697978 0.866529
0.707256 0.697993 0.866529
0.707286 0.698024 0.86656
0.726421 0.694942 0.863462
0.852598 0.710216 0.865629
0.852583 0.710674 0.866148
0.849699 0.741924 0.858961
0.843656 0.827024 0.857252
0.707149 0.697887 0.866438
0.707164 0.697902 0.866453
0.707164 0.697902 0.866453
0.707195 0.697932 0.866484
0.728847 0.694835 0.863325
0.852598 0.71014 0.865538
0.852583 0.710613 0.866087
0.849287 0.746807 0.858091
0.84361 0.827588 0.857114
0.706905 0.697612 0.866194
0.70692 0.697627 0.866209
0.70692 0.697643 0.866209
0.706722 0.697414 0.866011
0.734966 0.694575 0.862959
0.852598 0.709941 0.865309
0.852598 0.709621 0.864973
0.848157 0.760555 0.855756
0.843442 0.829236 0.856733
0.697871 0.6981 0.858442
0.697826 0.698177 0.858427
0.697749 0.698299 0.858366
0.697337 0.698207 0.858
0.725139 0.696315 0.856428
0.850324 0.712505 0.859052
0.850309 0.732006 0.855528
0.846021 0.789319 0.851087
0.843015 0.833494 0.85565
0 0.82826 0.843275
0 0.828 0.843259
0 0.827497 0.843214
0 0.825513 0.84303
0.587213 0.818448 0.841459
0.791165 0.808774 0.837659
0.842023 0.812711 0.840696
0.84329 0.824369 0.843793
0.842069 0.842145 0.853025
0 0.867628 0.826062
0 0.867308 0.826169
0 0.866819 0.826307
0 0.865492 0.826719
0.573861 0.859586 0.824491
0.775738 0.849897 0.820401
0.827436 0.848264 0.825986
0.840574 0.849226 0.833967
0.840558 0.853361 0.847883
0.754528 0.859556 0.783139
0.75581 0.859541 0.783215
0.757839 0.859525 0.783337
0.76347 0.859495 0.783734
0.776913 0.859449 0.784985
0.800137 0.85951 0.788632
0.825879 0.859724 0.797391
0.838682 0.859983 0.81387
0.839246 0.860395 0.838285
0.819623 0.859831 0.817487
0.81973 0.859831 0.817502
0.819898 0.859846 0.817533
0.820432 0.859846 0.817639
0.821912 0.859861 0.817975
0.825666 0.859907 0.818921
0.832883 0.860014 0.821515
0.838956 0.860182 0.827573
0.839353 0.860471 0.841779
0.740063 0.734081 0.899336
0.740063 0.734081 0.899336
0.740063 0.734081 0.899336
0.740063 0.734081 0.899336
0.740063 0.734081 0.899336
0.844114 0.741909 0.901625
0.852903 0.743297 0.901854
0.852903 0.743297 0.901854
0.846555 0.816236 0.888258
0.740063 0.734081 0.899336
0.740063 0.734081 0.899336
0.740063 0.734081 0.899336
0.740063 0.734081 0.899336
0.740063 0.734081 0.899336
0.84477 0.742 0.901656
0.852903 0.743297 0.901854
0.852903 0.743297 0.901854
0.84651 0.816815 0.888167
0.740063 0.734081 0.899336
0.740063 0.734081 0.899336
0.740063 0.734081 0.899336
0.740063 0.734081 0.899336
0.740063 0.734081 0.899336
0.845838 0.742168 0.901686
0.852903 0.743297 0.901854
0.852903 0.743297 0.901854
0.846433 0.817746 0.888045
0.740063 0.734081 0.899336
0.740063 0.734081 0.899336
0.740063 0.734081 0.899336
0.740063 0.734081 0.899336
0.740063 0.734081 0.899336
0.848966 0.742657 0.901762
0.852903 0.743297 0.901854
0.852903 0.743297 0.901854
0.846204 0.820386 0.887663
0.740063 0.734081 0.899336
0.740063 0.734081 0.899336
0.740063 0.734081 0.899336
0.740063 0.734081 0.899336
0.74081 0.734096 0.899351
0.852903 0.743297 0.901854
0.852903 0.743297 0.901854
0.852293 0.746715 0.898604
0.845609 0.82707 0.886671
0.722774 0.782834 0.892332
0.722744 0.78294 0.892317
0.722652 0.783108 0.892302
0.722408 0.783627 0.892241
0.722118 0.78143 0.891463
0.805173 0.777874 0.890166
0.848524 0.788388 0.889387
0.846677 0.812467 0.886564
0.844343 0.839368 0.884627
0 0.871092 0.889586
0 0.87071 0.88957
0 0.870069 0.889525
0 0.868223 0.889418
0.60119 0.858976 0.884077
0.773083 0.849226 0.878676
0.827878 0.847379 0.879545
0.843015 0.848829 0.880323
0.842588 0.853468 0.881666
0.748959 0.861326 0.873518
0.750317 0.861326 0.873518
0.752453 0.861295 0.873487
0.758419 0.86125 0.873457
0.772763 0.861173 0.873426
0.79762 0.861219 0.873655
0.824414 0.861463 0.874434
0.841047 0.861708 0.875944
0.841245 0.861845 0.878645
0.819593 0.861006 0.86511
0.819699 0.861006 0.865125
0.819867 0.861006 0.865125
0.820371 0.861021 0.865171
0.821805 0.861036 0.865263
0.825437 0.861082 0.865553
0.832486 0.861189 0.866346
0.840543 0.861357 0.868345
0.840848 0.861555 0.872801
0.740047 0.734188 0.899336
0.740047 0.734188 0.899336
0.740047 0.734188 0.899336
0.740047 0.734188 0.899336
0.740047 0.734188 0.899336
0.740047 0.734188 0.899336
0.852903 0.743297 0.901854
0.852903 0.743297 0.901854
0.85214 0.752514 0.90135
0.740047 0.734188 0.899336
0.740047 0.734188 0.899336
0.740047 0.734188 0.899336
0.740047 0.734188 0.899336
0.740047 0.734188 0.899336
0.740047 0.734188 0.899336
0.852903 0.743297 0.901854
0.852903 0.743297 0.901854
0.85214 0.752514 0.901366
0.740047 0.734188 0.899336
0.740047 0.734188 0.899336
0.740047 0.734188 0.899336
0.740047 0.734188 0.899336
0.740047 0.734188 0.899336
0.740047 0.734188 0.899336
0.852903 0.743297 0.901854
0.852903 0.743297 0.901854
0.85214 0.752514 0.901366
0.740047 0.734188 0.899336
0.740047 0.734188 0.899336
0.740047 0.734188 0.899336
0.740047 0.734188 0.899336
0.740047 0.734188 0.899336
0.740063 0.734127 0.899336
0.852903 0.743297 0.901854
0.852903 0.743297 0.901854
0.85214 0.752499 0.901366
0.740047 0.734173 0.899336
0.740047 0.734173 0.899336
0.740047 0.734173 0.899336
0.740047 0.734173 0.899336
0.740047 0.734173 0.899336
0.741039 0.734096 0.899351
0.852903 0.743297 0.901854
0.852903 0.743297 0.901854
0.85214 0.752453 0.901366
0.740047 0.734173 0.899336
0.740047 0.734173 0.899336
0.740047 0.734173 0.899336
0.740047 0.734173 0.899336
0.740047 0.734173 0.899336
0.773922 0.735332 0.89984
0.852903 0.743297 0.901854
0.852903 0.743389 0.901854
0.848692 0.800534 0.899428
0.675959 0.846464 0.898756
0.675914 0.846494 0.898772
0.675837 0.84651 0.898756
0.675608 0.846616 0.898772
0.674907 0.846891 0.898787
0.739452 0.835065 0.897459
0.833204 0.832166 0.898024
0.845838 0.836957 0.898054
0.844678 0.848051 0.897444
0.660258 0.865125 0.898085
0.665644 0.864897 0.897826
0.673716 0.864561 0.897444
0.694423 0.863813 0.89659
0.735088 0.86276 0.895369
0.783581 0.862394 0.894896
0.821881 0.862623 0.895155
0.842084 0.862257 0.895598
0.84271 0.862562 0.895735
0.816754 0.862486 0.893645
0.816892 0.862486 0.893645
0.81709 0.862486 0.893645
0.817731 0.862501 0.893675
0.819501 0.862516 0.89369
0.823911 0.862562 0.893751
0.831998 0.862638 0.893919
0.840711 0.86276 0.894179
0.842557 0.862806 0.894545
0.739971 0.734752 0.899321
0.739971 0.734752 0.899321
0.739971 0.734752 0.899321
0.739971 0.734752 0.899321
0.739971 0.734752 0.899321
0.739971 0.734752 0.899321
0.739971 0.734752 0.899321
0.852857 0.743801 0.901839
0.851728 0.757687 0.901091
0.739971 0.734752 0.899321
0.739971 0.734752 0.899321
0.739971 0.734752 0.899321
0.739971 0.734752 0.899321
0.739971 0.734752 0.899321
0.739971 0.734752 0.899321
0.739971 0.734752 0.899321
0.852857 0.743816 0.901839
0.851728 0.757702 0.901091
0.739971 0.734752 0.899321
0.739971 0.734752 0.899321
0.739971 0.734752 0.899321
0.739971 0.734752 0.899321
0.739971 0.734752 0.899321
0.739971 0.734752 0.899321
0.739971 0.734752 0.899321
0.852857 0.743816 0.901839
0.851728 0.757717 0.901091
0.739971 0.734752 0.899321
0.739971 0.734752 0.899321
0.739971 0.734752 0.899321
0.739971 0.734752 0.899321
0.739971 0.734752 0.899321
0.739971 0.734752 0.899321
0.739971 0.734752 0.899321
0.852857 0.743816 0.901839
0.851728 0.757748 0.901091
0.739971 0.734752 0.899321
0.739971 0.734752 0.899321
0.739971 0.734752 0.899321
0.739971 0.734752 0.899321
0.739971 0.734752 0.899321
0.739971 0.734752 0.899321
0.740963 0.734691 0.899336
0.852857 0.743832 0.901839
0.851713 0.757839 0.901076
0.739971 0.734752 0.899321
0.739971 0.734752 0.899321
0.739971 0.734752 0.899321
0.739971 0.734752 0.899321
0.739971 0.734752 0.899321
0.739971 0.734752 0.899321
0.781079 0.735882 0.899992
0.852857 0.743877 0.901823
0.851713 0.757977 0.901076
0.739971 0.734752 0.899321
0.739971 0.734752 0.899321
0.739971 0.734752 0.899321
0.739971 0.734752 0.899321
0.739971 0.734752 0.899321
0.739971 0.734752 0.899321
0.852903 0.743297 0.901854
0.852842 0.743984 0.901808
0.851698 0.758236 0.901061
0 0.87335 0.906767
0 0.87335 0.906767
0 0.87335 0.906767
0 0.87335 0.906767
0 0.87335 0.906767
0 0.87335 0.906767
0.8009 0.856809 0.896071
0.843702 0.855787 0.89691
0.843473 0.857633 0.896757
0.787839 0.86244 0.895476
0.788296 0.86244 0.895476
0.789014 0.86244 0.895476
0.791119 0.862455 0.895491
0.796719 0.86247 0.895537
0.808713 0.862562 0.895689
0.825803 0.862715 0.895964
0.839399 0.862882 0.896239
0.84271 0.862928 0.896315
