BBLuts/BB_103_0325_LUT.cube
TITLE "Generated by Resolve"
LUT_3D_SIZE 33
0 0 0
0 0 0
0 0 0
0 0 0
0 0 0
0.0224613 0 0
0.0691386 0 0
0.104433 0 0
0.141375 0 0
0.186969 0 0
0.242283 0 0
0.305013 0 0
0.376593 0 0
0.452918 0 0
0.540276 0 0
0.627268 0 0
0.710887 0 0
0.790524 0 0
0.860334 0 0
0.916548 0 0
0.930541 0 0
0.931655 0 0
0.945891 0.204883 0
0.940337 0.402594 0.00495918
0.933227 0.54873 0.0382696
0.92517 0.667048 0.0784466
0.917266 0.765133 0.129458
0.91162 0.838544 0.202838
0.907256 0.89041 0.3028
0.903441 0.928786 0.402823
0.900038 0.956603 0.500786
0.896986 0.978683 0.589853
0.894652 0.995712 0.666499
0 0 0
0 0 0
0 0 0
0 0 0
0 0 0
0.0311894 0 0
0.0720989 0 0
0.10695 0 0
0.145586 0 0
0.192172 0 0
0.247837 0 0
0.309514 0 0
0.377997 0 0
0.454536 0 0
0.541711 0 0
0.628077 0 0
0.711543 0 0
0.790524 0 0
0.860258 0 0
0.916182 0 0
0.930526 0 0
0.933303 0 0
0.945815 0.235737 0
0.938552 0.41619 0
0.932509 0.556512 0.035523
0.924697 0.671656 0.0769055
0.917037 0.767529 0.128878
0.911528 0.839689 0.202716
0.907225 0.89099 0.302525
0.903426 0.929076 0.402655
0.900023 0.956741 0.50071
0.896971 0.978759 0.589807
0.894652 0.995758 0.666468
0 0 0
0 0 0
0 0 0
0 0 0
0 0 0
0.0357671 0 0
0.0724804 0 0
0.108919 0 0
0.149569 0 0
0.195819 0 0
0.250202 0 0
0.310567 0 0
0.379812 0 0
0.456535 0 0
0.54316 0 0
0.629206 0 0
0.711894 0 0
0.790814 0 0
0.860166 0 0
0.915785 0 0
0.93048 0 0
0.937407 0.0103151 0
0.945296 0.266026 0
0.937072 0.429023 0
0.931838 0.563943 0.0330205
0.924254 0.675792 0.0755169
0.916823 0.769757 0.128359
0.911437 0.840772 0.202625
0.907179 0.891524 0.302251
0.90341 0.929366 0.402487
0.900023 0.956909 0.500618
0.896971 0.978851 0.589746
0.894652 0.995789 0.666453
0 0 0
0 0 0
0 0 0
0 0 0
0 0 0
0.0370794 0 0
0.0707866 0 0
0.107088 0 0
0.14844 0 0
0.196826 0 0
0.25243 0 0
0.312474 0 0
0.381979 0 0
0.458564 0 0
0.54464 0 0
0.630045 0 0
0.712566 0 0
0.791074 0 0
0.860044 0 0
0.915373 0 0
0.930449 0 0
0.941924 0.0833753 0
0.944549 0.29015 0
0.935927 0.439887 0
0.931228 0.570321 0.0308843
0.923873 0.679469 0.0742962
0.91664 0.771817 0.127871
0.911345 0.841794 0.202502
0.907134 0.892073 0.301991
0.90338 0.929641 0.402335
0.900008 0.957061 0.500511
0.896971 0.978927 0.589715
0.894652 0.99585 0.666423
0 0.0222782 0
0 0.0248264 0
0 0.0272984 0
0 0.0297246 0
0 0.0307469 0
0.02327 0.0294194 0
0.0616464 0.0271458 0
0.100267 0.0221866 0
0.144183 0.0112612 0
0.196933 0 0
0.253788 0 0
0.314778 0 0
0.384054 0 0
0.460655 0 0
0.546502 0 0
0.63122 0 0
0.713222 0 0
0.791333 0 0
0.859907 0 0
0.914916 0 0
0.930419 0 0
0.94406 0.126802 0
0.943664 0.311009 0
0.93521 0.45153 0
0.930556 0.57705 0.0281224
0.923461 0.683268 0.0729076
0.916442 0.77377 0.127413
0.911269 0.842802 0.202411
0.907103 0.892607 0.301732
0.903365 0.929915 0.402182
0.899992 0.957198 0.50045
0.896956 0.979019 0.589654
0.894652 0.995895 0.666392
0 0.0511788 0
0 0.0532692 0
0 0.055436 0
0 0.0571145 0
0 0.0579843 0
0.00273136 0.0576791 0
0.050721 0.0565499 0
0.0929427 0.0543069 0
0.138827 0.0497444 0
0.192187 0.0406348 0
0.251225 0.0233616 0
0.315923 0 0
0.386313 0 0
0.463233 0 0
0.548241 0 0
0.632227 0 0
0.713954 0 0
0.791608 0 0
0.859754 0 0
0.914427 0 0
0.932448 0 0
0.945281 0.163638 0
0.942718 0.329198 0
0.934585 0.461585 0
0.929915 0.583291 0.0254826
0.923033 0.687175 0.0713664
0.916243 0.775967 0.126894
0.911192 0.843778 0.202319
0.907057 0.893126 0.301472
0.903349 0.930205 0.402014
0.899992 0.957351 0.500343
0.896956 0.979095 0.589609
0.894652 0.995926 0.666362
0 0.0821241 0
0 0.0839094 0
0 0.0856794 0
0 0.0867475 0
0 0.0875257 0
0 0.0877699 0
0.0297551 0.0872511 0
0.0816815 0.086183 0
0.130938 0.0835889 0
0.186877 0.0781262 0
0.247791 0.0681468 0
0.313909 0.0522927 0
0.386572 0.0245518 0
0.465736 0 0
0.550988 0 0
0.634073 0 0
0.714534 0 0
0.791638 0 0
0.859297 0 0
0.913817 0 0
0.936339 0.0148318 0
0.945861 0.20148 0
0.941573 0.349157 0
0.933867 0.473503 0
0.929198 0.590097 0.0226139
0.92256 0.691569 0.0696422
0.915999 0.778561 0.126268
0.91107 0.845136 0.202213
0.907027 0.893721 0.301183
0.903334 0.93051 0.401831
0.899977 0.957519 0.500237
0.896941 0.979171 0.589548
0.894636 0.995987 0.666331
0 0.118166 0
0 0.119768 0
0 0.120958 0
0 0.121874 0
0 0.122423 0
0 0.122927 0
0 0.123247 0
0.0583658 0.122744 0
0.117678 0.121355 0
0.177172 0.11783 0
0.241581 0.110521 0
0.311528 0.0996262 0
0.386679 0.0839399 0
0.467292 0.0598154 0
0.553307 0.0136263 0
0.636011 0 0
0.716426 0 0
0.792477 0 0
0.859022 0 0
0.916136 0 0
0.94136 0.0999313 0
0.945693 0.24622 0
0.940017 0.374884 0
0.932921 0.489632 0
0.928054 0.599771 0.0168917
0.921935 0.697383 0.0673533
0.915679 0.78204 0.125429
0.910918 0.846967 0.202075
0.90695 0.894759 0.30071
0.903304 0.930983 0.401572
0.899962 0.957763 0.500099
0.896941 0.979324 0.589456
0.894636 0.996048 0.666285
0 0.161715 0
0 0.162982 0
0 0.163836 0
0 0.164508 0
0 0.165011 0
0 0.165545 0
0 0.165774 0
0.0166018 0.166186 0
0.0919203 0.165576 0
0.159503 0.163073 0
0.229725 0.158053 0
0.305303 0.149905 0
0.385412 0.138552 0
0.469718 0.122637 0
0.556558 0.10161 0
0.63949 0.0742809 0
0.719722 0.037232 0
0.794598 0 0
0.861509 0 0
0.920775 0.0743725 0
0.944076 0.183932 0
0.944335 0.295598 0
0.938094 0.40557 0
0.931655 0.510201 0
0.92639 0.612467 0.00833143
0.921019 0.705684 0.0639048
0.915251 0.786648 0.124346
0.910719 0.849485 0.201892
0.906844 0.896178 0.300038
0.903243 0.931777 0.401144
0.899931 0.958129 0.49987
0.896925 0.979522 0.589334
0.894636 0.99617 0.666224
0 0.213306 0
0 0.213916 0
0 0.214298 0
0 0.214618 0
0 0.215061 0
0 0.215137 0
0 0.215091 0
0 0.214771 0
0.0408484 0.216007 0
0.12958 0.215763 0
0.209369 0.213077 0
0.292165 0.207385 0
0.379568 0.198627 0
0.469596 0.186572 0
0.559106 0.172915 0
0.642344 0.158221 0
0.723522 0.145068 0
0.800839 0.137087 0
0.868193 0.14818 0
0.92311 0.192615 0
0.943587 0.264439 0
0.941466 0.350988 0
0.935775 0.442298 0
0.929946 0.535668 0
0.924025 0.628473 0
0.919799 0.716655 0.059205
0.914656 0.793118 0.12282
0.910445 0.852827 0.201663
0.906706 0.8981 0.299123
0.903181 0.932815 0.400595
0.899901 0.95874 0.499474
0.89691 0.979812 0.589151
0.894621 0.996323 0.666117
0 0.270939 0
0 0.271565 0
0 0.271962 0
0 0.272282 0
0 0.272511 0
0 0.272679 0
0 0.27277 0
0 0.272984 0
0 0.272602 0
0.0681315 0.275898 0
0.174716 0.276539 0
0.268605 0.273716 0
0.36585 0.26775 0
0.463828 0.25951 0
0.55848 0.250721 0
0.64361 0.24242 0
0.724743 0.237293 0
0.801282 0.238376 0
0.86714 0.253452 0
0.918959 0.289311 0
0.93991 0.343786 0
0.937743 0.411231 0
0.933089 0.486625 0
0.927626 0.567498 0
0.921126 0.647684 0
0.918257 0.730861 0.0536965
0.913893 0.801587 0.120867
0.910079 0.85745 0.201434
0.906523 0.900649 0.297887
0.903075 0.934264 0.399817
0.89984 0.959564 0.498955
0.89688 0.980301 0.58883
0.894606 0.996551 0.665995
0 0.3411 0
0 0.34139 0
0 0.341787 0
0 0.342428 0
0 0.342687 0
0 0.342885 0
0 0.343069 0
0 0.34316 0
0 0.343069 0
0 0.345235 0
0.105089 0.350164 0
0.228351 0.351278 0
0.340215 0.348699 0
0.448295 0.344091 0
0.550362 0.338125 0
0.639735 0.333257 0
0.722179 0.332784 0
0.797314 0.338003 0
0.860533 0.353506 0
0.91017 0.382605 0
0.934615 0.422858 0
0.933806 0.474586 0
0.929854 0.53695 0
0.924651 0.605203 0
0.918654 0.674372 0
0.916426 0.748302 0.0475319
0.912932 0.812421 0.118395
0.909606 0.8636 0.201205
0.906264 0.904219 0.297505
0.902953 0.936156 0.398795
0.899779 0.960708 0.498238
0.896834 0.980972 0.588357
0.894575 0.996918 0.665751
0 0.424186 0
0 0.424369 0
0 0.424704 0
0 0.424979 0
0 0.425208 0
0 0.425788 0
0 0.425986 0
0 0.426169 0
0 0.426337 0
0 0.426429 0
0 0.431632 0
0.153719 0.438025 0
0.296117 0.438804 0
0.419501 0.436774 0
0.531304 0.433356 0
0.62768 0.430426 0
0.713985 0.430228 0
0.789532 0.435355 0
0.851072 0.448371 0
0.899565 0.470649 0
0.92932 0.502724 0
0.929427 0.542992 0
0.925704 0.592264 0
0.921096 0.646906 0
0.91577 0.706233 0
0.914168 0.769711 0.0386358
0.911803 0.825635 0.115511
0.908995 0.871458 0.201083
0.905913 0.908949 0.298192
0.90277 0.938827 0.397513
0.899672 0.962203 0.497276
0.896773 0.981872 0.587747
0.894545 0.997467 0.6654
0 0.517708 0
0 0.517784 0
0 0.518059 0
0 0.518303 0
0 0.518502 0
0 0.5187 0
0 0.518883 0
0 0.519127 0
0 0.519646 0
0 0.519738 0
0 0.519631 0
0.0374304 0.527626 0
0.223133 0.533257 0
0.376303 0.532158 0
0.501167 0.529854 0
0.607324 0.52723 0
0.700587 0.527169 0
0.779263 0.531212 0
0.840543 0.541421 0
0.887404 0.55874 0
0.922286 0.582803 0
0.923583 0.613382 0
0.920821 0.649927 0
0.916899 0.693736 0
0.912581 0.742107 0
0.911635 0.794095 0.0278477
0.910475 0.841474 0.111971
0.908278 0.881132 0.20119
0.905455 0.914961 0.29929
0.902525 0.942351 0.395911
0.89955 0.96434 0.495964
0.896696 0.983063 0.586954
0.894499 0.998169 0.664942
0 0.611856 0
0 0.611856 0
0 0.611978 0
0 0.612131 0
0 0.612253 0
0 0.612345 0
0 0.612451 0
0 0.612573 0
0 0.612634 0
0 0.612604 0
0 0.612772 0
0 0.612253 0
0.0998245 0.622126 0
0.313191 0.62472 0
0.459907 0.623484 0
0.578134 0.621698 0
0.679652 0.621042 0
0.763027 0.623758 0
0.826093 0.630579 0
0.872404 0.642252 0
0.908202 0.659709 0
0.916945 0.68191 0
0.915419 0.710079 0
0.912459 0.743679 0
0.909392 0.780453 0
0.908858 0.820462 0.0142367
0.909056 0.859373 0.108934
0.907393 0.892989 0.201694
0.904921 0.922316 0.300832
0.90222 0.946807 0.395865
0.899367 0.967147 0.49427
0.89659 0.984756 0.585809
0.894438 0.999115 0.664317
0 0.699916 0
0 0.699916 0
0 0.699916 0
0 0.699992 0
0 0.700023 0
0 0.700069 0
0 0.700084 0
0 0.70013 0
0 0.700084 0
0 0.699962 0
0 0.699657 0
0 0.699397 0
0 0.702739 0
0.202594 0.711238 0
0.406668 0.71165 0
0.541695 0.709682 0
0.651942 0.708354 0
0.741039 0.709407 0
0.806836 0.713985 0
0.854719 0.722072 0
0.890181 0.734173 0
0.909514 0.750347 0
0.909926 0.769772 0
0.908415 0.792859 0
0.906447 0.818769 0
0.905653 0.847364 0
0.907576 0.878965 0.106371
0.906416 0.906645 0.203693
0.90425 0.931212 0.303075
0.901793 0.95227 0.398093
0.899123 0.970764 0.493294
0.896452 0.987015 0.584298
0.894347 1 0.663417
0 0.786252 0
0 0.786252 0
0 0.786252 0
0 0.786252 0
0 0.786236 0
0 0.786221 0
0 0.786175 0
0 0.786099 0
0 0.785946 0
0 0.785657 0
0 0.785199 0
0 0.784405 0
0 0.783444 0
0.0904555 0.793194 0
0.340536 0.795377 0
0.500725 0.793332 0
0.6206 0.790295 0
0.715251 0.789364 0
0.784634 0.790875 0
0.834653 0.794995 0
0.872389 0.801602 0
0.899214 0.811185 0
0.905348 0.823392 0
0.905074 0.837964 0
0.903899 0.855039 0
0.902754 0.874022 0
0.906096 0.899931 0.106325
0.905348 0.92166 0.207584
0.903502 0.941314 0.306874
0.901259 0.959045 0.40116
0.898787 0.975204 0.493446
0.896269 0.989868 0.582712
0.89424 1 0.662165
0 0.858717 0
0 0.858717 0
0 0.858717 0
0 0.858717 0
0 0.858717 0
0 0.858671 0
0 0.858564 0
0 0.858381 0
0 0.858091 0
0 0.857633 0
0 0.856977 0
0 0.855924 0
0 0.854444 0
0.00364691 0.859785 0
0.269184 0.864363 0
0.464912 0.861082 0
0.59411 0.856519 0
0.692164 0.853712 0
0.763668 0.853056 0
0.816297 0.854078 0
0.855955 0.856931 0
0.884474 0.861646 0
0.900969 0.868315 0
0.902098 0.87718 0
0.901732 0.888075 0
0.901625 0.90193 0
0.904723 0.921157 0.112474
0.904219 0.937453 0.214481
0.902647 0.952422 0.312657
0.900633 0.966949 0.405951
0.898314 0.981048 0.49662
0.89604 0.993393 0.58114
0.894087 1 0.660639
0 0.913542 0
0 0.913542 0
0 0.913542 0
0 0.913542 0
0 0.913542 0
0 0.913542 0
0 0.913542 0
0 0.913344 0
0 0.912978 0
0 0.912337 0
0 0.911467 0
0 0.910277 0
0 0.90866 0
0 0.911177 0
0.216815 0.916167 0
0.443351 0.9122 0
0.576944 0.906615 0
0.675486 0.902464 0
0.746883 0.900511 0
0.800351 0.899962 0
0.841398 0.900557 0
0.87129 0.902647 0
0.894255 0.906172 0
0.89958 0.911254 0
0.899809 0.917952 0
0.901747 0.929213 0.0222171
0.903502 0.941863 0.127214
0.903105 0.953124 0.225147
0.901717 0.964416 0.321126
0.899901 0.975784 0.412604
0.89778 0.987305 0.501595
0.895674 0.99762 0.584085
0.893904 1 0.658808
0 0.955688 0
0 0.955688 0
0 0.955688 0
0 0.955688 0
0 0.955688 0
0 0.955688 0
0 0.955688 0
0 0.955688 0
0 0.955505 0
0 0.954833 0
0 0.953735 0
0 0.952392 0
0 0.950744 0
0 0.952911 0
0.225925 0.956649 0
0.439948 0.951507 0
0.56994 0.945464 0
0.664988 0.940734 0
0.734401 0.937926 0
0.787152 0.936477 0
0.827909 0.935912 0
0.859312 0.936248 0
0.883543 0.937621 0
0.896773 0.940093 0
0.898161 0.943679 0
0.901274 0.95259 0.0523232
0.902373 0.960891 0.148257
0.901946 0.96875 0.241718
0.90071 0.976791 0.332738
0.899046 0.985779 0.421805
0.897154 0.994232 0.508171
0.895232 1 0.588861
0.893614 1 0.660655
0 0.986801 0
0 0.986801 0
0 0.986801 0
0 0.986801 0
0 0.986801 0
0 0.986801 0
0 0.986801 0
0 0.986801 0
0 0.986801 0
0 0.986755 0
0 0.985595 0
0 0.98407 0
0 0.9823 0
0 0.981857 0
0.282231 0.986557 0
0.457282 0.980728 0
0.575082 0.974441 0
0.662409 0.969345 0
0.727535 0.966293 0
0.778195 0.964324 0
0.817761 0.963165 0
0.849226 0.962646 0
0.87422 0.962753 0
0.893416 0.96376 0
0.896452 0.965835 0
0.900679 0.973373 0.0864271
0.901244 0.979065 0.177325
0.90071 0.984192 0.264378
0.899596 0.989624 0.349447
0.898177 0.995499 0.433967
0.896452 1 0.516899
0.894728 1 0.595193
0.893278 1 0.664317
0 1 0
0 1 0
0 1 0
0 1 0
0 1 0
0 1 0
0 1 0
0 1 0
0 1 0
0 1 0
0 1 0
0 1 0
0 1 0
0.0705425 1 0
0.352255 1 0
0.490944 1 0
0.589654 0.996521 0
0.666087 0.992187 0
0.725216 0.989242 0
0.772702 0.987228 0
0.810208 0.985763 0
0.840818 0.984863 0
0.865705 0.98436 0
0.885527 0.984558 0
0.897597 0.98909 0.0530251
0.900038 0.992233 0.136767
0.900099 0.995026 0.215259
0.899504 0.997925 0.294499
0.898497 1 0.371572
0.897215 1 0.450767
0.895689 1 0.528237
0.894148 1 0.603601
0.892882 1 0.669413
0 1 0
0 1 0
0 1 0
0 1 0
0 1 0
0 1 0
0 1 0
0 1 0
0 1 0
0 1 0
0 1 0
0 1 0
0 1 0
0.272206 1 0
0.426307 1 0
0.531762 1 0
0.611963 1 0
0.676051 1 0
0.727932 1 0
0.770764 1 0
0.805493 1 0
0.834836 1 0
0.858976 1 0
0.881498 1 0.0424964
0.896773 1 0.119081
0.898833 1 0.190555
0.898909 1 0.260716
0.898268 1 0.329793
0.897368 1 0.399985
0.896193 1 0.472221
0.89485 1 0.543908
0.893538 1 0.614145
0.892454 1 0.676066
0.233707 1 0
0.233707 1 0
0.233707 1 0
0.233707 1 0
0.233677 1 0
0.233677 1 0
0.233677 1 0
0.233677 1 0
0.233661 1 0
0.233646 1 0
0.233646 1 0
0.233616 1 0
0.23357 1 0
0.381003 1 0
0.496849 1 0
0.57525 1 0
0.638773 1 0
0.690684 1 0
0.735042 1 0
0.77261 1 0
0.805585 1 0.0106661
0.834211 1 0.05243
0.857923 1 0.088426
0.877363 1 0.134081
0.893187 1 0.188983
0.897444 1 0.248692
0.897642 1 0.310445
0.897002 1 0.371252
0.896178 1 0.434226
0.89514 1 0.499229
0.89398 1 0.56376
0.892882 1 0.628031
0.891997 1 0.684306
0.489479 1 0.121126
0.489479 1 0.121126
0.489479 1 0.121126
0.489479 1 0.121126
0.489479 1 0.121126
0.489479 1 0.121126
0.489479 1 0.121126
0.489479 1 0.121126
0.489479 1 0.121126
0.489479 1 0.121126
0.489479 1 0.121126
0.489479 1 0.121126
0.489464 1 0.121126
0.489433 1 0.121126
0.555718 1 0.121553
0.621088 1 0.123705
0.670665 1 0.127596
0.712688 1 0.133089
0.749844 1 0.140948
0.781659 1 0.151034
0.809323 1 0.163912
0.834089 1 0.180102
0.855207 1 0.200702
0.873091 1 0.225559
0.888014 1 0.26363
0.895598 1 0.311055
0.896376 1 0.36202
0.895766 1 0.417136
0.894987 1 0.473518
0.894072 1 0.530098
0.893111 1 0.588373
0.892226 1 0.644816
0.891524 1 0.694957
0.615091 1 0.249531
0.615091 1 0.249531
0.615091 1 0.249531
0.615091 1 0.249531
0.615091 1 0.249531
0.615091 1 0.249531
0.615091 1 0.249531
0.615091 1 0.249531
0.615091 1 0.249531
0.615091 1 0.249531
0.615091 1 0.249531
0.615091 1 0.249531
0.615076 1 0.249531
0.615076 1 0.249531
0.615061 1 0.249531
0.654902 1 0.250965
0.697475 1 0.254261
0.732021 1 0.25832
0.761975 1 0.263584
0.788357 1 0.270695
0.812009 1 0.279667
0.834043 1 0.291127
0.852995 1 0.305043
0.869429 1 0.322271
0.883497 1 0.343359
0.893675 1 0.376425
0.895109 1 0.418662
0.89453 1 0.465888
0.893797 1 0.515663
0.893019 1 0.565835
0.892256 1 0.616648
0.8916 1 0.664576
0.891066 1 0.707515
0.6925 1 0.362783
0.6925 1 0.362783
0.6925 1 0.362783
0.6925 1 0.362783
0.6925 1 0.362783
0.6925 1 0.362783
0.6925 1 0.362783
0.6925 1 0.362783
0.6925 1 0.362783
0.6925 1 0.362783
0.6925 1 0.362783
0.6925 1 0.362783
0.6925 1 0.362783
0.6925 1 0.362783
0.692485 1 0.362783
0.692485 1 0.362783
0.719661 1 0.364706
0.749615 1 0.367926
0.773816 1 0.371832
0.795361 1 0.376638
0.81593 1 0.383246
0.835004 1 0.391196
0.851743 1 0.401221
0.866682 1 0.413825
0.879667 1 0.429938
0.890455 1 0.449439
0.893248 1 0.479683
0.893278 1 0.517479
0.892668 1 0.559396
0.892042 1 0.604013
0.891478 1 0.646876
0.891005 1 0.686503
0.890623 1 0.722042
0.745357 1 0.466957
0.745357 1 0.466957
0.745357 1 0.466957
0.745357 1 0.466957
0.745357 1 0.466957
0.745357 1 0.466957
0.745357 1 0.466957
0.745357 1 0.466957
0.745357 1 0.466957
