BBLuts/BB_103_0480_LUT.cube
TITLE "Generated by Resolve"
LUT_3D_SIZE 5
0 0 0
0.172885 0 0
0.761486 0 0
0.952514 0.528496 0.0666667
0.910262 1 0.690669
0 0.190051 0
0.128069 0.191485 0
0.773404 0.0702678 0
0.943938 0.621271 0.0369573
0.91017 1 0.689845
0 0.828626 0
0 0.827497 0
0.679301 0.82916 0
0.918196 0.884047 0
0.909331 1 0.683589
0.52517 1 0.142687
0.5729 1 0.143206
0.740383 1 0.156634
0.906065 1 0.294957
0.906325 1 0.711879
0.871 1 0.803449
0.871519 1 0.803525
0.875471 1 0.804013
0.894286 1 0.807828
0.904326 1 0.83624
0 0 0.125185
0.155764 0 0.118883
0.766384 0 0.0850385
0.957351 0.509316 0.231586
0.909957 1 0.710491
0 0.157824 0.107286
0.137743 0.156146 0.105226
0.770748 0.0169223 0.0834516
0.949752 0.611185 0.213977
0.910002 1 0.709957
0 0.82414 0
0 0.823011 0
0.683742 0.824964 0
0.922759 0.887129 0.073991
0.909148 1 0.704585
0.532921 1 0.141726
0.578912 1 0.142473
0.742138 1 0.156329
0.906157 1 0.294881
0.906325 1 0.711788
0.871077 1 0.803449
0.871595 1 0.80351
0.875532 1 0.804013
0.894316 1 0.807813
0.904326 1 0.83624
0 0 0.688182
0 0 0.688411
0.765515 0 0.649165
0.967391 0.138048 0.705272
0.909651 0.998138 0.795132
0 0 0.686397
0 0 0.686564
0.773587 0 0.647242
0.962753 0.41857 0.715511
0.909514 1 0.794766
0 0.77644 0.639689
0 0.776471 0.639979
0.667491 0.778714 0.651499
0.921996 0.858793 0.67628
0.908751 1 0.792142
0.524514 1 0.522499
0.570397 1 0.521691
0.733516 1 0.525582
0.897871 1 0.58616
0.905974 1 0.774563
0.871687 1 0.803372
0.872236 1 0.803449
0.876081 1 0.803922
0.89453 1 0.807736
0.904326 1 0.836225
0 0 0.916274
0 0 0.916274
0.0494545 0 0.915129
0.947219 0 0.890089
0.912108 0.953979 0.908476
0 0 0.916274
0 0 0.916274
0.0711833 0 0.914611
0.947219 0 0.890089
0.911543 0.958419 0.907835
0 0 0.916274
0 0 0.916274
0.367269 0 0.902419
0.947219 0 0.890089
0.909743 0.985245 0.905791
0 1 0.913268
0 1 0.914015
0.591821 1 0.899855
0.880354 1 0.896819
0.905516 1 0.900114
0.867781 1 0.87747
0.868269 1 0.87747
0.871748 1 0.877501
0.890486 1 0.878904
0.903883 1 0.887572
0 0.232914 0.922072
0 0.232914 0.922072
0 0.232944 0.922057
0.179294 0.171069 0.926635
0.936522 0.721172 0.935973
0 0.232883 0.922057
0 0.232898 0.922072
0 0.232914 0.922072
0.179294 0.171038 0.926635
0.936507 0.72134 0.935973
0 0.232731 0.922072
0 0.232731 0.922057
0 0.232746 0.922072
0.535927 0.142687 0.920882
0.936187 0.722423 0.935699
0 0.23125 0.922072
0 0.231266 0.922072
0 0.231281 0.922072
0.947219 0 0.890089
0.935836 0.725887 0.935561
0.804044 1 0.923934
0.80647 1 0.923949
0.822019 1 0.923903
0.874327 1 0.924437
0.904051 1 0.924941
