BBLuts/BB_103_0830_LUT.cube
TITLE "Generated by Resolve"
LUT_3D_SIZE 9
0.0336004 0.0256504 0.0273442
0.0336004 0.0256504 0.0273442
0.232258 0.0290379 0.0303197
0.466545 0.0347448 0.0353246
0.776181 0.0442664 0.0436255
0.999649 0.0515755 0.049958
0.941039 0.547036 0.128939
0.905516 0.871809 0.373419
0.892668 0.999054 0.649805
0.0290837 0.0878614 0.0233616
0.0282292 0.0990311 0.0226139
0.238163 0.0778363 0.0262608
0.476616 0.0350195 0.0355535
0.778668 0.044358 0.0437018
0.999649 0.0515755 0.049958
0.937545 0.578332 0.113024
0.904967 0.876646 0.371008
0.892607 1 0.649516
0.0153048 0.258335 0.0110628
0.0149996 0.261936 0.0107881
0.186877 0.260487 0.0106813
0.464454 0.240787 0.0154879
0.770977 0.14258 0.0319677
0.973114 0.26389 0.0240482
0.932692 0.621897 0.0830396
0.904143 0.884077 0.367163
0.8925 1 0.649027
0 0.517693 0
0 0.518761 0
0 0.519341 0
0.388815 0.516548 0
0.737209 0.508736 0
0.940215 0.557076 0
0.922255 0.719219 0
0.901946 0.903609 0.356054
0.89218 1 0.647623
0 0.825147 0
0 0.825071 0
0 0.824689 0
0 0.822095 0
0.649668 0.811902 0
0.880827 0.817899 0
0.906065 0.86659 0
0.897536 0.943542 0.355184
0.891356 1 0.643458
0 1 0
0 1 0
0 1 0
0 0.997162 0
0.609125 0.984497 0
0.820264 0.976547 0
0.893767 0.978851 0
0.891798 0.996292 0.386954
0.889632 1 0.637964
0.492912 1 0.149187
0.510384 1 0.150088
0.535897 1 0.151614
0.596017 1 0.156329
0.697246 1 0.170703
0.80589 1 0.210452
0.88043 1 0.307546
0.887388 1 0.481712
0.887495 1 0.661982
0.771756 1 0.545449
0.77322 1 0.545602
0.775555 1 0.545846
0.782254 1 0.546578
0.799405 1 0.54876
0.832593 1 0.555383
0.872007 1 0.574228
0.885893 1 0.62446
0.886351 1 0.713741
0.853864 1 0.742489
0.854032 1 0.742504
0.854337 1 0.742535
0.855207 1 0.742641
0.857725 1 0.742916
0.864073 1 0.743755
0.876219 1 0.746258
0.88658 1 0.753094
0.886687 1 0.770993
0.0338903 0.0259709 0.0833295
0.0338903 0.0259861 0.0836194
0.232654 0.0291905 0.0872511
0.467185 0.0347753 0.0934005
0.776059 0.0441596 0.105058
0.999649 0.0514076 0.144762
0.941787 0.541146 0.194659
0.90573 0.870863 0.403922
0.892714 0.998932 0.655894
0.0312047 0.0614023 0.0715953
0.076051 0.0748302 0.0693217
0.250034 0.0295262 0.078645
0.472313 0.0348974 0.0810712
0.777142 0.0442206 0.0724498
0.999603 0.0514076 0.116869
0.93814 0.573449 0.180194
0.90518 0.875731 0.401816
0.892653 1 0.655619
0.016083 0.249149 0.0117494
0.0158236 0.252201 0.0115206
0.205554 0.251362 0.0115511
0.463661 0.231144 0.0163577
0.771908 0.109453 0.0356451
0.974975 0.247639 0.0258488
0.933135 0.61799 0.155489
0.904341 0.883223 0.398444
0.892546 1 0.655161
0 0.513619 0
0 0.514626 0
0 0.515038 0
0.399329 0.511925 0
0.737163 0.504799 0
0.940536 0.554162 0
0.92224 0.716915 0.0320897
0.902129 0.902953 0.388724
0.892226 1 0.653788
0 0.82388 0
0 0.823774 0
0 0.823377 0
0 0.820737 0
0.652522 0.810651 0
0.881041 0.816999 0
0.906111 0.866102 0
0.897581 0.943328 0.362692
0.891402 1 0.649805
0 1 0
0 1 0
0 1 0
0 0.996887 0
0.611017 0.984298 0
0.8206 0.97641 0
0.893782 0.978744 0
0.891814 0.996216 0.38677
0.889632 1 0.638544
0.495598 1 0.148989
0.51284 1 0.14992
0.538048 1 0.151446
0.597498 1 0.156161
0.697932 1 0.170565
0.806073 1 0.210346
0.880476 1 0.30753
0.887388 1 0.481651
0.887495 1 0.661952
0.771984 1 0.545434
0.773449 1 0.545586
0.775769 1 0.545815
0.782452 1 0.546548
0.799558 1 0.548745
0.832654 1 0.555352
0.872038 1 0.574212
0.885893 1 0.624445
0.886351 1 0.713726
0.85388 1 0.742489
0.854063 1 0.742504
0.854353 1 0.742535
0.855238 1 0.742626
0.857755 1 0.742916
0.864073 1 0.743755
0.876234 1 0.746258
0.88658 1 0.753094
0.886687 1 0.770993
0.0352178 0.027451 0.22182
0.0352178 0.027451 0.222034
0.21178 0.0298161 0.223789
0.478523 0.0357671 0.225742
0.776379 0.0445869 0.238544
1 0.0518044 0.272114
0.943358 0.529442 0.291081
0.906065 0.869245 0.444739
0.89279 0.998718 0.66511
0.035172 0.0274052 0.217929
0.0351873 0.0274052 0.218311
0.23827 0.0302892 0.220218
0.477089 0.0356909 0.221912
0.778714 0.0446479 0.23447
1 0.0517739 0.265324
0.939498 0.563561 0.281209
0.905501 0.874205 0.442924
0.892729 0.999817 0.664851
0.0187991 0.222446 0.191424
0.0185855 0.224796 0.190921
0.197253 0.218326 0.187549
0.45243 0.203632 0.194537
0.777279 0.0445411 0.22298
0.981628 0.191882 0.233921
0.934279 0.609796 0.265827
0.904646 0.881804 0.440009
0.892622 1 0.664424
0 0.500999 0.0861372
0 0.50219 0.0870985
0 0.50277 0.0885176
0.400259 0.499077 0.0912947
0.733196 0.492515 0.101152
0.941466 0.543282 0.130175
0.922835 0.711376 0.220722
0.902403 0.901823 0.431754
0.892302 1 0.663127
0 0.821241 0
0 0.821134 0
0 0.820722 0
0 0.818051 0
0.655192 0.808042 0
0.881132 0.814908 0
0.905928 0.864195 0.0628367
0.89781 0.942733 0.410483
0.891478 1 0.659373
0 1 0
0 1 0
0 1 0
0 0.99646 0
0.614038 0.983948 0
0.821134 0.97615 0
0.893797 0.978561 0
0.891829 0.996124 0.386511
0.889708 1 0.64889
0.499916 1 0.148714
0.516823 1 0.149645
0.541497 1 0.151171
0.599878 1 0.155917
0.699031 1 0.170336
0.806394 1 0.210163
0.880552 1 0.307515
0.887388 1 0.481544
0.887495 1 0.661906
0.772335 1 0.545403
0.7738 1 0.545556
0.776104 1 0.545785
0.782757 1 0.546517
0.799786 1 0.548714
0.832792 1 0.555322
0.872068 1 0.574182
0.885893 1 0.624445
0.886351 1 0.71371
0.853925 1 0.742489
0.854109 1 0.742504
0.854398 1 0.742535
0.855268 1 0.742626
0.857786 1 0.742901
0.864103 1 0.74374
0.876234 1 0.746242
0.88658 1 0.753094
0.886687 1 0.770993
0.0380713 0.0306096 0.438499
0.0380713 0.0306096 0.438636
0.0380713 0.0306096 0.438697
0.458488 0.0373236 0.442969
0.796582 0.0467536 0.453086
1 0.0531624 0.474586
0.948913 0.487648 0.471138
0.907042 0.864118 0.535119
0.893004 0.998123 0.688457
0.0380407 0.0305791 0.436561
0.0380407 0.0305791 0.436744
0.124514 0.0311284 0.437156
0.472938 0.037644 0.441184
0.794568 0.0466773 0.450919
1 0.0531319 0.472282
0.944152 0.529519 0.464012
0.906462 0.869337 0.533654
0.892927 0.998734 0.688228
0.0307622 0.11017 0.426444
0.0302281 0.116197 0.426123
0.149386 0.11104 0.426642
0.478737 0.0377356 0.437842
0.788373 0.0464637 0.447303
1 0.0531014 0.467903
0.938079 0.582818 0.453925
0.905562 0.877302 0.531334
0.892821 1 0.687861
0 0.457511 0.376104
0 0.45922 0.376242
0 0.46041 0.37673
0.394812 0.456443 0.378042
0.722118 0.450828 0.385443
0.94641 0.506416 0.398291
0.925414 0.694545 0.428641
0.903212 0.898238 0.52491
0.8925 1 0.686763
0 0.809537 0.268284
0 0.809506 0.268925
0 0.809216 0.269932
0 0.806775 0.272938
0.652216 0.796719 0.280461
0.879606 0.805264 0.308339
0.906981 0.858656 0.375235
0.898405 0.940826 0.509209
0.891661 1 0.683589
0 1 0
0 1 0
0 0.999573 0
0 0.995239 0
0.614054 0.982742 0
0.820142 0.974334 0.12491
0.89366 0.976974 0.288029
0.89221 0.99559 0.47628
0.889876 1 0.675013
0.512581 1 0.14786
0.528466 1 0.148791
0.551644 1 0.150347
0.606943 1 0.155138
0.702342 1 0.169635
0.80734 1 0.209628
0.880751 1 0.307439
0.887404 1 0.481224
0.887495 1 0.661738
0.773419 1 0.545296
0.774853 1 0.545434
0.777142 1 0.545678
0.783703 1 0.546395
0.800504 1 0.548608
0.833158 1 0.555215
0.87219 1 0.57409
0.885893 1 0.62443
0.886351 1 0.713649
0.854063 1 0.742473
0.854246 1 0.742489
0.854536 1 0.742504
0.855406 1 0.742611
0.857893 1 0.742885
0.86421 1 0.74374
0.876295 1 0.746242
0.88658 1 0.753094
0.886687 1 0.770993
0.0427863 0.0358892 0.712627
0.0427863 0.0358892 0.712703
0.0428016 0.0358892 0.712825
0.312642 0.0384527 0.714046
0.786175 0.0495003 0.718929
1 0.0558328 0.726909
0.977829 0.252903 0.717586
0.909941 0.845975 0.68455
0.893507 0.996185 0.73463
0.042771 0.035874 0.712032
0.0427863 0.035874 0.712093
0.0427863 0.035874 0.71223
0.339849 0.0388952 0.713649
0.791699 0.0496376 0.71841
1 0.0558175 0.726284
0.965057 0.361349 0.70457
0.909224 0.852323 0.683299
0.893431 0.996841 0.734447
0.0427558 0.0358587 0.711025
0.0427558 0.0358587 0.711116
0.0427558 0.0358587 0.711254
0.375738 0.0395209 0.712901
0.795041 0.0497292 0.717388
1 0.0558022 0.725185
0.953063 0.464881 0.691432
0.908141 0.861799 0.681407
0.893309 0.997864 0.734157
0.0180362 0.287144 0.683497
0.0177615 0.290074 0.683268
0.0173953 0.293812 0.682933
0.35378 0.284718 0.683406
0.776471 0.187472 0.696925
0.972076 0.299596 0.691005
0.933867 0.632044 0.667399
0.905409 0.886015 0.676356
0.892973 1 0.733303
0 0.769528 0.612589
0 0.769833 0.61268
0 0.769924 0.612818
0 0.768277 0.613291
0.642191 0.758389 0.614527
0.87631 0.77319 0.619425
0.910353 0.83917 0.62974
0.899962 0.934325 0.66511
0.892103 1 0.730938
0 0.997879 0.552056
0 0.997147 0.552285
0 0.99588 0.552651
0 0.99202 0.55378
0.587579 0.978653 0.5552
0.812345 0.970001 0.566644
0.895201 0.973449 0.592706
0.893263 0.993561 0.646067
0.890272 1 0.724956
0.503166 1 0.466728
0.519493 1 0.467079
0.543328 1 0.467658
0.599924 1 0.469444
0.696895 1 0.474754
0.802976 1 0.48954
0.876722 1 0.529076
0.888029 1 0.610971
0.887816 1 0.71133
0.776654 1 0.544945
0.778027 1 0.545098
0.780224 1 0.545327
0.786511 1 0.546059
0.80267 1 0.548272
0.834287 1 0.554879
0.872557 1 0.5738
0.885893 1 0.624369
0.886351 1 0.713497
0.854475 1 0.742428
0.854658 1 0.742443
0.854932 1 0.742473
0.855802 1 0.742565
0.858259 1 0.74284
0.864469 1 0.743694
0.876432 1 0.746197
0.88658 1 0.753048
0.886687 1 0.770993
0.0461738 0.0396735 0.891508
0.0461738 0.0396735 0.891524
0.0461738 0.0396735 0.891539
0.0461738 0.0396735 0.891585
0.68014 0.0491951 0.893797
1 0.0580301 0.895781
1 0.0580453 0.896666
0.920668 0.758541 0.811749
0.894636 0.989517 0.792859
0.0461738 0.0396735 0.891432
0.0461738 0.0396735 0.891447
0.0461738 0.0396735 0.891463
0.0461738 0.0396735 0.891508
0.687892 0.0493935 0.893767
1 0.0580301 0.895705
1 0.0580453 0.896574
0.919249 0.770977 0.809857
0.89456 0.990295 0.792706
0.0461738 0.0396582 0.89131
0.0461738 0.0396582 0.891325
0.0461738 0.0396582 0.89134
0.0461738 0.0396582 0.891371
0.700145 0.0497139 0.89369
1 0.0580301 0.895567
1 0.0580453 0.896468
0.917159 0.789319 0.807034
0.894408 0.991516 0.792462
0.0461738 0.0396582 0.890944
0.0461738 0.0396582 0.890944
0.0461738 0.0396582 0.890959
0.0461585 0.0396582 0.890654
0.72694 0.0504005 0.893431
1 0.0580301 0.895155
1 0.0580148 0.894575
0.912154 0.833448 0.800076
0.894026 0.99501 0.79176
0 0.576471 0.83061
0 0.577722 0.830457
0 0.579767 0.830198
0 0.58294 0.829358
0.644892 0.572274 0.828275
0.936294 0.594202 0.825803
0.922972 0.737774 0.806531
0.9037 0.908125 0.787259
0.893004 1 0.789899
0 0.984985 0.766613
0 0.984512 0.766629
0 0.983581 0.766659
0 0.979934 0.766751
0.514687 0.964996 0.764858
0.802548 0.955596 0.767086
0.893935 0.961913 0.768872
0.89485 0.986358 0.772595
0.890959 1 0.785794
0.364675 1 0.741772
0.399313 1 0.741802
0.44303 1 0.741863
0.53167 1 0.742168
0.66154 1 0.743145
0.786694 1 0.745312
0.867323 1 0.749889
0.889052 1 0.759396
0.888334 1 0.778836
0.767895 1 0.709682
0.769299 1 0.709743
0.771557 1 0.709819
0.778012 1 0.710079
0.794568 1 0.710857
0.826917 1 0.713207
0.866133 1 0.719844
0.886488 1 0.736599
0.886656 1 0.766461
0.855711 1 0.74229
0.855863 1 0.742321
0.856138 1 0.742351
0.856962 1 0.742428
0.859312 1 0.742718
0.865278 1 0.743557
0.87686 1 0.746075
0.88658 1 0.752941
0.886687 1 0.770977
0.0471809 0.0407874 0.942641
0.0471809 0.0407874 0.942641
0.0471809 0.0407874 0.942641
0.0471809 0.0407874 0.942641
0.0471809 0.0407874 0.942641
0.98761 0.058381 0.955688
1 0.0588846 0.956039
1 0.0588846 0.956039
0.898436 0.958709 0.841657
0.0471809 0.0407874 0.942641
0.0471809 0.0407874 0.942641
0.0471809 0.0407874 0.942641
0.0471809 0.0407874 0.942641
0.0471809 0.0407874 0.942641
0.988983 0.0584115 0.955703
1 0.0588846 0.956039
1 0.0588846 0.956039
0.898268 0.960128 0.841428
0.0471809 0.0407874 0.942641
0.0471809 0.0407874 0.942641
0.0471809 0.0407874 0.942641
0.0471809 0.0407874 0.942641
0.0471809 0.0407874 0.942641
0.991165 0.0584726 0.955749
1 0.0588846 0.956039
1 0.0588846 0.956039
0.898024 0.962356 0.841047
0.0471809 0.0407874 0.942641
0.0471809 0.0407874 0.942641
0.0471809 0.0407874 0.942641
0.0471809 0.0407874 0.942641
0.0471809 0.0407874 0.942641
0.997574 0.0586557 0.955886
1 0.0588846 0.956039
1 0.0588846 0.956039
0.897307 0.968643 0.839994
0.0471809 0.0407874 0.942641
0.0471809 0.0407874 0.942641
0.0471809 0.0407874 0.942641
0.0471809 0.0407874 0.942641
0.393942 0.0439155 0.945281
1 0.0588846 0.956039
1 0.0588846 0.956039
0.935088 0.637064 0.886778
0.895506 0.984649 0.837324
0 0.875624 0.856397
0 0.875929 0.856367
0 0.876432 0.856291
0 0.877974 0.856062
0 0.872419 0.855375
0.81857 0.859052 0.853605
0.906615 0.886122 0.849287
0.899351 0.950378 0.839704
0.892378 1 0.832502
0 1 0.824674
0 1 0.824674
0 1 0.824704
0 1 0.824765
0.558801 1 0.822354
0.765545 1 0.823529
0.863035 1 0.824506
0.890013 1 0.825132
0.888975 1 0.826734
0.739239 1 0.815473
0.741115 1 0.815488
0.744091 1 0.815488
0.75256 1 0.815518
0.773877 1 0.81561
0.813748 1 0.815854
0.85864 1 0.816464
0.886961 1 0.818112
0.886992 1 0.821942
0.851835 1 0.803601
0.852003 1 0.803601
0.852277 1 0.803616
0.853117 1 0.803647
0.855512 1 0.803738
0.861585 1 0.804028
0.873381 1 0.804898
0.886854 1 0.807385
0.886946 1 0.813672
0.0400092 0.105058 0.936553
0.0400092 0.105058 0.936553
0.0400092 0.105058 0.936553
0.0400092 0.105089 0.936553
0.0400092 0.10515 0.936538
0.0399786 0.105348 0.936522
1 0.0588846 0.956039
1 0.0588846 0.956039
0.929564 0.685481 0.886412
0.0400244 0.105028 0.936553
0.0400244 0.105028 0.936553
0.0400244 0.105043 0.936553
0.0400092 0.105058 0.936553
0.0400092 0.105135 0.936538
0.0399786 0.105318 0.936522
1 0.0588846 0.956039
1 0.0588846 0.956039
0.929564 0.68545 0.886412
0.0400244 0.104967 0.936568
0.0400244 0.104967 0.936568
0.0400244 0.104982 0.936553
0.0400244 0.105013 0.936553
0.0400092 0.105058 0.936553
0.0399939 0.105272 0.936538
1 0.0588846 0.956039
1 0.0588846 0.956039
0.929564 0.685405 0.886412
0.0400397 0.104814 0.936568
0.0400397 0.104799 0.936584
0.0400397 0.104814 0.936568
0.0400397 0.104829 0.936568
0.0400244 0.104906 0.936568
0.0434882 0.0729229 0.939544
1 0.0588846 0.956039
1 0.0588846 0.956039
0.92958 0.685252 0.886427
0.0401007 0.104295 0.936629
0.0401007 0.104295 0.936629
0.0401007 0.104311 0.936614
0.0401007 0.104326 0.936614
0.0400854 0.104387 0.936614
0.426856 0.0444953 0.945708
1 0.0588846 0.956039
1 0.0588846 0.956039
0.929641 0.68481 0.886488
0.0402686 0.102663 0.936767
0.0402686 0.102663 0.936767
0.0402686 0.102663 0.936767
0.0402686 0.102678 0.936767
0.0402533 0.102754 0.936767
0.806836 0.0533913 0.952132
1 0.0588846 0.956039
0.997009 0.119234 0.948257
0.903731 0.912734 0.862669
0 1 0.85214
0 1 0.852125
0 1 0.852125
0 1 0.85211
0 1 0.852049
0.656672 1 0.852125
0.869703 0.993347 0.854093
0.893462 1 0.853208
0.8907 1 0.85066
0.577707 1 0.845792
0.586007 1 0.845792
0.598489 1 0.845792
0.630945 1 0.845808
0.697002 1 0.845838
0.781109 1 0.84596
0.850095 1 0.846098
0.886122 1 0.846418
0.887221 1 0.846571
0.841306 1 0.843992
0.841535 1 0.843992
0.841917 1 0.843992
0.84303 1 0.844007
0.846204 1 0.844007
0.854078 1 0.844053
0.868467 1 0.844129
0.88394 1 0.844343
0.887129 1 0.844831
0.0152743 0.349889 0.914443
0.0152743 0.349889 0.914443
0.0152743 0.349889 0.914443
0.0152743 0.349905 0.914443
0.0152743 0.349905 0.914443
0.0152743 0.34995 0.914443
0.015259 0.350072 0.914427
0.969284 0.343572 0.922866
0.924025 0.733837 0.881331
0.0152743 0.349889 0.914443
0.0152743 0.349889 0.914443
0.0152743 0.349889 0.914443
0.0152743 0.349889 0.914443
0.0152743 0.349905 0.914443
0.0152743 0.349935 0.914443
0.015259 0.350072 0.914427
0.969253 0.343862 0.922835
0.924025 0.733898 0.881315
0.0152895 0.349874 0.914443
0.0152895 0.349874 0.914443
0.0152895 0.349874 0.914443
0.0152743 0.349889 0.914443
0.0152743 0.349889 0.914443
0.0152743 0.349935 0.914443
0.015259 0.350042 0.914427
0.969192 0.344289 0.922789
0.92401 0.733959 0.881315
0.0152895 0.349844 0.914443
0.0152895 0.349844 0.914443
0.0152895 0.349844 0.914443
0.0152895 0.349844 0.914443
0.0152895 0.349874 0.914443
0.0152743 0.349905 0.914443
0.0152743 0.350011 0.914427
0.969039 0.345663 0.922637
0.92398 0.734203 0.881285
0.0152895 0.349737 0.914458
0.0152895 0.349737 0.914458
0.0152895 0.349737 0.914458
0.0152895 0.349737 0.914458
0.0152895 0.349752 0.914458
0.0152895 0.349798 0.914458
0.394415 0.327733 0.916869
0.968551 0.349813 0.922194
0.923903 0.73492 0.881209
0.0153201 0.349432 0.914488
0.0153201 0.349432 0.914488
0.0153201 0.349432 0.914488
0.0153201 0.349447 0.914488
0.0153201 0.349447 0.914488
0.0153201 0.349493 0.914473
0.819638 0.144656 0.941634
0.967102 0.362066 0.920867
0.923781 0.735988 0.881102
0.0154269 0.348486 0.914565
0.0154269 0.348486 0.914565
0.0154269 0.348486 0.914565
0.0154116 0.348516 0.914565
0.0154116 0.348516 0.914565
0.0154116 0.348547 0.914565
1 0.0588846 0.956039
0.964324 0.385763 0.918318
0.923552 0.737972 0.880888
0 1 0.848524
0 1 0.848524
0 1 0.848524
0 1 0.848524
0 1 0.848524
0 1 0.848524
0.809888 1 0.848112
0.888792 1 0.848936
0.888395 1 0.848539
0.788373 1 0.846784
0.789181 1 0.846784
0.790478 1 0.846799
0.794247 1 0.846815
0.804273 1 0.846876
0.826215 1 0.846998
0.856931 1 0.847196
0.881239 1 0.847349
0.887144 1 0.847395
