BBLuts/BB_104_0050_LUT.cube
TITLE "Generated by Resolve"
LUT_3D_SIZE 33
0.00480659 0.0147555 0.0320592
0.00480659 0.0147555 0.0320592
0.00480659 0.0147555 0.0320592
0.00480659 0.0147555 0.0320592
0.00480659 0.0147555 0.0320592
0.0536049 0.0153811 0.0330205
0.110567 0.0161288 0.0341344
0.152331 0.0165103 0.0347753
0.196155 0.0166476 0.0351873
0.252399 0.0165408 0.0354314
0.321035 0.016083 0.0355993
0.399939 0.01561 0.0362554
0.491814 0.0166171 0.0396124
0.56997 0.0238041 0.0525063
0.617823 0.049424 0.0927901
0.671275 0.127733 0.209476
0.72723 0.295354 0.386923
0.777066 0.46363 0.54696
0.81825 0.573831 0.614359
0.850172 0.616007 0.660838
0.85594 0.623804 0.6692
0.85594 0.623804 0.6692
0.855833 0.626154 0.66952
0.855558 0.631739 0.669505
0.854917 0.644144 0.668727
0.853529 0.667292 0.666072
0.851255 0.70103 0.659525
0.849058 0.736797 0.647349
0.847547 0.766125 0.629969
0.846525 0.789166 0.615076
0.845243 0.806455 0.632792
0.843473 0.819059 0.689815
0.841978 0.829236 0.745235
0.00480659 0.0147555 0.0320592
0.00480659 0.0147555 0.0320592
0.00480659 0.0147555 0.0320592
0.00480659 0.0147555 0.0320592
0.00480659 0.0147555 0.0320592
0.0650492 0.0155337 0.0332494
0.11458 0.0161593 0.0341955
0.155673 0.0165255 0.0348058
0.201907 0.0166629 0.0352178
0.259464 0.0165103 0.035462
0.328481 0.016022 0.0356298
0.406592 0.0155947 0.0363622
0.495491 0.0167086 0.0399023
0.571374 0.0241398 0.0530556
0.618784 0.050248 0.0940566
0.671977 0.129381 0.211597
0.727657 0.296696 0.388281
0.777234 0.46424 0.547372
0.818204 0.573754 0.614298
0.849958 0.615717 0.660533
0.85594 0.623804 0.6692
0.85594 0.623804 0.6692
0.855817 0.626673 0.669306
0.855528 0.632609 0.669367
0.854841 0.645487 0.668528
0.853407 0.668956 0.665782
0.851164 0.702617 0.659007
0.848981 0.737881 0.646616
0.847517 0.766766 0.629007
0.846525 0.789563 0.613901
0.845243 0.806668 0.631983
0.843458 0.819196 0.689494
0.841978 0.829313 0.745113
0.00480659 0.0147555 0.0320592
0.00480659 0.0147555 0.0320592
0.00480659 0.0147555 0.0320592
0.00480659 0.0147555 0.0320592
0.00480659 0.0147555 0.0320592
0.07187 0.0156405 0.033402
0.115953 0.0161898 0.0342107
0.158831 0.016556 0.0348516
0.207935 0.0166629 0.0352483
0.266011 0.0164797 0.035462
0.334173 0.0159915 0.0356603
0.410147 0.0155947 0.0364385
0.498527 0.016846 0.0401312
0.572732 0.024506 0.0536507
0.619776 0.0511025 0.0953536
0.672679 0.131014 0.213703
0.728069 0.298024 0.389639
0.777386 0.46482 0.547768
0.818128 0.573663 0.614191
0.84976 0.615427 0.660212
0.85594 0.623804 0.6692
0.85594 0.623804 0.6692
0.855787 0.627207 0.668925
0.855467 0.633539 0.669215
0.854765 0.646876 0.668345
0.853315 0.670619 0.665461
0.851041 0.704189 0.658473
0.848936 0.738933 0.645869
0.847501 0.767407 0.628031
0.846525 0.789944 0.612696
0.845258 0.806882 0.631174
0.843458 0.819318 0.689174
0.841978 0.829389 0.744991
0.00480659 0.0147555 0.0320592
0.00480659 0.0147555 0.0320592
0.00480659 0.0147555 0.0320592
0.00399786 0.0196994 0.031693
0.0262913 0.024445 0.0317845
0.0770886 0.0157015 0.0334936
0.116594 0.0161898 0.034226
0.159121 0.016556 0.0348516
0.208972 0.0166781 0.0352483
0.268666 0.0164645 0.0354772
0.337881 0.0159609 0.0356603
0.413382 0.0155947 0.0365148
0.501411 0.0169528 0.0403601
0.573999 0.0248875 0.0542916
0.620783 0.0519875 0.0967117
0.673396 0.132708 0.215869
0.728466 0.299321 0.390997
0.777539 0.465354 0.548119
0.818051 0.573556 0.614084
0.849515 0.615106 0.659876
0.85594 0.623804 0.6692
0.85594 0.623804 0.6692
0.855756 0.627817 0.668864
0.855421 0.634501 0.669047
0.854688 0.648295 0.668132
0.853193 0.672297 0.665141
0.85095 0.70573 0.657954
0.848875 0.739986 0.645121
0.847486 0.768017 0.627039
0.846525 0.790326 0.611475
0.845258 0.807095 0.63035
0.843458 0.819455 0.688823
0.841962 0.829465 0.744869
0 0.0603037 0.0286107
0 0.0628519 0.0284276
0 0.0653086 0.0282292
0 0.067689 0.0280613
0 0.0686198 0.027985
0.0603342 0.0688334 0.0291752
0.103548 0.0674601 0.0301518
0.148486 0.0633249 0.0311894
0.202472 0.0529946 0.0324712
0.269871 0.0164645 0.0354925
0.340017 0.0159304 0.0356909
0.416342 0.0155947 0.0365759
0.504189 0.0170596 0.0406195
0.575174 0.0252842 0.0549325
0.621805 0.0528878 0.0981155
0.674113 0.134432 0.218036
0.728878 0.300633 0.392309
0.777661 0.465827 0.54844
0.817975 0.573449 0.613962
0.849287 0.614801 0.659525
0.85594 0.623804 0.6692
0.855909 0.624537 0.669139
0.855726 0.628473 0.668818
0.855375 0.635523 0.668849
0.854597 0.649729 0.667918
0.853086 0.673991 0.664805
0.850843 0.70724 0.657435
0.848829 0.741009 0.644358
0.847471 0.768643 0.626047
0.846525 0.790707 0.610239
0.845243 0.807309 0.629526
0.843458 0.819577 0.688502
0.841962 0.829541 0.744747
0 0.0884108 0.0264744
0 0.090425 0.0263066
0 0.0924239 0.026154
0 0.0940108 0.0260319
0 0.0947738 0.0259709
0.0368658 0.0952926 0.0267491
0.0916304 0.0953231 0.0278477
0.139147 0.0939803 0.0288243
0.194278 0.0903029 0.0297246
0.262684 0.082414 0.0306859
0.337331 0.0665599 0.0320745
0.418952 0.01561 0.0366522
0.506966 0.0171817 0.0408637
0.576333 0.0257267 0.0556649
0.622889 0.0538949 0.0996719
0.674891 0.136339 0.220401
0.72929 0.301976 0.393698
0.777798 0.466331 0.548791
0.817884 0.573312 0.613825
0.849027 0.614435 0.659159
0.85594 0.623804 0.6692
0.855863 0.625681 0.669047
0.855695 0.629191 0.668757
0.855314 0.636622 0.66862
0.854505 0.65127 0.667674
0.852979 0.675761 0.664439
0.850752 0.708812 0.656886
0.848768 0.742077 0.643549
0.84744 0.769268 0.624979
0.846525 0.791104 0.608927
0.845258 0.807538 0.628641
0.843442 0.819715 0.688151
0.841947 0.829633 0.744625
0 0.117906 0.0239414
0 0.1196 0.0238041
0 0.121294 0.0236515
0 0.12224 0.0235599
0 0.12285 0.0235142
0 0.123064 0.0234989
0.0712749 0.124056 0.0252384
0.126192 0.123919 0.0263981
0.183825 0.122301 0.0273747
0.256641 0.118318 0.028275
0.334051 0.110399 0.0293889
0.417762 0.0978256 0.0315709
0.509026 0.0755016 0.0378576
0.577752 0.0263218 0.056611
0.624308 0.0552377 0.101701
0.675898 0.138827 0.223438
0.729839 0.303746 0.395544
0.777981 0.466957 0.549218
0.817746 0.573114 0.613642
0.848661 0.613962 0.65864
0.85594 0.623804 0.6692
0.855833 0.626429 0.668986
0.85565 0.630213 0.668666
0.855238 0.638102 0.668193
0.854398 0.6533 0.667369
0.852827 0.678035 0.663966
0.850614 0.710811 0.656153
0.848707 0.74342 0.642496
0.847425 0.770077 0.623575
0.846525 0.791592 0.607202
0.845258 0.807828 0.627512
0.843442 0.819898 0.687694
0.841947 0.829725 0.744457
0 0.151659 0.0210269
0 0.153155 0.0208896
0 0.154253 0.0207675
0 0.155001 0.0207218
0 0.155505 0.020676
0 0.15581 0.0206302
0.0132601 0.15639 0.0213474
0.104356 0.157427 0.0233463
0.167239 0.157153 0.0246281
0.245518 0.154788 0.0257877
0.327855 0.14963 0.0270237
0.417212 0.142412 0.0293278
0.511849 0.133822 0.0358129
0.579614 0.124987 0.0544747
0.626749 0.113329 0.103883
0.677241 0.142199 0.227527
0.730571 0.306142 0.398001
0.77821 0.467796 0.549798
0.817548 0.572839 0.613367
0.848173 0.613291 0.657923
0.855879 0.625116 0.669093
0.855772 0.62742 0.66891
0.855573 0.631662 0.668544
0.855131 0.640192 0.667704
0.854231 0.656046 0.666911
0.852613 0.681056 0.66331
0.850462 0.71339 0.655177
0.848615 0.745144 0.641077
0.847395 0.77113 0.621698
0.846525 0.792264 0.604868
0.845258 0.808209 0.625971
0.843427 0.820127 0.687114
0.841932 0.829862 0.744244
0 0.197406 0.016556
0 0.198886 0.0163882
0 0.19971 0.0162814
0 0.200534 0.0162051
0 0.201129 0.0161288
0 0.201541 0.0160983
0 0.20177 0.0160678
0.0568551 0.203037 0.0180972
0.139239 0.202808 0.0203403
0.224216 0.200824 0.0222171
0.315267 0.196765 0.0240024
0.412451 0.191012 0.0268711
0.513756 0.185473 0.0343786
0.582071 0.185443 0.0550546
0.630335 0.202762 0.107683
0.681178 0.253147 0.235584
0.731991 0.346532 0.401541
0.778515 0.468894 0.55053
0.817258 0.572396 0.612924
0.84741 0.614023 0.656779
0.855817 0.626581 0.668986
0.855695 0.628946 0.668772
0.855467 0.633814 0.668345
0.854978 0.643168 0.667369
0.854002 0.659785 0.666255
0.852354 0.685039 0.662379
0.850248 0.716701 0.653819
0.848508 0.747356 0.639139
0.847349 0.772503 0.619104
0.846525 0.793103 0.601663
0.845258 0.808698 0.62388
0.843427 0.820417 0.68629
0.841917 0.83003 0.743954
0 0.256962 0.00807202
0 0.257435 0.00799573
0 0.257893 0.00790417
0 0.258289 0.00784314
0 0.258503 0.00779736
0 0.258579 0.00779736
0 0.258442 0.00781262
0 0.25803 0.00788891
0.0873426 0.259342 0.0117647
0.184421 0.259266 0.0149538
0.291188 0.257115 0.0179599
0.399649 0.25272 0.0218357
0.51136 0.247715 0.0305791
0.584039 0.246998 0.0537575
0.6336 0.261265 0.110063
0.684016 0.304143 0.240909
0.733455 0.386313 0.404868
0.778592 0.498695 0.550256
0.816693 0.57731 0.611994
0.846311 0.614816 0.655146
0.855726 0.628367 0.668833
0.855589 0.631342 0.668574
0.855299 0.637049 0.668025
0.854734 0.64744 0.66688
0.853681 0.664881 0.665293
0.851987 0.690288 0.661051
0.849989 0.721111 0.651972
0.848386 0.750164 0.6365
0.847318 0.774243 0.615564
0.84654 0.794217 0.597238
0.845273 0.809339 0.621042
0.843412 0.820813 0.685237
0.841901 0.830259 0.743572
0 0.323705 0
0 0.324163 0
0 0.324681 0
0 0.325017 0
0 0.325307 0
0 0.325475 0
0 0.325536 0
0 0.325414 0
0 0.324895 0
0.112535 0.327581 0
0.244755 0.328313 0.00521859
0.372534 0.325841 0.0105287
0.50045 0.321599 0.0205081
0.583749 0.320562 0.0462196
0.635889 0.330526 0.106752
0.686656 0.362844 0.243046
0.734874 0.426703 0.407492
0.778759 0.517281 0.550195
0.8159 0.580575 0.610712
0.844709 0.616037 0.65275
0.855589 0.631434 0.668559
0.85539 0.635203 0.668208
0.855039 0.641993 0.667506
0.854383 0.653559 0.666087
0.853239 0.671763 0.663706
0.85153 0.697154 0.659144
0.849683 0.726421 0.649378
0.848219 0.753689 0.632868
0.847272 0.776471 0.610574
0.846571 0.795636 0.590936
0.845289 0.810178 0.617136
0.843397 0.821317 0.683818
0.841886 0.830564 0.743084
0 0.405844 0
0 0.406348 0
0 0.40679 0
0 0.407156 0
0 0.407446 0
0 0.40766 0
0 0.407843 0
0 0.407904 0
0 0.407736 0
0 0.407309 0
0.136187 0.412055 0
0.316228 0.413855 0
0.472496 0.411826 0
0.578866 0.410834 0.024094
0.634562 0.416327 0.0871595
0.687602 0.437812 0.231754
0.735698 0.484215 0.405402
0.778576 0.543694 0.548608
0.814557 0.587579 0.608454
0.84239 0.619318 0.64921
0.855329 0.636683 0.668055
0.85507 0.641459 0.667552
0.854612 0.6495 0.666621
0.853849 0.662242 0.66482
0.852644 0.68101 0.661341
0.850965 0.705852 0.656336
0.849302 0.732967 0.645716
0.848035 0.757977 0.628061
0.847227 0.779293 0.603418
0.846616 0.797452 0.581689
0.845319 0.811261 0.611673
0.843381 0.821988 0.681895
0.841856 0.830945 0.742428
0 0.504952 0
0 0.505348 0
0 0.505714 0
0 0.506004 0
0 0.506233 0
0 0.506447 0
0 0.506645 0
0 0.506783 0
0 0.50695 0
0 0.507042 0
0 0.507042 0
0.165774 0.514 0
0.406958 0.516625 0
0.563531 0.51545 0
0.627024 0.516732 0.0328985
0.684092 0.525734 0.178195
0.734554 0.546288 0.388449
0.777676 0.575463 0.54313
0.812497 0.60058 0.6047
0.839231 0.626856 0.644205
0.854841 0.645609 0.667094
0.854505 0.651484 0.666362
0.853956 0.660716 0.665064
0.853086 0.674342 0.662715
0.85182 0.693233 0.658381
0.850278 0.716472 0.652216
0.84889 0.740826 0.640452
0.847852 0.763149 0.621241
0.847211 0.782803 0.592737
0.846738 0.799771 0.566735
0.845365 0.81265 0.6038
0.843351 0.822828 0.679301
0.841825 0.831449 0.741543
0 0.579904 0
0 0.580041 0
0 0.580148 0
0 0.580255 0
0 0.580331 0
0 0.580423 0
0 0.580499 0
0 0.580575 0
0 0.580636 0
0 0.580652 0
0 0.580575 0
0 0.580362 0
0.22768 0.584726 0
0.517205 0.585092 0
0.612192 0.584421 0
0.674998 0.585534 0.053315
0.730434 0.59205 0.33228
0.775296 0.604242 0.526925
0.809293 0.621866 0.59794
0.834943 0.641474 0.636774
0.853986 0.660029 0.665156
0.853574 0.666789 0.664073
0.852918 0.676753 0.662226
0.851987 0.690593 0.659083
0.850797 0.708568 0.653605
0.849546 0.729152 0.645975
0.848447 0.74995 0.632685
0.847654 0.769284 0.611139
0.847257 0.787121 0.576516
0.846998 0.802701 0.523949
0.845457 0.814435 0.592081
0.843336 0.823911 0.675792
0.841779 0.83209 0.740383
0 0.628748 0
0 0.62884 0
0 0.628916 0
0 0.628977 0
0 0.629038 0
0 0.629084 0
0 0.629129 0
0 0.62916 0
0 0.629175 0
0 0.629129 0
0 0.629007 0
0 0.628687 0
0 0.628092 0
0.341299 0.633082 0
0.585901 0.632319 0
0.659602 0.6318 0
0.72079 0.634302 0.101442
0.769406 0.641657 0.468681
0.804028 0.652125 0.583658
0.829129 0.665141 0.624659
0.848722 0.679362 0.655192
0.85214 0.688289 0.659648
0.851484 0.698116 0.657008
0.850645 0.710933 0.65272
0.849729 0.72636 0.64593
0.848798 0.74313 0.636225
0.84802 0.760159 0.620859
0.847501 0.776516 0.595056
0.847456 0.792325 0.53373
0.847608 0.806485 0.39176
0.84564 0.816724 0.573846
0.843305 0.825269 0.670939
0.841718 0.832898 0.738827
0 0.678309 0
0 0.678355 0
0 0.678386 0
0 0.678416 0
0 0.678416 0
0 0.678431 0
0 0.678431 0
0 0.678416 0
0 0.678386 0
0 0.678294 0
0 0.678096 0
0 0.677729 0
0 0.677073 0
0 0.676143 0
0.475349 0.681239 0
0.634333 0.680171 0
0.70544 0.680049 0
0.758602 0.68333 0.126207
0.795636 0.689433 0.529534
0.821241 0.696956 0.601038
0.840604 0.706218 0.635615
0.850385 0.71516 0.651072
0.849897 0.723384 0.64744
0.849332 0.733379 0.641871
0.848722 0.745083 0.633158
0.848157 0.757916 0.620295
0.847684 0.771145 0.601709
0.847547 0.784833 0.564065
0.848142 0.798688 0.364965
0.848112 0.810483 0.0170901
0.846113 0.81973 0.509514
0.84329 0.826978 0.664164
0.841642 0.833921 0.736797
0 0.726497 0
0 0.726497 0
0 0.726482 0
0 0.726452 0
0 0.726452 0
0 0.726421 0
0 0.726375 0
0 0.726314 0
0 0.726207 0
0 0.72604 0
0 0.72575 0
0 0.725277 0
0 0.724559 0
0 0.723552 0
0 0.722286 0
0.580453 0.726894 0.00196841
0.683757 0.72517 0.00106813
0.743954 0.725338 0.0034638
0.784039 0.727596 0.00714122
0.81207 0.731929 0.509209
0.832044 0.736599 0.598291
0.846525 0.742657 0.629816
0.848569 0.74847 0.630045
0.848264 0.755367 0.622507
0.847974 0.7635 0.610834
0.847761 0.772732 0.591516
0.847669 0.783047 0.560983
0.848264 0.794446 0.380911
0.848356 0.80502 0.0167544
0.847898 0.814649 0.0173342
0.847318 0.823789 0.142962
0.84329 0.829053 0.654459
0.84155 0.835172 0.734051
0 0.766552 0
0 0.766506 0
0 0.766445 0
0 0.7664 0
0 0.766339 0
0 0.766278 0
0 0.766186 0
0 0.766079 0
0 0.765896 0
0 0.765637 0
0 0.76524 0
0 0.764645 0
0 0.763836 0
0 0.762753 0
0 0.761349 0
0 0.759655 0
0.652308 0.762097 0.00741588
0.727947 0.760464 0.00668345
0.772091 0.760678 0.00872816
0.802579 0.762158 0.0110933
0.82501 0.765087 0.260563
0.839536 0.767437 0.567361
0.847776 0.770993 0.595834
0.84773 0.775372 0.583978
0.847791 0.781003 0.559701
0.848127 0.787976 0.467842
0.848737 0.795895 0.112444
0.848417 0.803632 0.0166781
0.848051 0.81149 0.0171511
0.847639 0.819394 0.0176242
0.847181 0.827161 0.0180667
0.843336 0.831586 0.639948
0.841443 0.836744 0.730343
0 0.796643 0.00892653
0 0.796567 0.00891127
0 0.79649 0.00886549
0 0.796414 0.00883497
0 0.796338 0.00880446
0 0.796246 0.00875868
0 0.796124 0.0087129
0 0.795956 0.00863661
0 0.795727 0.00854505
0 0.795407 0.00840772
0 0.794934 0.00820935
0 0.794293 0.00794995
0 0.793439 0.00758373
0 0.792309 0.0071107
0 0.790875 0.0065156
0 0.78912 0.00578317
0.593591 0.790799 0.0165255
0.710964 0.787289 0.0108949
0.760616 0.786389 0.0112612
0.793362 0.786542 0.0127565
0.816999 0.787488 0.0141604
0.833967 0.789212 0.0151827
0.847028 0.791806 0.147845
0.848798 0.79443 0.0671244
0.848661 0.797803 0.0163272
0.848478 0.802014 0.0165713
0.848249 0.806943 0.0168612
0.84799 0.812345 0.0171969
0.847669 0.81828 0.0175479
0.847303 0.824582 0.0179141
0.846906 0.830976 0.018265
0.843458 0.834516 0.619852
0.841321 0.838605 0.725322
0 0.81973 0.0188296
0 0.819623 0.0187839
0 0.819532 0.0187381
0 0.819425 0.0186923
0 0.819333 0.0186618
0 0.819211 0.0186007
0 0.819074 0.0185397
0 0.818875 0.0184482
0 0.818601 0.0183413
0 0.818235 0.0181735
0 0.817746 0.0179751
0 0.817105 0.0177005
0 0.816251 0.0173342
0 0.815137 0.016846
0 0.813748 0.0162509
0 0.812009 0.0155032
0 0.810086 0.0146792
0.691844 0.808515 0.0153658
0.74963 0.806775 0.013901
0.784558 0.80618 0.0145571
0.809277 0.806226 0.0154574
0.827298 0.806821 0.0161898
0.841245 0.80795 0.0167391
0.848127 0.809476 0.0170291
0.848035 0.811337 0.0171359
0.847898 0.813855 0.0172885
0.84773 0.817044 0.0174716
0.847501 0.820859 0.0177005
0.847242 0.825254 0.0179599
0.846922 0.83006 0.0182193
0.846586 0.835081 0.0184787
0.84332 0.837583 0.611856
0.841184 0.840787 0.718212
0 0.836484 0.0259098
0 0.836362 0.025864
0 0.836255 0.0258183
0 0.836149 0.0257725
0 0.836027 0.0257267
0 0.835904 0.0256657
0 0.835752 0.0256046
0 0.835538 0.0255131
0 0.835264 0.0254063
0 0.834897 0.0252537
0 0.834424 0.0250553
0 0.833783 0.0247807
0 0.832959 0.024445
0 0.831891 0.0240024
0 0.830549 0.0234379
0 0.828916 0.0227359
0 0.827146 0.0219883
0.673335 0.824598 0.0194705
0.740688 0.822187 0.016083
0.777478 0.821164 0.0160067
0.802594 0.820737 0.0165408
0.821286 0.820706 0.0170596
0.835966 0.821073 0.0174716
0.846998 0.821866 0.0177462
0.847364 0.822843 0.0178225
0.847272 0.824369 0.0178988
0.847135 0.826444 0.0180209
0.846967 0.829038 0.0181735
0.846738 0.83212 0.0183413
0.846494 0.835584 0.0185092
0.846235 0.839338 0.0186923
0.843137 0.840925 0.604517
0.84094 0.843168 0.717922
0 0.849027 0.0309453
0 0.848905 0.0308995
0 0.848798 0.0308537
0 0.848676 0.030808
0 0.848554 0.0307622
0 0.848447 0.0307164
0 0.848295 0.0306554
0 0.848081 0.0305791
0 0.847822 0.0304723
0 0.847486 0.0303502
0 0.847013 0.0301671
0 0.846418 0.0299229
0 0.845655 0.0296178
0 0.844648 0.029221
0 0.843412 0.0287327
0 0.841978 0.0281529
0 0.840436 0.0275273
0.658717 0.837369 0.0228885
0.73431 0.834455 0.0177768
0.771984 0.833219 0.0171664
0.796979 0.832578 0.0174105
0.815839 0.832258 0.0177768
0.830854 0.832197 0.0180819
0.842374 0.832441 0.0182956
0.846662 0.832898 0.0183719
0.846601 0.833661 0.0184176
0.846494 0.834882 0.0184634
0.846372 0.8365 0.018555
0.84622 0.838514 0.0186618
0.846021 0.840925 0.0187686
0.845838 0.843702 0.0188907
0.842832 0.844388 0.601572
0.84065 0.845716 0.719631
0 0.858259 0.0344244
0 0.858152 0.0343786
0 0.858045 0.0343481
0 0.857939 0.0343023
0 0.857832 0.0342718
0 0.857725 0.034226
0 0.857572 0.034165
0 0.857389 0.0341039
0 0.85713 0.0340124
0 0.856809 0.0338903
0 0.856397 0.0337377
0 0.855848 0.0335241
0 0.855131 0.0332647
0 0.854246 0.032929
0 0.853193 0.0325475
0 0.852003 0.0320897
0 0.850721 0.0316014
0.658183 0.847044 0.024506
0.732418 0.844068 0.0188907
0.768811 0.842802 0.0180056
0.792935 0.842054 0.0180514
0.811551 0.84155 0.0182956
0.826413 0.841245 0.0185245
0.838102 0.841169 0.0186923
0.84593 0.841291 0.0187839
0.845914 0.841535 0.0187991
0.845853 0.842145 0.0188296
0.845777 0.843107 0.0188602
0.845655 0.844404 0.0189212
0.845533 0.846052 0.0189822
0.845396 0.848005 0.0190585
0.842344 0.847761 0.608072
0.840299 0.848356 0.723323
0 0.864729 0.0366979
0 0.864637 0.0366674
0 0.864546 0.0366369
0 0.864439 0.0366064
0 0.864347 0.0365759
0 0.86424 0.0365454
0 0.864103 0.0364996
0 0.863951 0.0364385
0 0.863722 0.0363622
0 0.863432 0.0362554
0 0.863066 0.0361334
0 0.862593 0.0359655
0 0.862013 0.0357671
0 0.861311 0.035523
0 0.860487 0.0352178
0 0.859556 0.0348974
0 0.858579 0.0345312
0.677211 0.853788 0.023621
0.736202 0.851453 0.0194247
0.768429 0.850294 0.0185702
0.790784 0.849546 0.0185092
0.808591 0.848997 0.018677
0.822934 0.848585 0.0188449
0.834379 0.848325 0.0189822
0.843687 0.848234 0.0190585
0.845228 0.848234 0.0190738
0.845212 0.848447 0.0190738
0.845167 0.848936 0.019089
0.845106 0.849714 0.0191196
0.845029 0.850767 0.0191653
0.844968 0.852064 0.0192111
0.841642 0.850797 0.627344
0.839918 0.85095 0.729259
0 0.869154 0.0382086
0 0.869078 0.0381781
0 0.869001 0.0381476
0 0.868925 0.0381323
0 0.868849 0.0381018
0 0.868772 0.0380713
0 0.868666 0.0380407
0 0.868559 0.037995
0 0.868391 0.0379492
0 0.868177 0.0378729
0 0.867903 0.0377813
0 0.867567 0.0376745
0 0.86714 0.0375372
0 0.866636 0.0373693
0 0.866041 0.0371557
0 0.86537 0.0369268
0.6047 0.862959 0.0322881
0.704402 0.858686 0.0218509
0.744732 0.85713 0.0195163
0.770703 0.856199 0.0189059
0.790631 0.855497 0.0188296
0.806989 0.854932 0.0189212
0.820417 0.85449 0.0190585
0.831418 0.854154 0.0191653
0.840497 0.853941 0.0192416
0.844572 0.853788 0.0192569
0.844602 0.853758 0.0192569
0.844587 0.85391 0.0192569
0.844572 0.854292 0.0192721
0.844572 0.854902 0.0192874
0.844572 0.855711 0.0193179
0.840772 0.853437 0.656107
0.839506 0.853452 0.737942
0 0.870115 0.0385138
0 0.870115 0.0385138
0 0.870115 0.0385138
0 0.870115 0.0385138
0 0.870115 0.0385138
0 0.870115 0.0385138
0 0.870115 0.0385138
0 0.870115 0.0385138
0 0.870115 0.0385138
0 0.870115 0.0385138
0 0.87013 0.0385138
0 0.87013 0.0385138
0 0.87013 0.038529
0 0.870146 0.038529
0 0.870039 0.0384985
0.622873 0.866835 0.0307927
0.694362 0.863691 0.0230564
0.730907 0.862242 0.0204318
0.756085 0.861311 0.0194095
0.775814 0.860609 0.0190585
0.792599 0.860014 0.019028
0.806943 0.859495 0.019089
0.819028 0.859037 0.0191958
0.829313 0.858686 0.0192874
0.83798 0.858396 0.0193484
0.844007 0.858198 0.019379
0.844053 0.858015 0.019379
0.844083 0.857984 0.019379
0.844114 0.858122 0.019379
0.844144 0.858427 0.019379
0.844221 0.858915 0.0193942
0.839887 0.855772 0.687984
0.839094 0.855756 0.749187
0 0.870161 0.038529
0 0.870161 0.038529
0 0.870161 0.038529
0 0.870161 0.038529
0 0.870161 0.038529
0 0.870161 0.038529
0 0.870176 0.0385443
0 0.870176 0.0385443
0 0.870176 0.0385443
0 0.870176 0.0385443
0.470756 0.871153 0.041825
0.601801 0.868269 0.0333104
0.643168 0.866636 0.0285039
0.673274 0.865522 0.0251774
0.697734 0.864744 0.0228428
0.718685 0.86421 0.0212558
0.737331 0.863859 0.0202029
0.75378 0.863676 0.0195773
0.768978 0.863584 0.0192569
0.783169 0.863584 0.0191348
0.796338 0.863401 0.0191501
0.808286 0.862959 0.0192111
0.818753 0.862562 0.0192874
0.828061 0.862196 0.0193637
0.836072 0.861891 0.0194247
0.842664 0.861662 0.01944
0.843595 0.861448 0.0194553
0.843656 0.861295 0.01944
0.843732 0.861295 0.01944
0.843824 0.861418 0.01944
0.840558 0.858839 0.628733
0.839139 0.857801 0.718791
0.838727 0.857801 0.762448
0.707057 0.864515 0.0220798
0.708247 0.864485 0.0219883
0.709422 0.864454 0.021912
0.710552 0.864424 0.0218204
0.711666 0.864393 0.0217441
0.71281 0.864378 0.0216526
0.714244 0.864332 0.021561
0.716075 0.864302 0.0214237
0.718395 0.86424 0.0212711
