BBLuts/BB_104_0340_LUT.cube
TITLE "Generated by Resolve"
LUT_3D_SIZE 9
0.054139 0.0504463 0.0450599
0.054139 0.0504463 0.0450599
0.210132 0.0516823 0.0452277
0.471473 0.0468757 0.0432898
0.745663 0.037644 0.312917
0.91696 0.0436713 0.585199
0.901122 0.524407 0.557336
0.882261 0.804242 0.409033
0.877211 0.882231 0.604334
0.0524758 0.0838483 0.0444953
0.0520638 0.0937057 0.0444038
0.218891 0.0736095 0.0446021
0.484047 0.0464485 0.0446174
0.747448 0.0376593 0.316396
0.91696 0.0436713 0.585199
0.899626 0.570733 0.555322
0.882261 0.807675 0.363622
0.877195 0.882582 0.603555
0.0443427 0.239353 0.0422827
0.0440528 0.243229 0.0421607
0.17467 0.241398 0.0410925
0.486915 0.209369 0.0355993
0.749981 0.0506447 0.318608
0.91696 0.0436713 0.584894
0.897139 0.612665 0.552071
0.882307 0.813306 0.18584
0.877165 0.883146 0.602258
0.0116884 0.524437 0.0284123
0.0115816 0.525536 0.0283818
0.0115053 0.526146 0.0283665
0.40705 0.528771 0.032105
0.757443 0.518151 0.29012
0.900725 0.537301 0.555184
0.890333 0.694728 0.537469
0.947478 0.803174 0.0482643
0.877089 0.884764 0.598215
0 0.772366 0.0368505
0 0.772305 0.0368505
0 0.772015 0.0368048
0 0.770077 0.0364843
0.703227 0.76231 0.0308843
0.864881 0.767849 0.351247
0.946624 0.779034 0.137514
0.948592 0.827527 0.0487678
0.876921 0.889082 0.584588
0.0125734 0.900542 0.0642863
0.0124971 0.900023 0.0641794
0.0123751 0.899153 0.0639963
0.0120241 0.896483 0.063447
0.731579 0.855222 0.0538643
0.900343 0.846998 0.0487831
0.949416 0.848005 0.0491646
0.949874 0.858671 0.0493172
0.876799 0.898665 0.542519
0.0162661 0.938155 0.0709239
0.0162356 0.937789 0.0708782
0.0162051 0.937255 0.0707866
0.65716 0.910506 0.0538033
0.814084 0.890349 0.0511025
0.896498 0.885954 0.0493935
0.873518 0.909392 0.0358129
0.877852 0.909834 0.0357671
0.875944 0.910735 0.57171
0.873945 0.895415 0.0494698
0.874983 0.895399 0.0494545
0.876646 0.895384 0.0494392
0.881361 0.895369 0.0493935
0.893278 0.895323 0.0493019
0.842695 0.921599 0.0356909
0.868528 0.921706 0.0354772
0.877699 0.922087 0.0353704
0.875898 0.918578 0.649409
0.857267 0.918593 0.676539
0.857374 0.918593 0.67657
0.857557 0.918593 0.676585
0.858091 0.918593 0.676707
0.859602 0.918593 0.676997
0.863447 0.918608 0.677882
0.870893 0.918624 0.680339
0.877501 0.918654 0.686229
0.878508 0.91873 0.699901
0.0593576 0.0503853 0.0863355
0.0594339 0.0503853 0.0866255
0.220935 0.0520027 0.090898
0.474006 0.0469215 0.10193
0.745663 0.0375525 0.32903
0.916976 0.0436713 0.586389
0.901366 0.51603 0.558511
0.882139 0.803388 0.450752
0.877241 0.882231 0.612024
0.0561074 0.070985 0.0731212
0.0917067 0.0822461 0.0704967
0.236225 0.0519875 0.0821698
0.479973 0.0466621 0.0900282
0.74641 0.0376135 0.321981
0.916976 0.0436713 0.586023
0.899825 0.565301 0.556451
0.882078 0.806714 0.425788
0.877226 0.882582 0.611353
0.0450752 0.229496 0.0425574
0.044831 0.232776 0.0424659
0.190967 0.231373 0.0412757
0.484947 0.199237 0.0356451
0.748318 0.0376745 0.316197
0.91696 0.0436713 0.584924
0.897337 0.609644 0.553292
0.882078 0.812024 0.354711
0.877195 0.883131 0.610239
0.0121462 0.520211 0.0285496
0.0120241 0.521263 0.0285039
0.0119783 0.521675 0.0285039
0.420706 0.523903 0.0320897
0.757214 0.513848 0.291005
0.900862 0.532509 0.555367
0.890471 0.693263 0.538674
0.947463 0.802777 0.0482643
0.877104 0.884749 0.60679
0 0.771405 0.0366979
0 0.771328 0.0366827
0 0.771023 0.0366369
0 0.769039 0.0363165
0.705394 0.761379 0.0308232
0.864988 0.767193 0.357992
0.946715 0.778714 0.165591
0.948592 0.827405 0.0487831
0.87689 0.889052 0.595438
0.0125429 0.900374 0.0642557
0.0124666 0.89984 0.0641337
0.0123598 0.898955 0.0639658
0.0119936 0.8963 0.0634165
0.733654 0.855024 0.053727
0.900557 0.846922 0.0487831
0.949416 0.847944 0.0491798
0.949874 0.858625 0.0493172
0.876783 0.898619 0.544701
0.0162509 0.938079 0.0709087
0.0162356 0.937728 0.0708629
0.0162051 0.937194 0.0707866
0.66305 0.909148 0.0541238
0.814694 0.890303 0.0510719
0.89662 0.885939 0.0493935
0.873549 0.909377 0.0358129
0.877852 0.909819 0.0357671
0.875959 0.910735 0.571649
0.874098 0.895399 0.0494698
0.875151 0.895399 0.0494545
0.876783 0.895384 0.0494392
0.881498 0.895369 0.0493935
0.893385 0.895323 0.0493019
0.842741 0.921599 0.0356909
0.868544 0.921691 0.0354772
0.877699 0.922087 0.0353704
0.875898 0.918578 0.649393
0.857282 0.918593 0.676539
0.857389 0.918593 0.67657
0.857572 0.918593 0.6766
0.858106 0.918593 0.676692
0.859617 0.918593 0.677012
0.863462 0.918608 0.677882
0.870909 0.918624 0.680339
0.877501 0.918654 0.686229
0.878508 0.91873 0.699901
0.0876936 0.0768597 0.22269
0.0877394 0.076936 0.222873
0.227176 0.0770733 0.224094
0.489448 0.0680247 0.226902
0.745708 0.0373541 0.360174
0.916991 0.0436713 0.58822
0.901762 0.500587 0.56141
0.881971 0.802136 0.495354
0.877317 0.882277 0.622568
0.0868086 0.0757305 0.219333
0.0869001 0.0758373 0.219638
0.247135 0.0758068 0.220859
0.487724 0.0670787 0.223865
0.747372 0.0373846 0.361349
0.916991 0.0436713 0.588083
0.900206 0.554788 0.559289
0.881865 0.805402 0.483238
0.877302 0.882628 0.622019
0.071458 0.240177 0.189334
0.0711986 0.241993 0.188724
0.214557 0.23595 0.187243
0.472786 0.215671 0.199878
0.74638 0.0373999 0.357351
0.916991 0.0436713 0.587655
0.89778 0.603357 0.556207
0.881727 0.810498 0.456886
0.877272 0.883192 0.621103
0.0133059 0.509407 0.0289006
0.0131685 0.510658 0.0288548
0.0131075 0.511269 0.0288396
0.425269 0.5131 0.0322423
0.75404 0.503914 0.319966
0.901305 0.517906 0.557565
0.890822 0.689479 0.542947
0.947463 0.802167 0.048249
0.877165 0.884779 0.618326
0 0.769421 0.0363775
0 0.769345 0.0363775
0 0.769039 0.0363165
0 0.767025 0.0360113
0.707332 0.759487 0.0307164
0.864973 0.765698 0.369253
0.882933 0.799954 0.265583
0.948608 0.827054 0.0487678
0.876921 0.889021 0.60943
0.0125124 0.900069 0.0641947
0.0124361 0.899535 0.0640879
0.012314 0.898665 0.0639048
0.0119478 0.89601 0.0633555
0.736934 0.854688 0.0534829
0.900893 0.846769 0.0487831
0.949416 0.847837 0.0491646
0.949859 0.858564 0.0493172
0.876539 0.898283 0.575174
0.0162509 0.937972 0.0708934
0.0162356 0.937636 0.0708476
0.0162051 0.937087 0.0707713
0.672175 0.907057 0.054612
0.815656 0.890227 0.0510414
0.896834 0.885908 0.0493935
0.873594 0.909361 0.0358282
0.877852 0.909819 0.0357671
0.875959 0.910735 0.571527
0.874357 0.895399 0.0494698
0.875395 0.895399 0.0494545
0.877028 0.895384 0.049424
0.881712 0.895369 0.0493782
0.893538 0.895323 0.0493019
0.842832 0.921599 0.0356909
0.868574 0.921706 0.0354772
0.877699 0.922087 0.0353704
0.875898 0.918578 0.649378
0.857313 0.918593 0.676539
0.85742 0.918593 0.676555
0.857603 0.918593 0.676585
0.858122 0.918593 0.676692
0.859648 0.918593 0.676997
0.863478 0.918608 0.677882
0.870909 0.918624 0.680339
0.877501 0.918654 0.686229
0.878508 0.91873 0.699901
0.240116 0.266545 0.431891
0.240314 0.266773 0.432029
0.240421 0.266896 0.432105
0.481422 0.261463 0.429709
0.761379 0.211841 0.469001
0.917113 0.0436866 0.599863
0.90222 0.489982 0.577905
0.881651 0.79913 0.562905
0.877653 0.882567 0.645182
0.23743 0.263432 0.429938
0.237675 0.263722 0.430121
0.282994 0.263615 0.430014
0.495598 0.257603 0.427588
0.759823 0.20798 0.466865
0.917113 0.0436866 0.599573
0.900893 0.540246 0.575891
0.881453 0.802411 0.559731
0.877638 0.882902 0.644831
0.229191 0.302312 0.424796
0.22916 0.305394 0.424842
0.291722 0.303044 0.424964
0.500877 0.251575 0.423972
0.755261 0.203784 0.462425
0.917113 0.0436866 0.599039
0.898741 0.590951 0.572961
0.881178 0.807431 0.554177
0.877607 0.883467 0.644251
0.168536 0.492958 0.382773
0.168612 0.49453 0.382895
0.169253 0.49572 0.383459
0.44593 0.496651 0.388968
0.743511 0.486534 0.439185
0.902281 0.479622 0.568551
0.891859 0.678889 0.56144
0.880583 0.820645 0.533455
0.877485 0.885054 0.642512
0 0.760967 0.0350805
0 0.760937 0.0350805
0 0.760708 0.03505
0 0.758877 0.0347753
0.704875 0.751873 0.0303349
0.863676 0.759274 0.455695
0.882567 0.79527 0.466026
0.948699 0.826169 0.0487526
0.877195 0.88925 0.637217
0.0123903 0.899229 0.0640116
0.0123293 0.898695 0.0639048
0.0122072 0.89781 0.0637217
0.011841 0.895155 0.0631723
0.737041 0.853941 0.0534066
0.90042 0.846082 0.0487526
0.949416 0.847288 0.0491646
0.94995 0.858274 0.0493172
0.876554 0.898207 0.620295
0.0162356 0.937652 0.0708476
0.0162051 0.937316 0.0708019
0.171908 0.934966 0.067277
0.696361 0.901671 0.0557717
0.818509 0.890013 0.0509194
0.89749 0.885817 0.0493935
0.873732 0.9093 0.0358129
0.877852 0.909773 0.0357671
0.875959 0.910719 0.571084
0.87512 0.895399 0.0494545
0.876143 0.895399 0.0494392
0.87776 0.895384 0.049424
0.882368 0.895354 0.0493782
0.894041 0.895308 0.0493019
0.843076 0.921599 0.0356756
0.86865 0.921706 0.0354772
0.877699 0.922087 0.0353704
0.875898 0.918578 0.649317
0.857389 0.918593 0.676539
0.857496 0.918593 0.676555
0.857664 0.918593 0.676585
0.858198 0.918593 0.676677
0.859709 0.918593 0.676982
0.863523 0.918608 0.677882
0.870939 0.918624 0.680323
0.877501 0.918654 0.686229
0.878508 0.91873 0.699901
0.625269 0.646586 0.631937
0.62533 0.646647 0.631983
0.625437 0.646754 0.632059
0.629068 0.645914 0.631495
0.759289 0.643793 0.631174
0.896513 0.644648 0.647761
0.895293 0.660853 0.653712
0.882628 0.79765 0.655833
0.878935 0.883772 0.680522
0.62475 0.646036 0.631571
0.624811 0.646097 0.631617
0.624918 0.64622 0.631693
0.629389 0.645228 0.631037
0.762646 0.643259 0.630945
0.896559 0.644007 0.647486
0.895125 0.662135 0.652934
0.882368 0.80087 0.655009
0.878904 0.884123 0.680339
0.62388 0.645121 0.630976
0.623957 0.645212 0.631037
0.624079 0.645335 0.631113
0.63003 0.644114 0.630304
0.76466 0.642298 0.630396
0.896635 0.642908 0.646998
0.894713 0.665995 0.651545
0.881987 0.805753 0.653712
0.878859 0.884672 0.680049
0.618051 0.6439 0.62742
0.618067 0.644007 0.627436
0.618051 0.644099 0.627436
0.626093 0.643015 0.626825
0.763546 0.640192 0.627558
0.896651 0.641459 0.644144
0.892012 0.691661 0.646128
0.881056 0.81857 0.649882
0.878752 0.886275 0.679194
0.564996 0.745892 0.602258
0.565118 0.746105 0.602335
0.565316 0.746166 0.602426
0.566094 0.74522 0.602777
0.709819 0.738674 0.60296
0.859571 0.747997 0.616587
0.882643 0.787533 0.624949
0.879301 0.845151 0.638544
0.878431 0.890455 0.676722
0.0121309 0.897231 0.0636149
0.0120546 0.896727 0.0634928
0.0119326 0.895857 0.0633097
0.0115663 0.893233 0.0627604
0.72636 0.852491 0.0539254
0.895308 0.844236 0.0486458
0.878325 0.867231 0.534051
0.877363 0.878935 0.603113
0.877699 0.89929 0.669932
0.0162051 0.937194 0.0707866
0.0161898 0.936858 0.0707408
0.255695 0.933684 0.0654917
0.690242 0.902495 0.0555276
0.814878 0.889708 0.0510719
0.894377 0.885466 0.0494087
0.870909 0.909056 0.0358587
0.878416 0.910018 0.0357671
0.876524 0.911086 0.652338
0.877409 0.895384 0.049424
0.878386 0.895369 0.0494087
0.879927 0.895369 0.0493935
0.884321 0.895338 0.0493629
0.895521 0.895308 0.0492866
0.843809 0.921599 0.0356756
0.868894 0.921691 0.0354772
0.877699 0.922087 0.0353704
0.875898 0.918578 0.649134
0.857633 0.918593 0.676509
0.85774 0.918593 0.676524
0.857908 0.918593 0.676555
0.858427 0.918593 0.676661
0.859922 0.918593 0.676951
0.863691 0.918608 0.677852
0.871031 0.918624 0.680308
0.877501 0.918654 0.686198
0.878508 0.91873 0.699901
0.762432 0.795956 0.729961
0.762432 0.795956 0.729961
0.762448 0.795972 0.729976
0.762478 0.796017 0.730007
0.771572 0.791821 0.727214
0.888548 0.788632 0.726482
0.888548 0.789303 0.726925
0.886748 0.804639 0.721614
0.88188 0.885771 0.717556
0.762371 0.795895 0.729915
0.762387 0.795911 0.729931
0.762387 0.795911 0.729931
0.762432 0.795956 0.729961
0.772473 0.791684 0.727123
0.888548 0.788586 0.726436
0.888563 0.789242 0.726879
0.886534 0.806699 0.721141
0.881865 0.886137 0.717449
0.762295 0.795804 0.729854
0.76231 0.795819 0.72987
0.76231 0.795819 0.72987
0.762341 0.79585 0.729885
0.774044 0.791455 0.726955
0.888548 0.788479 0.726375
0.888563 0.789151 0.726833
0.886213 0.810178 0.720409
0.881819 0.886732 0.717296
0.762036 0.795529 0.729656
0.762036 0.795529 0.729671
0.762051 0.795544 0.729671
0.761837 0.795316 0.729503
0.778119 0.79089 0.726558
0.888548 0.788174 0.726177
0.888548 0.787747 0.725887
0.885283 0.820813 0.718349
0.881682 0.888426 0.716854
0.753475 0.790234 0.723278
0.753445 0.790249 0.723247
0.753384 0.790265 0.723217
0.752987 0.78999 0.722911
0.769268 0.787411 0.721263
0.886259 0.785763 0.721065
0.88687 0.797253 0.718242
0.883299 0.846372 0.713695
0.881346 0.892882 0.715602
0.721065 0.881163 0.70132
0.721096 0.880919 0.701335
0.721157 0.880446 0.701366
0.721386 0.878538 0.701518
0.733501 0.872618 0.701595
0.827512 0.866072 0.701564
0.879072 0.86894 0.703319
0.880812 0.881758 0.705333
0.880629 0.902022 0.712596
0.693675 0.920531 0.678614
0.695659 0.920119 0.678721
0.699321 0.919448 0.678843
0.713085 0.91754 0.679057
0.755581 0.913497 0.6795
0.818601 0.909316 0.681788
0.865187 0.907225 0.686763
0.878676 0.908476 0.693996
0.879499 0.914031 0.706828
0.8038 0.918593 0.639796
0.804639 0.918593 0.639887
0.805982 0.918593 0.64004
0.809857 0.918578 0.640497
0.819806 0.918547 0.641855
0.83917 0.918532 0.645731
0.8636 0.918563 0.655009
0.876738 0.918608 0.672312
0.878233 0.9187 0.696544
0.858366 0.918593 0.676417
0.858457 0.918593 0.676448
0.858625 0.918593 0.676463
0.859129 0.918593 0.67657
0.860548 0.918593 0.676875
0.864164 0.918608 0.677745
0.871275 0.918624 0.680217
0.877501 0.918654 0.686122
0.878508 0.91873 0.699886
0.796735 0.832975 0.745586
0.796735 0.832975 0.745586
0.796735 0.832975 0.745586
0.796735 0.832975 0.745586
0.796735 0.832975 0.745586
0.882094 0.832807 0.745251
0.887709 0.832654 0.74519
0.887709 0.832654 0.74519
0.885161 0.880674 0.744183
0.796735 0.832975 0.745586
0.796735 0.832975 0.745586
0.796735 0.832975 0.745586
0.796735 0.832975 0.745586
0.796735 0.832975 0.745586
0.882765 0.832792 0.745251
0.887709 0.832654 0.74519
0.887709 0.832654 0.74519
0.885145 0.881209 0.744183
0.796735 0.832975 0.745586
0.796735 0.832975 0.745586
0.796735 0.832975 0.745586
0.796735 0.832975 0.745586
0.796735 0.832975 0.745586
0.883848 0.832792 0.745251
0.887709 0.832654 0.74519
0.887709 0.832654 0.74519
0.8851 0.882063 0.744167
0.796735 0.832975 0.745586
0.796735 0.832975 0.745586
0.796735 0.832975 0.745586
0.796735 0.832975 0.745586
0.796735 0.832975 0.745586
0.887053 0.832761 0.745235
0.887709 0.832654 0.74519
0.887709 0.832654 0.74519
0.884993 0.884474 0.744137
0.796735 0.832975 0.745586
0.796735 0.832975 0.745586
0.796735 0.832975 0.745586
0.796735 0.832975 0.745586
0.797162 0.832975 0.745586
0.887709 0.832654 0.74519
0.887709 0.832654 0.74519
0.887724 0.83238 0.74519
0.884718 0.890776 0.743633
0.787884 0.856626 0.745296
0.787869 0.856687 0.745296
0.787839 0.856809 0.745296
0.787747 0.857145 0.745296
0.78703 0.855299 0.745327
0.844846 0.851026 0.744976
0.886351 0.856504 0.74461
0.885344 0.876753 0.744244
0.884153 0.902785 0.741253
0.766979 0.919249 0.735393
0.766995 0.919249 0.735424
0.76704 0.919249 0.735454
0.767147 0.919249 0.735561
0.776486 0.918074 0.735821
0.823499 0.9131 0.735866
0.868711 0.910796 0.736431
0.883452 0.912123 0.736889
0.883467 0.917144 0.737774
0.81146 0.918822 0.73022
0.812161 0.918822 0.73022
0.813275 0.918822 0.73022
0.816556 0.918822 0.730205
0.825315 0.918807 0.730205
0.843305 0.918837 0.730312
0.866499 0.918883 0.73077
0.882231 0.918914 0.73196
0.882612 0.918929 0.734432
0.861295 0.918822 0.722255
0.861402 0.918822 0.722255
0.86154 0.918822 0.722271
0.861997 0.918822 0.722286
0.86331 0.918837 0.722362
0.866682 0.918837 0.722591
0.87332 0.918853 0.723247
0.881178 0.918883 0.724987
0.881788 0.918898 0.729091
0.796735 0.833021 0.745586
0.796735 0.833021 0.745586
0.796735 0.833021 0.745586
0.796735 0.833021 0.745586
0.796735 0.833021 0.745586
0.796735 0.833021 0.745586
0.887709 0.832654 0.74519
0.887709 0.832654 0.74519
0.887419 0.8374 0.745052
0.796735 0.833021 0.745586
0.796735 0.833021 0.745586
0.796735 0.833021 0.745586
0.796735 0.833021 0.745586
0.796735 0.833021 0.745586
0.796735 0.833021 0.745586
0.887709 0.832654 0.74519
0.887709 0.832654 0.74519
0.887419 0.8374 0.745052
0.796735 0.833021 0.745586
0.796735 0.833021 0.745586
0.796735 0.833021 0.745586
0.796735 0.833021 0.745586
0.796735 0.833021 0.745586
0.796735 0.833021 0.745586
0.887709 0.832654 0.74519
0.887709 0.832654 0.74519
0.887419 0.8374 0.745052
0.796735 0.833021 0.745586
0.796735 0.833021 0.745586
0.796735 0.833021 0.745586
0.796735 0.833021 0.745586
0.796735 0.833021 0.745586
0.796735 0.833005 0.745586
0.887709 0.832654 0.74519
0.887709 0.832654 0.74519
0.887419 0.8374 0.745052
0.796735 0.833021 0.745586
0.796735 0.833021 0.745586
0.796735 0.833021 0.745586
0.796735 0.833021 0.745586
0.796735 0.833021 0.745586
0.797284 0.832975 0.745586
0.887709 0.832654 0.74519
0.887709 0.832654 0.74519
0.887419 0.837369 0.745052
0.796735 0.833021 0.745586
0.796735 0.833021 0.745586
0.796735 0.833021 0.745586
0.796735 0.833021 0.745586
0.796735 0.833021 0.745586
0.81883 0.832929 0.745464
0.887709 0.832654 0.74519
0.887709 0.8327 0.74519
0.885664 0.870024 0.744366
0.788876 0.91104 0.744442
0.788876 0.911055 0.744442
0.788876 0.911086 0.744442
0.788861 0.911162 0.744442
0.788815 0.911406 0.744442
0.805844 0.901656 0.744427
0.87451 0.898421 0.74403
0.884153 0.902678 0.743862
0.88365 0.913634 0.743709
0.793957 0.918959 0.744076
0.794659 0.918959 0.74406
0.795804 0.918944 0.744045
0.799542 0.918929 0.743999
0.811322 0.918868 0.743893
0.836652 0.918868 0.743725
0.866514 0.918944 0.743603
0.883467 0.919173 0.743679
0.883467 0.919173 0.743679
0.861921 0.918929 0.743618
0.862043 0.918929 0.743618
0.862211 0.918929 0.743618
0.86276 0.918929 0.743618
0.864271 0.918929 0.743618
0.868116 0.918944 0.743603
0.875349 0.918959 0.743557
0.883467 0.919173 0.743679
0.883467 0.919173 0.743679
0.796719 0.833265 0.745586
0.796719 0.833265 0.745586
0.796719 0.833265 0.745586
0.796719 0.833265 0.745586
0.796719 0.833265 0.745586
0.796719 0.833265 0.745586
0.796719 0.833265 0.745586
0.887694 0.832914 0.745174
0.887251 0.840284 0.744976
0.796719 0.833265 0.745586
0.796719 0.833265 0.745586
0.796719 0.833265 0.745586
0.796719 0.833265 0.745586
0.796719 0.833265 0.745586
0.796719 0.833265 0.745586
0.796719 0.833265 0.745586
0.887694 0.832914 0.745174
0.887251 0.840284 0.744976
0.796719 0.833265 0.745586
0.796719 0.833265 0.745586
0.796719 0.833265 0.745586
0.796719 0.833265 0.745586
0.796719 0.833265 0.745586
0.796719 0.833265 0.745586
0.796719 0.833265 0.745586
0.887694 0.832914 0.745174
0.887251 0.840284 0.744976
0.796719 0.833265 0.745586
0.796719 0.833265 0.745586
0.796719 0.833265 0.745586
0.796719 0.833265 0.745586
0.796719 0.833265 0.745586
0.796719 0.833265 0.745586
0.796719 0.833265 0.745586
0.887694 0.832914 0.745174
0.887251 0.840314 0.744976
0.796719 0.833265 0.745586
0.796719 0.833265 0.745586
0.796719 0.833265 0.745586
0.796719 0.833265 0.745586
0.796719 0.833265 0.745586
0.796719 0.833265 0.745586
0.797269 0.833219 0.745586
0.887694 0.832929 0.745174
0.887236 0.84036 0.744976
0.796719 0.833265 0.745586
0.796719 0.833265 0.745586
0.796719 0.833265 0.745586
0.796719 0.833265 0.745586
0.796719 0.833265 0.745586
0.796719 0.833265 0.745586
0.824292 0.83299 0.745434
0.887694 0.832944 0.745174
0.887236 0.840452 0.744976
0.796719 0.833265 0.745586
0.796719 0.833265 0.745586
0.796719 0.833265 0.745586
0.796719 0.833265 0.745586
0.796719 0.833265 0.745586
0.796719 0.833265 0.745586
0.887709 0.832654 0.74519
0.887694 0.833005 0.745174
0.887236 0.840589 0.744976
0.786099 0.91902 0.744167
0.786099 0.91902 0.744167
0.786099 0.91902 0.744167
0.786099 0.91902 0.744167
0.786099 0.91902 0.744167
0.786099 0.91902 0.744167
0.848066 0.918898 0.743679
0.883467 0.919173 0.743679
0.883467 0.919173 0.743679
0.839658 0.918868 0.743709
0.839979 0.918868 0.743709
0.840482 0.918868 0.743709
0.841962 0.918883 0.743709
0.846021 0.918883 0.743694
0.855314 0.918914 0.743648
0.870039 0.918944 0.743587
0.882414 0.918959 0.743526
0.883467 0.919173 0.743679
