BBLuts/BB_102_0630_LUT.cube
TITLE "Generated by Resolve"
LUT_3D_SIZE 5
0 0 0
0.164401 0 0
0.748745 0 0
0.917556 0.553597 0.0783093
0.877943 0.976272 0.695674
0 0.188388 0
0.121111 0.190661 0
0.751461 0.0355077 0
0.91046 0.635233 0.046479
0.877867 0.977554 0.695064
0 0.815122 0
0 0.814649 0
0.664179 0.811566 0
0.88751 0.865858 0
0.877317 0.985855 0.690486
0.534798 1 0.147066
0.576822 1 0.146792
0.725231 1 0.158633
0.875166 1 0.312184
0.874861 1 0.712077
0.846052 1 0.789685
0.846433 1 0.789731
0.84921 1 0.790066
0.864332 1 0.793149
0.872984 1 0.815961
0 0 0.122942
0.145006 0 0.11957
0.752392 0 0.0950179
0.921447 0.53518 0.239765
0.877791 0.975784 0.710704
0 0.155428 0.106401
0.135256 0.150546 0.100679
0.753063 0 0.0809491
0.914488 0.627451 0.219974
0.877699 0.977096 0.71017
0 0.811246 0
0 0.810712 0
0.669123 0.807904 0
0.890196 0.867109 0.0444648
0.87715 0.985443 0.706172
0.541726 1 0.146166
0.582238 1 0.146014
0.726772 1 0.158206
0.875257 1 0.312123
0.874861 1 0.712001
0.846098 1 0.789685
0.846494 1 0.789731
0.849256 1 0.790066
0.864363 1 0.793133
0.872984 1 0.815961
0 0 0.675212
0 0 0.67541
0.75433 0 0.651453
0.938888 0.178363 0.694026
0.877348 0.972885 0.776867
0 0 0.673609
0 0 0.673838
0.762127 0 0.64976
0.927352 0.449546 0.697246
0.877256 0.974273 0.776577
0 0.767361 0.632853
0 0.767773 0.633158
0.657221 0.765332 0.637354
0.88954 0.842542 0.661387
0.876616 0.983139 0.774548
0.54136 1 0.517433
0.580407 1 0.516533
0.721202 1 0.51873
0.868009 1 0.574807
0.874449 1 0.759548
0.846555 1 0.789624
0.846922 1 0.78967
0.849638 1 0.790005
0.864515 1 0.793103
0.872984 1 0.815961
0 0 0.890913
0 0 0.890913
0 0 0.890913
0.936446 0 0.879438
0.878965 0.941253 0.872541
0 0 0.890913
0 0 0.890913
0 0 0.890913
0.936446 0 0.879438
0.878737 0.944259 0.872282
0 0 0.890913
0 0 0.890913
0.323293 0 0.883833
0.936446 0 0.879438
0.877394 0.962341 0.870771
0 1 0.885313
0 1 0.88513
0.5888 1 0.867643
0.852064 1 0.863111
0.873976 1 0.866133
0.843732 1 0.845945
0.844099 1 0.84596
0.846738 1 0.846082
0.861372 1 0.847135
0.87274 1 0.855222
0 0.280125 0.891539
0 0.280125 0.891539
0 0.28014 0.891539
0 0.280339 0.891539
0.900099 0.745617 0.897475
0 0.280095 0.891539
0 0.280095 0.891539
0 0.280125 0.891539
0 0.280308 0.891539
0.900084 0.745724 0.897459
0 0.279942 0.891539
0 0.279942 0.891539
0 0.279973 0.891539
0.361746 0.263554 0.893889
0.899962 0.746624 0.897398
0 0.278477 0.891554
0 0.278477 0.891554
0 0.278508 0.891554
0.936446 0 0.879438
0.89958 0.749477 0.897185
0.791791 1 0.886915
0.793515 1 0.886931
0.804761 1 0.886976
0.847364 1 0.887266
0.872786 1 0.887694
