BBLuts/BB_103_0060_LUT.cube
TITLE "Generated by Resolve"
LUT_3D_SIZE 5
0.00297551 0.00399786 0.00125124
0.241794 0.00151064 0
0.779904 0 0
0.902251 0.60061 0.118944
0.865675 0.964858 0.694087
0 0.266239 0
0.187472 0.264942 0
0.777081 0.144427 0
0.895537 0.670329 0.081239
0.865583 0.966186 0.693462
0 0.843595 0
0 0.842725 0
0.690974 0.834501 0
0.875578 0.877836 0.0021973
0.865019 0.974807 0.688609
0.569467 1 0.208942
0.607202 1 0.20885
0.737774 1 0.222461
0.863798 1 0.364904
0.862699 1 0.710536
0.835737 1 0.781521
0.836149 1 0.781552
0.839063 1 0.781918
0.853513 1 0.784985
0.861006 1 0.806195
0.00511177 0.00675975 0.182864
0.22211 0.00491341 0.178576
0.783703 0 0.162646
0.905425 0.583368 0.303944
0.865507 0.964355 0.709529
0 0.228504 0.16289
0.196735 0.224201 0.158679
0.778317 0.0812695 0.150195
0.898833 0.661433 0.283894
0.865415 0.965698 0.70898
0 0.839979 0
0 0.839063 0
0.694423 0.83122 0
0.877958 0.878996 0.126818
0.864836 0.97438 0.704814
0.575738 1 0.208042
0.612039 1 0.208087
0.739101 1 0.222049
0.863874 1 0.364843
0.862699 1 0.71046
0.835798 1 0.781506
0.83621 1 0.781552
0.839109 1 0.781918
0.853544 1 0.78497
0.861006 1 0.806195
0 0 0.70135
0 0 0.701518
0.785122 0 0.682994
0.925353 0.223774 0.716899
0.865095 0.961303 0.775128
0 0 0.699962
0 0 0.700099
0.79147 0 0.681636
0.910979 0.50251 0.717861
0.864988 0.962753 0.774853
0 0.799268 0.663706
0 0.799283 0.66392
0.678203 0.791333 0.663264
0.874846 0.854292 0.682933
0.864332 0.972045 0.772824
0.566964 1 0.562066
0.603296 1 0.561181
0.730541 1 0.563577
0.856428 0.997894 0.611749
0.862287 1 0.758877
0.836286 1 0.781445
0.836683 1 0.781491
0.839521 1 0.781857
0.853697 1 0.784924
0.861006 1 0.806195
0 0 0.879683
0 0 0.879683
0.113848 0 0.877501
0.927993 0 0.873533
0.866957 0.92784 0.861082
0 0 0.879683
0 0 0.879683
0.139437 0 0.877241
0.927993 0 0.873533
0.866682 0.931334 0.860792
0 0 0.879683
0 0 0.879683
0.455406 0 0.871244
0.927993 0 0.873533
0.865171 0.951492 0.859113
0 1 0.875456
0.0345006 1 0.874449
0.619699 1 0.855467
0.84271 0.988907 0.852171
0.861875 0.997589 0.854704
0.833158 1 0.837537
0.833539 1 0.837552
0.836347 1 0.837659
0.850462 1 0.838605
0.860761 1 0.845335
0 0.318837 0.878752
0 0.318837 0.878752
0 0.318868 0.878752
0.248844 0.248432 0.879194
0.88687 0.747219 0.883009
0 0.318822 0.878752
0 0.318822 0.878752
0 0.318837 0.878752
0.248829 0.248417 0.879194
0.886839 0.747341 0.882994
0 0.318654 0.878767
0 0.318654 0.878752
0 0.318669 0.878767
0.585657 0.220691 0.877089
0.886717 0.748302 0.882918
0 0.317143 0.878767
0 0.317159 0.878767
0 0.317174 0.878767
0.927993 0 0.873533
0.886336 0.751034 0.882719
0.784833 1 0.872801
0.786618 1 0.872816
0.798321 1 0.872862
0.838193 1 0.873121
0.860838 1 0.873503
