BBLuts/BB_106_0198_LUT.cube
TITLE "Generated by Resolve"
LUT_3D_SIZE 9
0.0551308 0.0569009 0.055848
0.0551308 0.0569009 0.055848
0.090959 0.0585794 0.0571756
0.324163 0.0562295 0.0558022
0.669322 0.0681468 0.360418
0.851164 0.0662852 0.616342
0.90573 0.472862 0.637476
0.955016 0.823301 0.547387
0.975052 0.947601 0.857511
0.0556191 0.0621653 0.057969
0.0560616 0.0639963 0.0588693
0.0964523 0.0624857 0.0573587
0.34258 0.0550851 0.0563363
0.671427 0.0688334 0.364172
0.851164 0.0662852 0.616342
0.911894 0.526925 0.639628
0.954223 0.826917 0.536599
0.97525 0.94818 0.857588
0.0499733 0.169406 0.0705882
0.049836 0.174334 0.0706951
0.0975967 0.180011 0.074403
0.378286 0.18471 0.0524758
0.675517 0.0735637 0.367041
0.85124 0.0659953 0.616037
0.924483 0.585107 0.64361
0.953811 0.829145 0.436362
0.97554 0.948959 0.857527
0.0493935 0.476234 0.0798962
0.0493935 0.477546 0.0799268
0.0493935 0.478279 0.079942
0.342931 0.460243 0.147585
0.762814 0.446189 0.237476
0.908003 0.487663 0.635981
0.973388 0.660029 0.624475
0.958221 0.846021 0.398444
0.97644 0.951308 0.857343
0.156786 0.752239 0.2215
0.156268 0.752132 0.221408
0.154742 0.751827 0.221088
0.142473 0.749416 0.218524
0.694209 0.742397 0.297429
0.933211 0.769177 0.431632
0.951141 0.809903 0.353597
0.965164 0.885969 0.454688
0.978973 0.957626 0.855695
0.593225 0.934401 0.42742
0.591913 0.933623 0.425055
0.589899 0.932311 0.424338
0.583642 0.92845 0.422263
0.788617 0.908476 0.57351
0.920333 0.914931 0.519188
0.971664 0.919554 0.456535
0.975326 0.936507 0.427466
0.984771 0.968673 0.843397
0.658549 0.961959 0.630564
0.658549 0.961959 0.630564
0.658549 0.961959 0.630564
0.793576 0.956237 0.62858
0.879438 0.956008 0.661906
0.943175 0.962783 0.69688
0.986084 0.966628 0.519844
0.986084 0.966628 0.519844
0.985321 0.972442 0.866102
0.922881 0.960052 0.605386
0.923766 0.960159 0.606653
0.92517 0.960342 0.608637
0.929122 0.96083 0.614282
0.939635 0.962219 0.656992
0.9608 0.965591 0.775906
0.986084 0.966628 0.519844
0.986084 0.966628 0.519844
0.987259 0.972168 0.910414
0.982071 0.973693 0.923125
0.982177 0.973709 0.92314
0.982361 0.973739 0.923217
0.982849 0.973816 0.923384
0.984314 0.974029 0.923903
0.988083 0.974594 0.925322
0.988663 0.97464 0.926848
0.989624 0.974685 0.930465
0.989532 0.97435 0.938659
0.055314 0.0569619 0.0610208
0.055314 0.0569619 0.0610819
0.079881 0.0623331 0.0678264
0.30779 0.0608682 0.102617
0.665705 0.076936 0.373846
0.850889 0.0674296 0.617578
0.904219 0.463004 0.638209
0.956649 0.823529 0.567193
0.975204 0.947631 0.862959
0.0554513 0.0600748 0.0620127
0.0585489 0.0621653 0.0634165
0.0902724 0.0618906 0.0660716
0.331243 0.0556191 0.0905623
0.668635 0.0720836 0.368994
0.85098 0.0670787 0.617197
0.91107 0.520729 0.640589
0.955779 0.827466 0.563256
0.975418 0.948211 0.863111
0.050309 0.156725 0.0702831
0.0502022 0.160952 0.0703899
0.111238 0.16788 0.0776989
0.376059 0.174121 0.0517891
0.672816 0.0682383 0.364157
0.85124 0.0659953 0.616037
0.923171 0.581994 0.6448
0.954787 0.833127 0.545815
0.975708 0.948989 0.863172
0.0493935 0.471534 0.0798199
0.0493935 0.472709 0.0798352
0.0493935 0.473152 0.0798505
0.350011 0.45684 0.140078
0.764508 0.438956 0.240452
0.907332 0.482094 0.635721
0.972229 0.658686 0.626993
0.958114 0.84538 0.397391
0.976593 0.951339 0.863294
0.151156 0.751125 0.22034
0.150652 0.751034 0.220233
0.148608 0.750622 0.219806
0.136324 0.748196 0.217258
0.69575 0.741695 0.293385
0.933883 0.768521 0.433494
0.950927 0.810239 0.369146
0.965118 0.885756 0.454414
0.979004 0.95758 0.862516
0.592752 0.934188 0.425361
0.591409 0.933303 0.424887
0.589563 0.932082 0.424216
0.583062 0.928115 0.42208
0.790051 0.908232 0.574884
0.920607 0.91487 0.518578
0.971649 0.919463 0.456703
0.975311 0.936416 0.427634
0.984741 0.968582 0.844663
0.658549 0.961959 0.630564
0.658549 0.961959 0.630564
0.658549 0.961959 0.630564
0.795651 0.95613 0.629557
0.879805 0.956024 0.661906
0.943313 0.962798 0.69836
0.986084 0.966628 0.519844
0.986084 0.966628 0.519844
0.985321 0.972442 0.866056
0.923049 0.960067 0.605615
0.923888 0.960174 0.606806
0.925277 0.960342 0.608789
0.929229 0.960845 0.614435
0.939773 0.962249 0.658473
0.960861 0.965606 0.775616
0.986084 0.966628 0.519844
0.986084 0.966628 0.519844
0.987259 0.972168 0.910399
0.982071 0.973693 0.923125
0.982177 0.973709 0.92314
0.982361 0.973739 0.923217
0.982849 0.973816 0.923384
0.984314 0.974029 0.923903
0.988083 0.974594 0.925322
0.988663 0.97464 0.926848
0.989624 0.974685 0.930465
0.989532 0.97435 0.938659
0.0590829 0.063035 0.0957504
0.0590982 0.0630655 0.0958724
0.0887312 0.0700236 0.125368
0.279332 0.093019 0.209049
0.65803 0.0956283 0.395651
0.850462 0.0692302 0.619501
0.900847 0.445335 0.639796
0.961318 0.822889 0.591241
0.976059 0.947768 0.869963
0.0586709 0.0625772 0.0942397
0.0587015 0.0626078 0.0943465
0.0958114 0.0716259 0.128099
0.277577 0.092195 0.206088
0.66038 0.0952316 0.397177
0.850492 0.0690776 0.619348
0.909422 0.509209 0.643305
0.95964 0.827466 0.591196
0.976211 0.948348 0.870237
0.0493935 0.189212 0.203967
0.0493935 0.191394 0.204334
0.121096 0.191989 0.208408
0.381979 0.184192 0.233967
0.659709 0.0937362 0.393866
0.850599 0.0686503 0.618891
0.920424 0.574807 0.647776
0.95729 0.834089 0.589502
0.97641 0.949126 0.870512
0.0493935 0.459907 0.0792859
0.0493935 0.461219 0.0793469
0.0493935 0.461936 0.0793774
0.350072 0.446494 0.131121
0.769482 0.41651 0.295598
0.904784 0.46508 0.637079
0.967971 0.655482 0.635355
0.957946 0.844419 0.395789
0.97702 0.951461 0.87129
0.138888 0.748699 0.217792
0.138369 0.748608 0.217685
0.136324 0.748196 0.217258
0.124056 0.745769 0.214694
0.696544 0.739757 0.286976
0.934401 0.766644 0.436576
0.950378 0.812299 0.45359
0.965011 0.8851 0.453574
0.979187 0.957671 0.871946
0.592081 0.933745 0.425116
0.590738 0.93286 0.424643
0.588876 0.93164 0.423987
0.582467 0.927779 0.421897
0.79234 0.907851 0.57702
0.920897 0.914717 0.517449
0.971618 0.919356 0.456886
0.97528 0.936309 0.427802
0.984619 0.970779 0.865919
0.658549 0.961959 0.630564
0.658549 0.961959 0.630564
0.658549 0.961959 0.630564
0.798917 0.955978 0.631098
0.8804 0.956054 0.661891
0.943511 0.962829 0.700572
0.986084 0.966628 0.519844
0.986084 0.966628 0.519844
0.985321 0.972442 0.865995
0.923217 0.960098 0.605859
0.924102 0.960204 0.607126
0.925505 0.960372 0.60911
0.929397 0.960861 0.614679
0.939895 0.962264 0.659953
0.960906 0.965621 0.775311
0.986084 0.966628 0.519844
0.986084 0.966628 0.519844
0.987259 0.972168 0.910399
0.982116 0.973709 0.923125
0.982177 0.973709 0.92314
0.982361 0.973739 0.923217
0.98291 0.973816 0.9234
0.984375 0.974044 0.923919
0.988144 0.974609 0.925338
0.988663 0.97464 0.926848
0.989624 0.974685 0.930465
0.989532 0.97435 0.938659
0.117144 0.241062 0.418204
0.117281 0.241215 0.418372
0.117403 0.241367 0.418524
0.351598 0.246006 0.436713
0.669459 0.228336 0.495964
0.847547 0.0848402 0.631907
0.893599 0.438956 0.659297
0.972076 0.815915 0.661784
0.97731 0.948257 0.885512
0.114382 0.237736 0.415366
0.114656 0.238025 0.415579
0.16788 0.240681 0.421149
0.363333 0.243641 0.432364
0.667643 0.225498 0.493385
0.847623 0.0843977 0.631586
0.902602 0.496757 0.663844
0.970779 0.821622 0.660334
0.977508 0.948745 0.88574
0.102617 0.274342 0.421286
0.102403 0.277211 0.422202
0.179248 0.277394 0.425422
0.367407 0.238849 0.426841
0.662058 0.222217 0.487816
0.847761 0.0836042 0.631037
0.913344 0.559396 0.667796
0.968704 0.830533 0.658228
0.977859 0.949615 0.886168
0.0493935 0.442939 0.424765
0.0493935 0.44448 0.424979
0.0493935 0.445624 0.425635
0.346349 0.442802 0.428901
0.692699 0.431388 0.484077
0.895262 0.424857 0.645777
0.948394 0.65037 0.668803
0.963363 0.851621 0.661112
0.978759 0.951919 0.887221
0.0867323 0.738399 0.206928
0.0867323 0.738399 0.206928
0.0851911 0.738094 0.206607
0.0739452 0.735866 0.204257
0.690867 0.730449 0.271366
0.940826 0.757855 0.49192
0.958556 0.811688 0.554986
0.964767 0.883696 0.451774
0.980896 0.958114 0.889799
0.590066 0.932418 0.424399
0.588876 0.93164 0.423987
0.586969 0.930434 0.423331
0.579995 0.926452 0.42118
0.79144 0.9066 0.576837
0.919799 0.913573 0.512947
0.97142 0.918441 0.458473
0.975174 0.935805 0.428672
0.984833 0.971328 0.893431
0.658549 0.961959 0.630564
0.658549 0.961959 0.630564
0.664332 0.95993 0.617746
0.80795 0.955856 0.635767
0.882261 0.95613 0.661875
0.944152 0.962936 0.707958
0.986084 0.966628 0.519844
0.986084 0.966628 0.519844
0.985336 0.972442 0.865736
0.923888 0.960174 0.606806
0.924712 0.960281 0.607996
0.926116 0.960449 0.609979
0.929961 0.960937 0.615473
0.940429 0.962341 0.665858
0.961135 0.965652 0.774121
0.986084 0.966628 0.519844
0.986084 0.966628 0.519844
0.987259 0.972168 0.910369
0.982177 0.973709 0.92314
0.9823 0.973724 0.923171
0.982422 0.973754 0.923232
0.982971 0.973831 0.923415
0.984421 0.97406 0.923903
0.988144 0.974609 0.925307
0.988663 0.97464 0.926848
0.989624 0.974685 0.930465
0.989532 0.97435 0.938659
0.537057 0.627817 0.756603
0.537118 0.627894 0.756603
0.537331 0.627985 0.756832
0.542168 0.627192 0.756191
0.69218 0.63032 0.763226
0.900191 0.63563 0.780163
0.901518 0.653712 0.793042
0.958251 0.817288 0.843656
0.979995 0.952422 0.910094
0.53611 0.627192 0.755764
0.536233 0.627283 0.755886
0.5364 0.627466 0.756115
0.542489 0.62652 0.755322
0.696452 0.629923 0.762615
0.900175 0.634989 0.779629
0.902342 0.654856 0.792355
0.960876 0.821485 0.842985
0.980194 0.953002 0.91043
0.534722 0.626322 0.754574
0.534859 0.626413 0.754696
0.534997 0.62649 0.754818
0.543175 0.625422 0.753918
0.699001 0.628992 0.761303
0.900114 0.633738 0.778668
0.904494 0.658549 0.791669
0.96492 0.827955 0.841627
0.980423 0.953765 0.910796
0.528557 0.624994 0.747967
0.52874 0.625086 0.747982
0.528801 0.625177 0.747982
0.538766 0.624231 0.747417
0.697826 0.626719 0.756054
0.901335 0.631785 0.77435
0.915969 0.684398 0.793164
0.973587 0.845991 0.834974
0.981216 0.956161 0.912062
0.564233 0.724636 0.736324
0.564523 0.724926 0.736492
0.564782 0.725032 0.73669
0.564523 0.723949 0.736919
0.686946 0.724727 0.739498
0.925734 0.740749 0.771374
0.970352 0.794949 0.78967
0.972 0.891463 0.820264
0.983169 0.962295 0.915129
0.585519 0.929549 0.422858
0.584222 0.928771 0.422431
0.582071 0.927565 0.421775
0.574411 0.923705 0.419699
0.780499 0.903563 0.569009
0.912444 0.910018 0.51136
0.968566 0.921889 0.77937
0.973724 0.942779 0.851179
0.987396 0.973877 0.920348
0.658549 0.961959 0.630564
0.658549 0.961959 0.630564
0.675364 0.960464 0.611994
0.805478 0.95584 0.634409
0.879942 0.956039 0.661906
0.941085 0.962448 0.673243
0.986084 0.966628 0.519844
0.986084 0.966628 0.519844
0.987182 0.972137 0.911467
0.92578 0.960418 0.609506
0.926619 0.96051 0.610697
0.927901 0.960678 0.612528
0.931624 0.961135 0.617853
0.941863 0.96257 0.682109
0.961807 0.965759 0.77055
0.986084 0.966628 0.519844
0.986084 0.966628 0.519844
0.987259 0.972168 0.910307
0.982406 0.973754 0.923171
0.982544 0.97377 0.923232
0.982651 0.973785 0.923262
0.9832 0.973861 0.923445
0.984604 0.974075 0.923949
0.988266 0.974624 0.925338
0.988663 0.97464 0.926848
0.989609 0.974685 0.930434
0.989532 0.97435 0.938659
0.755627 0.822995 0.937957
0.755627 0.822995 0.937957
0.755673 0.823102 0.938048
0.755764 0.823117 0.938048
0.766232 0.818051 0.93344
0.93373 0.822629 0.932219
0.933928 0.823636 0.933059
0.941299 0.842618 0.92636
0.983688 0.957565 0.942199
0.755474 0.822873 0.937865
0.75552 0.82298 0.937957
0.75552 0.82298 0.937957
0.755627 0.822995 0.937957
0.767498 0.817914 0.933272
0.933715 0.822522 0.932128
0.933898 0.823529 0.932967
0.94226 0.845258 0.925856
0.983948 0.958053 0.942306
0.755337 0.822751 0.937774
0.755337 0.822751 0.937774
0.755337 0.822751 0.937774
0.755474 0.822873 0.937865
0.76968 0.817639 0.933013
0.9337 0.822416 0.932036
0.933883 0.823407 0.932876
0.943908 0.849897 0.925231
0.984344 0.958801 0.942473
0.754772 0.822248 0.937407
0.754772 0.822248 0.937407
0.754772 0.822248 0.937407
0.754345 0.821881 0.937133
0.775479 0.817136 0.932357
0.933577 0.821866 0.931655
0.933455 0.82121 0.93109
0.949065 0.864317 0.924147
0.985458 0.960952 0.943008
0.741283 0.812299 0.925841
0.741192 0.812284 0.925841
0.741131 0.812268 0.92575
0.740566 0.811841 0.9252
0.76173 0.809247 0.922805
0.933547 0.816983 0.922469
0.938582 0.831418 0.919478
0.961563 0.900389 0.92369
0.988296 0.966583 0.944533
0.83328 0.935332 0.914153
0.832883 0.934936 0.914061
0.832258 0.934234 0.913954
0.829526 0.931334 0.913436
0.831754 0.923796 0.912123
0.923262 0.923201 0.915221
0.977127 0.931411 0.920699
0.982177 0.951385 0.927337
0.991638 0.974502 0.946197
0.847227 0.963119 0.903655
0.848539 0.963211 0.903868
0.851011 0.963348 0.904234
0.86038 0.963806 0.905455
0.891371 0.965789 0.909575
0.944228 0.96994 0.918593
0.989639 0.974685 0.930541
0.989639 0.974517 0.934936
0.9906 0.974426 0.942702
0.928954 0.967315 0.889158
0.929732 0.967346 0.889372
0.930983 0.967391 0.889647
0.934661 0.967529 0.890608
0.944121 0.9682 0.893812
0.963592 0.969726 0.904677
0.987106 0.972107 0.912642
0.987518 0.974395 0.922042
0.989593 0.974441 0.936629
0.983063 0.973846 0.923293
0.983169 0.973861 0.923323
0.983352 0.973892 0.9234
0.983841 0.973968 0.923568
0.985183 0.974166 0.924025
0.988235 0.974624 0.925261
0.988647 0.97464 0.926787
0.989609 0.97467 0.930404
0.989532 0.97435 0.938659
0.845289 0.877119 0.940429
0.845289 0.877119 0.940429
0.845289 0.877119 0.940429
0.845289 0.877119 0.940429
0.845289 0.877119 0.940429
0.953948 0.884031 0.943267
0.953933 0.88394 0.943252
0.953933 0.88394 0.943252
0.978363 0.952926 0.950973
0.845289 0.877119 0.940429
0.845289 0.877119 0.940429
0.845289 0.877119 0.940429
0.845289 0.877119 0.940429
0.845289 0.877119 0.940429
0.953948 0.884031 0.943267
0.953933 0.88394 0.943252
0.953933 0.88394 0.943252
0.978698 0.953674 0.95111
0.845289 0.877119 0.940429
0.845289 0.877119 0.940429
0.845289 0.877119 0.940429
0.845289 0.877119 0.940429
0.845289 0.877119 0.940429
0.953948 0.884031 0.943267
0.953933 0.88394 0.943252
0.953933 0.88394 0.943252
0.979248 0.954879 0.951339
0.845289 0.877119 0.940429
0.845289 0.877119 0.940429
0.845289 0.877119 0.940429
0.845289 0.877119 0.940429
0.845289 0.877119 0.940429
0.953948 0.884031 0.943267
0.953933 0.88394 0.943252
0.953933 0.88394 0.943252
0.980972 0.958007 0.95201
0.845289 0.877119 0.940429
0.845289 0.877119 0.940429
0.845289 0.877119 0.940429
0.845289 0.877119 0.940429
0.845808 0.877134 0.940429
0.953933 0.88394 0.943252
0.953933 0.88394 0.943252
0.953811 0.883558 0.943221
0.98555 0.966049 0.953765
0.862013 0.909499 0.942473
0.862104 0.90959 0.942489
0.862196 0.909773 0.942504
0.862547 0.910246 0.94255
0.859266 0.907469 0.942306
0.929702 0.907332 0.944076
0.964477 0.918379 0.945861
0.975845 0.947356 0.949935
0.991592 0.976684 0.9561
0.908507 0.968917 0.952621
0.908507 0.968917 0.952621
0.908507 0.968917 0.952621
0.908598 0.968917 0.952621
0.915526 0.969924 0.952605
0.954162 0.972488 0.954543
0.991592 0.976684 0.9561
0.991592 0.976684 0.9561
0.991592 0.976684 0.9561
0.944366 0.97203 0.954589
0.944945 0.972122 0.954589
0.945861 0.972259 0.954574
0.948653 0.972519 0.954559
0.956176 0.972473 0.954528
0.971771 0.974227 0.956085
0.991592 0.976684 0.9561
0.991592 0.976684 0.9561
0.991592 0.976684 0.9561
0.989151 0.975647 0.952544
0.989212 0.975647 0.952544
0.989349 0.975662 0.952544
0.989853 0.975692 0.95256
0.991196 0.975799 0.952682
0.99176 0.975875 0.952865
0.99173 0.975982 0.953292
0.991669 0.976272 0.954437
0.991592 0.976684 0.9561
0.84535 0.877211 0.940444
0.84535 0.877211 0.940444
0.84535 0.877211 0.940444
0.84535 0.877211 0.940444
0.84535 0.877211 0.940444
0.84535 0.877211 0.940444
0.953933 0.88394 0.943252
0.953933 0.88394 0.943252
0.955993 0.890822 0.94374
0.84535 0.877211 0.940444
0.84535 0.877211 0.940444
0.84535 0.877211 0.940444
0.84535 0.877211 0.940444
0.84535 0.877211 0.940444
0.84535 0.877211 0.940444
0.953933 0.88394 0.943252
0.953933 0.88394 0.943252
0.955993 0.890822 0.94374
0.84535 0.877211 0.940444
0.84535 0.877211 0.940444
0.84535 0.877211 0.940444
0.84535 0.877211 0.940444
0.84535 0.877211 0.940444
0.84535 0.877211 0.940444
0.953933 0.88394 0.943252
0.953933 0.88394 0.943252
0.955993 0.890822 0.94374
0.84535 0.877211 0.940444
0.84535 0.877211 0.940444
0.84535 0.877211 0.940444
0.84535 0.877211 0.940444
0.84535 0.877211 0.940444
0.84535 0.877211 0.940444
0.953933 0.88394 0.943252
0.953933 0.88394 0.943252
0.955993 0.890822 0.94374
0.84535 0.877211 0.940444
0.84535 0.877211 0.940444
0.84535 0.877211 0.940444
0.84535 0.877211 0.940444
0.84535 0.877211 0.940444
0.845991 0.87715 0.940429
0.953933 0.88394 0.943252
0.953933 0.88394 0.943252
0.955962 0.890715 0.94374
0.84535 0.877211 0.940444
0.84535 0.877211 0.940444
0.84535 0.877211 0.940444
0.84535 0.877211 0.940444
0.84535 0.877211 0.940444
0.876432 0.879698 0.940734
0.953933 0.88394 0.943252
0.953948 0.884031 0.943267
0.971542 0.937789 0.94815
0.925078 0.970504 0.953353
0.925078 0.970504 0.953353
0.925078 0.970504 0.953353
0.925078 0.970504 0.953353
0.925078 0.970504 0.953353
0.938704 0.97113 0.95465
0.991073 0.975769 0.955886
0.991592 0.976684 0.9561
0.991592 0.976684 0.9561
0.929778 0.970428 0.954086
0.930312 0.970413 0.954162
0.931289 0.970397 0.954314
0.934386 0.970443 0.954696
0.944198 0.972 0.954589
0.965942 0.97322 0.9552
0.991592 0.976684 0.9561
0.991592 0.976684 0.9561
0.991592 0.976684 0.9561
0.989517 0.976455 0.956161
0.989639 0.976471 0.956161
0.989761 0.976486 0.956161
0.990326 0.976547 0.95613
0.991592 0.976684 0.9561
0.991592 0.976684 0.9561
0.991592 0.976684 0.9561
0.991592 0.976684 0.9561
0.991592 0.976684 0.9561
0.845563 0.877485 0.940444
0.845563 0.877485 0.940444
0.845563 0.877485 0.940444
0.845563 0.877485 0.940444
0.845563 0.877485 0.940444
0.845563 0.877485 0.940444
0.845563 0.877485 0.940444
0.95404 0.884321 0.943282
0.957214 0.894926 0.94403
0.845563 0.877485 0.940444
0.845563 0.877485 0.940444
0.845563 0.877485 0.940444
0.845563 0.877485 0.940444
0.845563 0.877485 0.940444
0.845563 0.877485 0.940444
0.845563 0.877485 0.940444
0.95404 0.884321 0.943282
0.957214 0.894926 0.94403
0.845563 0.877485 0.940444
0.845563 0.877485 0.940444
0.845563 0.877485 0.940444
0.845563 0.877485 0.940444
0.845563 0.877485 0.940444
0.845563 0.877485 0.940444
0.845563 0.877485 0.940444
0.95404 0.884321 0.943282
0.957214 0.894926 0.94403
0.845563 0.877485 0.940444
0.845563 0.877485 0.940444
0.845563 0.877485 0.940444
0.845563 0.877485 0.940444
0.845563 0.877485 0.940444
0.845563 0.877485 0.940444
0.845563 0.877485 0.940444
0.95404 0.884321 0.943282
0.957244 0.895018 0.944045
0.845563 0.877485 0.940444
0.845563 0.877485 0.940444
0.845563 0.877485 0.940444
0.845563 0.877485 0.940444
0.845563 0.877485 0.940444
0.845563 0.877485 0.940444
0.846265 0.877531 0.940444
0.95404 0.884321 0.943282
0.957244 0.895018 0.944045
0.845563 0.877485 0.940444
0.845563 0.877485 0.940444
0.845563 0.877485 0.940444
0.845563 0.877485 0.940444
0.845563 0.877485 0.940444
0.845563 0.877485 0.940444
0.884672 0.880247 0.941131
0.95404 0.884321 0.943282
0.957305 0.895216 0.94406
0.845563 0.877485 0.940444
0.845563 0.877485 0.940444
0.845563 0.877485 0.940444
0.845563 0.877485 0.940444
0.845563 0.877485 0.940444
0.845563 0.877485 0.940444
0.953933 0.88394 0.943252
0.95407 0.884413 0.943282
0.957366 0.895399 0.944076
0.923323 0.970535 0.953094
0.923323 0.970535 0.953094
0.923323 0.970535 0.953094
0.923323 0.970535 0.953094
0.923323 0.970535 0.953094
0.923323 0.970535 0.953094
0.975937 0.974914 0.956634
0.991592 0.976684 0.9561
0.991592 0.976684 0.9561
0.968521 0.973663 0.955596
0.968795 0.973709 0.955627
0.969238 0.973785 0.955703
0.97055 0.974014 0.955901
0.974075 0.974624 0.956436
0.983169 0.975738 0.95639
0.991592 0.976684 0.9561
0.991592 0.976684 0.9561
0.991592 0.976684 0.9561
