BBLuts/BB_103_0840_LUT.cube
TITLE "Generated by Resolve"
LUT_3D_SIZE 9
0 0 0
0 0 0
0.174929 0 0
0.434424 0 0
0.762051 0 0.362264
0.988617 0.00355535 0.644694
0.981491 0.435966 0.638941
0.962997 0.810849 0.447517
0.959976 0.935485 0.718715
0 0.0217288 0
0 0.0328069 0
0.185489 0.0104982 0
0.445533 0 0.00175479
0.764569 0 0.366064
0.988617 0.00355535 0.644694
0.982284 0.486763 0.637964
0.962951 0.81561 0.400931
0.959945 0.936034 0.717433
0 0.193851 0
0 0.198016 0
0.144793 0.194568 0
0.453681 0.165988 0
0.767941 0.0111391 0.368185
0.988617 0.00354009 0.644282
0.980163 0.546654 0.633051
0.96347 0.823514 0.195636
0.959915 0.936904 0.715282
0 0.469017 0
0 0.470176 0
0 0.470817 0
0.387579 0.464363 0
0.771115 0.441947 0.328634
0.982238 0.449165 0.636713
0.967666 0.658335 0.608469
0.964721 0.844236 0
0.959792 0.939406 0.708644
0 0.775021 0
0 0.774929 0
0 0.774563 0
0 0.772091 0
0.698375 0.757809 0
0.933608 0.758373 0.387778
0.964477 0.806287 0.105562
0.9635 0.882826 0
0.959457 0.946029 0.68658
0 0.945693 0
0 0.944961 0
0 0.94374 0
0 0.940047 0
0.646036 0.923735 0
0.885985 0.914733 0
0.96228 0.916289 0
0.961715 0.933654 0
0.958831 0.960296 0.620859
0 0.99884 0
0 0.998322 0
0 0.997559 0
0.586633 0.988281 0
0.752392 0.983719 0
0.87541 0.978119 0
0.953231 0.974273 0
0.960159 0.974975 0
0.958434 0.980011 0.666163
0.839796 0.993378 0
0.841382 0.993378 0
0.843915 0.993393 0
0.851164 0.993393 0
0.86952 0.993423 0
0.904173 0.993484 0
0.945693 0.993683 0
0.960403 0.994339 0
0.959579 0.993103 0.796857
0.929641 0.993088 0.84654
0.929824 0.993088 0.846601
0.930098 0.993088 0.846647
0.930953 0.993088 0.84686
0.933394 0.993088 0.847425
0.939544 0.993088 0.849134
0.951446 0.993118 0.853819
0.961944 0.993133 0.865003
0.963424 0.993164 0.890959
0 0 0.0475319
0 0 0.0479438
0.186358 0 0.0563211
0.436149 0 0.0841993
0.762005 0 0.379614
0.988632 0.00355535 0.646342
0.980911 0.427756 0.639979
0.962951 0.809934 0.494179
0.960113 0.935607 0.731533
0 0.00665293 0.0293431
0.040238 0.0191348 0.0263828
0.203311 0 0.0442512
0.441474 0 0.0676432
0.763088 0 0.372076
0.988632 0.00355535 0.645853
0.982376 0.480446 0.639597
0.96286 0.814694 0.465278
0.960082 0.936141 0.730419
0 0.18323 0
0 0.18677 0
0.162341 0.183856 0
0.451774 0.155459 0
0.76582 0 0.36585
0.988617 0.00355535 0.644327
0.980468 0.542351 0.634989
0.962798 0.822049 0.39173
0.960037 0.937011 0.728557
0 0.464607 0
0 0.46569 0
0 0.466133 0
0.399161 0.459297 0
0.770687 0.437644 0.329564
0.982086 0.444144 0.636698
0.967819 0.656367 0.610239
0.964767 0.84361 0
0.959915 0.939529 0.722789
0 0.7738 0
0 0.773693 0
0 0.773312 0
0 0.770779 0
0.70132 0.756573 0
0.93373 0.757488 0.394797
0.964263 0.805585 0.140917
0.9635 0.882628 0
0.959579 0.946151 0.704097
0 0.945449 0
0 0.944701 0
0 0.943481 0
0 0.939773 0
0.648707 0.923522 0
0.886336 0.914595 0
0.96228 0.916182 0
0.961715 0.933593 0
0.958846 0.960266 0.624201
0 0.998734 0
0 0.99823 0
0 0.997467 0
0.590707 0.98819 0
0.753262 0.983673 0
0.875608 0.978088 0
0.953277 0.974258 0
0.960159 0.97496 0
0.958434 0.979995 0.666041
0.84004 0.993378 0
0.841642 0.993378 0
0.844144 0.993393 0
0.851362 0.993393 0
0.869688 0.993423 0
0.90425 0.993484 0
0.945724 0.993683 0
0.960403 0.994339 0
0.959579 0.993103 0.796826
0.929671 0.993088 0.846555
0.929839 0.993088 0.846601
0.930129 0.993088 0.846647
0.930983 0.993088 0.846845
0.93341 0.993088 0.84744
0.939559 0.993088 0.849134
0.951461 0.993118 0.853819
0.961944 0.993133 0.865003
0.963424 0.993164 0.890959
0.034287 0.0126802 0.233417
0.0343481 0.0127565 0.233661
0.19324 0.013489 0.236622
0.447044 0.0140383 0.250095
0.762051 0 0.412177
0.988647 0.00357061 0.64889
0.979629 0.413291 0.642832
0.962951 0.80856 0.549233
0.960311 0.935775 0.749386
0.0331731 0.0114137 0.229129
0.0332647 0.0115206 0.229526
0.214908 0.0124056 0.232929
0.445472 0.0128939 0.24625
0.764416 0 0.413413
0.988647 0.00357061 0.648707
0.982223 0.468467 0.643519
0.962829 0.813336 0.533852
0.960281 0.936339 0.74844
0.0255894 0.192462 0.196521
0.025452 0.194415 0.195819
0.186252 0.186786 0.19353
0.439094 0.169238 0.219928
0.762997 0 0.409277
0.988647 0.00357061 0.648112
0.981033 0.533379 0.639551
0.962661 0.820676 0.501579
0.96025 0.937209 0.746883
0 0.453513 0
0 0.45478 0
0 0.455406 0
0.402686 0.44828 0
0.765682 0.427863 0.361517
0.98117 0.429541 0.638819
0.96817 0.651347 0.616449
0.964843 0.842649 0
0.960113 0.939712 0.742153
0 0.771267 0
0 0.77116 0
0 0.770764 0
0 0.768215 0
0.703975 0.754055 0
0.933623 0.755413 0.406424
0.963592 0.803571 0.293446
0.963561 0.882063 0
0.959762 0.946334 0.727199
0 0.945022 0
0 0.944274 0
0 0.943069 0
0 0.939376 0
0.652995 0.923171 0
0.886854 0.914351 0
0.96228 0.916014 0
0.961715 0.933501 0
0.958999 0.960418 0.67158
0 0.998596 0
0 0.998093 0
0 0.99733 0
0.596902 0.988052 0
0.754635 0.983581 0
0.875944 0.978042 0
0.953353 0.974227 0
0.960159 0.97496 0
0.958434 0.97998 0.665858
0.840421 0.993378 0
0.842008 0.993393 0
0.844511 0.993393 0
0.851698 0.993393 0
0.869932 0.993423 0
0.904387 0.993484 0
0.945769 0.993683 0
0.960403 0.994339 0
0.959579 0.993103 0.796811
0.929702 0.993088 0.846555
0.929885 0.993088 0.846571
0.930175 0.993088 0.846647
0.931014 0.993088 0.846845
0.933455 0.993088 0.84741
0.93959 0.993088 0.849119
0.951476 0.993118 0.853803
0.961944 0.993133 0.865003
0.963424 0.993164 0.890959
0.214923 0.218997 0.46891
0.215137 0.219211 0.469062
0.215228 0.219348 0.469139
0.441001 0.216648 0.470024
0.77557 0.170611 0.520729
0.988785 0.00366217 0.665156
0.976043 0.4047 0.664469
0.963211 0.805219 0.651835
0.960952 0.9364 0.788861
0.211994 0.215869 0.466758
0.212253 0.216159 0.466957
0.258885 0.215961 0.467018
0.453162 0.213169 0.468101
0.773648 0.167041 0.518486
0.988769 0.00364691 0.664744
0.978378 0.453712 0.665263
0.963058 0.810101 0.646998
0.960922 0.93695 0.788235
0.204471 0.254246 0.461662
0.204547 0.257221 0.461753
0.268299 0.25449 0.461814
0.457877 0.20737 0.4645
0.767559 0.163256 0.513619
0.988769 0.00364691 0.663996
0.981826 0.515511 0.6654
0.962814 0.817578 0.638514
0.960891 0.937819 0.787213
0.149996 0.427024 0.423804
0.150164 0.428489 0.423957
0.150912 0.429587 0.424536
0.413458 0.42623 0.427695
0.749691 0.411536 0.487404
0.977417 0.39498 0.651072
0.969238 0.637324 0.64416
0.962203 0.837339 0.607355
0.960754 0.940337 0.784115
0 0.760494 0
0 0.760479 0
0 0.760189 0
0 0.757855 0
0.700847 0.743969 0
0.931273 0.746822 0.49926
0.963272 0.798001 0.512367
0.963821 0.880659 0
0.960403 0.94696 0.774777
0 0.943862 0
0 0.943114 0
0 0.941878 0
0 0.938201 0
0.653239 0.922011 0
0.886229 0.913252 0
0.962341 0.915129 0
0.961883 0.933013 0
0.959564 0.960983 0.745541
0 0.998123 0
0 0.99765 0
0.152117 0.992828 0
0.612818 0.98764 0
0.758724 0.983337 0
0.876966 0.97789 0
0.953552 0.974121 0
0.960159 0.974884 0
0.958434 0.979965 0.665171
0.841596 0.993378 0
0.843153 0.993393 0
0.84564 0.993393 0
0.852689 0.993393 0
0.870695 0.993423 0
0.904784 0.993484 0
0.945876 0.993683 0
0.960403 0.994339 0
0.959579 0.993103 0.796674
0.929839 0.993088 0.84654
0.930007 0.993088 0.846571
0.930282 0.993088 0.846632
0.931151 0.993088 0.84683
0.933547 0.993088 0.84741
0.939681 0.993088 0.849104
0.951507 0.993118 0.853788
0.961944 0.993133 0.864988
0.963424 0.993164 0.890959
0.587762 0.604639 0.760967
0.587854 0.604715 0.761044
0.587991 0.604837 0.761166
0.593072 0.603845 0.760266
0.765164 0.599802 0.759182
0.970657 0.593256 0.780682
0.970275 0.613642 0.792218
0.965087 0.803662 0.806622
0.962905 0.938308 0.853788
0.58706 0.603967 0.760342
0.587137 0.604059 0.760418
0.587289 0.604212 0.760555
0.59353 0.603037 0.759472
0.769863 0.599054 0.758679
0.970672 0.592416 0.780148
0.970199 0.615305 0.790967
0.964904 0.808545 0.80528
0.962875 0.938872 0.853452
0.585901 0.602899 0.759319
0.585992 0.603006 0.759411
0.58616 0.603143 0.759548
0.594461 0.601709 0.758221
0.772686 0.597803 0.757671
0.970703 0.590967 0.779248
0.970016 0.620325 0.78883
0.964645 0.815976 0.803128
0.962829 0.939742 0.852918
0.578988 0.60148 0.753231
0.579019 0.601602 0.753262
0.579019 0.601724 0.753262
0.588891 0.600443 0.752316
0.771069 0.595254 0.752834
0.970672 0.589059 0.774227
0.968856 0.654108 0.781552
0.963943 0.835615 0.796643
0.962692 0.942275 0.851316
0.528405 0.730068 0.710658
0.528527 0.730343 0.710781
0.528725 0.730434 0.710933
0.529473 0.729198 0.711543
0.701793 0.72253 0.715068
0.924636 0.732235 0.736141
0.964462 0.788907 0.751965
0.962371 0.876921 0.776959
0.962325 0.948913 0.846677
0 0.94107 0
0 0.940368 0
0 0.939162 0
0 0.935515 0
0.63978 0.919188 0
0.878584 0.909895 0
0.960189 0.909957 0.608316
0.960113 0.930251 0.716701
0.961456 0.962875 0.834043
0 0.997467 0
0 0.996979 0
0.239857 0.991135 0
0.608606 0.98703 0
0.753567 0.982712 0
0.87219 0.97731 0
0.949035 0.973724 0
0.961074 0.975265 0
0.960021 0.981476 0.801816
0.84509 0.993378 0
0.846586 0.993378 0
0.848936 0.993378 0
0.855711 0.993393 0
0.872999 0.993423 0
0.905959 0.993484 0
0.946273 0.993667 0
0.960403 0.994339 0
0.959579 0.993103 0.796368
0.930236 0.993088 0.846494
0.930404 0.993088 0.84651
0.930678 0.993088 0.846586
0.931502 0.993088 0.846769
0.933898 0.993088 0.847349
0.939925 0.993103 0.849058
0.951659 0.993118 0.853742
0.961944 0.993133 0.864927
0.963424 0.993164 0.890959
0.776059 0.801297 0.945434
0.776074 0.801312 0.945449
0.776104 0.801328 0.945464
0.77615 0.801389 0.94551
0.789578 0.795697 0.940291
0.97293 0.789883 0.938766
0.972992 0.790875 0.939666
0.971435 0.813779 0.930404
0.967361 0.941299 0.924239
0.775982 0.801221 0.945357
0.775998 0.801236 0.945373
0.776013 0.801236 0.945373
0.776059 0.801297 0.945434
0.790921 0.795514 0.940108
0.972915 0.789792 0.938689
0.972992 0.790784 0.939574
0.971267 0.816938 0.92961
0.96733 0.941878 0.924041
0.77586 0.801083 0.945235
0.775876 0.801099 0.945251
0.775891 0.801114 0.945251
0.775921 0.801144 0.945296
0.793256 0.795178 0.939818
0.972915 0.789639 0.938567
0.972992 0.790646 0.939467
0.971008 0.822278 0.928359
0.967285 0.942824 0.923766
0.775464 0.800671 0.944839
0.775479 0.800687 0.944854
0.775494 0.800702 0.944869
0.775158 0.800351 0.944549
0.799374 0.794339 0.939071
0.972885 0.789197 0.938155
0.972839 0.78854 0.937575
0.97023 0.838697 0.924849
0.967132 0.94551 0.922896
0.762829 0.793301 0.932448
0.762783 0.793317 0.932418
0.762707 0.793347 0.932342
0.762112 0.79295 0.931746
0.786038 0.789303 0.928847
0.969131 0.785641 0.928252
0.971099 0.802579 0.923568
0.968383 0.87866 0.916579
0.966735 0.952544 0.920531
0.717952 0.931533 0.889128
0.717998 0.931136 0.889158
0.718074 0.930388 0.88925
0.718379 0.927413 0.88954
0.735637 0.918654 0.890379
0.879683 0.909712 0.893004
0.962524 0.914733 0.896986
0.965652 0.935012 0.900908
0.96585 0.966964 0.914794
0.680659 0.992218 0.844663
0.683391 0.991699 0.844968
0.688441 0.990875 0.845441
0.707652 0.988663 0.846738
0.769223 0.984146 0.849699
0.866941 0.978561 0.855573
0.941558 0.975296 0.865476
0.963119 0.977264 0.879362
0.964477 0.98587 0.90341
0.844205 0.992996 0.778912
0.845533 0.992996 0.779095
0.847654 0.992996 0.77937
0.853803 0.992996 0.78024
0.869657 0.992996 0.782773
0.900725 0.993027 0.789899
0.93991 0.993088 0.806836
0.96083 0.993118 0.838834
0.963012 0.993149 0.884565
0.931395 0.993088 0.846326
0.931563 0.993088 0.846372
0.931823 0.993088 0.846418
0.932616 0.993088 0.846616
0.934905 0.993088 0.847196
0.940703 0.993103 0.84889
0.952056 0.993118 0.853574
0.961929 0.993133 0.864775
0.963424 0.993164 0.890929
0.829511 0.857527 0.975738
0.829511 0.857527 0.975738
0.829511 0.857527 0.975738
0.829511 0.857527 0.975738
0.829511 0.857527 0.975738
0.965576 0.857221 0.975906
0.974182 0.857099 0.975921
0.974182 0.857099 0.975921
0.971939 0.933242 0.974609
0.829511 0.857527 0.975738
0.829511 0.857527 0.975738
0.829511 0.857527 0.975738
0.829511 0.857527 0.975738
0.829511 0.857527 0.975738
0.966659 0.857206 0.975906
0.974182 0.857099 0.975921
0.974182 0.857099 0.975921
0.971923 0.934081 0.974594
0.829511 0.857527 0.975738
0.829511 0.857527 0.975738
0.829511 0.857527 0.975738
0.829511 0.857527 0.975738
0.829511 0.857527 0.975738
0.968383 0.857191 0.975906
0.974182 0.857099 0.975921
0.974182 0.857099 0.975921
0.971878 0.935424 0.974563
0.829511 0.857527 0.975738
0.829511 0.857527 0.975738
0.829511 0.857527 0.975738
0.829511 0.857527 0.975738
0.829511 0.857527 0.975738
0.97348 0.85716 0.975921
0.974182 0.857099 0.975921
0.974182 0.857099 0.975921
0.971771 0.939254 0.974502
0.829511 0.857527 0.975738
0.829511 0.857527 0.975738
0.829511 0.857527 0.975738
0.829511 0.857527 0.975738
0.830152 0.857527 0.975738
0.974182 0.857099 0.975921
0.974182 0.857099 0.975921
0.974197 0.856657 0.975937
0.971466 0.949172 0.973938
0.816434 0.894331 0.975143
0.816419 0.894438 0.975143
0.816388 0.894606 0.975143
0.816236 0.89514 0.975143
0.815091 0.892226 0.975189
0.906676 0.885786 0.975326
0.973083 0.894591 0.975265
0.972122 0.927016 0.974716
0.970901 0.968109 0.969451
0.786465 0.993133 0.956832
0.786511 0.993133 0.956878
0.786557 0.993133 0.956954
0.786725 0.993133 0.957153
0.800656 0.991592 0.957626
0.874449 0.984222 0.958587
0.946883 0.980591 0.960098
0.970413 0.982681 0.961135
0.970245 0.990631 0.96289
0.855817 0.993103 0.948058
0.856931 0.993103 0.948074
0.858701 0.993103 0.948074
0.863935 0.993103 0.948104
0.877913 0.993118 0.948196
0.906767 0.993133 0.948577
0.943954 0.993179 0.94966
0.968978 0.993225 0.952087
0.969573 0.993225 0.956786
0.935683 0.993149 0.933379
0.935851 0.993149 0.93341
0.93608 0.993149 0.93341
0.936828 0.993149 0.933471
0.938933 0.993164 0.933623
0.944305 0.993164 0.934081
0.954925 0.993179 0.935378
0.967407 0.99321 0.938781
0.968322 0.99321 0.946624
0.829511 0.857588 0.975738
0.829511 0.857588 0.975738
0.829511 0.857588 0.975738
0.829511 0.857588 0.975738
0.829511 0.857588 0.975738
0.829511 0.857588 0.975738
0.974182 0.857099 0.975921
0.974182 0.857099 0.975921
0.973968 0.86453 0.975799
0.829511 0.857588 0.975738
0.829511 0.857588 0.975738
0.829511 0.857588 0.975738
0.829511 0.857588 0.975738
0.829511 0.857588 0.975738
0.829511 0.857588 0.975738
0.974182 0.857099 0.975921
0.974182 0.857099 0.975921
0.973968 0.86453 0.975799
0.829511 0.857588 0.975738
0.829511 0.857588 0.975738
0.829511 0.857588 0.975738
0.829511 0.857588 0.975738
0.829511 0.857588 0.975738
0.829511 0.857588 0.975738
0.974182 0.857099 0.975921
0.974182 0.857099 0.975921
0.973968 0.86453 0.975799
0.829511 0.857588 0.975738
0.829511 0.857588 0.975738
0.829511 0.857588 0.975738
0.829511 0.857588 0.975738
0.829511 0.857588 0.975738
0.829511 0.857572 0.975738
0.974182 0.857099 0.975921
0.974182 0.857099 0.975921
0.973968 0.864515 0.975799
0.829511 0.857588 0.975738
0.829511 0.857588 0.975738
0.829511 0.857588 0.975738
0.829511 0.857588 0.975738
0.829511 0.857588 0.975738
0.83035 0.857527 0.975738
0.974182 0.857099 0.975921
0.974182 0.857099 0.975921
0.973968 0.864485 0.975799
0.829511 0.857588 0.975738
0.829511 0.857588 0.975738
0.829511 0.857588 0.975738
0.829511 0.857588 0.975738
0.829511 0.857588 0.975738
0.864302 0.857511 0.975753
0.974182 0.857099 0.975921
0.974182 0.85716 0.975921
0.972442 0.916381 0.974899
0.819562 0.980713 0.973785
0.819562 0.980743 0.973785
0.819562 0.980774 0.973785
0.819532 0.980911 0.973785
0.819486 0.981292 0.973785
0.845899 0.966079 0.973999
0.955764 0.96112 0.974105
0.970916 0.967941 0.973999
0.970413 0.985138 0.973709
0.828107 0.993133 0.973587
0.82919 0.993133 0.973587
0.831006 0.993133 0.973587
0.836896 0.993133 0.973571
0.855528 0.993133 0.973556
0.896025 0.993164 0.973541
0.943877 0.99321 0.973556
0.970169 0.993255 0.973571
0.970169 0.993255 0.973571
0.936538 0.993194 0.973556
0.936736 0.993194 0.973556
0.937011 0.993194 0.973556
0.937865 0.99321 0.973556
0.940291 0.99321 0.973556
0.946441 0.99321 0.973556
0.957977 0.993225 0.973556
0.970169 0.993255 0.973571
0.970169 0.993255 0.973571
0.82948 0.857954 0.975723
0.82948 0.857954 0.975723
0.82948 0.857954 0.975723
0.82948 0.857954 0.975723
0.82948 0.857954 0.975723
0.82948 0.857954 0.975723
0.82948 0.857954 0.975723
0.974182 0.857481 0.975921
0.973831 0.869047 0.975723
0.82948 0.857954 0.975723
0.82948 0.857954 0.975723
0.82948 0.857954 0.975723
0.82948 0.857954 0.975723
0.82948 0.857954 0.975723
0.82948 0.857954 0.975723
0.82948 0.857954 0.975723
0.974182 0.857481 0.975921
0.973831 0.869062 0.975723
0.82948 0.857954 0.975723
0.82948 0.857954 0.975723
0.82948 0.857954 0.975723
0.82948 0.857954 0.975723
0.82948 0.857954 0.975723
0.82948 0.857954 0.975723
0.82948 0.857954 0.975723
0.974182 0.857496 0.975921
0.973831 0.869062 0.975723
0.82948 0.857954 0.975723
0.82948 0.857954 0.975723
0.82948 0.857954 0.975723
0.82948 0.857954 0.975723
0.82948 0.857954 0.975723
0.82948 0.857954 0.975723
0.82948 0.857954 0.975723
0.974182 0.857496 0.975921
0.973831 0.869078 0.975723
0.82948 0.857954 0.975723
0.82948 0.857954 0.975723
0.82948 0.857954 0.975723
0.82948 0.857954 0.975723
0.82948 0.857954 0.975723
0.82948 0.857954 0.975723
0.830335 0.857908 0.975723
0.974182 0.857511 0.975921
0.973831 0.869169 0.975723
0.82948 0.857954 0.975723
0.82948 0.857954 0.975723
0.82948 0.857954 0.975723
0.82948 0.857954 0.975723
0.82948 0.857954 0.975723
0.82948 0.857954 0.975723
0.872999 0.857603 0.975753
0.974182 0.857557 0.975921
0.973831 0.869307 0.975708
0.82948 0.857954 0.975723
0.82948 0.857954 0.975723
0.82948 0.857954 0.975723
0.82948 0.857954 0.975723
0.82948 0.857954 0.975723
0.82948 0.857954 0.975723
0.974182 0.857099 0.975921
0.974166 0.857633 0.975921
0.973816 0.869535 0.975708
0.815839 0.993133 0.973602
0.815839 0.993133 0.973602
0.815839 0.993133 0.973602
0.815839 0.993133 0.973602
0.815839 0.993133 0.973602
0.815839 0.993133 0.973602
0.914748 0.993179 0.973541
0.970169 0.993255 0.973571
0.970169 0.993255 0.973571
0.900847 0.993164 0.973541
0.90135 0.993164 0.973541
0.902159 0.993164 0.973541
0.90454 0.993164 0.973541
0.91107 0.993179 0.973541
0.926375 0.993194 0.973541
0.949508 0.993225 0.973556
0.969207 0.993255 0.973571
0.970169 0.993255 0.973571
