BBLuts/BB_106_0090_LUT.cube
TITLE "Generated by Resolve"
LUT_3D_SIZE 33
0.0137179 0.0137179 0.0137179
0.0137179 0.0137179 0.0137179
0.0137179 0.0137179 0.0137179
0.0137179 0.0137179 0.0137179
0.0137179 0.0137179 0.0137179
0.0583505 0.0136416 0.0137636
0.109926 0.0135348 0.0137942
0.148363 0.0134585 0.0138247
0.186297 0.0133822 0.0138399
0.231617 0.0132906 0.0138705
0.284291 0.0131838 0.0139162
0.342367 0.0130617 0.0139467
0.407553 0.0129244 0.0140078
0.483696 0.0127718 0.0140536
0.56701 0.0125734 0.0141299
0.650584 0.0123751 0.0141909
0.735119 0.0121767 0.0142672
0.819821 0.0119631 0.0143435
0.894591 0.01178 0.0144045
0.95259 0.0116426 0.0144503
0.953033 0.0116274 0.0144503
0.953033 0.0116274 0.0144503
0.960098 0.225513 0.0753338
0.964965 0.369802 0.115999
0.968902 0.481956 0.161257
0.972503 0.57847 0.21503
0.975799 0.659632 0.2869
0.978424 0.723735 0.379431
0.980392 0.771603 0.475151
0.981918 0.808591 0.566827
0.983047 0.835966 0.650706
0.983932 0.857633 0.72694
0.984634 0.874418 0.787396
0.0137179 0.0137179 0.0137179
0.0137179 0.0137179 0.0137179
0.0137179 0.0137179 0.0137179
0.0137179 0.0137179 0.0137179
0.0137179 0.0137179 0.0137179
0.06981 0.013611 0.0137636
0.114076 0.0135195 0.0137942
0.151415 0.0134585 0.0138247
0.191165 0.0133669 0.0138399
0.237339 0.0132753 0.0138857
0.290013 0.0131685 0.0139162
0.347387 0.0130617 0.013962
0.410773 0.0129244 0.0140078
0.485679 0.0127565 0.0140536
0.568627 0.0125734 0.0141299
0.651637 0.0123751 0.0141909
0.735744 0.0121767 0.0142672
0.820081 0.0119631 0.0143435
0.894438 0.01178 0.0144045
0.952148 0.0116426 0.0144503
0.953033 0.0116274 0.0144503
0.953033 0.0116274 0.0144503
0.960845 0.247944 0.0652628
0.965347 0.381079 0.111559
0.969162 0.489021 0.158892
0.972686 0.583001 0.213748
0.975906 0.662379 0.285542
0.9785 0.725307 0.378714
0.980438 0.772488 0.474769
0.981933 0.809094 0.566598
0.983063 0.836255 0.650568
0.983948 0.857801 0.726864
0.984634 0.874525 0.78735
0.0137179 0.0137179 0.0137179
0.0137179 0.0137179 0.0137179
0.0137179 0.0137179 0.0137179
0.0137179 0.0137179 0.0137179
0.0137179 0.0137179 0.0137179
0.0766308 0.0135958 0.0137636
0.115862 0.0135195 0.0137942
0.154345 0.0134432 0.0138247
0.196246 0.0133669 0.0138552
0.242832 0.0132753 0.0138857
0.294591 0.0131685 0.0139162
0.350179 0.0130465 0.013962
0.413245 0.0129244 0.0140078
0.487861 0.0127565 0.0140688
0.570275 0.0125734 0.0141299
0.652674 0.0123751 0.0141909
0.73637 0.0121614 0.0142672
0.82031 0.0119631 0.0143435
0.894255 0.01178 0.0144045
0.95169 0.0116426 0.0144503
0.953033 0.0116274 0.0144503
0.953033 0.0116274 0.0144503
0.961501 0.267765 0.0507057
0.965728 0.391592 0.106798
0.969406 0.495857 0.156466
0.972854 0.587457 0.212482
0.976028 0.66508 0.284184
0.978561 0.726833 0.378012
0.980468 0.773373 0.474372
0.981964 0.809598 0.566384
0.983063 0.836545 0.650431
0.983948 0.857969 0.726787
0.984634 0.874632 0.787305
0.0137179 0.0137179 0.0137179
0.0137179 0.0137179 0.0137179
0.0137179 0.0137179 0.0137179
0.0139925 0.0203861 0.0137636
0.0370031 0.0249485 0.0137942
0.0817121 0.0135958 0.0137789
0.116762 0.0135195 0.0137942
0.154772 0.0134432 0.0138247
0.197192 0.0133516 0.0138552
0.244907 0.0132601 0.0138857
0.297398 0.0131533 0.0139315
0.352605 0.0130465 0.013962
0.415641 0.0129091 0.0140078
0.490043 0.0127565 0.0140688
0.571923 0.0125734 0.0141299
0.653727 0.0123751 0.0141909
0.73698 0.0121614 0.0142672
0.820523 0.0119631 0.0143435
0.894057 0.01178 0.0144045
0.951202 0.0116426 0.0144503
0.953033 0.0116274 0.0144503
0.956024 0.102251 0.0148623
0.962112 0.285664 0.0157168
0.966079 0.401663 0.101671
0.96965 0.502464 0.154009
0.973022 0.591821 0.2112
0.976135 0.66772 0.282826
0.978622 0.728344 0.377295
0.980499 0.774258 0.473976
0.981979 0.810086 0.566155
0.983078 0.836835 0.650309
0.983963 0.858137 0.726711
0.984649 0.874723 0.787259
0.0157626 0.0634012 0.0139467
0.0158694 0.0661631 0.013962
0.0159762 0.0688487 0.0139773
0.016083 0.0714275 0.0139925
0.0161288 0.0724041 0.0139925
0.0761883 0.0717784 0.0140383
0.114626 0.0699016 0.0140536
0.154192 0.0655222 0.0140688
0.197894 0.055787 0.0140536
0.245701 0.0132601 0.0138857
0.299092 0.0131533 0.0139315
0.354742 0.0130465 0.013962
0.41796 0.0129091 0.0140078
0.492256 0.0127565 0.0140688
0.573617 0.0125582 0.0141299
0.65481 0.0123751 0.0141909
0.737591 0.0121614 0.0142672
0.820706 0.0119631 0.0143435
0.893843 0.01178 0.0144045
0.950698 0.0116426 0.0144503
0.953033 0.0116274 0.0144503
0.957717 0.153719 0.0151064
0.962661 0.302007 0.0157931
0.966415 0.411353 0.0960861
0.969879 0.508873 0.151492
0.97319 0.596063 0.209934
0.976242 0.670298 0.281468
0.978683 0.729824 0.376593
0.980545 0.775113 0.473594
0.981994 0.810575 0.565942
0.983093 0.83711 0.650172
0.983963 0.85832 0.726619
0.984649 0.874815 0.787213
0.016968 0.0930495 0.0140841
0.0170596 0.0952773 0.0140993
0.0171511 0.0974594 0.0141146
0.0172274 0.0991989 0.0141146
0.017258 0.100008 0.0141299
0.0591287 0.0999771 0.0141451
0.108659 0.0992294 0.0141909
0.151369 0.0973678 0.0142061
0.197208 0.0933852 0.0142214
0.248264 0.0856031 0.0142214
0.301991 0.0703899 0.0141909
0.356527 0.0130312 0.013962
0.420203 0.0129091 0.0140078
0.494499 0.0127413 0.0140688
0.575357 0.0125582 0.0141299
0.655894 0.0123598 0.0141909
0.738186 0.0121614 0.0142672
0.82089 0.0119631 0.0143435
0.893614 0.01178 0.0144045
0.950164 0.0116426 0.0144503
0.953033 0.0116274 0.0144503
0.958862 0.188022 0.015259
0.963165 0.317235 0.0158541
0.966751 0.420737 0.0898451
0.970108 0.515145 0.148913
0.973358 0.600168 0.208652
0.976349 0.672862 0.28011
0.978744 0.731289 0.375891
0.980575 0.775982 0.473198
0.98201 0.811063 0.565728
0.983108 0.8374 0.650034
0.983978 0.858488 0.726543
0.984649 0.874922 0.787167
0.0181888 0.122972 0.0142367
0.018265 0.124849 0.0142367
0.0183413 0.126711 0.0142519
0.0183871 0.127794 0.0142519
0.0184176 0.128481 0.0142519
0.0184329 0.12871 0.0142519
0.0955215 0.128359 0.014313
0.145312 0.127413 0.0143435
0.194324 0.125246 0.0143587
0.247868 0.120958 0.014374
0.303243 0.112886 0.0143893
0.361486 0.0995193 0.0143587
0.42504 0.0734569 0.0142977
0.497215 0.0127413 0.0140688
0.577493 0.0125582 0.0141299
0.657237 0.0123598 0.0141909
0.738933 0.0121614 0.0142672
0.821103 0.0119631 0.0143435
0.893294 0.01178 0.0144045
0.949477 0.0116426 0.0144503
0.953033 0.0116274 0.0144503
0.959945 0.221073 0.0154116
0.96376 0.334508 0.0159457
0.967132 0.431815 0.0810254
0.970382 0.522576 0.145678
0.973556 0.605005 0.20708
0.976471 0.675929 0.278447
0.978805 0.733043 0.375036
0.980621 0.77702 0.472724
0.98204 0.811658 0.565454
0.983124 0.837751 0.649882
0.983978 0.858701 0.726452
0.984649 0.875044 0.787121
0.0196078 0.157458 0.0143893
0.0196689 0.159091 0.0143893
0.0197147 0.160418 0.0144045
0.0197604 0.161212 0.0144045
0.0197757 0.161776 0.0144045
0.019791 0.162081 0.0144045
0.0488594 0.162081 0.014435
0.131899 0.161593 0.0144808
0.187533 0.160388 0.0145113
0.244282 0.157519 0.0145418
0.302205 0.151934 0.0145571
0.363775 0.143801 0.0145724
0.429892 0.131395 0.0145571
0.504204 0.109621 0.0145113
0.581888 0.0575113 0.0143435
0.659052 0.0123598 0.0142061
0.739956 0.0121614 0.0142672
0.821393 0.0119631 0.0143435
0.892851 0.01178 0.0144045
0.948501 0.0116426 0.0144503
0.957153 0.136385 0.0150301
0.961135 0.256962 0.0155795
0.964477 0.355688 0.0160372
0.967636 0.44596 0.0656443
0.970748 0.532143 0.141207
0.9738 0.611215 0.204974
0.976623 0.679911 0.277195
0.978897 0.735348 0.373907
0.980667 0.778393 0.472084
0.982071 0.812451 0.565087
0.983139 0.838209 0.649668
0.983993 0.858976 0.726314
0.984665 0.875212 0.787045
0.0212711 0.198215 0.0145724
0.0213169 0.199573 0.0145724
0.0213474 0.200259 0.0145876
0.0213779 0.200977 0.0145876
0.0213931 0.201465 0.0145876
0.0214084 0.201785 0.0145876
0.0214237 0.201984 0.0145876
0.0970779 0.201785 0.0146487
0.172137 0.200381 0.0146944
0.234958 0.19791 0.014725
0.297597 0.194095 0.0147555
0.363424 0.188479 0.0147707
0.433463 0.180224 0.014786
0.510109 0.167758 0.014786
0.588724 0.150042 0.0147707
0.665187 0.12372 0.0147097
0.743542 0.0777447 0.0145724
0.821775 0.0119631 0.0143435
0.892195 0.01178 0.0144045
0.950607 0.116899 0.0149233
0.959533 0.208423 0.0153506
0.962463 0.296162 0.0157626
0.965347 0.381308 0.0161593
0.968261 0.46392 0.0165713
0.971206 0.54432 0.13492
0.974136 0.619242 0.202167
0.976837 0.685023 0.27628
0.979019 0.738323 0.372396
0.980743 0.780194 0.471229
0.982116 0.813474 0.564614
0.983154 0.838819 0.649378
0.984009 0.859342 0.726146
0.984665 0.875425 0.786954
0.0231785 0.244923 0.014786
0.0231937 0.245289 0.014786
0.023209 0.24564 0.014786
0.0232242 0.24596 0.0148013
0.0232242 0.246128 0.0148013
0.0232242 0.246174 0.0148013
0.0232242 0.246098 0.0148013
0.023209 0.245762 0.014786
0.138201 0.2448 0.0148623
0.217548 0.243214 0.0149233
0.287587 0.24065 0.0149538
0.358938 0.236652 0.0149844
0.434195 0.23061 0.0150149
0.515023 0.221775 0.0150301
0.594934 0.211383 0.0150607
0.670817 0.198779 0.0150607
0.748959 0.184649 0.0150607
0.827527 0.172763 0.0150759
0.896727 0.179004 0.0151675
0.951827 0.214374 0.0153811
0.961608 0.270756 0.0156405
0.963912 0.338933 0.0159609
0.9664 0.411063 0.0163119
0.969039 0.485939 0.0166781
0.971786 0.559609 0.125902
0.974563 0.629541 0.198489
0.977111 0.691554 0.275135
0.979187 0.742138 0.370398
0.980835 0.782528 0.4701
0.982177 0.814817 0.563989
0.9832 0.839628 0.648981
0.984024 0.859815 0.725917
0.98468 0.8757 0.786816
0.0252384 0.294484 0.0150149
0.0252537 0.29485 0.0150301
0.0252537 0.295216 0.0150301
0.0252689 0.295491 0.0150301
0.0252842 0.295689 0.0150301
0.0252842 0.295796 0.0150301
0.0252842 0.295842 0.0150301
0.0252842 0.29575 0.0150301
0.0252689 0.295384 0.0150301
0.183413 0.29427 0.0151217
0.268833 0.292607 0.0151827
0.34818 0.289876 0.0152285
0.430106 0.285481 0.0152743
0.517235 0.279301 0.0153048
0.600107 0.272297 0.0153353
0.676417 0.265126 0.0153658
0.753658 0.258701 0.0154116
0.830671 0.255467 0.0154574
0.897963 0.263691 0.0155489
0.951431 0.28983 0.0157168
0.963668 0.331991 0.0159304
0.965499 0.385733 0.0161898
0.967636 0.446189 0.0164797
0.969985 0.512108 0.0168154
0.972503 0.578546 0.112291
0.975082 0.642405 0.193744
0.977447 0.699748 0.273762
0.979385 0.747005 0.367758
0.980972 0.78555 0.46862
0.982238 0.816556 0.563134
0.98323 0.840696 0.648478
0.984054 0.860456 0.725597
0.984695 0.876081 0.786648
0.0276799 0.352773 0.0152895
0.0276951 0.353124 0.0152895
0.0277104 0.35346 0.0153048
0.0277104 0.353719 0.0153048
0.0277256 0.353918 0.0153048
0.0277256 0.35407 0.0153048
0.0277409 0.354177 0.0153048
0.0277409 0.354223 0.0153048
0.0277256 0.354116 0.0153048
0.0277104 0.353735 0.0153048
0.231891 0.352514 0.0154421
0.327123 0.350774 0.0154879
0.418738 0.348013 0.0155489
0.513588 0.343969 0.01561
0.60145 0.339071 0.0156558
0.680705 0.334462 0.0157015
0.758099 0.331548 0.0157473
0.833234 0.332235 0.0158236
0.89807 0.34136 0.0159152
0.949752 0.362005 0.0160678
0.965789 0.393774 0.0162203
0.967269 0.435843 0.016434
0.96907 0.486946 0.0166781
0.97113 0.542748 0.016968
0.973388 0.601419 0.0891432
0.975723 0.658061 0.187732
0.977859 0.70985 0.272175
0.979629 0.753155 0.364279
0.981125 0.789395 0.466636
0.98233 0.818784 0.56202
0.983291 0.842069 0.647791
0.984085 0.861295 0.725185
0.984726 0.876585 0.786419
0.0305943 0.420798 0.0156252
0.0306249 0.421118 0.0156252
0.0306249 0.421393 0.0156252
0.0306401 0.421622 0.0156252
0.0306401 0.421805 0.0156252
0.0306554 0.421958 0.0156252
0.0306554 0.42211 0.0156252
0.0306706 0.422217 0.0156252
0.0306706 0.422324 0.0156405
0.0306706 0.4224 0.0156405
0.125551 0.42211 0.0157015
0.286366 0.421286 0.0158083
0.396277 0.419776 0.0158846
0.500877 0.41706 0.0159457
0.595972 0.413596 0.0160067
0.680308 0.410208 0.0160678
0.760662 0.408148 0.0161135
0.834836 0.409323 0.0161898
0.897139 0.416709 0.0162814
0.946807 0.432425 0.0164034
0.968017 0.457053 0.0165408
0.969207 0.490867 0.0167086
0.970703 0.531548 0.016907
0.972473 0.578012 0.0171511
0.974456 0.627466 0.0174258
0.976486 0.6766 0.180362
0.978347 0.72195 0.270542
0.979934 0.760754 0.362631
0.981323 0.794217 0.464042
0.982452 0.821607 0.56054
0.983368 0.843854 0.646876
0.984131 0.862379 0.724636
0.984741 0.877241 0.786114
0.0339666 0.497627 0.0160067
0.0339666 0.497871 0.0160067
0.0339818 0.498085 0.0160067
0.0339818 0.498268 0.0160067
0.0339971 0.498436 0.0160067
0.0339971 0.498573 0.0160067
0.0340124 0.498711 0.0160067
0.0340124 0.498833 0.0160067
0.0340276 0.498939 0.0160067
0.0340276 0.49897 0.0160067
0.0340124 0.498848 0.0160067
0.194705 0.498116 0.0161135
0.356695 0.496773 0.0162203
0.477455 0.494621 0.0163119
0.581994 0.491768 0.0163729
0.673304 0.48864 0.016434
0.758755 0.486213 0.016495
0.834409 0.486458 0.0165713
0.894804 0.491981 0.0166476
0.942412 0.503883 0.0167391
0.970367 0.522286 0.0168612
0.971313 0.547738 0.0169985
0.972534 0.579736 0.0171664
0.974014 0.616724 0.0173648
0.975677 0.657145 0.0176089
0.977356 0.69781 0.171801
0.978927 0.735988 0.269108
0.980316 0.76994 0.363302
0.981567 0.800137 0.460624
0.982589 0.825147 0.558602
0.983459 0.846143 0.64567
0.984192 0.863783 0.723903
0.984787 0.878096 0.785702
0.0374914 0.573754 0.0164034
0.0374914 0.573892 0.0164034
0.0375067 0.573999 0.0164034
0.0375067 0.574105 0.0164034
0.0375067 0.574182 0.0164034
0.0375067 0.574243 0.0164034
0.0375067 0.574304 0.0164034
0.0375219 0.57435 0.0164034
0.0375219 0.574365 0.0164034
0.0375067 0.574319 0.0164034
0.0375067 0.574136 0.0164034
0.0374914 0.573678 0.0164034
0.287236 0.572305 0.0165713
0.441321 0.570443 0.0166781
0.559487 0.568078 0.0167544
0.658854 0.565301 0.0168154
0.750362 0.562646 0.0168765
0.829236 0.561852 0.0169528
0.889937 0.565118 0.0170138
0.93579 0.573465 0.0171054
0.972824 0.586984 0.0172122
0.973571 0.605859 0.0173037
0.974548 0.629465 0.0174411
0.975708 0.657832 0.0176089
0.976974 0.689067 0.0177768
0.978302 0.721065 0.162921
0.979568 0.751736 0.268421
0.980758 0.780804 0.364584
0.981857 0.807233 0.457069
0.982773 0.829572 0.556023
0.983581 0.849012 0.644068
0.984268 0.865568 0.722927
0.984833 0.879194 0.785153
0.0410773 0.645808 0.0168002
0.0410773 0.645869 0.0168002
0.0410773 0.645899 0.0168002
0.0410773 0.64593 0.0168002
0.0410773 0.645945 0.0168002
0.0410773 0.64596 0.0168002
0.0410773 0.64596 0.0168002
0.0410773 0.645945 0.0168002
0.0410773 0.645884 0.0168002
0.0410773 0.645747 0.0168002
0.041062 0.645472 0.0168002
0.0410315 0.644968 0.0168002
0.0409857 0.644038 0.0168002
0.388617 0.642084 0.0170291
0.528298 0.639979 0.0171206
0.637675 0.637522 0.0171969
0.73492 0.634913 0.0172732
0.817655 0.633448 0.0173342
0.880339 0.634836 0.0173953
0.926894 0.639979 0.0174716
0.963073 0.649042 0.0175479
0.975875 0.66215 0.0176394
0.976562 0.67892 0.017731
0.977386 0.699016 0.0178378
0.978317 0.721614 0.0179751
0.979294 0.745174 0.156039
0.980285 0.769268 0.269032
0.981262 0.793194 0.366918
0.982177 0.815412 0.459525
0.982986 0.834958 0.552621
0.983719 0.852583 0.641962
0.98436 0.867811 0.72163
0.984878 0.880613 0.784421
0.0445716 0.714931 0.0171969
0.0445716 0.714916 0.0171969
0.0445716 0.7149 0.0171969
0.0445716 0.71487 0.0171969
0.0445716 0.714839 0.0171969
0.0445716 0.714794 0.0171969
0.0445563 0.714717 0.0171969
0.0445563 0.714626 0.0171969
0.0445411 0.714473 0.0171969
0.0445411 0.714214 0.0171969
0.0445106 0.713802 0.0171817
0.04448 0.71313 0.0171817
0.044419 0.712062 0.0171817
0.310079 0.710155 0.0173495
0.489372 0.707897 0.0174716
0.613001 0.705272 0.0175631
0.715129 0.702327 0.0176394
0.8009 0.699977 0.0177005
0.866194 0.699458 0.0177462
0.915175 0.701381 0.017792
0.952209 0.706157 0.0178531
0.977996 0.714 0.0179294
0.978439 0.724575 0.0179904
0.978973 0.737621 0.0180667
0.979583 0.752697 0.018143
0.980285 0.769619 0.154192
0.981048 0.788006 0.272053
0.981826 0.806745 0.370932
0.982559 0.824537 0.463203
0.983261 0.841352 0.550942
0.983902 0.856901 0.63917
0.984466 0.870573 0.719921
0.984955 0.882399 0.783459
0.0474861 0.772549 0.0175174
0.0474861 0.772473 0.0175174
0.0474708 0.772396 0.0175174
0.0474708 0.77232 0.0175174
0.0474708 0.772229 0.0175174
0.0474556 0.772122 0.0175174
0.0474556 0.772 0.0175174
0.0474403 0.771817 0.0175174
0.0474403 0.771557 0.0175174
0.0474098 0.77116 0.0175174
0.0473793 0.770581 0.0175174
0.0473335 0.769711 0.0175021
0.0472725 0.768505 0.0175021
0.218891 0.766583 0.0176089
0.456779 0.76405 0.0177768
0.593515 0.761135 0.0178531
0.698772 0.757839 0.0179294
0.784924 0.754864 0.0179904
0.851347 0.753017 0.0180362
0.902602 0.752651 0.0180819
0.941283 0.754192 0.0181277
0.969284 0.7579 0.0181582
0.980041 0.763821 0.018204
0.980362 0.771939 0.0182498
0.980789 0.782071 0.0183108
0.981277 0.793866 0.161105
0.981826 0.807034 0.279057
0.982391 0.820798 0.377478
0.982971 0.834669 0.468528
0.983551 0.848676 0.554879
0.9841 0.861997 0.635508
0.984604 0.873899 0.717647
0.985046 0.884596 0.782177
0.0496986 0.816342 0.0177768
0.0496986 0.81622 0.0177768
0.0496834 0.816098 0.0177768
0.0496834 0.815976 0.0177768
0.0496681 0.815839 0.0177768
0.0496681 0.815702 0.0177768
0.0496529 0.815518 0.0177615
0.0496376 0.81529 0.0177615
0.0496223 0.814939 0.0177615
0.0496071 0.81445 0.0177615
0.0495613 0.813748 0.0177615
0.0495155 0.812787 0.0177615
0.0494545 0.811505 0.0177462
0.185824 0.809583 0.0178378
0.44799 0.806943 0.0180056
0.586709 0.803952 0.0180972
0.690578 0.800565 0.0181582
0.774136 0.797421 0.0182193
0.839033 0.795056 0.018265
0.890852 0.793622 0.0182956
0.93022 0.793484 0.0183413
0.960052 0.794888 0.0183719
0.98143 0.797894 0.0184024
0.981628 0.802655 0.0184329
0.981888 0.808942 0.0184634
0.982208 0.816449 0.180346
0.982574 0.825147 0.291951
0.982971 0.834928 0.387411
0.983429 0.845655 0.476127
0.983886 0.856825 0.560357
0.984344 0.867735 0.638376
0.984756 0.877882 0.714626
0.985153 0.887282 0.780468
0.0514076 0.850233 0.0179599
0.0514076 0.85008 0.0179599
0.0513924 0.849912 0.0179599
0.0513924 0.849744 0.0179599
0.0513771 0.849577 0.0179599
0.0513771 0.849409 0.0179599
0.0513619 0.849195 0.0179599
0.0513466 0.84889 0.0179599
0.0513313 0.848493 0.0179599
0.0513008 0.847959 0.0179599
0.0512551 0.847227 0.0179446
0.0512093 0.846235 0.0179446
0.0511482 0.844938 0.0179446
0.267445 0.842893 0.0180819
0.468574 0.840375 0.018204
0.59588 0.837415 0.0182956
0.691447 0.83418 0.0183566
0.769268 0.831098 0.0184024
0.830808 0.828534 0.0184482
0.881193 0.826566 0.0184787
0.920439 0.825467 0.0185092
0.951431 0.825315 0.0185245
0.975235 0.826261 0.018555
0.982681 0.828443 0.0185702
0.982818 0.831891 0.0186007
0.983017 0.836378 0.211978
0.983261 0.842206 0.312047
0.983566 0.849165 0.40148
0.983886 0.857038 0.486717
0.984237 0.865507 0.56791
0.984604 0.874006 0.643732
0.984955 0.882429 0.714977
0.98529 0.89044 0.778195
0.0526589 0.874815 0.0180972
0.0526436 0.874632 0.0180972
0.0526436 0.874449 0.0180972
0.0526284 0.874266 0.0180972
0.0526131 0.874067 0.0180972
0.0526131 0.873884 0.0180972
0.0525978 0.873655 0.0180972
0.0525826 0.87335 0.0180972
0.0525521 0.872953 0.0180972
0.0525368 0.872404 0.0180972
0.052491 0.871672 0.0180819
0.0524453 0.87071 0.0180819
0.0523842 0.869444 0.0180819
0.38088 0.867262 0.0182956
0.51722 0.864927 0.0183871
0.620172 0.862181 0.0184482
0.702678 0.859251 0.0185092
0.771557 0.856413 0.018555
0.828046 0.853895 0.0185855
0.875456 0.851774 0.018616
0.913024 0.850294 0.0186465
0.94403 0.849424 0.0186618
0.968444 0.849302 0.018677
0.983566 0.850111 0.0187076
0.983642 0.851789 0.13962
0.983764 0.85449 0.25275
0.983917 0.858213 0.339925
0.984115 0.862852 0.421073
0.984344 0.868284 0.501152
0.984604 0.874311 0.578241
0.984878 0.880781 0.651011
0.985153 0.887449 0.719722
0.985428 0.894041 0.777188
0.0535897 0.893446 0.018204
0.0535897 0.893263 0.018204
0.0535744 0.89308 0.018204
0.0535744 0.892897 0.018204
0.0535592 0.892714 0.018204
0.0535439 0.892531 0.018204
0.0535439 0.892317 0.018204
0.0535286 0.892012 0.018204
0.0534981 0.891615 0.018204
0.0534829 0.891096 0.018204
0.0534371 0.890394 0.0181888
0.222416 0.889204 0.0183108
0.382345 0.887755 0.0184176
0.489677 0.88603 0.0184787
0.579767 0.88394 0.0185397
0.654978 0.881575 0.0185855
0.721813 0.879042 0.0186313
0.779553 0.876585 0.018677
0.829908 0.874266 0.0187076
0.873075 0.872206 0.0187381
0.908049 0.870604 0.0187533
0.937942 0.869398 0.0187686
0.962173 0.868696 0.0187839
0.981125 0.868574 0.0645609
0.98436 0.869032 0.217105
0.984421 0.870359 0.300587
0.984512 0.872465 0.37528
0.984634 0.875303 0.44715
0.984787 0.878859 0.520272
0.98497 0.883085 0.592081
0.985168 0.8878 0.660807
0.985382 0.892821 0.726024
0.985595 0.897932 0.780865
0.0542763 0.906859 0.0182803
0.0542611 0.906676 0.0182803
0.0542611 0.906508 0.0182803
0.0542458 0.90634 0.0182803
0.0542458 0.906172 0.0182803
0.0542306 0.906004 0.0182803
0.153094 0.905638 0.0183413
0.238254 0.905226 0.0184024
0.30045 0.904753 0.0184482
0.357839 0.904173 0.0184939
0.414069 0.903441 0.0185245
0.471931 0.902495 0.0185702
0.530648 0.901305 0.0186007
0.588281 0.89987 0.0186313
0.642771 0.898161 0.018677
0.696254 0.896239 0.0187076
0.746914 0.894179 0.0187381
0.793439 0.892119 0.0187686
0.8365 0.890059 0.0187991
0.874266 0.888167 0.0188144
0.905974 0.88658 0.0188449
0.933654 0.885252 0.0188602
0.957214 0.884184 0.102586
0.975998 0.883513 0.210056
0.984939 0.883345 0.28452
0.98497 0.883757 0.352285
0.985016 0.88481 0.416114
0.985092 0.886473 0.480125
0.985183 0.888716 0.544656
0.985306 0.891524 0.609506
0.985443 0.894743 0.67364
0.985595 0.898283 0.734234
0.985763 0.902037 0.785687
0.461646 0.91548 0.0186313
0.471489 0.915312 0.0186313
0.480858 0.915145 0.0186465
0.489754 0.914977 0.0186465
0.498207 0.914809 0.0186465
0.506325 0.914641 0.0186618
0.515816 0.914443 0.0186618
0.527794 0.914183 0.018677
0.542687 0.913848 0.018677
0.560922 0.913405 0.0186923
0.582818 0.91284 0.0187076
0.607996 0.912123 0.0187228
0.636088 0.911223 0.0187381
0.667994 0.91014 0.0187686
0.702678 0.908843 0.0187839
0.738827 0.907332 0.0730907
0.77528 0.905715 0.097261
0.811917 0.90399 0.119265
0.846952 0.902235 0.141573
0.878447 0.900587 0.165316
0.906584 0.899077 0.191196
0.931823 0.897734 0.219898
0.953765 0.896635 0.251881
0.971725 0.895796 0.298039
0.985443 0.895262 0.351034
0.985443 0.895155 0.405509
0.985458 0.895476 0.461357
0.985489 0.896269 0.517983
0.98555 0.897536 0.574517
0.985626 0.899229 0.631373
0.985718 0.901244 0.689891
0.985824 0.903563 0.744762
0.985931 0.906188 0.791897
0.634485 0.920439 0.278416
0.638056 0.920424 0.278584
0.64155 0.920424 0.278752
0.644984 0.920409 0.27892
0.648341 0.920409 0.279103
0.651652 0.920394 0.279271
0.655634 0.920348 0.279484
0.660792 0.92018 0.279774
0.66746 0.919936 0.28014
0.675959 0.919631 0.280659
0.686641 0.919249 0.281346
0.699809 0.918746 0.282261
0.715694 0.918135 0.283497
0.734279 0.917372 0.285161
0.755566 0.916472 0.287388
0.77966 0.915404 0.290364
0.805875 0.914168 0.294331
0.833188 0.912825 0.299611
0.860105 0.911437 0.306538
0.885435 0.910094 0.315572
0.909682 0.908751 0.327214
0.93196 0.9075 0.341985
0.951827 0.906416 0.360464
0.968673 0.905516 0.38323
0.982712 0.904814 0.418036
0.985824 0.904387 0.461799
0.985824 0.90425 0.509621
0.98584 0.904448 0.558846
0.985855 0.904997 0.608637
0.985901 0.905898 0.658625
0.985962 0.907073 0.709773
0.986023 0.908522 0.757839
0.986099 0.910262 0.799847
0.733532 0.920104 0.403525
0.735271 0.920089 0.403632
0.736996 0.920089 0.403723
0.738689 0.920089 0.40383
0.740383 0.920073 0.403937
0.742046 0.920073 0.404044
0.744076 0.920073 0.404166
0.746731 0.920073 0.404334
0.750225 0.920058 0.404562
0.754742 0.920058 0.404868
0.760571 0.920043 0.40528
0.767971 0.920027 0.405829
0.777249 0.919997 0.406561
0.788647 0.919982 0.407538
0.802319 0.919951 0.408865
0.818219 0.919921 0.41062
0.836057 0.919875 0.412985
0.855146 0.919203 0.416144
0.874723 0.918151 0.420356
0.894926 0.917052 0.425925
0.915007 0.915908 0.433249
0.933944 0.914809 0.442817
0.951461 0.913802 0.455238
0.966781 0.912917 0.471122
0.979889 0.912184 0.490837
0.98613 0.91162 0.521675
0.986114 0.911254 0.55996
0.986114 0.911116 0.602014
0.986114 0.911238 0.644938
0.986145 0.911589 0.689647
0.986175 0.912184 0.73283
0.986206 0.913008 0.773419
0.986252 0.914046 0.809812
0.801724 0.919829 0.509102
0.802701 0.919829 0.509163
0.803647 0.919829 0.509239
0.804593 0.919829 0.509316
