BBLuts/BB_103_0880_LUT.cube
TITLE "Generated by Resolve"
LUT_3D_SIZE 5
0.0240635 0.0148928 0.0181125
0.242786 0.0173648 0.0201572
1 0.0289769 0.0298772
1 0.687205 0.0823224
1 1 0.849973
0.000350958 0.273213 0
0.175479 0.277455 0
1 0.162387 0.0180362
1 0.794873 0.0180056
1 1 0.849409
0 1 0
0 1 0
0.816999 1 0
1 1 0
1 1 0.841123
0.529061 1 0.100038
0.529061 1 0.100038
0.862684 1 0.118029
1 1 0.2654
1 1 0.891814
1 1 1
1 1 1
1 1 1
1 1 1
1 1 1
0.0253605 0.0164034 0.242298
0.207935 0.0181582 0.243687
1 0.0298161 0.254856
1 0.663478 0.26743
1 1 0.850004
0.00579843 0.226825 0.211841
0.180957 0.225483 0.208698
1 0.0520638 0.236957
1 0.775204 0.238941
1 1 0.849409
0 1 0
0 1 0
0.826886 1 0
1 1 0
1 1 0.841123
0.544533 1 0.0996109
0.544533 1 0.0996109
0.867109 1 0.11751
1 1 0.265187
1 1 0.891814
1 1 1
1 1 1
1 1 1
1 1 1
1 1 1
0.0319829 0.0239261 0.992203
0.0319829 0.0239261 0.99237
1 0.0353857 0.995178
1 0.356634 0.993561
1 1 1
0.0319677 0.0238956 0.990173
0.0319677 0.0238956 0.990295
1 0.0355993 0.992538
1 0.518746 0.970626
1 1 1
0 1 0.835889
0 1 0.83592
0.775113 1 0.840742
1 1 0.859602
1 1 1
0.532799 1 0.569345
0.532799 1 0.569345
0.844694 1 0.579324
1 1 0.671702
1 1 0.977203
1 1 1
1 1 1
1 1 1
1 1 1
1 1 1
0.0361639 0.0286412 1
0.0361639 0.0286412 1
0.0361639 0.0286412 1
1 0.0459297 1
1 1 1
0.0361639 0.0286412 1
0.0361639 0.0286412 1
0.0361639 0.0286412 1
1 0.0459297 1
1 1 1
0.0361639 0.0286412 1
0.0361639 0.0286412 1
0.0361639 0.0286412 1
1 0.0459297 1
1 1 1
0 1 1
0 1 1
0 1 1
1 1 1
1 1 1
1 1 1
1 1 1
1 1 1
1 1 1
1 1 1
0.000610361 0.372519 1
0.000610361 0.372519 1
0.000610361 0.372519 1
0.000595102 0.372595 1
1 0.936736 1
0.000610361 0.372519 1
0.000610361 0.372519 1
0.000610361 0.372519 1
0.000595102 0.372595 1
1 0.936736 1
0.000610361 0.372519 1
0.000610361 0.372519 1
0.000610361 0.372519 1
0.000595102 0.372595 1
1 0.936736 1
0.000747692 0.371237 1
0.000747692 0.371237 1
0.000747692 0.371237 1
0.000747692 0.371298 1
1 0.945388 1
1 1 1
1 1 1
1 1 1
1 1 1
1 1 1
