BBLuts/BB_104_0015_LUT.cube
TITLE "Generated by Resolve"
LUT_3D_SIZE 33
0 0 0
0 0 0
0 0 0
0 0 0
0 0 0
0.0274968 0 0
0.0822461 0 0
0.123095 0 0
0.164797 0 0
0.214359 0 0
0.271015 0 0
0.332738 0 0
0.400076 0 0
0.475074 0 0
0.555398 0 0
0.631983 0 0
0.70959 0 0
0.788449 0 0
0.860441 0 0
0.918547 0 0
0.932876 0 0
0.933715 0 0
0.920668 0.227619 0
0.910704 0.408194 0.000579843
0.903227 0.542306 0.0373236
0.8972 0.64622 0.0847486
0.891981 0.733288 0.143145
0.887755 0.803067 0.218479
0.884489 0.855802 0.312688
0.881743 0.896681 0.407172
0.879515 0.927352 0.494667
0.877592 0.95201 0.571023
0.875975 0.970932 0.640543
0 0 0
0 0 0
0 0 0
0 0 0
0 0 0
0.0377661 0 0
0.0856947 0 0
0.125963 0 0
0.169467 0 0
0.219806 0 0
0.27657 0 0
0.337102 0 0
0.401389 0 0
0.4766 0 0
0.556695 0 0
0.632715 0 0
0.710216 0 0
0.788449 0 0
0.860365 0 0
0.918181 0 0
0.93286 0 0
0.933318 0 0
0.918944 0.25594 0
0.909133 0.421057 0
0.902663 0.549325 0.034226
0.896895 0.650217 0.0831464
0.891814 0.735485 0.142596
0.887663 0.804196 0.218372
0.884443 0.856382 0.312428
0.881727 0.896986 0.407034
0.879515 0.927489 0.494591
0.877577 0.952087 0.570977
0.875975 0.970977 0.640513
0 0 0
0 0 0
0 0 0
0 0 0
0 0 0
0.0431373 0 0
0.0861524 0 0
0.128206 0 0
0.173861 0 0
0.223606 0 0
0.278935 0 0
0.338109 0 0
0.403159 0 0
0.478492 0 0
0.558007 0 0
0.633738 0 0
0.710552 0 0
0.788754 0 0
0.860273 0 0
0.917754 0 0
0.932815 0 0
0.9308 0.0384527 0
0.91722 0.283818 0
0.907897 0.433112 0
0.902113 0.556008 0.0314183
0.89662 0.653803 0.0817121
0.891661 0.737545 0.142077
0.887587 0.805249 0.218296
0.884398 0.856931 0.312184
0.881712 0.897276 0.406882
0.879499 0.927657 0.494499
0.877577 0.952193 0.570916
0.875975 0.971008 0.640497
0 0 0
0 0 0
0 0 0
0 0 0
0 0 0
0.0442817 0 0
0.083772 0 0
0.125734 0 0
0.172244 0 0
0.224552 0 0
0.281163 0 0
0.339956 0 0
0.405325 0 0
0.4804 0 0
0.55935 0 0
0.634485 0 0
0.711208 0 0
0.789014 0 0
0.860136 0 0
0.917342 0 0
0.932784 0 0
0.927245 0.111681 0
0.915846 0.305974 0
0.90692 0.44332 0
0.90164 0.56173 0.0290379
0.896361 0.657023 0.080415
0.891524 0.739452 0.141604
0.88751 0.806256 0.218189
0.884367 0.857481 0.31194
0.881682 0.897566 0.406729
0.879484 0.92781 0.494423
0.877577 0.952255 0.570886
0.875959 0.971069 0.640467
0 0.0269322 0
0 0.0299229 0
0 0.0328679 0
0 0.0357366 0
0 0.0369268 0
0.0281834 0.0354314 0
0.0733196 0.0328069 0
0.11812 0.0271916 0
0.167666 0.0149691 0
0.224445 0 0
0.282185 0 0
0.341939 0 0
0.407401 0 0
0.482353 0 0
0.561028 0 0
0.635538 0 0
0.711833 0 0
0.789273 0 0
0.860014 0 0
0.916869 0 0
0.932738 0 0
0.924956 0.153857 0
0.914626 0.325139 0
0.906203 0.454078 0
0.901122 0.567758 0.0259403
0.896101 0.660319 0.0789654
0.891386 0.741268 0.141176
0.887449 0.807248 0.218112
0.884321 0.85803 0.311681
0.881666 0.897856 0.406577
0.879469 0.927947 0.494347
0.877562 0.952361 0.570825
0.875959 0.971115 0.640452
0 0.0611124 0
0 0.0635843 0
0 0.0661326 0
0 0.0681315 0
0 0.0691386 0
0.00407416 0.0688029 0
0.0605173 0.0675517 0
0.109606 0.065095 0
0.161456 0.0603189 0
0.218936 0.0510719 0
0.279072 0.0333104 0
0.342931 0 0
0.409293 0 0
0.484443 0 0
0.562615 0 0
0.636454 0 0
0.712535 0 0
0.789563 0 0
0.859846 0 0
0.916365 0 0
0.932113 0 0
0.922957 0.188983 0
0.913558 0.341878 0
0.905577 0.463401 0
0.900633 0.573327 0.0230106
0.895827 0.663737 0.077348
0.891234 0.743297 0.140658
0.887373 0.808179 0.218021
0.884276 0.858549 0.311452
0.881636 0.898146 0.406439
0.879469 0.928115 0.49427
0.877562 0.952438 0.570794
0.875959 0.97116 0.640421
0 0.097612 0
0 0.099733 0
0 0.101793 0
0 0.103059 0
0 0.10396 0
0 0.10425 0
0.0360723 0.103593 0
0.0966354 0.102358 0
0.152438 0.0997635 0
0.212787 0.0946517 0
0.274586 0.08542 0
0.339162 0.0706188 0
0.408179 0.043183 0
0.486503 0 0
0.564584 0 0
0.637842 0 0
0.713085 0 0
0.789593 0 0
0.859373 0 0
0.915755 0 0
0.929549 0.0430152 0
0.920851 0.224475 0
0.912367 0.360204 0
0.90483 0.474479 0
0.900099 0.579416 0.0198215
0.895521 0.667597 0.0755169
0.891051 0.745724 0.140047
0.887282 0.809522 0.217929
0.88423 0.859159 0.311177
0.881621 0.898466 0.406271
0.879454 0.928298 0.494179
0.877546 0.952529 0.570748
0.875959 0.971206 0.640391
0 0.139696 0
0 0.141543 0
0 0.142916 0
0 0.143969 0
0 0.14461 0
0 0.14519 0
0 0.145418 0
0.0700542 0.144518 0
0.137697 0.142962 0
0.202182 0.139788 0
0.267414 0.133425 0
0.335286 0.1243 0
0.406012 0.11075 0
0.484031 0.088304 0
0.563943 0.0417945 0
0.638682 0 0
0.71371 0 0
0.78999 0 0
0.859083 0 0
0.913207 0.00273136 0
0.925261 0.127825 0
0.918349 0.265614 0
0.910842 0.383764 0
0.903822 0.489448 0
0.899245 0.588037 0.0134737
0.895109 0.672709 0.0730755
0.890806 0.748974 0.139239
0.887144 0.811337 0.217823
0.884153 0.860227 0.31075
0.881575 0.898955 0.406027
0.879438 0.928557 0.494041
0.877546 0.952682 0.570657
0.875944 0.971283 0.64036
0 0.189441 0
0 0.19086 0
0 0.191821 0
0 0.192599 0
0 0.193149 0
0 0.193759 0
0 0.194018 0
0.0228733 0.19379 0
0.109545 0.19234 0
0.183612 0.189654 0
0.254902 0.185367 0
0.327871 0.178973 0
0.40267 0.170047 0
0.482963 0.156497 0
0.561517 0.137881 0
0.634363 0.112032 0
0.710338 0.0739757 0
0.789212 0 0
0.856962 0.00640879 0
0.907286 0.103929 0
0.920531 0.208118 0
0.915526 0.310979 0
0.909026 0.411521 0
0.902541 0.508354 0
0.897993 0.599329 0.0041352
0.894514 0.680049 0.0693828
0.890486 0.753277 0.13817
0.886961 0.813809 0.21767
0.884047 0.861662 0.31014
0.881529 0.899763 0.405646
0.879408 0.928939 0.493843
0.877531 0.952895 0.57055
0.875944 0.971405 0.640284
0 0.245884 0
0 0.24654 0
0 0.246937 0
0 0.247272 0
0 0.247745 0
0 0.247822 0
0 0.247776 0
0 0.24744 0
0.0536202 0.246799 0
0.152667 0.245167 0
0.23476 0.242542 0
0.314565 0.238254 0
0.395499 0.23183 0
0.480171 0.222187 0
0.559792 0.210864 0
0.631464 0.197574 0
0.705547 0.183825 0
0.780484 0.172961 0
0.847059 0.179446 0
0.899046 0.2177 0
0.915892 0.282353 0
0.912261 0.361883 0
0.906767 0.445548 0
0.900954 0.531426 0
0.896162 0.61387 0
0.893706 0.689799 0.0643473
0.890028 0.75935 0.136675
0.886717 0.817121 0.217472
0.883909 0.863615 0.309346
0.881437 0.900847 0.405112
0.879362 0.929564 0.493492
0.877501 0.953185 0.570397
0.875929 0.971557 0.640192
0 0.306004 0
0 0.306645 0
0 0.307042 0
0 0.307378 0
0 0.307607 0
0 0.307774 0
0 0.307866 0
0 0.30808 0
0 0.307698 0
0.0881819 0.307042 0
0.201617 0.305806 0
0.292485 0.303243 0
0.381811 0.298756 0
0.473136 0.292119 0
0.556329 0.284901 0
0.62887 0.277287 0
0.701885 0.270848 0
0.77496 0.268177 0
0.839857 0.277592 0
0.89073 0.306767 0
0.91104 0.355261 0
0.908675 0.416785 0
0.904005 0.486671 0
0.899001 0.559884 0
0.894148 0.630564 0
0.892653 0.702525 0.058381
0.889418 0.767346 0.134707
0.886381 0.821698 0.217273
0.883711 0.866194 0.308263
0.881331 0.902342 0.404395
0.879301 0.930434 0.493034
0.87747 0.953689 0.570108
0.875914 0.971801 0.64007
0 0.375952 0
0 0.376242 0
0 0.376608 0
0 0.377249 0
0 0.377493 0
0 0.377691 0
0 0.377874 0
0 0.377966 0
0 0.377874 0
0 0.378439 0
0.132616 0.377646 0
0.255665 0.376623 0
0.358389 0.37435 0
0.458473 0.370474 0
0.547967 0.365347 0
0.623575 0.36051 0
0.697414 0.358053 0
0.768978 0.359152 0
0.831693 0.369299 0
0.881498 0.392584 0
0.905928 0.427588 0
0.904768 0.475486 0
0.900877 0.53257 0
0.896696 0.593271 0
0.892485 0.653315 0
0.891356 0.718318 0.0516518
0.88864 0.777661 0.132235
0.885939 0.827817 0.21709
0.883436 0.869871 0.307927
0.881178 0.904311 0.403464
0.87921 0.931609 0.492393
0.877424 0.954391 0.569711
0.875883 0.972198 0.639841
0 0.454414 0
0 0.454582 0
0 0.454902 0
0 0.455177 0
0 0.455406 0
0 0.45594 0
0 0.456153 0
0 0.456321 0
0 0.456474 0
0 0.45658 0
0.0187533 0.457069 0
0.185245 0.457542 0
0.319387 0.456764 0
0.432441 0.454795 0
0.531106 0.451682 0
0.61265 0.448615 0
0.68983 0.446662 0
0.761776 0.448112 0
0.822705 0.456428 0
0.871092 0.473899 0
0.900542 0.501579 0
0.900511 0.538003 0
0.89749 0.581842 0
0.894133 0.629938 0
0.890501 0.681117 0
0.889662 0.737957 0.0417334
0.887678 0.790341 0.129259
0.885359 0.835676 0.217014
0.883085 0.874723 0.308522
0.88098 0.907088 0.402274
0.879088 0.933181 0.491554
0.877348 0.955337 0.569162
0.875853 0.972763 0.639506
0 0.540764 0
0 0.540825 0
0 0.54107 0
0 0.541283 0
0 0.541451 0
0 0.541619 0
0 0.541802 0
0 0.542 0
0 0.542473 0
0 0.54255 0
0 0.542458 0
0.0653849 0.542763 0
0.252049 0.543099 0
0.392203 0.541939 0
0.504677 0.540032 0
0.59469 0.537469 0
0.677256 0.535607 0
0.75169 0.535958 0
0.812253 0.541604 0
0.859205 0.554223 0
0.894255 0.573571 0
0.896117 0.600397 0
0.89395 0.632425 0
0.891279 0.670146 0
0.888197 0.713115 0
0.887633 0.760708 0.0294804
0.886503 0.805737 0.125551
0.884657 0.845411 0.217121
0.882628 0.880934 0.309483
0.880705 0.910719 0.400778
0.878935 0.935393 0.490394
0.877256 0.956588 0.56846
0.875792 0.97351 0.639078
0 0.621592 0
0 0.621592 0
0 0.621683 0
0 0.621805 0
0 0.621897 0
0 0.621973 0
0 0.622049 0
0 0.622141 0
0 0.622202 0
0 0.622171 0
0 0.622309 0
0 0.621897 0
0.133669 0.621897 0
0.335073 0.621988 0
0.468742 0.620859 0
0.56965 0.619272 0
0.658427 0.617502 0
0.73669 0.617227 0
0.798993 0.620264 0
0.845624 0.628 0
0.881971 0.641047 0
0.89131 0.6598 0
0.890257 0.68452 0
0.888106 0.714534 0
0.885649 0.748226 0
0.885191 0.785763 0.0137942
0.885161 0.823346 0.122316
0.883772 0.857435 0.217624
0.882078 0.888563 0.310842
0.880369 0.915389 0.400732
0.878691 0.93872 0.488899
0.877134 0.958358 0.567468
0.875715 0.974487 0.638498
0 0.69543 0
0 0.69543 0
0 0.69543 0
0 0.695506 0
0 0.695521 0
0 0.695567 0
0 0.695583 0
0 0.695613 0
0 0.695583 0
0 0.695476 0
0 0.695216 0
0 0.695003 0
0 0.695079 0
0.232746 0.694636 0
0.420111 0.694499 0
0.538003 0.693034 0
0.633188 0.691325 0
0.716091 0.690288 0
0.781048 0.691936 0
0.829496 0.697185 0
0.865721 0.706615 0
0.885588 0.720562 0
0.886336 0.738262 0
0.88481 0.759777 0
0.883009 0.784298 0
0.882078 0.81181 0
0.88368 0.842908 0.119524
0.882765 0.871382 0.219562
0.881407 0.897826 0.312932
0.879942 0.921141 0.402777
0.878416 0.942504 0.488029
0.876966 0.960723 0.56614
0.875624 0.975891 0.637644
0 0.768673 0
0 0.768673 0
0 0.768673 0
0 0.768673 0
0 0.768658 0
0 0.768643 0
0 0.768597 0
0 0.768551 0
0 0.768414 0
0 0.76817 0
0 0.767773 0
0 0.767086 0
0 0.766278 0
0.117891 0.766201 0
0.354345 0.766217 0
0.500008 0.76527 0
0.603235 0.763241 0
0.690379 0.761578 0
0.758755 0.761334 0
0.81004 0.763668 0
0.848386 0.768765 0
0.875914 0.777127 0
0.882231 0.788647 0
0.881651 0.802777 0
0.880415 0.819455 0
0.879103 0.838239 0
0.882124 0.864118 0.119417
0.881651 0.88687 0.223301
0.880644 0.9084 0.316594
0.879423 0.928298 0.4056
0.878065 0.947188 0.488167
0.876753 0.963714 0.564752
0.875486 0.977752 0.636484
0 0.831205 0
0 0.831205 0
0 0.831205 0
0 0.831205 0
0 0.831205 0
0 0.831159 0
0 0.831067 0
0 0.830915 0
0 0.830655 0
0 0.830259 0
0 0.829679 0
0 0.828763 0
0 0.827482 0
0.0178225 0.826947 0
0.282872 0.826932 0
0.464195 0.825925 0
0.576928 0.823743 0
0.666377 0.821546 0
0.736492 0.820096 0
0.790219 0.82005 0
0.831205 0.822003 0
0.8607 0.826123 0
0.877653 0.832502 0
0.878752 0.841321 0
0.877958 0.852354 0
0.877653 0.8663 0
0.880613 0.885863 0.12604
0.880491 0.903288 0.229908
0.879805 0.920089 0.322057
0.878813 0.936675 0.409995
0.877638 0.952941 0.490944
0.876478 0.967391 0.563363
0.875319 0.980148 0.635065
0 0.879545 0
0 0.879545 0
0 0.879545 0
0 0.879545 0
0 0.879545 0
0 0.879545 0
0 0.879545 0
0 0.879362 0
0 0.879042 0
0 0.878477 0
0 0.877699 0
0 0.876646 0
0 0.875196 0
0 0.874784 0
0.228016 0.873915 0
0.440925 0.873335 0
0.559106 0.871138 0
0.648478 0.868544 0
0.71812 0.866575 0
0.772763 0.865431 0
0.815412 0.865492 0
0.846571 0.867247 0
0.87039 0.870619 0
0.875837 0.875776 0
0.875685 0.882704 0
0.877531 0.89424 0.0227207
0.879255 0.907317 0.141802
0.879362 0.919738 0.240101
0.878904 0.932784 0.330022
0.878096 0.946471 0.416052
0.87715 0.959625 0.495323
0.876143 0.971893 0.565927
0.875105 0.983108 0.633356
0 0.917449 0
0 0.917449 0
0 0.917449 0
0 0.917449 0
0 0.917449 0
0 0.917449 0
0 0.917449 0
0 0.917449 0
0 0.917296 0
0 0.916671 0
0 0.915679 0
0 0.914458 0
0 0.912963 0
0 0.912551 0
0.232151 0.911772 0
0.434882 0.911009 0
0.550805 0.90898 0
0.636957 0.906432 0
0.704417 0.904128 0
0.758251 0.902449 0
0.801099 0.901534 0
0.833585 0.901625 0
0.858885 0.902922 0
0.872618 0.905425 0
0.873686 0.909239 0
0.876829 0.918425 0.0578164
0.87805 0.92726 0.163684
0.878218 0.93669 0.255848
0.877928 0.946349 0.340948
0.877348 0.956695 0.424399
0.8766 0.967056 0.50103
0.875746 0.977142 0.570123
0.87483 0.986755 0.635065
0 0.945922 0
0 0.945922 0
0 0.945922 0
0 0.945922 0
0 0.945922 0
0 0.945922 0
0 0.945922 0
0 0.945922 0
0 0.945922 0
0 0.945891 0
0 0.944823 0
0 0.943404 0
0 0.941772 0
0 0.940581 0
0.282643 0.941238 0
0.44889 0.9402 0
0.553918 0.938094 0
0.633402 0.935744 0
0.696712 0.93344 0
0.748379 0.931456 0
0.789654 0.929686 0
0.82266 0.928985 0
0.848875 0.929 0
0.868879 0.930037 0
0.871992 0.93257 0
0.876036 0.940536 0.0968338
0.876951 0.946441 0.193164
0.87715 0.952728 0.277211
0.876997 0.95967 0.356741
0.876585 0.967132 0.43537
0.87599 0.975036 0.508415
0.875288 0.983063 0.575692
0.87451 0.990967 0.638498
0 0.967239 0
0 0.967239 0
0 0.967239 0
0 0.967239 0
0 0.967239 0
0 0.967239 0
0 0.967239 0
0 0.967239 0
0 0.967239 0
0 0.967239 0
0 0.967239 0
0 0.96585 0
0 0.964202 0
0.0694743 0.963867 0
0.347799 0.96437 0
0.478309 0.963058 0
0.565911 0.961028 0
0.63624 0.958801 0
0.693919 0.956634 0
0.742351 0.954742 0
0.781476 0.95314 0
0.813611 0.952102 0
0.83978 0.951507 0
0.860517 0.95169 0
0.873106 0.956451 0.0583658
0.875441 0.960021 0.151644
0.87602 0.963561 0.230442
0.876204 0.967605 0.305043
0.876112 0.972259 0.377829
0.875822 0.977539 0.450401
0.87538 0.983307 0.517876
0.8748 0.989456 0.583124
0.874144 0.995651 0.64329
0 0.983337 0
0 0.983337 0
0 0.983337 0
0 0.983337 0
0 0.983337 0
0 0.983337 0
0 0.983337 0
0 0.983337 0
0 0.983337 0
0 0.983337 0
0 0.983337 0
0 0.983337 0
0 0.98172 0
0.269932 0.983185 0
0.418036 0.982513 0
0.514626 0.981064 0
0.585458 0.979156 0
0.64535 0.977157 0
0.696376 0.975174 0
0.740154 0.973297 0
0.776379 0.971786 0
0.807187 0.97055 0
0.832593 0.969696 0
0.856275 0.972839 0.0460365
0.872297 0.974868 0.132723
0.874815 0.976516 0.206195
0.875212 0.978454 0.273732
0.875349 0.980911 0.338125
0.875303 0.983932 0.40444
0.87509 0.987564 0.469429
0.874739 0.991653 0.531197
0.874296 0.996017 0.592538
0.873747 1 0.649577
0.232151 0.998047 0
0.232151 0.998047 0
0.232151 0.998047 0
0.232151 0.998047 0
0.232136 0.998047 0
0.232136 0.998047 0
0.232136 0.998047 0
0.232136 0.998047 0
0.23212 0.998047 0
0.23209 0.998047 0
0.23209 0.998047 0
0.232059 0.998047 0
0.232029 0.998047 0
0.373831 0.997772 0
0.48249 0.996628 0
0.552163 0.995087 0
0.609857 0.993378 0
0.659297 0.991608 0
0.703426 0.989822 0
0.741985 0.988144 0
0.77644 0.988754 0.00888075
0.806516 0.989334 0.0576944
0.831525 0.989303 0.0988937
0.852079 0.989532 0.148699
0.86894 0.989944 0.204654
0.873899 0.990524 0.262303
0.874479 0.99144 0.319844
0.874586 0.992782 0.377539
0.87454 0.994598 0.435615
0.874388 0.996857 0.493233
0.874128 0.999557 0.548272
0.873777 1 0.605051
0.87335 1 0.65742
0.476234 1 0.126116
0.476234 1 0.126116
0.476234 1 0.126116
0.476234 1 0.126116
0.476234 1 0.126116
0.476234 1 0.126116
0.476234 1 0.126116
0.476234 1 0.126116
0.476234 1 0.126116
0.476219 1 0.126116
0.476219 1 0.126116
0.476219 1 0.126116
0.476219 1 0.126116
0.476204 1 0.126116
0.53547 1 0.129686
0.593973 1 0.134722
0.64036 1 0.140398
0.681285 1 0.147082
0.718776 1 0.155718
0.751659 1 0.166293
0.780667 1 0.179477
0.80679 1 0.195804
0.829236 1 0.216175
0.848249 1 0.240253
0.864271 1 0.276402
0.872724 1 0.320378
0.873854 1 0.36878
0.873915 1 0.420172
0.873869 1 0.470588
0.873762 1 0.519448
0.873564 1 0.569696
0.873274 1 0.620401
0.872938 1 0.667643
0.589578 1 0.260151
0.589578 1 0.260151
0.589578 1 0.260151
0.589578 1 0.260151
0.589578 1 0.260151
0.589578 1 0.260151
0.589578 1 0.260151
0.589578 1 0.260151
0.589578 1 0.260151
0.589578 1 0.260151
0.589578 1 0.260151
0.589578 1 0.260151
0.589563 1 0.260151
0.589563 1 0.260151
0.589548 1 0.260151
0.62652 1 0.262806
0.667185 1 0.266636
0.701595 1 0.271
0.732235 1 0.276204
0.759701 1 0.282994
0.784604 1 0.291432
0.807889 1 0.302022
0.828046 1 0.314641
0.845548 1 0.330983
0.860563 1 0.350942
0.871595 1 0.382437
0.873289 1 0.421607
0.87332 1 0.46389
0.873289 1 0.507408
0.873198 1 0.550088
0.87303 1 0.594797
0.872801 1 0.638758
0.872541 1 0.67985
0.663828 1 0.368704
0.663828 1 0.368704
0.663828 1 0.368704
0.663828 1 0.368704
0.663828 1 0.368704
0.663828 1 0.368704
0.663828 1 0.368704
0.663828 1 0.368704
0.663813 1 0.368704
0.663813 1 0.368704
0.663813 1 0.368704
0.663813 1 0.368704
0.663813 1 0.368704
0.663813 1 0.368704
0.663813 1 0.368704
0.663813 1 0.368704
0.6907 1 0.371008
0.721111 1 0.374395
0.746136 1 0.378271
0.768688 1 0.38291
0.790066 1 0.388876
0.810208 1 0.396307
0.828 1 0.405554
0.843885 1 0.417121
0.85771 1 0.431724
0.86923 1 0.449226
0.872557 1 0.476005
0.872816 1 0.508949
0.872786 1 0.544549
0.872694 1 0.583535
0.872541 1 0.622324
0.872374 1 0.659556
0.87216 1 0.694163
0.718029 1 0.464714
0.718029 1 0.464714
0.718029 1 0.464714
0.718029 1 0.464714
0.718029 1 0.464714
0.718029 1 0.464714
0.718029 1 0.464714
0.718029 1 0.464714
0.718029 1 0.464714
