BBLuts/BB_104_0280_LUT.cube
TITLE "Generated by Resolve"
LUT_3D_SIZE 9
0 0 0
0 0 0
0.165805 0 0
0.406485 0 0
0.732921 0 0
0.856443 0 0
0.903441 0.466438 0.0928206
0.906783 0.756603 0.35137
0.905577 0.820142 0.656947
0 0.0381628 0.000656138
0.000122072 0.0458839 0.000946059
0.179751 0.0247044 0
0.417975 0 0
0.734356 0 0
0.856443 0 0
0.904067 0.504692 0.0833295
0.906783 0.759213 0.34902
0.905577 0.820447 0.656794
0.00352483 0.16463 0.00180056
0.00347906 0.167529 0.00173953
0.155566 0.165194 0
0.44799 0.138018 0
0.748425 0.0377661 0
0.884825 0.152285 0
0.904402 0.55967 0.0643015
0.906798 0.763226 0.345296
0.905577 0.820951 0.65655
0 0.409323 0
0 0.410529 0
0 0.411185 0
0.400549 0.418021 0
0.777203 0.407248 0
0.900603 0.473838 0.00578317
0.902571 0.660197 0.00247196
0.906859 0.773693 0.334447
0.905608 0.822385 0.655818
0.00424201 0.72076 0
0.00422675 0.720714 0
0.00416571 0.72047 0
0.00376898 0.718914 0
0.749462 0.717113 0
0.884932 0.72311 0
0.90277 0.750637 0
0.907027 0.79469 0.337713
0.905638 0.826169 0.653605
0.0354009 0.826185 0.00294499
0.0352789 0.825742 0.00289921
0.0350805 0.82501 0.00282292
0.0344701 0.822782 0.00260929
0.741894 0.81416 0
0.862837 0.809018 0
0.903853 0.810254 0
0.907179 0.821622 0.381369
0.905699 0.83415 0.650965
0.638651 0.856123 0.147662
0.659556 0.855467 0.147631
0.687495 0.854505 0.147768
0.742229 0.852232 0.149233
0.802182 0.848844 0.158679
0.862913 0.845991 0.193637
0.903639 0.844038 0.293339
0.906767 0.842954 0.51046
0.905669 0.844633 0.666835
0.843259 0.851759 0.585306
0.844068 0.851759 0.585443
0.845365 0.851774 0.585672
0.849058 0.851789 0.586374
0.858488 0.851835 0.588495
0.876478 0.851926 0.594827
0.898116 0.851942 0.611948
0.905638 0.851575 0.643977
0.905455 0.85124 0.698222
0.887083 0.851087 0.714992
0.887175 0.851087 0.715007
0.887343 0.851087 0.715023
0.887831 0.851087 0.715084
0.88922 0.851102 0.715251
0.892744 0.851133 0.715755
0.899504 0.851194 0.717205
0.905455 0.851194 0.721126
0.90547 0.851179 0.731456
0 0 0.0276799
0 0 0.0278477
0.166979 0 0.0233616
0.408286 0 0.0133516
0.734066 0 0
0.858549 0 0.020325
0.904418 0.460929 0.144671
0.906722 0.755886 0.388159
0.905547 0.820035 0.660716
0 0.0207218 0.0240787
0.0390326 0.0283207 0.0221866
0.182834 0 0.0175021
0.413962 0 0.00581369
0.733974 0 0
0.857969 0 0.00332647
0.905165 0.500282 0.135332
0.906722 0.758526 0.386053
0.905562 0.82034 0.660578
0.00361639 0.157305 0.0019379
0.00358587 0.159731 0.00189212
0.171984 0.157397 0
0.445121 0.129763 0
0.742992 0.0105287 0
0.88304 0.136187 0
0.905715 0.556695 0.118196
0.906737 0.762554 0.382666
0.905562 0.820844 0.660349
0 0.404746 0
0 0.405875 0
0 0.406332 0
0.412695 0.412573 0
0.776822 0.402716 0
0.900511 0.470268 0.00578317
0.903929 0.659907 0.0336614
0.906798 0.773114 0.3729
0.905577 0.822278 0.659648
0.00404364 0.719982 0
0.00402838 0.719921 0
0.00396735 0.719676 0
0.00358587 0.718074 0
0.751049 0.716365 0
0.884993 0.722591 0
0.90277 0.750378 0
0.907012 0.794522 0.346395
0.905608 0.826078 0.657542
0.0353552 0.826047 0.00292973
0.0352483 0.825589 0.00288396
0.0350347 0.824857 0.00280766
0.0344396 0.822629 0.00259403
0.742992 0.814023 0
0.86302 0.808942 0
0.903853 0.810193 0
0.907179 0.821591 0.38114
0.905699 0.834134 0.651316
0.641947 0.856016 0.147387
0.662364 0.85536 0.147387
0.689723 0.854414 0.147524
0.743191 0.852171 0.14902
0.802579 0.848798 0.158541
0.86302 0.845975 0.19353
0.903655 0.844022 0.293324
0.906767 0.842939 0.510384
0.905669 0.844633 0.666819
0.843381 0.851759 0.585275
0.84419 0.851759 0.585428
0.845472 0.851774 0.585641
0.849165 0.851789 0.586343
0.858564 0.851835 0.588464
0.876509 0.851926 0.594797
0.898131 0.851942 0.611917
0.905638 0.851575 0.643977
0.905455 0.85124 0.698207
0.887098 0.851087 0.714992
0.88719 0.851087 0.715007
0.887358 0.851087 0.715023
0.887846 0.851087 0.715084
0.889235 0.851102 0.715251
0.892744 0.851133 0.715755
0.899504 0.851194 0.717205
0.905455 0.851194 0.721126
0.90547 0.851179 0.731456
0 0 0.124788
0 0 0.124956
0.148226 0 0.120317
0.42182 0 0.104524
0.735897 0 0.0910506
0.860502 0 0.114992
0.905333 0.448264 0.232624
0.906615 0.754696 0.439506
0.905516 0.819867 0.666362
0 0 0.121706
0 0 0.121996
0.172198 0 0.116396
0.420172 0 0.10161
0.737209 0 0.0877241
0.860426 0 0.1093
0.906279 0.489494 0.226337
0.906615 0.757366 0.437675
0.905531 0.820172 0.666239
0.00631724 0.138003 0.116793
0.00634775 0.139834 0.116533
0.16318 0.132921 0.111345
0.429709 0.110399 0.105653
0.736309 0 0.0788586
0.880766 0.0881971 0.123598
0.907149 0.547982 0.215183
0.906615 0.761471 0.434745
0.905531 0.820676 0.666026
0 0.394003 0.0457618
0 0.395346 0.0464179
0 0.396017 0.047364
0.416037 0.401648 0.0551003
0.776074 0.392691 0.0611124
0.903334 0.461936 0.0934462
0.907012 0.658335 0.178439
0.906661 0.772183 0.426368
0.905547 0.822126 0.66537
0.00364691 0.718395 0
0.00363165 0.718318 0
0.00358587 0.718074 0
0.00320439 0.716457 0
0.752453 0.714824 0
0.884901 0.721386 0
0.904692 0.751339 0.0607462
0.906874 0.793835 0.404318
0.905577 0.825925 0.663447
0.0352941 0.825788 0.00291447
0.035172 0.825345 0.0028687
0.0349737 0.824613 0.0027924
0.0343633 0.822385 0.00256352
0.744717 0.813779 0
0.863294 0.808804 0
0.903853 0.810101 0
0.907179 0.821546 0.380804
0.905669 0.833997 0.657755
0.647211 0.855833 0.146944
0.666865 0.855207 0.14696
0.693248 0.854261 0.147143
0.744656 0.852064 0.148699
0.803204 0.848753 0.158328
0.863188 0.84596 0.193347
0.9037 0.844007 0.293278
0.906767 0.842939 0.510231
0.905669 0.844617 0.666789
0.84358 0.851759 0.585245
0.844388 0.851759 0.585397
0.84567 0.851774 0.585611
0.849332 0.851789 0.586313
0.858701 0.851835 0.588434
0.876585 0.851926 0.594766
0.898146 0.851942 0.611902
0.905638 0.851575 0.643977
0.905455 0.85124 0.698207
0.887114 0.851087 0.714992
0.887221 0.851087 0.715007
0.887373 0.851087 0.715023
0.887861 0.851087 0.715084
0.88925 0.851102 0.715251
0.89276 0.851133 0.71574
0.899519 0.851194 0.717205
0.905455 0.851194 0.721126
0.90547 0.851179 0.731456
0 0 0.336706
0 0 0.336858
0 0 0.33695
0.394568 0 0.31899
0.747326 0 0.30222
0.861463 0 0.325338
0.905318 0.399374 0.435523
0.906172 0.750973 0.5561
0.905455 0.819379 0.680461
0 0 0.334508
0 0 0.334707
0.0672618 0 0.332235
0.411139 0 0.315633
0.746166 0 0.299779
0.861448 0 0.322499
0.906554 0.448432 0.431937
0.906157 0.75378 0.55491
0.90547 0.819699 0.680354
0 0.050248 0.33434
0 0.0545815 0.334676
0.10222 0.0483253 0.331868
0.417945 0 0.311299
0.742626 0 0.295857
0.861448 0 0.317174
0.907958 0.513542 0.425864
0.906142 0.758068 0.553017
0.90547 0.820218 0.680186
0.00317388 0.350088 0.304082
0.00314336 0.351904 0.304326
0.0031281 0.353155 0.304952
0.407462 0.357961 0.313512
0.768475 0.349508 0.319005
0.905501 0.42118 0.348302
0.9084 0.642985 0.404105
0.906142 0.769253 0.547677
0.905486 0.821683 0.679667
0.0125582 0.716136 0.215549
0.0125734 0.716136 0.216205
0.0125429 0.715953 0.217182
0.0122988 0.714488 0.219852
0.754788 0.712703 0.237476
0.88806 0.719829 0.270985
0.906783 0.749477 0.352224
0.90631 0.79176 0.533623
0.905516 0.825528 0.678141
0.035111 0.825086 0.00283818
0.0349737 0.824643 0.0027924
0.0347906 0.823896 0.00271611
0.0341802 0.821668 0.00251774
0.744625 0.813138 0
0.865553 0.810483 0.114488
0.907271 0.812222 0.265431
0.906722 0.820356 0.497658
0.905577 0.833692 0.673747
0.662028 0.855299 0.145617
0.679606 0.854704 0.145708
0.703365 0.853819 0.145983
0.748669 0.851743 0.147753
0.805097 0.8486 0.157656
0.863691 0.845884 0.192828
0.903807 0.843961 0.293187
0.906767 0.842908 0.509804
0.905653 0.844617 0.666682
0.844175 0.851774 0.585138
0.844968 0.851774 0.585275
0.846235 0.851774 0.585504
0.849851 0.851789 0.586206
0.859098 0.851835 0.588327
0.876783 0.851926 0.594659
0.898207 0.851942 0.611826
0.905638 0.851575 0.643961
0.905455 0.85124 0.698177
0.88719 0.851087 0.714992
0.887297 0.851087 0.715007
0.887449 0.851087 0.715023
0.887938 0.851087 0.715068
0.889311 0.851102 0.715236
0.892821 0.851133 0.71574
0.899535 0.851194 0.717189
0.905455 0.851194 0.721126
0.90547 0.851179 0.731456
0 0 0.639689
0 0 0.639735
0 0 0.639811
0.225849 0 0.633173
0.738216 0 0.61912
0.861036 0 0.624018
0.890852 0.146593 0.656031
0.905669 0.739773 0.671168
0.905394 0.818112 0.707576
0 0 0.639323
0 0 0.639368
0 0 0.639445
0.253178 0 0.631983
0.741451 0 0.618723
0.861036 0 0.623652
0.900374 0.257832 0.661219
0.905608 0.743206 0.670634
0.905409 0.818448 0.7075
0 0 0.638697
0 0 0.638758
0 0 0.638834
0.29073 0 0.630182
0.74342 0 0.618051
0.861036 0 0.623041
0.905318 0.372229 0.661311
0.905516 0.748318 0.669841
0.905409 0.818998 0.707393
0.000732433 0.18024 0.642512
0.000823987 0.182773 0.642527
0.000946059 0.186053 0.642542
0.324804 0.179263 0.639551
0.762188 0.0771649 0.630106
0.895567 0.193881 0.645609
0.909041 0.574197 0.654856
0.905364 0.761242 0.667735
0.905425 0.820539 0.707042
0.0111849 0.69218 0.618357
0.0112001 0.692378 0.618463
0.0112154 0.692424 0.618585
0.0110781 0.691432 0.61883
0.745968 0.689647 0.622553
0.883391 0.699474 0.627756
0.905882 0.736477 0.636576
0.905348 0.786679 0.663096
0.905455 0.824567 0.706035
0.0412299 0.826047 0.594644
0.0411536 0.825635 0.594751
0.041001 0.824918 0.594919
0.040528 0.822736 0.595453
0.725994 0.812329 0.591424
0.860136 0.80621 0.598505
0.905791 0.80766 0.620218
0.905577 0.817334 0.654353
0.905516 0.83299 0.703319
0.648524 0.854017 0.501213
0.667491 0.853376 0.500832
0.69308 0.852461 0.500359
0.743999 0.850263 0.499977
0.801205 0.846876 0.503685
0.860243 0.843824 0.521324
0.900084 0.841627 0.566552
0.905852 0.841199 0.634562
0.905592 0.84419 0.696345
0.845975 0.851789 0.584787
0.846738 0.851789 0.584939
0.847944 0.851789 0.585153
0.851408 0.851804 0.585855
0.860304 0.85185 0.587991
0.877424 0.851942 0.594354
0.898421 0.851942 0.611582
0.905638 0.851575 0.643915
0.905455 0.85124 0.698085
0.887419 0.851087 0.714961
0.887526 0.851087 0.714977
0.887678 0.851087 0.714992
0.888151 0.851087 0.715053
0.889525 0.851102 0.715221
0.892958 0.851133 0.715724
0.899611 0.851194 0.717174
0.905455 0.851194 0.721096
0.90547 0.851179 0.731456
0 0 0.743832
0 0 0.743847
0 0 0.743862
0 0 0.743877
0.653742 0 0.724285
0.862089 0 0.724392
0.862104 0 0.72491
0.907637 0.691585 0.743725
0.905379 0.814389 0.740688
0 0 0.743801
0 0 0.743801
0 0 0.743801
0 0 0.743832
0.661738 0 0.724025
0.862089 0 0.724346
0.862104 0 0.724849
0.907317 0.697963 0.742855
0.905379 0.814786 0.740627
0 0 0.743725
0 0 0.74374
0 0 0.74374
0 0 0.743755
0.673869 0 0.723613
0.862089 0 0.724269
0.862104 0 0.724788
0.906859 0.70811 0.741573
0.905379 0.815427 0.740551
0 0 0.743511
0 0 0.743526
0 0 0.743526
0 0 0.743343
0.698375 0 0.722774
0.862089 0 0.724025
0.862074 0 0.72369
0.905959 0.732479 0.738567
0.905394 0.817243 0.740322
0.00881971 0.483116 0.743221
0.00886549 0.484657 0.743175
0.00892653 0.48716 0.743084
0.00900282 0.491035 0.742702
0.730846 0.490059 0.744442
0.907958 0.526955 0.749126
0.908156 0.677928 0.740612
0.905257 0.772305 0.733974
0.90544 0.821942 0.739666
0.0404059 0.818036 0.732296
0.0403601 0.817777 0.73225
0.0402533 0.817258 0.732189
0.0398413 0.815213 0.731929
0.64535 0.805356 0.727077
0.852506 0.797162 0.724544
0.903075 0.800443 0.725811
0.905364 0.812833 0.729076
0.905516 0.831388 0.738186
0.468223 0.85478 0.721111
0.510369 0.853758 0.720394
0.565103 0.852369 0.719509
0.6766 0.849104 0.717586
0.778195 0.844221 0.715526
0.849241 0.840665 0.715892
0.893217 0.838911 0.71841
0.905562 0.839582 0.723903
0.905592 0.843488 0.735271
0.839948 0.850721 0.695796
0.840742 0.850721 0.695827
0.841978 0.850736 0.695872
0.845548 0.850752 0.696025
0.854704 0.850828 0.696483
0.872297 0.85098 0.697902
0.893965 0.851179 0.701839
0.905455 0.851209 0.711559
0.90547 0.851179 0.728847
0.888106 0.851087 0.714885
0.888197 0.851102 0.7149
0.88835 0.851102 0.714916
0.888808 0.851102 0.714977
0.890105 0.851118 0.715145
0.893416 0.851148 0.715633
0.899855 0.851194 0.717098
0.905455 0.851194 0.721035
0.90547 0.851179 0.731456
0 0 0.773388
0 0 0.773388
0 0 0.773388
0 0 0.773388
0 0 0.773388
0.852155 0 0.759625
0.862623 0 0.760037
0.862623 0 0.760037
0.905272 0.798383 0.767529
0 0 0.773388
0 0 0.773388
0 0 0.773388
0 0 0.773388
0 0 0.773388
0.852934 0 0.759655
0.862623 0 0.760037
0.862623 0 0.760037
0.905272 0.799115 0.767452
0 0 0.773388
0 0 0.773388
0 0 0.773388
0 0 0.773388
0 0 0.773388
0.8542 0 0.759716
0.862623 0 0.760037
0.862623 0 0.760037
0.905287 0.800275 0.767346
0 0 0.773388
0 0 0.773388
0 0 0.773388
0 0 0.773388
0 0 0.773388
0.857877 0 0.759884
0.862623 0 0.760037
0.862623 0 0.760037
0.905303 0.80354 0.767025
0 0 0.773388
0 0 0.773388
0 0 0.773388
0 0 0.773388
0.304311 0 0.765469
0.862623 0 0.760037
0.862623 0 0.760037
0.910628 0.580697 0.786267
0.905364 0.811627 0.766247
0.0276799 0.755657 0.774594
0.0277256 0.75584 0.774594
0.0277867 0.75613 0.774609
0.027985 0.757046 0.774609
0.0272374 0.753765 0.773678
0.855161 0.745861 0.770291
0.905394 0.760449 0.768841
0.905257 0.794064 0.765988
0.905486 0.826001 0.764782
0.0468605 0.859373 0.771313
0.0468299 0.858961 0.771282
0.0467689 0.85832 0.771221
0.0466316 0.856413 0.771054
0.70341 0.844282 0.76286
0.836912 0.837476 0.760662
0.890211 0.835492 0.761059
0.905577 0.836881 0.761501
0.905608 0.84184 0.76289
0.82359 0.850523 0.756924
0.824659 0.850523 0.756924
0.826322 0.850523 0.756924
0.831067 0.850538 0.756924
0.842939 0.850599 0.75697
0.864744 0.850782 0.757153
0.889525 0.851057 0.757595
0.905516 0.851148 0.758541
0.905516 0.851148 0.760769
0.885801 0.851026 0.750103
0.885893 0.851026 0.750103
0.886046 0.851026 0.750103
0.886503 0.851026 0.750134
0.887831 0.851041 0.750195
0.891203 0.851072 0.750378
0.897765 0.851133 0.750881
0.905303 0.851209 0.752346
0.905516 0.851148 0.755947
0 0.030045 0.77734
0 0.030045 0.77734
0 0.030045 0.77734
0 0.0300603 0.77734
0 0.0301213 0.77734
0 0.0302586 0.77734
0.862623 0 0.760037
0.862623 0 0.760037
0.909865 0.632151 0.786969
0 0.0300145 0.777325
0 0.0300145 0.777325
0 0.0300298 0.77734
0 0.030045 0.77734
0 0.0301061 0.77734
0 0.0302434 0.77734
0.862623 0 0.760037
0.862623 0 0.760037
0.909865 0.63212 0.786969
0 0.029984 0.777325
0 0.029984 0.777325
0 0.0299992 0.77734
0 0.0299992 0.77734
0 0.030045 0.77734
0 0.0301976 0.77734
0.862623 0 0.760037
0.862623 0 0.760037
0.909865 0.63209 0.786969
0 0.0298619 0.777325
0 0.0298466 0.777325
0 0.0298619 0.777325
0 0.0298772 0.777325
0 0.0299382 0.777325
0 0.00689708 0.775662
0.862623 0 0.760037
0.862623 0 0.760037
0.909865 0.631937 0.786984
0 0.0294804 0.777295
0 0.0294804 0.777295
0 0.0294957 0.77731
0 0.0295109 0.77731
0 0.0295567 0.77731
0.341497 0 0.764416
0.862623 0 0.760037
0.862623 0 0.760037
0.90988 0.63151 0.786999
0 0.0282902 0.777234
0 0.0282902 0.777234
0 0.0282902 0.777234
0 0.0283055 0.777234
0 0.0283665 0.777234
0.749401 0 0.756054
0.862623 0 0.760037
0.873671 0.0182956 0.769436
0.905241 0.774334 0.778012
0.044892 0.839689 0.785412
0.044892 0.839719 0.785412
0.044892 0.83975 0.785412
0.0449073 0.839857 0.785412
0.0449531 0.840162 0.785428
0.77171 0.820035 0.776837
0.891325 0.816114 0.776837
0.905425 0.82153 0.776761
0.905531 0.834379 0.776486
0.722469 0.85211 0.776699
0.729854 0.851942 0.776516
0.740383 0.851713 0.776272
0.75996 0.851164 0.775692
0.799359 0.850538 0.774945
0.846845 0.850584 0.774792
0.884703 0.850965 0.774975
0.904845 0.850431 0.775311
0.905684 0.850706 0.775387
0.87985 0.850904 0.773724
0.879973 0.850919 0.773724
0.880186 0.850919 0.773724
0.880812 0.850919 0.773724
0.882551 0.85095 0.773739
0.886915 0.85098 0.77377
0.894911 0.851072 0.773846
0.903563 0.851148 0.773983
0.905531 0.851118 0.774227
0.00384527 0.234775 0.782864
0.00384527 0.234775 0.782864
0.00384527 0.234775 0.782864
0.00384527 0.234791 0.782864
0.00384527 0.234791 0.782864
0.00384527 0.234836 0.782864
0.00384527 0.234943 0.782864
0.901106 0.240482 0.790112
0.908598 0.674678 0.784405
0.00384527 0.234775 0.782864
0.00384527 0.234775 0.782864
0.00384527 0.234775 0.782864
0.00384527 0.234775 0.782864
0.00384527 0.234791 0.782864
0.00384527 0.234821 0.782864
0.00384527 0.234943 0.782864
0.901122 0.240787 0.790112
0.908598 0.674723 0.784405
0.00383001 0.23476 0.782864
0.00383001 0.23476 0.782864
0.00383001 0.23476 0.782864
0.00384527 0.234775 0.782864
0.00384527 0.234775 0.782864
0.00384527 0.234821 0.782864
0.00384527 0.234928 0.782864
0.901152 0.241245 0.790127
0.908598 0.674769 0.784405
0.00383001 0.23473 0.782864
0.00383001 0.23473 0.782864
0.00383001 0.23473 0.782864
0.00383001 0.23473 0.782864
0.00383001 0.23476 0.782864
0.00384527 0.234791 0.782864
0.00384527 0.234897 0.782864
0.901259 0.242679 0.790188
0.908598 0.674968 0.78439
0.00383001 0.234638 0.782864
0.00383001 0.234638 0.782864
0.00383001 0.234638 0.782864
0.00383001 0.234638 0.782864
0.00384527 0.234653 0.782864
0.00384527 0.234684 0.782864
0.381003 0.219516 0.782361
0.901549 0.247059 0.790356
0.908583 0.675532 0.78436
0.00383001 0.234333 0.782864
0.00383001 0.234333 0.782864
0.00383001 0.234333 0.782864
0.00383001 0.234363 0.782864
0.00383001 0.234363 0.782864
0.00381476 0.234394 0.782864
0.778454 0.0375677 0.768444
0.902388 0.260029 0.790799
0.908553 0.676371 0.784298
0.00378424 0.233433 0.782864
0.00378424 0.233433 0.782864
0.00378424 0.233433 0.782864
0.00378424 0.233463 0.782864
0.00378424 0.233463 0.782864
0.00378424 0.233494 0.782864
0.862623 0 0.760037
0.903853 0.285359 0.791485
0.908492 0.677943 0.784192
0.0466468 0.860533 0.78558
0.0466468 0.860533 0.78558
0.0466468 0.860533 0.78558
0.0466468 0.860533 0.78558
0.0466468 0.860533 0.78558
0.0466468 0.860533 0.78558
0.862135 0.844388 0.775921
0.905409 0.843137 0.776349
0.905623 0.845167 0.776257
0.850843 0.850599 0.775494
0.851286 0.850599 0.775494
0.852003 0.850599 0.775494
0.854093 0.850629 0.775509
0.859617 0.850675 0.77557
0.871489 0.850797 0.775677
0.888472 0.85098 0.775845
0.902022 0.851118 0.775982
0.90573 0.851331 0.776181
