BBLuts/BB_101_0300_LUT.cube
TITLE "Generated by Resolve"
LUT_3D_SIZE 9
0.0128786 0.0128786 0.0128786
0.0128786 0.0128786 0.0128786
0.0464027 0.0191501 0.0138857
0.199145 0.0269474 0.0161288
0.705928 0.0353246 0.0353246
1 0.0490883 0.0490883
0.931472 0.410513 0.0234531
0.914626 0.741115 0.399069
0.931258 0.876829 0.775647
0.0166781 0.0205539 0.0146029
0.0178836 0.0214389 0.0150301
0.0479744 0.0246586 0.0142367
0.212436 0.0271153 0.0162203
0.709148 0.0354772 0.0354772
1 0.0490883 0.0490883
0.921141 0.449928 0.0222782
0.914733 0.746242 0.406973
0.931289 0.87747 0.776532
0.0141909 0.105028 0.025864
0.013901 0.108659 0.0262608
0.0630198 0.112383 0.0308385
0.286412 0.128756 0.0151827
0.699748 0.03505 0.03505
0.984894 0.0483253 0.0483253
0.908263 0.499733 0.0210574
0.914931 0.754116 0.418982
0.931334 0.878447 0.777798
0.0198062 0.381994 0.0401007
0.0198215 0.383032 0.0401923
0.019852 0.383673 0.040238
0.268589 0.362478 0.0892195
0.615885 0.375235 0.0173953
0.913161 0.42681 0.0225986
0.898009 0.586892 0.0197299
0.916426 0.77438 0.450401
0.931441 0.881178 0.781308
0.0381628 0.672587 0.1626
0.0381628 0.672587 0.1626
0.0379034 0.672175 0.162173
0.0363775 0.669764 0.159655
0.602792 0.651713 0.206088
0.862272 0.673609 0.187915
0.911208 0.727962 0.228656
0.92221 0.815763 0.518273
0.93315 0.888289 0.7879
0.460761 0.866697 0.348669
0.459403 0.865782 0.347814
0.457069 0.86421 0.346365
0.450187 0.859632 0.342123
0.712459 0.832563 0.481254
0.853483 0.842313 0.402594
0.930571 0.848737 0.391821
0.931609 0.870665 0.606058
0.937133 0.903395 0.803265
0.703517 0.919463 0.544961
0.71368 0.918898 0.546853
0.72871 0.917281 0.550271
0.766766 0.91339 0.566644
0.826932 0.908064 0.60705
0.885237 0.907408 0.605005
0.936477 0.912367 0.600916
0.941695 0.915297 0.735546
0.944854 0.923201 0.837201
0.873732 0.927504 0.774197
0.874861 0.92755 0.775097
0.876585 0.927626 0.77644
0.881605 0.927886 0.780346
0.894545 0.927764 0.795346
0.917845 0.928008 0.818112
0.940307 0.932769 0.820508
0.949416 0.935683 0.834455
0.951675 0.935302 0.868925
0.930785 0.934142 0.874495
0.930922 0.934142 0.87454
0.931136 0.934173 0.874617
0.931792 0.934249 0.874861
0.933593 0.934447 0.875563
0.937911 0.935058 0.876829
0.94551 0.936492 0.878553
0.952316 0.937987 0.88217
0.95407 0.938048 0.888869
0.0129702 0.0136263 0.0142977
0.0129702 0.0136263 0.0142977
0.0388037 0.0190433 0.0223239
0.227771 0.0218204 0.0305333
0.744701 0.0370947 0.0370947
1 0.0500191 0.0500191
0.948989 0.38999 0.0244602
0.91693 0.740627 0.41294
0.931411 0.876753 0.778653
0.0142672 0.0187686 0.0183719
0.0189212 0.0207218 0.0196231
0.0480201 0.0191806 0.0211795
0.232319 0.0217899 0.0251316
0.721431 0.0360418 0.0360418
1 0.049897 0.049897
0.936538 0.437537 0.0229038
0.916762 0.745769 0.420508
0.931426 0.877287 0.779324
0.0151827 0.0959945 0.0246128
0.0148623 0.0989242 0.0250095
0.0709697 0.105989 0.0294804
0.281254 0.120165 0.0149691
0.702068 0.0351568 0.0351568
0.987015 0.0484321 0.0484321
0.920546 0.492576 0.0214237
0.916548 0.753597 0.431891
0.931456 0.878264 0.780621
0.0196994 0.37789 0.0397345
0.0197299 0.378897 0.039826
0.0197452 0.379278 0.0398718
0.274693 0.359533 0.0814374
0.61561 0.371405 0.0174258
0.913802 0.423148 0.0227054
0.897826 0.585168 0.0197452
0.91725 0.774136 0.463752
0.931563 0.881056 0.784253
0.0374304 0.671443 0.161395
0.0373693 0.671336 0.161288
0.0371099 0.670909 0.160845
0.0355077 0.668406 0.158221
0.604379 0.650553 0.202518
0.862257 0.672724 0.186526
0.911116 0.727398 0.227726
0.922194 0.815717 0.52163
0.933227 0.888167 0.790951
0.460182 0.8663 0.348302
0.458824 0.865385 0.347463
0.456672 0.863951 0.34612
0.449592 0.859251 0.341756
0.713481 0.832349 0.481605
0.853788 0.842115 0.402167
0.930541 0.84863 0.391806
0.931594 0.870542 0.605753
0.937118 0.903288 0.803433
0.704967 0.919402 0.545037
0.715068 0.91873 0.546975
0.729992 0.917067 0.550759
0.767865 0.913375 0.567254
0.827329 0.90808 0.607279
0.885267 0.907317 0.604471
0.936553 0.912367 0.600824
0.941695 0.915297 0.735546
0.944823 0.923095 0.837095
0.873884 0.927504 0.774304
0.875013 0.927565 0.775204
0.876738 0.927642 0.776547
0.881758 0.927886 0.780468
0.894697 0.927764 0.795514
0.917906 0.928008 0.818158
0.940383 0.932784 0.820462
0.949416 0.935683 0.834455
0.951675 0.935302 0.868925
0.930785 0.934142 0.874495
0.930922 0.934142 0.87454
0.931136 0.934173 0.874617
0.931792 0.934249 0.874861
0.933593 0.934447 0.875563
0.937911 0.935058 0.876829
0.94551 0.936492 0.878553
0.952316 0.937987 0.88217
0.95407 0.938048 0.888869
0.013962 0.0137026 0.0225986
0.0139773 0.0137026 0.0226291
0.0297093 0.0195315 0.0355077
0.185824 0.038529 0.10338
0.696117 0.0340581 0.161639
1 0.0478828 0.1823
0.98114 0.33933 0.135988
0.921279 0.739406 0.435874
0.932006 0.876448 0.78294
0.0137636 0.0137026 0.022034
0.0137789 0.0137026 0.0220951
0.0340734 0.0202487 0.0379339
0.184497 0.0382696 0.101167
0.707591 0.0345922 0.156008
1 0.0482185 0.172641
0.965759 0.401266 0.0988632
0.920638 0.744717 0.442557
0.932006 0.877104 0.78378
0.01355 0.0820325 0.0963455
0.0134585 0.0842145 0.0974594
0.0522164 0.089601 0.103685
0.300526 0.0843366 0.121782
0.725185 0.0354314 0.141176
1 0.049134 0.130175
0.946838 0.471824 0.0515145
0.919692 0.753063 0.452964
0.932006 0.87808 0.785
0.0190127 0.366171 0.0782788
0.0190433 0.367453 0.0790112
0.0190433 0.368002 0.0799573
0.273335 0.348135 0.114229
0.614984 0.361898 0.0187839
0.932815 0.40528 0.023621
0.912032 0.581277 0.0378882
0.918715 0.774151 0.483146
0.932021 0.880873 0.788632
0.0358434 0.668925 0.15877
0.0357824 0.668818 0.158663
0.0355077 0.668406 0.158221
0.0339208 0.665904 0.155581
0.605447 0.648112 0.197467
0.861631 0.670573 0.183536
0.910369 0.725811 0.233997
0.921996 0.81622 0.543709
0.93344 0.888045 0.795605
0.459403 0.865782 0.347814
0.458045 0.864866 0.346975
0.455894 0.863432 0.345632
0.448814 0.858717 0.341268
0.714977 0.832029 0.482063
0.8542 0.841932 0.40174
0.930495 0.848386 0.391775
0.931594 0.870542 0.605524
0.937224 0.903136 0.808408
0.707424 0.91928 0.545403
0.717296 0.918425 0.547066
0.732128 0.916808 0.551598
0.769345 0.9131 0.567727
0.827893 0.907973 0.607385
0.885435 0.907347 0.604013
0.936584 0.912276 0.600549
0.941695 0.915297 0.735439
0.944808 0.923095 0.837064
0.874189 0.92752 0.774533
0.875242 0.927565 0.775341
0.876966 0.927642 0.776715
0.881987 0.927901 0.780636
0.89485 0.927749 0.795666
0.917983 0.928008 0.818219
0.940383 0.932784 0.820417
0.949416 0.935683 0.834455
0.951675 0.935302 0.868925
0.930861 0.934142 0.87451
0.930999 0.934157 0.874571
0.931212 0.934173 0.874647
0.931792 0.934249 0.874861
0.933669 0.934447 0.875593
0.937911 0.935058 0.876799
0.94551 0.936492 0.878553
0.952316 0.937987 0.88217
0.95407 0.938048 0.888869
0.0208591 0.0196994 0.0584878
0.0208743 0.0196994 0.0585336
0.0208896 0.0197147 0.0585794
0.172427 0.0449683 0.204227
0.59469 0.062562 0.349798
0.87158 0.041886 0.402716
0.904418 0.326329 0.422919
0.934325 0.728969 0.515816
0.933974 0.875837 0.794049
0.0205997 0.0196536 0.0578317
0.0206149 0.0196689 0.0578775
0.0249027 0.0203555 0.068925
0.185626 0.0471504 0.209979
0.592752 0.0618906 0.347555
0.872038 0.0419165 0.400793
0.921798 0.367208 0.414664
0.933379 0.735393 0.517723
0.933974 0.876387 0.794675
0.0204166 0.0325017 0.0991073
0.0200504 0.0346685 0.105211
0.0298772 0.0345006 0.117708
0.19086 0.0482185 0.210819
0.586053 0.0617838 0.34313
0.872938 0.0419318 0.396979
0.948791 0.421378 0.396612
0.931899 0.745251 0.521004
0.933974 0.877379 0.795804
0.0175631 0.328023 0.323171
0.0175937 0.329763 0.3234
0.0176089 0.330831 0.323903
0.247395 0.320424 0.314656
0.645258 0.294026 0.311971
0.962402 0.305547 0.320623
0.951644 0.544564 0.325917
0.92813 0.770245 0.534005
0.933989 0.880369 0.799298
0.030518 0.659403 0.315206
0.0305638 0.659434 0.31577
0.0302892 0.65919 0.316457
0.0281376 0.657115 0.317449
0.601923 0.639185 0.366323
0.859541 0.668528 0.30193
0.914733 0.727245 0.375174
0.924178 0.815946 0.590738
0.935363 0.887526 0.806394
0.457252 0.864347 0.346487
0.455894 0.863432 0.345632
0.453544 0.86186 0.344182
0.446632 0.857282 0.339925
0.713756 0.830594 0.480964
0.852232 0.839429 0.429313
0.927443 0.848692 0.523293
0.930678 0.871489 0.666194
0.938689 0.90277 0.819913
0.714656 0.918471 0.546059
0.724178 0.917647 0.548424
0.738354 0.915938 0.553475
0.773983 0.912566 0.57023
0.829496 0.907668 0.607691
0.885939 0.907347 0.602533
0.936706 0.9122 0.600076
0.941665 0.91519 0.735073
0.944808 0.923095 0.837018
0.875029 0.927535 0.775128
0.876081 0.927581 0.775937
0.877821 0.927672 0.777295
0.882689 0.927886 0.781247
0.89546 0.927733 0.796353
0.918257 0.928008 0.818372
0.940444 0.932799 0.82031
0.949416 0.935683 0.834455
0.951675 0.935302 0.86891
0.930922 0.934142 0.87454
0.931075 0.934157 0.874586
0.931289 0.934188 0.874678
0.931945 0.934264 0.874922
0.933745 0.934462 0.875608
0.937972 0.935058 0.876814
0.945571 0.936492 0.878569
0.952316 0.937987 0.88217
0.95407 0.938048 0.888869
0.0245975 0.035874 0.24036
0.0245975 0.035874 0.240482
0.0245823 0.0359045 0.240604
0.060853 0.0440681 0.378698
0.547021 0.127626 0.582681
0.79942 0.113481 0.625818
0.802472 0.194064 0.632319
0.91986 0.706676 0.734295
0.937896 0.874296 0.817655
0.0246433 0.0357671 0.239597
0.0246433 0.0357671 0.239597
0.0246281 0.0357977 0.239857
0.075761 0.0456092 0.402853
0.551843 0.128771 0.582727
0.799588 0.1131 0.625208
0.814633 0.271473 0.632334
0.923339 0.712657 0.733684
0.937835 0.875044 0.81799
0.0247044 0.0355688 0.238209
0.0246891 0.035584 0.238331
0.0246891 0.0356298 0.23859
0.100435 0.0477607 0.433188
0.554803 0.129458 0.581903
0.799954 0.112306 0.624002
0.832273 0.362158 0.637919
0.928481 0.721492 0.732677
0.937743 0.876265 0.818524
0.017792 0.18468 0.556283
0.0178073 0.187304 0.557534
0.0178378 0.190707 0.55903
0.099443 0.185611 0.573846
0.555138 0.164218 0.57499
0.813107 0.216358 0.610727
0.867887 0.514885 0.656733
0.937804 0.746822 0.725689
0.937469 0.879591 0.819989
0.0247349 0.622309 0.629862
0.0247501 0.622629 0.63006
0.0247501 0.622736 0.630289
0.0247044 0.621118 0.630213
0.572366 0.610834 0.62089
0.865461 0.625208 0.635859
0.940017 0.690776 0.65626
0.937011 0.805646 0.710903
0.937606 0.887449 0.825925
0.481041 0.860471 0.673732
0.479576 0.859571 0.673289
0.477073 0.85803 0.672663
0.469673 0.853529 0.670787
0.662333 0.838544 0.672236
0.843519 0.837263 0.710735
0.927474 0.850217 0.704784
0.930877 0.871229 0.765011
0.939727 0.902174 0.841398
0.712489 0.919371 0.673426
0.72015 0.918883 0.674586
0.731426 0.917891 0.676371
0.758007 0.916533 0.680552
0.811521 0.914061 0.695415
0.885908 0.908629 0.762997
0.932799 0.912093 0.763455
0.941543 0.916457 0.805676
0.94641 0.922393 0.856245
0.877485 0.927611 0.776837
0.878538 0.927657 0.777661
0.880186 0.927733 0.778973
0.88484 0.92781 0.783627
0.897078 0.927672 0.798108
0.919005 0.927993 0.818906
0.940719 0.93286 0.819944
0.949416 0.935683 0.834424
0.951675 0.935302 0.868879
0.931212 0.934173 0.874617
0.93135 0.934188 0.874678
0.931579 0.934218 0.874769
0.932219 0.934279 0.875029
0.933959 0.934462 0.875669
0.938155 0.935088 0.876844
0.945632 0.936507 0.878569
0.952316 0.937987 0.882139
0.95407 0.938048 0.888869
0.0243992 0.0355993 0.728954
0.0243992 0.0355993 0.728954
0.0243992 0.0355993 0.728954
0.0244144 0.035584 0.729305
0.36994 0.111879 0.882643
0.79173 0.141299 0.867735
0.791791 0.141176 0.86923
0.863157 0.644404 0.822507
0.93637 0.868955 0.861418
0.0243839 0.0356146 0.728603
0.0243839 0.0356146 0.728603
0.0243839 0.0356146 0.728603
0.0243992 0.0355993 0.728954
0.383307 0.11339 0.882994
0.79173 0.141299 0.867735
0.791791 0.141192 0.869078
0.866255 0.656199 0.823087
0.936599 0.869703 0.861509
0.0243839 0.0356298 0.728237
0.0243839 0.0356298 0.728237
0.0243839 0.0356298 0.728237
0.0243839 0.0356298 0.728237
0.403204 0.11574 0.882826
0.791714 0.141329 0.86743
0.791775 0.141207 0.868925
0.871 0.673533 0.824018
0.937011 0.870832 0.861524
0.0243381 0.0356909 0.726833
0.0243381 0.0356909 0.726833
0.0243381 0.0356909 0.726833
0.0243076 0.0357366 0.72578
0.442878 0.120912 0.882704
0.791699 0.141375 0.866835
0.791669 0.141466 0.865934
0.883391 0.715938 0.826825
0.938155 0.874296 0.861753
0.0230106 0.46276 0.851606
0.0230259 0.463996 0.851453
0.0230411 0.465919 0.851408
0.0230716 0.468894 0.850523
0.451942 0.462425 0.839719
0.825345 0.50425 0.818814
0.857893 0.624811 0.813825
0.907988 0.788968 0.837095
0.941039 0.883146 0.862074
0.48011 0.847227 0.839811
0.47921 0.846754 0.839734
0.477134 0.845685 0.83949
0.469474 0.841749 0.838636
0.603693 0.825635 0.830411
0.825437 0.826429 0.833494
0.929992 0.838529 0.837598
0.938888 0.86389 0.844633
0.943709 0.90161 0.868788
0.67776 0.919814 0.847807
0.687251 0.91902 0.847913
0.70074 0.917723 0.847562
0.735042 0.915816 0.847791
0.79617 0.913252 0.850019
0.870176 0.911543 0.855283
0.926604 0.912871 0.86392
0.944411 0.916609 0.867628
0.949264 0.924025 0.880858
0.873487 0.929335 0.849638
0.874372 0.929442 0.849836
0.875837 0.929625 0.850111
0.879927 0.930159 0.850965
0.890517 0.930678 0.852949
0.910597 0.932097 0.857801
0.939147 0.933349 0.871687
0.95172 0.936385 0.876005
0.953628 0.938033 0.887175
0.932143 0.934249 0.874937
0.932219 0.934264 0.874968
0.932433 0.934279 0.875044
0.933089 0.934356 0.875288
0.934752 0.934539 0.875929
0.938643 0.935149 0.87686
0.945937 0.936538 0.878569
0.9523 0.937987 0.882109
0.95407 0.938048 0.888869
0.0270237 0.0281071 0.80589
0.0270237 0.0281071 0.80589
0.0270237 0.0281071 0.80589
0.0270237 0.0281071 0.80589
0.0270237 0.0281071 0.80589
0.781552 0.137697 0.936294
0.789944 0.1355 0.93611
0.789944 0.1355 0.93611
0.918639 0.843976 0.889921
0.0270237 0.0281071 0.80589
0.0270237 0.0281071 0.80589
0.0270237 0.0281071 0.80589
0.0270237 0.0281071 0.80589
0.0270237 0.0281071 0.80589
0.782208 0.13753 0.936278
0.789944 0.1355 0.93611
0.789944 0.1355 0.93611
0.919051 0.845335 0.889982
0.0270237 0.0281071 0.80589
0.0270237 0.0281071 0.80589
0.0270237 0.0281071 0.80589
0.0270237 0.0281071 0.80589
0.0270237 0.0281071 0.80589
0.783246 0.137255 0.936263
0.789944 0.1355 0.93611
0.789944 0.1355 0.93611
0.919692 0.84744 0.89012
0.0270237 0.0281071 0.80589
0.0270237 0.0281071 0.80589
0.0270237 0.0281071 0.80589
0.0270237 0.0281071 0.80589
0.0270237 0.0281071 0.80589
0.786221 0.136477 0.936202
0.789944 0.1355 0.93611
0.789944 0.1355 0.93611
0.921584 0.85359 0.890364
0.0270237 0.0281071 0.80589
0.0270237 0.0281071 0.80589
0.0270237 0.0281071 0.80589
0.0270237 0.0281071 0.80589
0.0283055 0.046128 0.899397
0.789944 0.1355 0.93611
0.789944 0.1355 0.93611
0.831189 0.546166 0.9037
0.926421 0.868666 0.891737
0.0796979 0.7467 0.907607
0.081239 0.747005 0.90753
0.0839704 0.747478 0.907301
0.0912947 0.748882 0.906844
0.0667124 0.743297 0.906538
0.76788 0.740398 0.886015
0.895979 0.7738 0.883604
0.916304 0.835294 0.886519
0.93637 0.895033 0.895888
0.666529 0.928832 0.90103
0.664561 0.928054 0.900816
0.661479 0.926833 0.900511
0.652506 0.923278 0.899626
0.74696 0.910262 0.892882
0.854185 0.90692 0.892454
0.920165 0.909163 0.895506
0.946349 0.914275 0.897063
0.94992 0.922759 0.902281
0.86363 0.930434 0.89575
0.864729 0.93048 0.895888
0.866407 0.930541 0.896132
0.871321 0.930739 0.896803
0.883925 0.931807 0.897642
0.907256 0.933455 0.90016
0.936156 0.93698 0.903059
0.956313 0.93785 0.906355
0.956756 0.937881 0.907835
0.930571 0.935576 0.897261
0.930709 0.935576 0.897276
0.930892 0.935592 0.897307
0.931395 0.935592 0.897398
0.932891 0.935637 0.897673
0.936751 0.93576 0.898421
0.945235 0.936736 0.899931
0.955108 0.937758 0.902266
0.955825 0.937804 0.904677
0.0271 0.0442817 0.851118
0.0271 0.0442817 0.851118
0.0271 0.0442817 0.851118
0.0271 0.0442817 0.851118
0.0271 0.0443427 0.851255
0.0271 0.0444038 0.851377
0.789944 0.1355 0.93611
0.789944 0.1355 0.93611
0.839582 0.587991 0.906142
0.0271 0.0442817 0.851118
0.0271 0.0442817 0.851118
0.0271 0.0442817 0.851118
0.0271 0.0442817 0.851118
0.0271 0.0443427 0.851255
0.0271 0.0444038 0.851377
0.789944 0.1355 0.93611
0.789944 0.1355 0.93611
0.839551 0.5879 0.906142
0.0271 0.0442817 0.851118
0.0271 0.0442817 0.851118
0.0271 0.0442817 0.851118
0.0271 0.0442817 0.851118
0.0271 0.0442817 0.851118
0.0271 0.0444038 0.851377
0.789944 0.1355 0.93611
0.789944 0.1355 0.93611
0.839551 0.5879 0.906142
0.0271 0.0442359 0.850996
0.0271153 0.0441749 0.850874
0.0271 0.0442359 0.850996
0.0271 0.0442359 0.850996
0.0271 0.0442359 0.850996
0.0271611 0.0338903 0.826307
0.789944 0.1355 0.93611
0.789944 0.1355 0.93611
0.839536 0.587808 0.906157
0.0271153 0.044007 0.850507
0.0271153 0.044007 0.850507
0.0271153 0.044007 0.850507
0.0271153 0.044007 0.850507
0.0271153 0.0440681 0.850629
0.0281529 0.0518044 0.908217
0.789944 0.1355 0.93611
0.789944 0.1355 0.93611
0.839414 0.587335 0.906188
0.0271153 0.0434119 0.849165
0.0271153 0.0434119 0.849165
0.0271153 0.0434119 0.849165
0.0271153 0.0434119 0.849165
0.0271153 0.0434577 0.849287
0.521721 0.148333 0.93576
0.789944 0.1355 0.93611
0.790311 0.146975 0.935302
0.902876 0.801938 0.900938
0.575158 0.894713 0.915114
0.575433 0.89482 0.915129
0.575433 0.89482 0.915129
0.575998 0.895018 0.915145
0.577386 0.895537 0.915175
0.740063 0.872572 0.902937
0.904707 0.876661 0.906386
0.931197 0.889738 0.907744
0.941436 0.912917 0.91194
0.785946 0.928023 0.913512
0.789624 0.928038 0.913436
0.795193 0.928069 0.913252
0.81117 0.929458 0.912978
0.844236 0.930739 0.913481
0.891234 0.933379 0.915496
0.931899 0.937041 0.916793
0.955016 0.938933 0.917113
0.956146 0.939605 0.917296
0.926421 0.936126 0.9149
0.926543 0.936141 0.914916
0.926787 0.936187 0.914961
0.927459 0.936294 0.915068
0.929412 0.936629 0.915358
0.934234 0.937423 0.916091
0.943603 0.938674 0.916747
0.954299 0.939727 0.91664
0.956481 0.939986 0.916808
0.0231785 0.256825 0.921309
0.0231785 0.256825 0.921309
0.0231785 0.256825 0.921309
0.0231785 0.256825 0.921309
0.0231785 0.256825 0.921309
0.0231785 0.256825 0.921309
0.0231785 0.256962 0.921324
0.795468 0.277897 0.928664
0.851743 0.632776 0.902571
0.0231785 0.256825 0.921309
0.0231785 0.256825 0.921309
0.0231785 0.256825 0.921309
0.0231785 0.256825 0.921309
0.0231785 0.256825 0.921309
0.0231785 0.256825 0.921309
0.0231785 0.256962 0.921324
0.795483 0.278111 0.928649
0.851774 0.632883 0.902556
0.0231785 0.256825 0.921309
0.0231785 0.256825 0.921309
0.0231785 0.256825 0.921309
0.0231785 0.256825 0.921309
0.0231785 0.256825 0.921309
0.0231785 0.256825 0.921309
0.0231785 0.256962 0.921324
0.795514 0.278553 0.928634
0.851774 0.632883 0.902556
0.0231785 0.256825 0.921309
0.0231785 0.256825 0.921309
0.0231785 0.256825 0.921309
0.0231785 0.256825 0.921309
0.0231785 0.256825 0.921309
0.0231785 0.256825 0.921309
0.0231785 0.256962 0.921324
0.79559 0.279515 0.928603
0.851835 0.633066 0.902556
0.0231785 0.256687 0.921309
0.0231785 0.256687 0.921309
0.0231785 0.256687 0.921309
0.0231785 0.256687 0.921309
0.0231785 0.256687 0.921309
0.0231785 0.256687 0.921309
0.0233463 0.24123 0.925338
0.79585 0.28275 0.928481
0.852018 0.633768 0.902525
0.0231785 0.256397 0.921309
0.0231785 0.256397 0.921309
0.0231785 0.256397 0.921309
0.0231785 0.256397 0.921309
0.0231785 0.256397 0.921309
0.0231785 0.256397 0.921309
0.547082 0.169085 0.93521
0.796536 0.29308 0.92813
0.852308 0.63476 0.90248
0.0231785 0.255421 0.921294
0.0231785 0.255421 0.921294
0.0231785 0.255421 0.921294
0.0231785 0.255421 0.921294
0.0231785 0.255421 0.921294
0.0231785 0.255558 0.921309
0.789944 0.1355 0.93611
0.797925 0.314076 0.927428
0.852811 0.63653 0.902403
0.678721 0.931197 0.919707
0.678721 0.931197 0.919707
0.678721 0.931197 0.919707
0.678721 0.931197 0.919707
0.678721 0.931197 0.919707
0.678721 0.931197 0.919707
0.897154 0.924102 0.912856
0.949203 0.927474 0.914992
0.95111 0.930846 0.91574
0.895567 0.9337 0.916259
0.89604 0.933761 0.916259
0.896803 0.933883 0.916243
0.899016 0.934234 0.916228
0.90486 0.935149 0.916167
0.917632 0.935653 0.916091
0.936065 0.937758 0.917952
0.952407 0.939788 0.917922
0.956436 0.94023 0.9178
