BBLuts/BB_102_0580_LUT.cube
TITLE "Generated by Resolve"
LUT_3D_SIZE 5
0 0 0
0.152163 0 0
0.730724 0 0
0.942763 0.456641 0.0529488
0.889143 0.981506 0.609689
0 0.165927 0
0.110033 0.168963 0
0.730541 0.0457313 0
0.934051 0.538766 0.00675975
0.88893 0.983337 0.608774
0 0.770947 0
0 0.770413 0
0.601526 0.76022 0
0.903365 0.823758 0
0.887587 0.995117 0.602228
0.418219 1 0.0660868
0.468406 1 0.0688792
0.657267 1 0.0890974
0.873625 1 0.228824
0.883009 1 0.623926
0.842573 1 0.7187
0.843137 1 0.718761
0.847166 1 0.719219
0.869123 1 0.723171
0.882048 1 0.752422
0 0 0.14464
0.131289 0 0.145876
0.730907 0 0.154162
0.945312 0.438605 0.217304
0.889296 0.98114 0.627665
0 0.130144 0.116258
0.120394 0.126772 0.112932
0.731975 0 0.138384
0.93608 0.525811 0.19202
0.889097 0.983001 0.626841
0 0.766415 0
0 0.76582 0
0.607996 0.755718 0
0.903609 0.8215 0
0.887739 0.994888 0.620905
0.426444 1 0.0656596
0.474937 1 0.0684672
0.659373 1 0.0887312
0.873777 1 0.228779
0.883024 1 0.623835
0.842649 1 0.7187
0.843229 1 0.718761
0.847242 1 0.719203
0.869154 1 0.723156
0.882048 1 0.752422
0 0 0.668528
0 0 0.668757
0.74078 0 0.670283
0.976486 0.1552 0.677409
0.890181 0.97818 0.709514
0 0 0.666667
0 0 0.666926
0.751064 0 0.668391
0.954665 0.373495 0.653513
0.889952 0.980163 0.708965
0 0.707378 0.562539
0 0.707851 0.562799
0.593851 0.699168 0.568399
0.909682 0.793347 0.586007
0.888518 0.992844 0.705165
0.430884 1 0.395178
0.477638 1 0.396429
0.65742 1 0.405051
0.869596 1 0.468482
0.883436 1 0.682017
0.843305 1 0.718639
0.843854 1 0.7187
0.847791 1 0.719142
0.869368 1 0.72311
0.882048 1 0.752422
0 0 0.937972
0 0 0.937972
0 0 0.937972
0.995895 0 0.946395
0.895918 0.934325 0.835691
0 0 0.937972
0 0 0.937972
0 0 0.937972
0.995895 0 0.946395
0.89543 0.938628 0.834974
0 0 0.937972
0 0 0.937972
0.309712 0 0.940093
0.995895 0 0.946395
0.892531 0.964508 0.83064
0 1 0.80972
0 1 0.809827
0.495979 1 0.812375
0.853544 1 0.815473
0.884825 1 0.818112
0.840192 1 0.790585
0.840711 1 0.790616
0.844556 1 0.790753
0.865766 1 0.792142
0.882353 1 0.802548
0 0.255482 0.914549
0 0.255482 0.914549
0 0.255497 0.914549
0 0.25565 0.914534
0.925124 0.669764 0.882124
0 0.255467 0.914565
0 0.255467 0.914565
0 0.255482 0.914549
0 0.255634 0.914549
0.925109 0.669917 0.882109
0 0.255329 0.914565
0 0.255329 0.914565
0 0.255344 0.914565
0.318776 0.235416 0.91809
0.924987 0.671031 0.882002
0 0.254093 0.914672
0 0.254093 0.914672
0 0.254108 0.914672
0.995895 0 0.946395
0.92459 0.674601 0.881651
0.765484 1 0.842283
0.767987 1 0.842298
0.784298 1 0.842405
0.84625 1 0.842802
0.882612 1 0.843046
