BBLuts/BB_103_0050_LUT.cube
TITLE "Generated by Resolve"
LUT_3D_SIZE 33
0.00015259 0.00114443 0.000137331
0.00015259 0.00114443 0.000137331
0.00015259 0.00114443 0.000137331
0.00015259 0.00114443 0.000137331
0.00529488 0.000976577 0
0.0633402 0 0
0.126619 0 0
0.173938 0 0
0.222293 0 0
0.278141 0 0
0.341833 0 0
0.408988 0 0
0.483345 0 0
0.569757 0 0
0.672175 0 0
0.78439 0 0
0.900847 0 0
1 0 0
1 0 0
1 0 0
1 0 0
1 0 0
1 0.302098 0
1 0.501564 0.024033
1 0.65922 0.0719158
1 0.802762 0.130053
1 0.933608 0.199588
1 1 0.287068
1 1 0.392386
1 1 0.504784
1 1 0.621927
1 1 0.740383
1 1 0.848356
0.00015259 0.00114443 0.000137331
0.00015259 0.00114443 0.000137331
0.00015259 0.00114443 0.000137331
0.00015259 0.00114443 0.000137331
0.00590524 0.000961318 0
0.0751659 0 0
0.130632 0 0
0.177264 0 0
0.227619 0 0
0.284245 0 0
0.348074 0 0
0.413642 0 0
0.484871 0 0
0.571572 0 0
0.67393 0 0
0.785489 0 0
0.901793 0 0
1 0 0
1 0 0
1 0 0
1 0 0
1 0.00547799 0
1 0.334081 0
1 0.516655 0.00970474
1 0.668223 0.0680552
1 0.80882 0.128069
1 0.93695 0.198932
1 1 0.286946
1 1 0.392065
1 1 0.504585
1 1 0.621836
1 1 0.740307
1 1 0.848325
0.00015259 0.00114443 0.000137331
0.00015259 0.00114443 0.000137331
0.000137331 0.00117494 0.000137331
0.000183108 0.00131228 0.000137331
0.00585946 0.00125124 0
0.0813764 0 0
0.131151 0 0
0.179873 0 0
0.232624 0 0
0.288518 0 0
0.350713 0 0
0.414725 0 0
0.486915 0 0
0.573831 0 0
0.675685 0 0
0.787015 0 0
0.902296 0 0
1 0 0
1 0 0
1 0 0
1 0 0
1 0.0838941 0
1 0.365499 0
1 0.530495 0.000564584
1 0.67689 0.0645304
1 0.814237 0.126314
1 0.940047 0.198352
1 1 0.286839
1 1 0.391775
1 1 0.504402
1 1 0.621714
1 1 0.74023
1 1 0.848295
0 0.00260929 0.000122072
0 0.00268559 0.000122072
0 0.00311284 0.000122072
0.00030518 0.00982681 4.57771e-05
0.0255283 0.0149386 0
0.0826886 0.00213626 0
0.128374 0.00131228 0
0.176959 0.000610361 0
0.230732 0 0
0.289586 0 0
0.353216 0 0
0.416693 0 0
0.489403 0 0
0.576135 0 0
0.677485 0 0
0.788144 0 0
0.903258 0 0
1 0 0
1 0 0
1 0 0
1 0 0
1 0.1691 0
1 0.390402 0
1 0.542199 0
1 0.684367 0.0615244
1 0.819089 0.124727
1 0.942931 0.197787
1 1 0.286717
1 1 0.391485
1 1 0.504204
1 1 0.621592
1 1 0.740169
1 1 0.848249
0 0.0655833 0
0 0.0691234 0
0 0.0725719 0
0 0.0759594 0
0 0.0773632 0
0.0641031 0.0757916 0
0.116152 0.0729534 0
0.167956 0.0665751 0
0.225223 0.0524453 0
0.289296 0.00567636 0
0.354269 0.000686656 0
0.418814 0 0
0.491798 0 0
0.578485 0 0
0.679774 0 0
0.789746 0 0
0.904204 0 0
1 0 0
1 0 0
1 0 0
1 0 0
1 0.21825 0
1 0.411215 0
1 0.55465 0
1 0.692302 0.0576181
1 0.824109 0.122942
1 0.945678 0.197269
1 1 0.286625
1 1 0.391196
1 1 0.504036
1 1 0.6215
1 1 0.740093
1 1 0.848219
0 0.105776 0
0 0.108659 0
0 0.111666 0
0 0.114 0
0 0.11519 0
0.0367285 0.114687 0
0.101396 0.113588 0
0.158099 0.110918 0
0.218036 0.105516 0
0.282673 0.0948959 0
0.350271 0.0743114 0
0.419577 0.0109102 0
0.493812 0.00314336 0
0.581018 0 0
0.68191 0 0
0.791104 0 0
0.905272 0 0
1 0 0
1 0 0
1 0 0
1 0.0138552 0
1 0.25861 0
1 0.429007 0
1 0.565393 0
1 0.699702 0.0538949
1 0.829282 0.120958
1 0.948745 0.196674
1 1 0.286519
1 1 0.390921
1 1 0.503838
1 1 0.621378
1 1 0.740032
1 1 0.848173
0 0.148531 0
0 0.151003 0
0 0.153414 0
0 0.154894 0
0 0.155947 0
0 0.156283 0
0.0732738 0.155612 0
0.14313 0.154406 0
0.207706 0.151553 0
0.275624 0.145769 0
0.345022 0.135164 0
0.414649 0.118059 0
0.49218 0.0862135 0
0.583322 0.0135195 0
0.684535 0.00210575 0
0.79321 0 0
0.906081 0 0
1 0 0
1 0 0
1 0 0
1 0.089189 0
1 0.298558 0
1 0.448661 0
1 0.578073 0
1 0.707835 0.0498207
1 0.835126 0.118715
1 0.952407 0.195956
1 1 0.286427
1 1 0.390585
1 1 0.503639
1 1 0.621241
1 1 0.739956
1 1 0.848127
0 0.197772 0
0 0.199939 0
0 0.201556 0
0 0.202808 0
0 0.203555 0
0 0.204227 0
0.013138 0.204028 0
0.11249 0.203601 0
0.190723 0.201984 0
0.2636 0.198444 0
0.336843 0.191165 0
0.410101 0.180636 0
0.48957 0.164996 0
0.580575 0.139025 0
0.684413 0.0851301 0
0.794736 0.0179141 0
0.907195 0.00894179 0
1 0 0
1 0 0
1 0.0421149 0
1 0.187854 0
1 0.344991 0
1 0.474083 0
1 0.595285 0
1 0.719493 0.0416114
1 0.842863 0.11574
1 0.957305 0.19501
1 1 0.28629
1 1 0.390066
1 1 0.503319
1 1 0.621057
1 1 0.739834
1 1 0.848066
0 0.255344 0
0 0.256947 0
0 0.258045 0
0 0.258915 0
0 0.259556 0
0 0.260227 0
0 0.260517 0
0.0583505 0.260105 0
0.158175 0.258778 0
0.242756 0.255909 0
0.322713 0.251225 0
0.401785 0.244099 0
0.485664 0.234043 0
0.579614 0.218585 0
0.682475 0.197147 0
0.791333 0.167407 0
0.904372 0.123613 0
1 0.0372625 0
1 0.0459602 0
1 0.159915 0
1 0.280171 0
1 0.396033 0
1 0.505409 0
1 0.617639 0
1 0.734981 0.029099
1 0.853956 0.111208
1 0.963821 0.193744
1 1 0.286107
1 1 0.389349
1 1 0.502846
1 1 0.620783
1 1 0.739666
1 1 0.847959
0 0.319127 0
0 0.31986 0
0 0.320317 0
0 0.320699 0
0 0.321248 0
0 0.321324 0
0 0.321263 0
0 0.320882 0
0.0938888 0.320089 0
0.208026 0.318502 0
0.300145 0.315724 0
0.387335 0.311025 0
0.477531 0.303899 0
0.576699 0.293202 0
0.681498 0.280766 0
0.789212 0.266224 0
0.899947 0.251164 0
1 0.239277 0
1 0.247181 0
1 0.290776 0
1 0.363836 0
1 0.450462 0
1 0.544778 0
1 0.646113 0
1 0.755337 0.0127565
1 0.868742 0.105013
1 0.972976 0.191989
1 1 0.285863
1 1 0.388388
1 1 0.50219
1 1 0.620279
1 1 0.739422
1 1 0.847822
0 0.386999 0
0 0.387717 0
0 0.388174 0
0 0.38854 0
0 0.3888 0
0 0.388983 0
0 0.38909 0
0 0.389334 0
0 0.388907 0
0.133974 0.388128 0
0.262974 0.386999 0
0.363592 0.384298 0
0.461921 0.3794 0
0.568597 0.372122 0
0.678325 0.364294 0
0.787579 0.35613 0
0.89691 0.34934 0
1 0.346822 0
1 0.357916 0
1 0.391119 0
1 0.443336 0
1 0.511498 0
1 0.592065 0
1 0.682628 0
1 0.780682 0
1 0.887999 0.097673
1 0.985061 0.18967
1 1 0.285618
1 1 0.387106
1 1 0.501289
1 1 0.619638
1 1 0.738979
1 1 0.847639
0 0.462226 0
0 0.462531 0
0 0.462943 0
0 0.46363 0
0 0.463905 0
0 0.464118 0
0 0.464302 0
0 0.464408 0
0 0.464302 0
0.00299077 0.464317 0
0.185824 0.464012 0
0.323919 0.463142 0
0.435416 0.460853 0
0.551446 0.45687 0
0.668437 0.451652 0
0.782254 0.446891 0
0.892882 0.444709 0
1 0.446418 0
1 0.457816 0
1 0.483452 0
1 0.52398 0
1 0.579217 0
1 0.647562 0
1 0.727092 0
1 0.81529 0
1 0.911894 0.0893721
1 1 0.18674
1 1 0.285389
1 1 0.386694
1 1 0.50013
1 1 0.618738
1 1 0.738338
1 1 0.847272
0 0.551904 0
0 0.552102 0
0 0.552483 0
0 0.552789 0
0 0.553048 0
0 0.553674 0
0 0.553918 0
0 0.554116 0
0 0.554284 0
0 0.554406 0
0.055024 0.55465 0
0.244892 0.555688 0
0.391913 0.555001 0
0.520638 0.552911 0
0.64683 0.549584 0
0.768353 0.546441 0
0.884047 0.54464 0
0.992355 0.546761 0
1 0.556771 0
1 0.577173 0
1 0.609491 0
1 0.654414 0
1 0.711696 0
1 0.779706 0
1 0.857237 0
1 0.941665 0.0770733
1 1 0.183246
1 1 0.285283
1 1 0.387396
1 1 0.498634
1 1 0.617548
1 1 0.737514
1 1 0.846754
0 0.655177 0
0 0.655253 0
0 0.655558 0
0 0.655833 0
0 0.656062 0
0 0.656275 0
0 0.656504 0
0 0.656764 0
0 0.657359 0
0 0.65745 0
0 0.657343 0
0.108293 0.657862 0
0.319326 0.658717 0
0.47422 0.657374 0
0.612345 0.6551 0
0.743526 0.65214 0
0.867308 0.650172 0
0.979339 0.650996 0
1 0.658518 0
1 0.675029 0
1 0.700648 0
1 0.736767 0
1 0.783597 0
1 0.840681 0
1 0.905501 0
1 0.976196 0.0617227
1 1 0.178851
1 1 0.285389
1 1 0.388525
1 1 0.496788
1 1 0.61593
1 1 0.736416
1 1 0.846098
0 0.764599 0
0 0.764599 0
0 0.764736 0
0 0.76492 0
0 0.765057 0
0 0.765179 0
0 0.765301 0
0 0.765454 0
0 0.76553 0
0 0.765484 0
0 0.765698 0
0 0.765057 0
0.185412 0.766018 0
0.407248 0.766415 0
0.565057 0.764645 0
0.706966 0.762325 0
0.840131 0.759838 0
0.957916 0.759655 0
1 0.764462 0
1 0.776547 0
1 0.79675 0
1 0.825055 0
1 0.862364 0
1 0.907652 0
1 0.958465 0
1 1 0.0416724
1 1 0.17499
1 1 0.285939
1 1 0.390127
1 1 0.496712
1 1 0.61384
1 1 0.734859
1 1 0.845182
0 0.876707 0
0 0.876707 0
0 0.876707 0
0 0.876799 0
0 0.876844 0
0 0.876905 0
0 0.876921 0
0 0.876966 0
0 0.876921 0
0 0.876768 0
0 0.876371 0
0 0.876051 0
0 0.875868 0
0.294255 0.876524 0
0.503258 0.876341 0
0.65922 0.874205 0
0.802289 0.87187 0
0.927001 0.870527 0
1 0.873213 0
1 0.88127 0
1 0.895628 0
1 0.916716 0
1 0.943435 0
1 0.975891 0
1 1 0
1 1 0.0152438
1 1 0.171649
1 1 0.288136
1 1 0.392584
1 1 0.499245
1 1 0.612619
1 1 0.732815
1 1 0.84387
0 0.987259 0
0 0.987259 0
0 0.987259 0
0 0.987259 0
0 0.987243 0
0 0.987213 0
0 0.987152 0
0 0.987076 0
0 0.986862 0
0 0.986496 0
0 0.985901 0
0 0.984878 0
0 0.983642 0
0.163607 0.984298 0
0.425696 0.984573 0
0.604379 0.983139 0
0.757382 0.980301 0
0.88806 0.978027 0
0.990982 0.977844 0
1 0.981521 0
1 0.989334 0
1 1 0
1 1 0
1 1 0
1 1 0
1 1 0
1 1 0.171466
1 1 0.292439
1 1 0.396902
1 1 0.502754
1 1 0.612802
1 1 0.730663
1 1 0.842069
0 1 0
0 1 0
0 1 0
0 1 0
0 1 0
0 1 0
0 1 0
0 1 0
0 1 0
0 1 0
0 1 0
0 1 0
0 1 0
0.0472725 1 0
0.343709 1 0
0.556039 1 0
0.717937 1 0
0.852079 1 0
0.95761 1 0
1 1 0
1 1 0
1 1 0
1 1 0
1 1 0
1 1 0
1 1 0.0074464
1 1 0.179232
1 1 0.300023
1 1 0.403342
1 1 0.508247
1 1 0.616678
1 1 0.728511
1 1 0.839841
0 1 0
0 1 0
0 1 0
0 1 0
0 1 0
0 1 0
0 1 0
0 1 0
0 1 0
0 1 0
0 1 0
0 1 0
0 1 0
0 1 0
0.283833 1 0
0.525368 1 0
0.691203 1 0
0.825284 1 0
0.930129 1 0
1 1 0
1 1 0
1 1 0
1 1 0
1 1 0
1 1 0
1 1 0.0529641
1 1 0.19762
1 1 0.31107
1 1 0.412757
1 1 0.515923
1 1 0.622858
1 1 0.732509
1 1 0.837186
0 1 0
0 1 0
0 1 0
0 1 0
0 1 0
0 1 0
0 1 0
0 1 0
0 1 0
0 1 0
0 1 0
0 1 0
0 1 0
0 1 0
0.287114 1 0
0.517082 1 0
0.678782 1 0
0.808011 1 0
0.909606 1 0
0.99025 1 0
1 1 0
1 1 0
1 1 0
1 1 0
1 1 0
1 1 0.0965744
1 1 0.223056
1 1 0.328237
1 1 0.425681
1 1 0.526635
1 1 0.631327
1 1 0.738994
1 1 0.839872
0 1 0
0 1 0
0 1 0
0 1 0
0 1 0
0 1 0
0 1 0
0 1 0
0 1 0
0 1 0
0 1 0
0 1 0
0 1 0
0 1 0
0.339895 1 0
0.534554 1 0
0.683528 1 0
0.802762 1 0
0.898116 1 0
0.975525 1 0
1 1 0
1 1 0
1 1 0
1 1 0
1 1 0
1 1 0.144198
1 1 0.257389
1 1 0.351751
1 1 0.444327
1 1 0.540932
1 1 0.642908
1 1 0.747646
1 1 0.845182
0 1 0
0 1 0
0 1 0
0 1 0
0 1 0
0 1 0
0 1 0
0 1 0
0 1 0
0 1 0
0 1 0
0 1 0
0 1 0
0.103136 1 0
0.413092 1 0
0.573053 1 0
0.701549 1 0
0.807034 1 0
0.893965 1 0
0.966522 1 0
1 1 0
1 1 0
1 1 0
1 1 0
1 1 0.0971847
1 1 0.208972
1 1 0.300481
1 1 0.383032
1 1 0.469047
1 1 0.560922
1 1 0.657984
1 1 0.759167
1 1 0.852644
0 1 0
0 1 0
0 1 0
0 1 0
0 1 0
0 1 0
0 1 0
0 1 0
0 1 0
0 1 0
0 1 0
0 1 0
0 1 0
0.324926 1 0
0.494759 1 0
0.624247 1 0
0.730907 1 0
0.820722 1 0
0.897658 1 0
0.963241 1 0
1 1 0
1 1 0
1 1 0
1 1 0.0819104
1 1 0.186877
1 1 0.27245
1 1 0.347829
1 1 0.422263
1 1 0.501213
1 1 0.586786
1 1 0.678676
1 1 0.773785
1 1 0.862425
0.284276 1 0
0.284276 1 0
0.284276 1 0
0.284276 1 0
0.28426 1 0
0.28426 1 0
0.28426 1 0
0.28426 1 0
0.28423 1 0
0.284215 1 0
0.284215 1 0
0.284184 1 0
0.284138 1 0
0.442054 1 0
0.578302 1 0
0.680934 1 0
0.767498 1 0
0.841627 1 0
0.908217 1 0
0.965988 1 0
1 1 0.0345769
1 1 0.096025
1 1 0.146441
1 1 0.205371
1 1 0.270588
1 1 0.335195
1 1 0.40058
1 1 0.468666
1 1 0.541222
1 1 0.619867
1 1 0.705135
1 1 0.79324
1 1 0.874617
0.568338 1 0.177691
0.568338 1 0.177691
0.568338 1 0.177691
0.568338 1 0.177691
0.568338 1 0.177691
0.568338 1 0.177691
0.568338 1 0.177691
0.568338 1 0.177691
0.568338 1 0.177691
0.568322 1 0.177691
0.568322 1 0.177691
0.568322 1 0.177691
0.568307 1 0.177691
0.568292 1 0.177691
0.653925 1 0.18201
0.741695 1 0.188037
0.811231 1 0.194812
0.872984 1 0.202731
0.929122 1 0.212924
0.978332 1 0.225391
1 1 0.240909
1 1 0.260014
1 1 0.283742
1 1 0.310872
1 1 0.350668
1 1 0.401175
1 1 0.458351
1 1 0.521126
1 1 0.588373
1 1 0.660471
1 1 0.738354
1 1 0.817075
1 1 0.890532
0.734524 1 0.331563
0.734524 1 0.331563
0.734524 1 0.331563
0.734524 1 0.331563
0.734524 1 0.331563
0.734524 1 0.331563
0.734524 1 0.331563
0.734524 1 0.331563
0.734524 1 0.331563
0.734524 1 0.331563
0.734524 1 0.331563
0.734524 1 0.331563
0.734508 1 0.331563
0.734508 1 0.331563
0.734478 1 0.331563
0.789929 1 0.334615
0.850889 1 0.338979
0.902907 1 0.343923
0.948791 1 0.349813
0.989914 1 0.357458
1 1 0.366964
1 1 0.379004
1 1 0.394156
1 1 0.413611
1 1 0.437308
1 1 0.474403
1 1 0.522942
1 1 0.579156
1 1 0.641321
1 1 0.707942
1 1 0.77731
1 1 0.845609
1 1 0.910048
0.845594 1 0.457359
0.845594 1 0.457359
0.845594 1 0.457359
0.845594 1 0.457359
0.845594 1 0.457359
0.845594 1 0.457359
0.845594 1 0.457359
0.845594 1 0.457359
0.845579 1 0.457359
0.845579 1 0.457359
0.845579 1 0.457359
0.845579 1 0.457359
0.845579 1 0.457359
0.845579 1 0.457359
0.845563 1 0.457359
0.845563 1 0.457359
0.886336 1 0.460151
0.931884 1 0.464256
0.969375 1 0.46891
1 1 0.474479
1 1 0.481712
1 1 0.490791
1 1 0.502342
1 1 0.517052
1 1 0.536034
1 1 0.559274
1 1 0.595834
1 1 0.643793
1 1 0.699367
1 1 0.759823
1 1 0.820066
1 1 0.877943
1 1 0.932311
0.927092 1 0.579751
0.927092 1 0.579751
0.927092 1 0.579751
0.927092 1 0.579751
0.927092 1 0.579751
0.927092 1 0.579751
0.927092 1 0.579751
0.927092 1 0.579751
0.927092 1 0.579751
