BBLuts/BB_104_0370_LUT.cube
TITLE "Generated by Resolve"
LUT_3D_SIZE 33
0 0 0
0 0 0
0 0 0
0 0 0
0 0 0
0.0170443 0 0
0.0592355 0 0
0.0899672 0 0
0.122576 0 0
0.169604 0 0
0.225803 0 0
0.28806 0 0
0.359182 0 0
0.43711 0 0
0.520516 0 0.0310063
0.58822 0 0.131075
0.637583 0 0.254658
0.684352 0 0.369757
0.724941 0 0.463508
0.756771 0 0.529244
0.762692 0 0.539773
0.762692 0 0.539773
0.762692 0 0.540261
0.762692 0 0.540139
0.765637 0.422339 0.559701
0.75938 0.562783 0.553536
0.752926 0.629618 0.536583
0.748226 0.678065 0.497002
0.746014 0.713161 0.377584
0.745251 0.739376 0
0.744228 0.75874 0
0.741131 0.771359 0.508217
0.739544 0.782269 0.614786
0 0 0
0 0 0
0 0 0
0 0 0
0 0 0
0.0255436 0 0
0.0621958 0 0
0.0924239 0 0
0.127291 0 0
0.175402 0 0
0.231754 0 0
0.293294 0 0
0.362371 0 0
0.439139 0 0
0.521996 0 0.0321508
0.58883 0 0.132708
0.637949 0 0.255589
0.68452 0 0.370153
0.724895 0 0.463386
0.756558 0 0.528862
0.762692 0 0.539773
0.762692 0 0.539773
0.762692 0 0.53991
0.763561 0.00383001 0.542473
0.765103 0.437125 0.559319
0.759014 0.568048 0.552834
0.752667 0.632029 0.535271
0.748104 0.679408 0.494347
0.746029 0.713939 0.367559
0.74522 0.739788 0
0.744213 0.758953 0
0.741131 0.771511 0.506432
0.739544 0.782361 0.614588
0 0 0
0 0 0
0 0 0
0 0 0
0 0 0
0.0306096 0 0
0.0632029 0 0
0.0947433 0 0
0.132403 0 0
0.180835 0 0
0.236271 0 0
0.296086 0 0
0.365026 0 0
0.441306 0 0
0.523461 0 0.0333257
0.58941 0 0.13431
0.638331 0 0.256504
0.684672 0 0.370535
0.724834 0 0.463249
0.756329 0 0.528466
0.762692 0 0.539773
0.762692 0 0.539773
0.762692 0 0.5393
0.766064 0.0819715 0.54847
0.764599 0.451026 0.558907
0.758648 0.573068 0.552102
0.752422 0.634379 0.533928
0.748012 0.680705 0.4916
0.746044 0.714687 0.356573
0.74519 0.740185 0
0.744198 0.759182 0
0.741131 0.771664 0.504677
0.739528 0.782437 0.614389
0 0 0
0 0 0
0 0 0
0 0 0
0 0 0
0.0344701 0 0
0.0636912 0 0
0.0949569 0 0
0.133272 0 0
0.183032 0 0
0.2392 0 0
0.298619 0 0
0.367575 0 0
0.443488 0 0
0.524941 0 0.0345464
0.590005 0 0.135988
0.638682 0 0.257389
0.684825 0 0.370886
0.724758 0 0.463066
0.756085 0 0.528023
0.762692 0 0.539773
0.762692 0 0.539773
0.762692 0 0.539223
0.768719 0.165866 0.554726
0.764141 0.46424 0.558511
0.758282 0.577859 0.551354
0.752178 0.636652 0.532586
0.747906 0.681987 0.488746
0.746075 0.71545 0.34432
0.745174 0.740597 0
0.744183 0.759396 0
0.741146 0.771817 0.502785
0.739528 0.782513 0.614206
0 0.0144045 0
0 0.0170596 0
0 0.0196078 0
0 0.0220798 0
0 0.0230411 0
0.0252384 0.0225986 0
0.0571603 0.020676 0
0.0901045 0.0159457 0
0.130556 0.00486763 0
0.184024 0 0
0.240909 0 0
0.300923 0 0
0.370047 0 0
0.445747 0 0
0.526467 0 0.0357977
0.590616 0 0.137636
0.639048 0 0.258305
0.684947 0 0.371206
0.724666 0 0.462882
0.755856 0 0.527581
0.762692 0 0.539773
0.762692 0 0.539681
0.762692 0 0.539117
0.769665 0.228275 0.557885
0.763714 0.476432 0.558114
0.757931 0.582055 0.550561
0.751949 0.63888 0.531228
0.747814 0.683253 0.485725
0.746105 0.716213 0.330724
0.745144 0.740993 0
0.744183 0.759609 0
0.741146 0.771954 0.500908
0.739528 0.782589 0.614008
0 0.0435187 0
0 0.0456092 0
0 0.0476692 0
0 0.0493019 0
0 0.0500954 0
0.00869764 0.0501717 0
0.0492561 0.0495155 0
0.0841993 0.0476081 0
0.125032 0.0433356 0
0.179782 0.0344549 0
0.239277 0.0167849 0
0.302998 0 0
0.372564 0 0
0.448157 0 0
0.528069 0 0.0371862
0.591257 0 0.139422
0.639429 0 0.25922
0.685084 0 0.371527
0.724575 0 0.462654
0.755581 0 0.527092
0.762692 0 0.539773
0.762692 0 0.539513
0.762692 0 0.53901
0.769558 0.273732 0.55903
0.763287 0.487907 0.557671
0.757565 0.585809 0.549722
0.751705 0.641154 0.529747
0.747723 0.68452 0.482429
0.746151 0.717006 0.314351
0.745129 0.741405 0
0.744167 0.759838 0
0.741161 0.772107 0.498863
0.739513 0.782681 0.613809
0 0.0740673 0
0 0.0758221 0
0 0.0775616 0
0 0.0785382 0
0 0.0791638 0
0 0.0793927 0
0.0351263 0.0793011 0
0.0756542 0.0784619 0
0.117998 0.0762036 0
0.175158 0.0712444 0
0.23592 0.0616159 0
0.300725 0.0458228 0
0.373205 0.0166018 0
0.45124 0 0
0.530129 0 0.0390173
0.592096 0 0.141711
0.639918 0 0.260426
0.685252 0 0.371939
0.724453 0 0.462348
0.75523 0 0.526436
0.762692 0 0.539773
0.762692 0 0.539406
0.762692 0 0.538857
0.768826 0.317311 0.559045
0.762768 0.50103 0.557092
0.757107 0.590127 0.548592
0.751415 0.643992 0.527794
0.7476 0.686152 0.477897
0.746227 0.718044 0.289326
0.745098 0.741924 0
0.744137 0.760113 0
0.741176 0.77232 0.496101
0.739513 0.782773 0.613535
0 0.108843 0
0 0.110384 0
0 0.111543 0
0 0.112291 0
0 0.11284 0
0 0.11313 0
0 0.113268 0
0.0605783 0.113115 0
0.10692 0.112047 0
0.166735 0.10869 0
0.23061 0.101778 0
0.299062 0.0911879 0
0.373526 0.0753033 0
0.451743 0.0495003 0
0.531929 0 0.0344854
0.593225 0 0.144778
0.640589 0 0.262074
0.685481 0 0.372488
0.724254 0 0.461891
0.754726 0 0.525505
0.762692 0 0.539605
0.762692 0 0.539269
0.762692 0 0.538628
0.767651 0.362371 0.55848
0.762066 0.516472 0.556161
0.756497 0.595636 0.547021
0.751064 0.647608 0.525093
0.747448 0.688243 0.471473
0.746365 0.719387 0.245411
0.745052 0.742611 0
0.744121 0.76051 0
0.741192 0.77258 0.492424
0.739498 0.78291 0.613184
0 0.155184 0
0 0.156603 0
0 0.157412 0
0 0.158206 0
0 0.15877 0
0 0.159152 0
0 0.159396 0
0.0267643 0.15967 0
0.0876936 0.158511 0
0.150958 0.155703 0
0.220401 0.150195 0
0.294194 0.141131 0
0.373571 0.127535 0
0.454459 0.108858 0
0.533822 0.0838026 0.0292973
0.594186 0.0449989 0.140398
0.641535 0 0.261997
0.685786 0 0.37322
0.723964 0 0.461219
0.754009 0 0.523919
0.762692 0 0.539391
0.762692 0 0.539055
0.766522 0.0946365 0.548196
0.76614 0.408209 0.557794
0.761151 0.534249 0.554772
0.755734 0.603037 0.544793
0.750607 0.652186 0.521309
0.747265 0.690913 0.462104
0.746502 0.721065 0.140017
0.745007 0.743481 0
0.744091 0.760998 0
0.741207 0.772915 0.48716
0.739498 0.783093 0.612726
0 0.210864 0
0 0.211307 0
0 0.211719 0
0 0.21207 0
0 0.212284 0
0 0.21236 0
0 0.212238 0
0 0.211856 0
0.0525063 0.212329 0
0.124132 0.211643 0
0.202213 0.208728 0
0.283284 0.202625 0
0.369528 0.192767 0
0.456062 0.178408 0
0.53724 0.160082 0.0271153
0.596719 0.131426 0.14374
0.643427 0.0803082 0.268345
0.686366 0 0.373617
0.723537 0 0.459129
0.752972 0 0.521691
0.762692 0 0.539132
0.762692 0 0.538674
0.769406 0.285771 0.558389
0.764462 0.454856 0.556695
0.759945 0.554192 0.552651
0.754772 0.612238 0.541573
0.750057 0.657862 0.515862
0.747066 0.69427 0.448264
0.746166 0.722545 0
0.74493 0.744625 0
0.744045 0.761639 0
0.741253 0.773373 0.479591
0.739483 0.783322 0.6121
0 0.269657 0
0 0.270069 0
0 0.270481 0
0 0.270787 0
0 0.271031 0
0 0.271168 0
0 0.271229 0
0 0.271122 0
0 0.27068 0
0.0790265 0.272923 0
0.17145 0.272831 0
0.263035 0.269673 0
0.358236 0.263188 0
0.453208 0.253956 0
0.53875 0.243015 0.0158389
0.5991 0.229862 0.142229
0.646601 0.205539 0.277272
0.689876 0.143542 0.386084
0.723644 0.0143587 0.460456
0.751476 0 0.518349
0.762692 0 0.538674
0.769451 0.205173 0.55584
0.766705 0.392126 0.558083
0.762737 0.501717 0.555138
0.758434 0.575998 0.549187
0.753582 0.623484 0.536812
0.749416 0.664836 0.50782
0.746838 0.698466 0.427298
0.746014 0.724987 0
0.744854 0.746075 0
0.743999 0.762478 0
0.741299 0.773983 0.46833
0.739467 0.783627 0.611307
0 0.338598 0
0 0.33901 0
0 0.339391 0
0 0.339681 0
0 0.339925 0
0 0.340108 0
0 0.340246 0
0 0.340291 0
0 0.340154 0
0 0.340475 0
0.114946 0.344884 0
0.227436 0.345098 0
0.335866 0.342031 0
0.441367 0.336828 0
0.534188 0.329915 0
0.598535 0.32462 0.116121
0.64686 0.316548 0.274769
0.690623 0.300069 0.391318
0.727367 0.271244 0.476967
0.756008 0.232364 0.533425
0.769574 0.27335 0.558206
0.766979 0.384482 0.558221
0.763821 0.473213 0.556176
0.760586 0.544015 0.55227
0.756542 0.595315 0.543801
0.752178 0.636744 0.529564
0.748684 0.673198 0.495293
0.746639 0.703593 0.393423
0.745846 0.728054 0
0.744747 0.747906 0
0.743923 0.763531 0
0.74139 0.774777 0.450889
0.739437 0.784024 0.610208
0 0.418128 0
0 0.418479 0
0 0.418814 0
0 0.419059 0
0 0.419257 0
0 0.41944 0
0 0.419608 0
0 0.419745 0
0 0.419898 0
0 0.419974 0
0 0.422553 0
0.161654 0.428489 0
0.296651 0.428672 0
0.417456 0.425971 0
0.521065 0.421973 0
0.592645 0.41854 0.0302281
0.64329 0.417548 0.248646
0.68661 0.414267 0.381613
0.721843 0.411887 0.469398
0.749325 0.41471 0.528161
0.765118 0.436423 0.557168
0.763272 0.488365 0.555688
0.760937 0.537804 0.552834
0.757885 0.582498 0.547173
0.754269 0.616983 0.536339
0.750668 0.651789 0.518074
0.747906 0.682948 0.47393
0.746639 0.70988 0.316823
0.745632 0.731807 0
0.74461 0.750195 0
0.743847 0.764889 0
0.741543 0.77583 0.423743
0.739406 0.784543 0.608743
0 0.505119 0
0 0.505379 0
0 0.505592 0
0 0.505776 0
0 0.505943 0
0 0.506081 0
0 0.506233 0
0 0.506386 0
0 0.506493 0
0 0.506523 0
0 0.506386 0
0.018616 0.50985 0
0.230015 0.514961 0
0.380163 0.513451 0
0.497993 0.510781 0
0.582727 0.507774 0
0.63653 0.508675 0.143801
0.681529 0.509819 0.353689
0.715724 0.513085 0.45272
0.741741 0.520867 0.51545
0.761105 0.534874 0.553063
0.759533 0.56054 0.550484
0.757397 0.587457 0.545998
0.754742 0.612573 0.538109
0.751797 0.640604 0.523476
0.749126 0.668284 0.498238
0.747173 0.694011 0.433219
0.746471 0.716747 0
0.745373 0.736339 0
0.744442 0.752956 0
0.74374 0.766598 0
0.741878 0.77731 0.37322
0.739376 0.785199 0.60676
0 0.577722 0
0 0.577829 0
0 0.577935 0
0 0.578012 0
0 0.578088 0
0 0.578134 0
0 0.578195 0
0 0.578256 0
0 0.578256 0
0 0.57821 0
0 0.578042 0
0 0.577646 0
0.0756847 0.581613 0
0.317693 0.582986 0
0.461051 0.58172 0
0.563973 0.579995 0
0.624659 0.578851 0
0.673228 0.58172 0.247288
0.707744 0.584237 0.413642
0.73283 0.588891 0.489982
0.752438 0.596155 0.535271
0.755169 0.608591 0.539574
0.753445 0.624857 0.532738
0.751446 0.643992 0.521019
0.749477 0.664637 0.499626
0.747753 0.68574 0.456809
0.746822 0.70631 0.331273
0.746014 0.724727 0
0.745052 0.741619 0
0.744244 0.756283 0
0.743603 0.768704 0
0.742901 0.779767 0.202335
0.739345 0.786038 0.604089
0 0.628565 0
0 0.628611 0
0 0.628641 0
0 0.628672 0
0 0.628687 0
0 0.628687 0
0 0.628702 0
0 0.628687 0
0 0.628641 0
0 0.62855 0
0 0.628336 0
0 0.62797 0
0 0.627283 0
0.1897 0.632471 0
0.408011 0.63183 0
0.536477 0.630304 0
0.610101 0.629068 0
0.659998 0.629114 0
0.6972 0.632563 0.228
0.722408 0.635996 0.420264
0.741466 0.641657 0.492271
0.750866 0.649897 0.516136
0.749828 0.660761 0.504738
0.748699 0.673625 0.484596
0.747631 0.688106 0.442649
0.746975 0.703639 0.337972
0.746349 0.718685 0
0.74551 0.733577 0
0.744701 0.747646 0
0.744015 0.760128 0
0.743435 0.771298 0
0.743008 0.78146 0
0.739284 0.787091 0.600427
0 0.677867 0
0 0.677852 0
0 0.677852 0
0 0.677836 0
0 0.677821 0
0 0.677791 0
0 0.677745 0
0 0.677684 0
0 0.677562 0
0 0.677394 0
0 0.677089 0
0 0.676616 0
0 0.675883 0
0 0.674846 0
0.315221 0.67985 0
0.499138 0.677867 0
0.593225 0.675837 0
0.646189 0.674937 0
0.684047 0.675441 0
0.711177 0.677317 0
0.731701 0.681315 0.317266
0.745556 0.685634 0.436698
0.747372 0.692195 0.424582
0.747051 0.700526 0.366705
0.747082 0.710307 0.0690013
0.746258 0.720302 0
0.745617 0.731533 0
0.744961 0.743053 0
0.744335 0.754238 0
0.743755 0.764569 0
0.743221 0.774365 0
0.742855 0.783475 0
0.739239 0.788403 0.595331
0 0.718791 0
0 0.718746 0
0 0.718685 0
0 0.718639 0
0 0.718578 0
0 0.718517 0
0 0.718425 0
0 0.718303 0
0 0.71812 0
0 0.717861 0
0 0.717449 0
0 0.716854 0
0 0.716014 0
0 0.714916 0
0 0.713756 0
0.451102 0.716335 0
0.577661 0.713252 0
0.633387 0.71136 0
0.672648 0.710735 0
0.701259 0.711101 0
0.722576 0.712398 0
0.737926 0.714839 0
0.746365 0.718395 0
0.74609 0.723201 0
0.745739 0.729213 0
0.745327 0.736294 0
0.744884 0.744259 0
0.744396 0.752697 0
0.743923 0.761135 0
0.743435 0.769589 0
0.742992 0.777935 0
0.742672 0.785855 0
0.739193 0.790036 0.588525
0 0.749447 0
0 0.749371 0
0 0.749294 0
0 0.749218 0
0 0.749142 0
0 0.749035 0
0 0.748928 0
0 0.748745 0
0 0.748516 0
0 0.74818 0
0 0.747707 0
0 0.747066 0
0 0.746181 0
0 0.745037 0
0 0.743572 0
0.400122 0.745266 0
0.562661 0.741253 0
0.623758 0.738689 0
0.663279 0.737392 0
0.692607 0.736904 0
0.714702 0.737087 0
0.730816 0.738079 0
0.743328 0.73991 0
0.744961 0.742687 0
0.744747 0.746395 0
0.744488 0.750942 0
0.744183 0.756222 0
0.743847 0.762005 0
0.743481 0.768353 0
0.743084 0.775082 0
0.742718 0.781933 0
0.742458 0.788602 0
0.739162 0.79202 0.576989
0 0.772931 0
0 0.772824 0
0 0.772732 0
0 0.772625 0
0 0.772534 0
0 0.772412 0
0 0.772274 0
0 0.772061 0
0 0.771786 0
0 0.77142 0
0 0.770932 0
0 0.77026 0
0 0.76939 0
0 0.768261 0
0 0.766842 0
0.351659 0.767819 0
0.553506 0.762905 0
0.617288 0.759976 0
0.656138 0.758297 0
0.685267 0.757321 0
0.70753 0.756878 0
0.7243 0.75697 0
0.737484 0.757595 0
0.744015 0.758907 0
0.743893 0.760906 0
0.743725 0.763592 0
0.743526 0.766979 0
0.743282 0.771054 0
0.743008 0.775738 0
0.742702 0.78085 0
0.742428 0.786252 0
0.74226 0.791699 0
0.739208 0.794415 0.553536
0 0.78996 0
0 0.789853 0
0 0.789731 0
0 0.789609 0
0 0.789502 0
0 0.78938 0
0 0.789212 0
0 0.788998 0
0 0.788724 0
0 0.788357 0
0 0.787869 0
0 0.787213 0
0 0.786374 0
0 0.78529 0
0 0.783932 0
0.361334 0.783917 0
0.55555 0.778744 0
0.615351 0.775769 0
0.652155 0.773983 0
0.680278 0.772778 0
0.701869 0.77203 0
0.718776 0.771649 0
0.732403 0.771634 0
0.742779 0.772107 0
0.74313 0.773114 0
0.743023 0.774731 0
0.742885 0.776944 0
0.742718 0.77969 0
0.742519 0.782971 0
0.742306 0.786679 0
0.742123 0.790722 0
0.742016 0.795377 0
0.739101 0.797238 0.54638
0 0.802976 0.000640879
0 0.802853 0.00062562
0 0.802747 0.000595102
0 0.802625 0.000579843
0 0.802502 0.000549325
0 0.80238 0.000518807
0 0.802228 0.000488289
0 0.802014 0.000457771
0 0.801755 0.000396735
0 0.801389 0.000320439
0 0.800931 0.000228885
0 0.80032 0.000122072
0 0.799527 0
0 0.79852 0
0 0.797253 0
0.429862 0.795514 0
0.568338 0.790768 0
0.617517 0.788144 0
0.651041 0.786404 0
0.677287 0.785168 0
0.697658 0.784314 0
0.714137 0.783719 0
0.727749 0.783383 0
0.738415 0.783368 0
0.742412 0.783734 0
0.742367 0.784543 0
0.742275 0.785824 0
0.742168 0.787564 0
0.742046 0.7897 0
0.741894 0.792294 0
0.741787 0.795575 0
0.741772 0.798978 0
0.738933 0.799954 0.545403
0 0.81236 0.00239567
0 0.812253 0.00238041
0 0.812146 0.00234989
0 0.812039 0.00233463
0 0.811917 0.00231937
0 0.81181 0.00230411
0 0.811658 0.00227359
0 0.811475 0.00224308
0 0.811215 0.0021973
0 0.810895 0.00213626
0 0.810468 0.00205997
0 0.809903 0.00195315
0 0.809171 0.00181582
0 0.808255 0.00164797
0.145022 0.809766 0.00544747
0.510369 0.803281 0
0.586984 0.800061 0
0.623758 0.797971 0
0.652964 0.796414 0
0.676448 0.794995 0
0.695109 0.79411 0
0.710796 0.793423 0
0.723934 0.792889 0
0.734554 0.792599 0
0.741772 0.792538 0
0.741756 0.792828 0
0.741726 0.793469 0
0.74165 0.794491 0
0.741573 0.796155 0
0.741512 0.79794 0
0.741466 0.800107 0
0.741527 0.802655 0
0.738689 0.802731 0.550759
0 0.818936 0.00350958
0 0.818845 0.00349432
0 0.818738 0.00347906
0 0.818631 0.0034638
0 0.81854 0.00344854
0 0.818448 0.00341802
0 0.818311 0.00340276
0 0.818128 0.00337224
0 0.817914 0.00334173
0 0.817609 0.00329595
0 0.817243 0.00323491
0 0.816754 0.00314336
0 0.816175 0.0030518
0.292378 0.816403 0.00317388
0.496559 0.811597 0
0.568811 0.808804 0
0.605493 0.80679 0
0.633783 0.805219 0
0.657664 0.803967 0
0.677653 0.802945 0
0.694255 0.802121 0
0.708782 0.801419 0
0.721141 0.800824 0
0.731334 0.800412 0
0.739803 0.800153 0
0.741207 0.800122 0
0.741207 0.800366 0
0.741192 0.800885 0
0.741161 0.80174 0
0.741131 0.802899 0
0.741161 0.804379 0
0.741299 0.806226 0
0.738384 0.805432 0.564248
0 0.823438 0.00421149
0 0.823362 0.00419623
0 0.82327 0.00418097
0 0.823209 0.00416571
0 0.823117 0.00416571
0 0.823041 0.00415045
0 0.82295 0.0041352
0 0.822812 0.00411994
0 0.822644 0.00408942
0 0.822431 0.0040589
0.305531 0.822538 0.00311284
0.426703 0.819852 0
0.497917 0.817823 0
0.545342 0.816068 0
0.580514 0.814511 0
0.603723 0.813138 0
0.625757 0.811917 0
0.646097 0.810803 0
0.664439 0.809842 0
0.680522 0.809003 0
0.694972 0.808255 0
0.707988 0.807584 0
0.719295 0.806989 0
0.728908 0.806516 0
0.737026 0.806165 0
0.740734 0.805951 0
0.740749 0.80592 0
0.74078 0.806119 0
0.740795 0.806561 0
0.740826 0.807263 0
0.740917 0.808255 0
0.741115 0.809537 0
0.738048 0.807996 0.583551
0.51545 0.820172 0
0.520439 0.820035 0
0.525109 0.819913 0
0.529503 0.819791 0
0.533684 0.819669 0
0.537804 0.819562 0
0.542763 0.819409 0
0.548852 0.819242 0
0.556176 0.819043 0
0.564767 0.818784 0
0.574624 0.818509 0
0.584756 0.818204 0
0.594232 0.817884 0
0.605585 0.817548 0
0.618112 0.817136 0
0.63154 0.816403 0
0.645396 0.815641 0
0.65919 0.814908 0
0.672435 0.814221 0
0.685054 0.81355 0
0.697185 0.812909 0
0.708431 0.812299 0
0.718441 0.811749 0
0.727291 0.811261 0
0.734936 0.810864 0
0.740353 0.810575 0
0.740398 0.810422 0
0.740429 0.810407 0
0.74049 0.810605 0
0.740581 0.811032 0
0.740734 0.811688 0
0.740993 0.812619 0
0.737743 0.810422 0.60174
0.611337 0.817441 0
0.612284 0.817426 0
0.613214 0.817395 0
0.61413 0.81738 0
0.61503 0.817365 0
0.615946 0.817334 0
0.617121 0.817304 0
0.618631 0.817273 0
0.620584 0.817227 0
0.623072 0.817182 0
0.6262 0.817121 0
0.630106 0.817044 0
0.634852 0.816968 0
0.640543 0.816876 0
0.647211 0.8168 0
0.65478 0.816739 0
0.663081 0.816678 0
0.671885 0.816648 0
0.681208 0.816632 0
0.690883 0.816632 0
0.700587 0.816419 0
0.709926 0.8159 0
0.718517 0.815412 0
0.726421 0.814954 0
0.73341 0.814572 0
0.739269 0.814252 0
0.740124 0.814038 0
0.7402 0.813931 0
0.740291 0.813993 0
0.740444 0.814237 0
0.740658 0.814679 0
0.738659 0.81326 0.474403
0.737545 0.81265 0.621546
0.650584 0.816846 0
0.650996 0.816846 0
0.651423 0.816846 0
0.651835 0.816846 0
0.652247 0.816831 0
0.652689 0.816831 0
0.653239 0.816831 0
0.653941 0.816815 0
0.654871 0.816815 0
