BBLuts/BB_101_0170_LUT.cube
TITLE "Generated by Resolve"
LUT_3D_SIZE 5
0.0195621 0.0195621 0.0195621
0.239384 0.0184634 0.018677
0.826017 0 0
1 0.64387 0.153536
1 0.986511 0.850309
0.0205997 0.258122 0.0172274
0.198001 0.263081 0.0187533
0.837446 0.117601 0
1 0.692332 0.0954604
1 0.986847 0.85008
0.0268864 0.840558 0.0113832
0.0268406 0.84033 0.0113375
0.802792 0.836606 0.0229038
1 0.885512 0.0327459
1 0.991516 0.846738
0.705776 1 0.297688
0.705776 1 0.297688
0.862348 1 0.304662
1 1 0.490242
1 1 0.874357
1 1 0.951766
1 1 0.951766
1 1 0.951766
1 1 0.954009
1 1 0.976104
0.0188296 0.0187076 0.257954
0.201068 0.0184787 0.257877
0.825452 0 0.227924
1 0.633722 0.367483
1 0.986496 0.850309
0.0214847 0.212345 0.240818
0.197818 0.211292 0.237446
0.826246 0.00770581 0.210346
1 0.684947 0.344198
1 0.986847 0.85008
0.0259709 0.83621 0.0105592
0.0259098 0.835966 0.0105135
0.806745 0.832532 0.0225681
1 0.884215 0.0896925
1 0.991516 0.846738
0.713298 1 0.296407
0.713298 1 0.296407
0.864286 1 0.303868
1 1 0.489937
1 1 0.874357
1 1 0.951766
1 1 0.951766
1 1 0.951766
1 1 0.953994
1 1 0.976104
0.00703441 0.00669871 0.843229
0.00701915 0.00669871 0.843305
0.8112 0 0.824872
1 0.343114 0.868086
1 0.984222 0.930312
0.00703441 0.00671397 0.842252
0.00703441 0.00671397 0.842298
0.819745 0 0.823438
1 0.537438 0.86804
1 0.984588 0.930205
0.0230106 0.782208 0.811994
0.0230259 0.782254 0.812024
0.771984 0.781109 0.819654
1 0.855421 0.837858
1 0.989487 0.928832
0.702296 1 0.720989
0.702296 1 0.720989
0.848966 1 0.71902
1 1 0.763638
1 1 0.913649
1 1 0.951705
1 1 0.951705
1 1 0.951705
1 1 0.953948
1 1 0.976074
0.00614939 0.00561532 1
0.00614939 0.00561532 1
0.00614939 0.00561532 1
1 0 1
1 0.956878 1
0.00614939 0.00561532 1
0.00614939 0.00561532 1
0.00614939 0.00561532 1
1 0 1
1 0.957916 1
0.00614939 0.00561532 1
0.00614939 0.00561532 1
0.00614939 0.00561532 1
1 0 1
1 0.969284 1
0.0767529 1 1
0.0767529 1 1
0.0767529 1 1
1 1 1
1 1 1
1 1 1
1 1 1
1 1 1
1 1 1
1 1 1
0.0167391 0.347845 1
0.0167391 0.347845 1
0.0167391 0.347845 1
0.0167391 0.347936 1
1 0.753109 1
0.0167391 0.347845 1
0.0167391 0.347845 1
0.0167391 0.347845 1
0.0167391 0.347936 1
1 0.753109 1
0.0167391 0.347845 1
0.0167391 0.347845 1
0.0167391 0.347845 1
0.0167391 0.347936 1
1 0.753109 1
0.0167239 0.346395 1
0.0167239 0.346395 1
0.0167239 0.346395 1
0.0167086 0.346456 1
1 0.756756 1
0.964645 1 1
0.964645 1 1
0.964645 1 1
0.964645 1 1
1 1 1
