BBLuts/BB_106_0170_LUT.cube
TITLE "Generated by Resolve"
LUT_3D_SIZE 33
0.0137179 0.0137179 0.0137179
0.0137179 0.0137179 0.0137179
0.0137179 0.0137179 0.0137179
0.0137179 0.0137179 0.0137179
0.0137179 0.0137179 0.0137179
0.0583505 0.0136416 0.0137636
0.109926 0.0135348 0.0137942
0.148363 0.0134585 0.0138247
0.186297 0.0133822 0.0138399
0.231617 0.0132906 0.0138705
0.284291 0.0131838 0.0139162
0.342367 0.0130617 0.0139467
0.407553 0.0129244 0.0140078
0.483696 0.0127718 0.0140536
0.566812 0.0125734 0.0141299
0.649882 0.0123751 0.0141909
0.733837 0.0121767 0.0142672
0.817945 0.0119631 0.0143435
0.892195 0.01178 0.0144045
0.949798 0.0116426 0.0144503
0.950225 0.0116274 0.0144503
0.950225 0.0116274 0.0144503
0.957244 0.225513 0.0753338
0.962081 0.369802 0.115999
0.965988 0.481971 0.161257
0.969573 0.578225 0.21503
0.972839 0.658869 0.2869
0.975448 0.72253 0.379431
0.977401 0.770062 0.475166
0.978912 0.80679 0.566629
0.980026 0.833967 0.650004
0.980911 0.855482 0.725704
0.981598 0.87216 0.785733
0.0137179 0.0137179 0.0137179
0.0137179 0.0137179 0.0137179
0.0137179 0.0137179 0.0137179
0.0137179 0.0137179 0.0137179
0.0137179 0.0137179 0.0137179
0.06981 0.013611 0.0137636
0.114076 0.0135195 0.0137942
0.151415 0.0134585 0.0138247
0.191165 0.0133669 0.0138399
0.237339 0.0132753 0.0138857
0.290013 0.0131685 0.0139162
0.347387 0.0130617 0.013962
0.410773 0.0129244 0.0140078
0.485695 0.0127565 0.0140536
0.568429 0.0125734 0.0141299
0.650935 0.0123751 0.0141909
0.734462 0.0121767 0.0142672
0.818204 0.0119631 0.0143435
0.892042 0.01178 0.0144045
0.949355 0.0116426 0.0144503
0.950225 0.0116274 0.0144503
0.950225 0.0116274 0.0144503
0.957992 0.247944 0.0652628
0.962463 0.381079 0.111559
0.966247 0.489021 0.158892
0.969741 0.582742 0.213748
0.972946 0.661601 0.285542
0.975509 0.724086 0.378714
0.977432 0.770947 0.474769
0.978927 0.807294 0.566415
0.980041 0.834257 0.649866
0.980926 0.855665 0.725628
0.981613 0.872267 0.785702
0.0137179 0.0137179 0.0137179
0.0137179 0.0137179 0.0137179
0.0137179 0.0137179 0.0137179
0.0137179 0.0137179 0.0137179
0.0137179 0.0137179 0.0137179
0.0766308 0.0135958 0.0137636
0.115862 0.0135195 0.0137942
0.154345 0.0134432 0.0138247
0.196246 0.0133669 0.0138552
0.242832 0.0132753 0.0138857
0.294591 0.0131685 0.0139162
0.350179 0.0130465 0.013962
0.413245 0.0129244 0.0140078
0.487861 0.0127565 0.0140688
0.570062 0.0125734 0.0141299
0.651957 0.0123751 0.0141909
0.735073 0.0121614 0.0142672
0.818433 0.0119631 0.0143435
0.891859 0.01178 0.0144045
0.948898 0.0116426 0.0144503
0.950225 0.0116274 0.0144503
0.950225 0.0116274 0.0144503
0.958648 0.267765 0.0507057
0.962829 0.391592 0.106798
0.966491 0.495842 0.156466
0.969909 0.587182 0.212482
0.973053 0.664271 0.284184
0.97557 0.725597 0.378012
0.977478 0.771817 0.474372
0.978943 0.807782 0.566186
0.980056 0.834546 0.649729
0.980926 0.855833 0.725551
0.981613 0.872358 0.785657
0.0137179 0.0137179 0.0137179
0.0137179 0.0137179 0.0137179
0.0137179 0.0137179 0.0137179
0.0139925 0.0203861 0.0137636
0.0370031 0.0249485 0.0137942
0.0817121 0.0135958 0.0137789
0.116762 0.0135195 0.0137942
0.154772 0.0134432 0.0138247
0.197192 0.0133516 0.0138552
0.244907 0.0132601 0.0138857
0.297398 0.0131533 0.0139315
0.352605 0.0130465 0.013962
0.415641 0.0129091 0.0140078
0.490043 0.0127565 0.0140688
0.571725 0.0125734 0.0141299
0.65301 0.0123751 0.0141909
0.735683 0.0121614 0.0142672
0.818647 0.0119631 0.0143435
0.891676 0.01178 0.0144045
0.948409 0.0116426 0.0144503
0.950225 0.0116274 0.0144503
0.953201 0.102251 0.0148623
0.959243 0.285664 0.0157168
0.96318 0.401663 0.101671
0.96672 0.502449 0.154009
0.970077 0.591531 0.2112
0.973159 0.666896 0.282826
0.975631 0.727092 0.377295
0.977508 0.772686 0.473991
0.978973 0.808286 0.565972
0.980072 0.834836 0.649607
0.980941 0.856001 0.725475
0.981613 0.872465 0.785611
0.0157626 0.0634012 0.0139467
0.0158694 0.0661631 0.013962
0.0159762 0.0688487 0.0139773
0.016083 0.0714275 0.0139925
0.0161288 0.0724041 0.0139925
0.0761883 0.0717784 0.0140383
0.114626 0.0699016 0.0140536
0.154192 0.0655222 0.0140688
0.197894 0.055787 0.0140536
0.245701 0.0132601 0.0138857
0.299092 0.0131533 0.0139315
0.354742 0.0130465 0.013962
0.41796 0.0129091 0.0140078
0.492256 0.0127565 0.0140688
0.573404 0.0125582 0.0141299
0.654078 0.0123751 0.0141909
0.736278 0.0121614 0.0142672
0.81883 0.0119631 0.0143435
0.891447 0.01178 0.0144045
0.947906 0.0116426 0.0144503
0.950225 0.0116274 0.0144503
0.954879 0.153719 0.0151064
0.959777 0.302007 0.0157931
0.963516 0.411353 0.0960861
0.966964 0.508843 0.151492
0.970245 0.595758 0.209934
0.973266 0.669474 0.281468
0.975692 0.728573 0.376593
0.977539 0.773556 0.473594
0.978988 0.808759 0.565759
0.980072 0.835111 0.64947
0.980941 0.856168 0.725399
0.981628 0.872557 0.785565
0.016968 0.0930495 0.0140841
0.0170596 0.0952773 0.0140993
0.0171511 0.0974594 0.0141146
0.0172274 0.0991989 0.0141146
0.017258 0.100008 0.0141299
0.0591287 0.0999771 0.0141451
0.108659 0.0992294 0.0141909
0.151369 0.0973678 0.0142061
0.197208 0.0933852 0.0142214
0.248264 0.0856031 0.0142214
0.301991 0.0703899 0.0141909
0.356527 0.0130312 0.013962
0.420203 0.0129091 0.0140078
0.494484 0.0127413 0.0140688
0.575128 0.0125582 0.0141299
0.655161 0.0123598 0.0141909
0.736873 0.0121614 0.0142672
0.819013 0.0119631 0.0143435
0.891218 0.01178 0.0144045
0.947372 0.0116426 0.0144503
0.950225 0.0116274 0.0144503
0.956008 0.188022 0.015259
0.960296 0.317235 0.0158541
0.963851 0.420737 0.0898451
0.967193 0.515099 0.148913
0.970413 0.599832 0.208652
0.973373 0.672007 0.28011
0.975753 0.730022 0.375891
0.977569 0.774411 0.473198
0.979004 0.809247 0.56553
0.980087 0.835401 0.649348
0.980957 0.856336 0.725322
0.981628 0.872663 0.785519
0.0181888 0.122972 0.0142367
0.018265 0.124849 0.0142367
0.0183413 0.126711 0.0142519
0.0183871 0.127794 0.0142519
0.0184176 0.128481 0.0142519
0.0184329 0.12871 0.0142519
0.0955215 0.128359 0.014313
0.145312 0.127413 0.0143435
0.194324 0.125246 0.0143587
0.247868 0.120958 0.014374
0.303243 0.112886 0.0143893
0.361486 0.0995193 0.0143587
0.42504 0.0734569 0.0142977
0.4972 0.0127413 0.0140688
0.577264 0.0125582 0.0141299
0.656489 0.0123598 0.0141909
0.737621 0.0121614 0.0142672
0.819226 0.0119631 0.0143435
0.890913 0.01178 0.0144045
0.946685 0.0116426 0.0144503
0.950225 0.0116274 0.0144503
0.957092 0.221073 0.0154116
0.960876 0.334508 0.0159457
0.964233 0.431815 0.0810254
0.967468 0.522515 0.145678
0.970596 0.604639 0.20708
0.973495 0.675059 0.278447
0.97583 0.731777 0.375036
0.977615 0.775448 0.472724
0.979034 0.809842 0.56527
0.980102 0.835752 0.64918
0.980957 0.85655 0.725216
0.981628 0.872786 0.785473
0.0196078 0.157458 0.0143893
0.0196689 0.159091 0.0143893
0.0197147 0.160418 0.0144045
0.0197604 0.161212 0.0144045
0.0197757 0.161776 0.0144045
0.019791 0.162081 0.0144045
0.0488594 0.162081 0.014435
0.131899 0.161593 0.0144808
0.187533 0.160388 0.0145113
0.244282 0.157519 0.0145418
0.302205 0.151934 0.0145571
0.363775 0.143801 0.0145724
0.429892 0.131395 0.0145571
0.504189 0.109621 0.0145113
0.581628 0.0575113 0.0143435
0.658305 0.0123598 0.0142061
0.738643 0.0121614 0.0142672
0.819501 0.0119631 0.0143435
0.890471 0.01178 0.0144045
0.945739 0.0116426 0.0144503
0.954314 0.136385 0.0150301
0.958282 0.256962 0.0155795
0.961593 0.355688 0.0160372
0.964721 0.445975 0.0656443
0.967819 0.532067 0.141207
0.970855 0.610803 0.204974
0.973663 0.679011 0.277195
0.975921 0.734051 0.373907
0.977676 0.776806 0.472084
0.979065 0.81062 0.564904
0.980117 0.83621 0.648966
0.980972 0.856825 0.725093
0.981643 0.872938 0.785397
0.0212711 0.198215 0.0145724
0.0213169 0.199573 0.0145724
0.0213474 0.200259 0.0145876
0.0213779 0.200977 0.0145876
0.0213931 0.201465 0.0145876
0.0214084 0.201785 0.0145876
0.0214237 0.201984 0.0145876
0.0970779 0.201785 0.0146487
0.172137 0.200381 0.0146944
0.234958 0.19791 0.014725
0.297597 0.194095 0.0147555
0.363424 0.188479 0.0147707
0.433463 0.180224 0.014786
0.510079 0.167758 0.014786
0.588434 0.150042 0.0147707
0.664393 0.12372 0.0147097
0.742184 0.0777447 0.0145724
0.819883 0.0119631 0.0143435
0.889815 0.01178 0.0144045
0.947814 0.116899 0.0149233
0.95668 0.208423 0.0153506
0.959594 0.296162 0.0157626
0.962463 0.381308 0.0161593
0.965347 0.463935 0.0165713
0.968261 0.544198 0.13492
0.971191 0.618753 0.202167
0.973861 0.684092 0.27628
0.976043 0.737011 0.372396
0.977752 0.778592 0.471244
0.97911 0.811643 0.564431
0.980148 0.83682 0.648676
0.980987 0.857176 0.724926
0.981643 0.873152 0.785306
0.0231785 0.244923 0.014786
0.0231937 0.245289 0.014786
0.023209 0.24564 0.014786
0.0232242 0.24596 0.0148013
0.0232242 0.246128 0.0148013
0.0232242 0.246174 0.0148013
0.0232242 0.246098 0.0148013
0.023209 0.245762 0.014786
0.138201 0.2448 0.0148623
0.217548 0.243214 0.0149233
0.287587 0.24065 0.0149538
0.358938 0.236652 0.0149844
0.434195 0.23061 0.0150149
0.514992 0.221775 0.0150301
0.594629 0.211383 0.0150607
0.669978 0.198779 0.0150607
0.74757 0.184649 0.0150607
0.825605 0.172763 0.0150759
0.894316 0.179004 0.0151675
0.949035 0.214374 0.0153811
0.95874 0.270756 0.0156405
0.961028 0.338933 0.0159609
0.9635 0.411063 0.0163119
0.966125 0.485954 0.0166781
0.968841 0.559442 0.125902
0.971603 0.628992 0.198489
0.974136 0.690578 0.275135
0.976196 0.740795 0.370398
0.977844 0.780911 0.470115
0.979156 0.81297 0.563806
0.980179 0.837613 0.648295
0.981003 0.857664 0.724681
0.981659 0.873442 0.785168
0.0252384 0.294484 0.0150149
0.0252537 0.29485 0.0150301
0.0252537 0.295216 0.0150301
0.0252689 0.295491 0.0150301
0.0252842 0.295689 0.0150301
0.0252842 0.295796 0.0150301
0.0252842 0.295842 0.0150301
0.0252842 0.29575 0.0150301
0.0252689 0.295384 0.0150301
0.183413 0.29427 0.0151217
0.268833 0.292607 0.0151827
0.34818 0.289876 0.0152285
0.430106 0.285481 0.0152743
0.517189 0.279301 0.0153048
0.599771 0.272297 0.0153353
0.675532 0.265126 0.0153658
0.752239 0.258701 0.0154116
0.828717 0.255467 0.0154574
0.895537 0.263691 0.0155489
0.948638 0.28983 0.0157168
0.960784 0.331991 0.0159304
0.962615 0.385733 0.0161898
0.964736 0.446189 0.0164797
0.967071 0.512078 0.0168154
0.969558 0.578317 0.112291
0.972137 0.641764 0.193744
0.974472 0.698711 0.273762
0.976394 0.745632 0.367758
0.977966 0.783917 0.46862
0.979232 0.814694 0.562966
0.980224 0.838666 0.647791
0.981033 0.858305 0.724376
0.981674 0.873823 0.785
0.0276799 0.352773 0.0152895
0.0276951 0.353124 0.0152895
0.0277104 0.35346 0.0153048
0.0277104 0.353719 0.0153048
0.0277256 0.353918 0.0153048
0.0277256 0.35407 0.0153048
0.0277409 0.354177 0.0153048
0.0277409 0.354223 0.0153048
0.0277256 0.354116 0.0153048
0.0277104 0.353735 0.0153048
0.231891 0.352514 0.0154421
0.327123 0.350774 0.0154879
0.418738 0.348013 0.0155489
0.513558 0.343969 0.01561
0.601099 0.339071 0.0156558
0.679789 0.334462 0.0157015
0.756649 0.331548 0.0157473
0.831266 0.332235 0.0158236
0.895659 0.34136 0.0159152
0.946975 0.362005 0.0160678
0.96289 0.393774 0.0162203
0.96437 0.435843 0.016434
0.966155 0.486946 0.0166781
0.9682 0.542641 0.016968
0.970443 0.601083 0.0891432
0.972763 0.657313 0.187732
0.974868 0.708736 0.272175
0.976638 0.751736 0.364279
0.978119 0.787732 0.466651
0.979324 0.816922 0.561852
0.98027 0.84004 0.647105
0.981064 0.859129 0.723964
0.981689 0.874311 0.784772
0.0305943 0.420798 0.0156252
0.0306249 0.421118 0.0156252
0.0306249 0.421393 0.0156252
0.0306401 0.421622 0.0156252
0.0306401 0.421805 0.0156252
0.0306554 0.421958 0.0156252
0.0306554 0.42211 0.0156252
0.0306706 0.422217 0.0156252
0.0306706 0.422324 0.0156405
0.0306706 0.4224 0.0156405
0.125551 0.42211 0.0157015
0.286366 0.421286 0.0158083
0.396277 0.419776 0.0158846
0.500862 0.41706 0.0159457
0.595651 0.413596 0.0160067
0.679408 0.410208 0.0160678
0.759197 0.408148 0.0161135
0.832868 0.409323 0.0161898
0.894713 0.416709 0.0162814
0.944045 0.432425 0.0164034
0.965103 0.457053 0.0165408
0.966293 0.490867 0.0167086
0.967788 0.531472 0.016907
0.969528 0.577783 0.0171511
0.971511 0.626917 0.0174258
0.97351 0.675715 0.180362
0.975372 0.720745 0.270542
0.976944 0.759289 0.362631
0.978317 0.792508 0.464042
0.979431 0.819715 0.560372
0.980346 0.84181 0.646204
0.981109 0.860212 0.72343
0.98172 0.874968 0.784466
0.0339666 0.497627 0.0160067
0.0339666 0.497871 0.0160067
0.0339818 0.49807 0.0160067
0.0339818 0.498268 0.0160067
0.0339971 0.498421 0.0160067
0.0339971 0.498558 0.0160067
0.0340124 0.498695 0.0160067
0.0340124 0.498817 0.0160067
0.0340276 0.498924 0.0160067
0.0340276 0.498955 0.0160067
0.0340124 0.498833 0.0160067
0.194705 0.4981 0.0161135
0.356695 0.496773 0.0162203
0.477455 0.494621 0.0163119
0.581735 0.491768 0.0163729
0.672435 0.48864 0.016434
0.757305 0.486213 0.016495
0.832425 0.486458 0.0165713
0.892409 0.491981 0.0166476
0.939681 0.503868 0.0167391
0.967437 0.522225 0.0168612
0.968383 0.547616 0.0169985
0.969604 0.579492 0.0171664
0.971069 0.616266 0.0173648
0.972717 0.656397 0.0176089
0.97438 0.696788 0.171801
0.975937 0.734691 0.269108
0.977325 0.768414 0.363302
0.978561 0.798398 0.460639
0.979583 0.82324 0.558434
0.980438 0.844068 0.644999
0.98117 0.861601 0.722698
0.98175 0.875807 0.784054
0.0374914 0.573526 0.0164034
0.0374914 0.573663 0.0164034
0.0375067 0.573785 0.0164034
0.0375067 0.573877 0.0164034
0.0375067 0.573968 0.0164034
0.0375067 0.574029 0.0164034
0.0375067 0.574075 0.0164034
0.0375219 0.574136 0.0164034
0.0375219 0.574151 0.0164034
0.0375067 0.574105 0.0164034
0.0375067 0.573922 0.0164034
0.0374914 0.573465 0.0164034
0.287236 0.572091 0.0165713
0.441321 0.57023 0.0166781
0.559319 0.56788 0.0167544
0.658106 0.565103 0.0168154
0.748959 0.562463 0.0168765
0.827298 0.561669 0.0169528
0.887572 0.56492 0.0170138
0.933104 0.573251 0.0171054
0.969879 0.586709 0.0172122
0.970626 0.605478 0.0173037
0.971588 0.628916 0.0174411
0.972747 0.657069 0.0176089
0.974014 0.688106 0.0177768
0.975326 0.719875 0.162921
0.976577 0.750332 0.268421
0.977768 0.779202 0.364584
0.978851 0.805447 0.457069
0.979767 0.827619 0.555871
0.98056 0.846937 0.643412
0.981231 0.863371 0.721721
0.981796 0.876905 0.78352
0.0410773 0.645136 0.0168002
0.0410773 0.645197 0.0168002
0.0410773 0.645243 0.0168002
0.0410773 0.645274 0.0168002
0.0410773 0.645289 0.0168002
0.0410773 0.645289 0.0168002
0.0410773 0.645289 0.0168002
0.0410773 0.645274 0.0168002
0.0410773 0.645212 0.0168002
0.0410773 0.645075 0.0168002
0.041062 0.644816 0.0168002
0.0410315 0.644297 0.0168002
0.0409857 0.643381 0.0168002
0.388617 0.641443 0.0170291
0.528237 0.639353 0.0171206
0.637064 0.636927 0.0171969
0.733623 0.634333 0.0172732
0.815793 0.632853 0.0173342
0.878035 0.634241 0.0173953
0.924269 0.639353 0.0174716
0.960189 0.648356 0.0175479
0.972915 0.661372 0.0176394
0.973602 0.678019 0.017731
0.974411 0.697978 0.0178378
0.975326 0.720424 0.0179751
0.976303 0.743816 0.156039
0.977279 0.767727 0.269032
0.978271 0.791501 0.366918
0.979171 0.813565 0.459525
0.97998 0.832975 0.552483
0.980697 0.850477 0.641321
0.981323 0.865599 0.720439
0.981857 0.878309 0.782788
0.0445716 0.713787 0.0171969
0.0445716 0.713771 0.0171969
0.0445716 0.713756 0.0171969
0.0445716 0.713726 0.0171969
0.0445716 0.71368 0.0171969
0.0445716 0.713634 0.0171969
0.0445563 0.713573 0.0171969
0.0445563 0.713481 0.0171969
0.0445411 0.713329 0.0171969
0.0445411 0.713069 0.0171969
0.0445106 0.712657 0.0171817
0.04448 0.711986 0.0171817
0.044419 0.710933 0.0171817
0.310079 0.709041 0.0173495
0.489372 0.706798 0.0174716
0.612573 0.704189 0.0175631
0.713985 0.701259 0.0176394
0.799161 0.69894 0.0177005
0.863996 0.698421 0.0177462
0.912627 0.700328 0.017792
0.949416 0.705074 0.0178531
0.975021 0.712856 0.0179294
0.975448 0.723354 0.0179904
0.975982 0.736309 0.0180667
0.976593 0.751278 0.018143
0.977295 0.768093 0.154192
0.978042 0.786358 0.272053
0.978821 0.804959 0.370932
0.979553 0.822629 0.463203
0.98024 0.839323 0.550805
0.98088 0.854765 0.638544
0.981445 0.86833 0.718746
0.981933 0.880079 0.781826
0.0474861 0.771008 0.0175174
0.0474861 0.770932 0.0175174
0.0474708 0.770855 0.0175174
0.0474708 0.770764 0.0175174
0.0474708 0.770672 0.0175174
0.0474556 0.770581 0.0175174
0.0474556 0.770459 0.0175174
0.0474403 0.770275 0.0175174
0.0474403 0.770016 0.0175174
0.0474098 0.769635 0.0175174
0.0473793 0.769055 0.0175174
0.0473335 0.768185 0.0175021
0.0472725 0.766979 0.0175021
0.218891 0.765072 0.0176089
0.456779 0.762554 0.0177768
0.593225 0.75967 0.0178531
0.697734 0.75639 0.0179294
0.783276 0.753445 0.0179904
0.849241 0.751614 0.0180362
0.900145 0.751247 0.0180819
0.938567 0.752758 0.0181277
0.966369 0.756451 0.0181582
0.97705 0.762341 0.018204
0.977371 0.770382 0.0182498
0.977783 0.780468 0.0183108
0.978271 0.792157 0.161105
0.978821 0.805249 0.279057
0.979385 0.818921 0.377478
0.979965 0.832685 0.468544
0.980529 0.846601 0.554726
0.981079 0.859815 0.634913
0.981582 0.871656 0.716487
0.982025 0.882277 0.78056
0.0496986 0.814496 0.0177768
0.0496986 0.814374 0.0177768
0.0496834 0.814252 0.0177768
0.0496834 0.81413 0.0177768
0.0496681 0.813993 0.0177768
0.0496681 0.813855 0.0177768
0.0496529 0.813672 0.0177615
0.0496376 0.813443 0.0177615
0.0496223 0.813092 0.0177615
0.0496071 0.812604 0.0177615
0.0495613 0.811917 0.0177615
0.0495155 0.810971 0.0177615
0.0494545 0.809689 0.0177462
0.185824 0.807767 0.0178378
0.44799 0.805158 0.0180056
0.586435 0.802182 0.0180972
0.689601 0.798825 0.0181582
0.772564 0.795697 0.0182193
0.837018 0.793347 0.018265
0.888472 0.791928 0.0182956
0.927565 0.791791 0.0183413
0.957198 0.793179 0.0183719
0.978424 0.79617 0.0184024
0.978622 0.800885 0.0184329
0.978882 0.807141 0.0184634
0.979187 0.814603 0.180346
0.979553 0.823224 0.291951
0.979965 0.832944 0.387411
0.980407 0.843595 0.476127
0.980865 0.854688 0.560189
0.981323 0.865522 0.637751
0.981735 0.875593 0.713481
0.982132 0.884932 0.778851
0.0514076 0.848142 0.0179599
0.0514076 0.84799 0.0179599
0.0513924 0.847822 0.0179599
0.0513924 0.847669 0.0179599
0.0513771 0.847501 0.0179599
0.0513771 0.847318 0.0179599
0.0513619 0.847105 0.0179599
0.0513466 0.846815 0.0179599
0.0513313 0.846418 0.0179599
0.0513008 0.845884 0.0179599
0.0512551 0.845151 0.0179446
0.0512093 0.844175 0.0179446
0.0511482 0.842893 0.0179446
0.267445 0.840848 0.0180819
0.468574 0.838346 0.018204
0.595575 0.835416 0.0182956
0.690455 0.832212 0.0183566
0.767742 0.829145 0.0184024
0.828855 0.826596 0.0184482
0.878889 0.824643 0.0184787
0.917861 0.823545 0.0185092
0.948638 0.823407 0.0185245
0.972274 0.824338 0.018555
0.97966 0.826505 0.0185702
0.979812 0.829923 0.0186007
0.980011 0.834394 0.211978
0.980255 0.840177 0.312047
0.980545 0.847089 0.40148
0.980865 0.854902 0.486717
0.981216 0.86331 0.567712
0.981567 0.871763 0.643091
0.981918 0.88011 0.713832
0.982254 0.888075 0.776608
0.0526589 0.872557 0.0180972
0.0526436 0.872374 0.0180972
0.0526436 0.87219 0.0180972
0.0526284 0.872007 0.0180972
0.0526131 0.871824 0.0180972
0.0526131 0.871641 0.0180972
0.0525978 0.871412 0.0180972
0.0525826 0.871107 0.0180972
0.0525521 0.870695 0.0180972
0.0525368 0.870161 0.0180972
0.052491 0.869429 0.0180819
0.0524453 0.868467 0.0180819
0.0523842 0.867216 0.0180819
0.38088 0.865049 0.0182956
0.517174 0.86273 0.0183871
0.619684 0.860014 0.0184482
0.70161 0.857084 0.0185092
0.770016 0.854276 0.018555
0.826108 0.851789 0.0185855
0.873198 0.849683 0.018616
0.910491 0.848203 0.0186465
0.941283 0.847333 0.0186618
0.96553 0.847211 0.018677
0.980545 0.84802 0.0187076
0.980621 0.849683 0.13962
0.980743 0.852384 0.25275
0.980896 0.856077 0.339925
0.981094 0.86067 0.421073
0.981323 0.866056 0.501137
0.981582 0.872053 0.578012
0.981842 0.878477 0.650309
0.982132 0.8851 0.718547
0.982406 0.891646 0.775601
0.0535897 0.891051 0.018204
0.0535897 0.890867 0.018204
0.0535744 0.890684 0.018204
0.0535744 0.890517 0.018204
0.0535592 0.890333 0.018204
0.0535439 0.89015 0.018204
0.0535439 0.889921 0.018204
0.0535286 0.889632 0.018204
0.0534981 0.889235 0.018204
0.0534829 0.888716 0.018204
0.0534371 0.888029 0.0181888
0.222416 0.886854 0.0183108
0.382345 0.885405 0.0184176
0.489662 0.883696 0.0184787
0.579522 0.881621 0.0185397
0.654246 0.879255 0.0185855
0.720607 0.876753 0.0186313
0.777966 0.874311 0.018677
0.827955 0.872007 0.0187076
0.870817 0.869963 0.0187381
0.905562 0.86836 0.0187533
0.935241 0.86717 0.0187686
0.959304 0.866484 0.0187839
0.978119 0.866361 0.0645609
0.981338 0.866819 0.217105
0.981399 0.868132 0.300587
0.981491 0.870222 0.37528
0.981613 0.87303 0.44715
0.98175 0.87657 0.520226
0.981933 0.880766 0.591791
0.982132 0.885451 0.660029
0.982345 0.89044 0.724788
0.982559 0.895521 0.779263
0.0542763 0.904372 0.0182803
0.0542611 0.904204 0.0182803
0.0542611 0.904021 0.0182803
0.0542458 0.903868 0.0182803
0.0542458 0.903685 0.0182803
0.0542306 0.903517 0.0182803
0.153094 0.903151 0.0183413
0.238254 0.902739 0.0184024
0.30045 0.902281 0.0184482
0.357839 0.901701 0.0184939
0.414069 0.900984 0.0185245
0.471946 0.900053 0.0185702
0.530571 0.898863 0.0186007
0.588006 0.897429 0.0186313
0.64213 0.895735 0.018677
0.695247 0.893828 0.0187076
0.745541 0.891783 0.0187381
0.791745 0.889738 0.0187686
0.834516 0.887694 0.0187991
0.872007 0.885817 0.0188144
0.903502 0.884245 0.0188449
0.930983 0.882918 0.0188602
0.954376 0.881865 0.102586
0.973022 0.881178 0.210056
0.981918 0.88101 0.28452
0.981933 0.881437 0.352285
0.981994 0.882475 0.416114
0.982055 0.884123 0.480125
0.982162 0.886366 0.544549
0.982284 0.889143 0.60911
0.982422 0.892332 0.67277
0.982574 0.895857 0.732952
0.982727 0.89958 0.784054
0.461662 0.912932 0.0186313
0.471504 0.912764 0.0186313
0.480873 0.912596 0.0186465
0.489754 0.912428 0.0186465
0.498192 0.912261 0.0186465
0.50631 0.912108 0.0186618
0.515785 0.91191 0.0186618
0.527733 0.91165 0.018677
0.54258 0.911315 0.018677
0.560739 0.910872 0.0186923
0.582559 0.910323 0.0187076
0.607599 0.909606 0.0187228
0.635493 0.908721 0.0187381
0.66717 0.907637 0.0187686
0.701625 0.906355 0.0187839
0.737514 0.904845 0.0730907
0.773724 0.903243 0.097261
0.810101 0.901534 0.119265
0.844892 0.899779 0.141573
0.876158 0.898146 0.165316
0.904097 0.896651 0.191196
0.929168 0.895308 0.219898
0.950942 0.894224 0.251881
0.968795 0.893385 0.298039
0.982406 0.892866 0.351034
0.982406 0.892744 0.405509
0.982422 0.893065 0.461372
0.982467 0.893858 0.517937
0.982513 0.895109 0.574289
0.982589 0.896788 0.630808
0.982681 0.898802 0.688914
0.982788 0.901106 0.743404
0.982895 0.903716 0.790219
0.63389 0.917861 0.278416
0.637446 0.917845 0.278584
0.640909 0.917845 0.278752
0.644312 0.91783 0.27892
0.647654 0.91783 0.279103
0.65095 0.917815 0.279271
0.654902 0.917769 0.279484
0.660029 0.917601 0.279774
0.666651 0.917372 0.28014
0.67509 0.917067 0.280659
0.685679 0.916671 0.281346
0.698772 0.916182 0.282261
0.714534 0.915572 0.283497
0.732998 0.914824 0.285161
0.754131 0.913924 0.287388
0.778058 0.912856 0.290364
0.804105 0.911635 0.294331
0.831205 0.910307 0.299611
0.857939 0.908934 0.306538
0.883101 0.907576 0.315572
0.907179 0.906249 0.327214
0.929305 0.905013 0.341985
0.949035 0.903929 0.360464
0.965759 0.903044 0.38323
0.979706 0.902358 0.418036
0.982788 0.90193 0.461799
0.982788 0.901793 0.509606
0.982803 0.901976 0.558679
0.982834 0.902525 0.60824
0.982864 0.90341 0.657877
0.982925 0.904585 0.708659
0.982986 0.906035 0.75639
0.983063 0.907759 0.798108
0.73225 0.917525 0.403525
0.733989 0.91751 0.403632
0.735698 0.91751 0.403723
0.737377 0.91751 0.40383
0.739055 0.91751 0.403937
0.740719 0.917494 0.404044
0.742718 0.917494 0.404166
0.745357 0.917494 0.404334
0.748821 0.917479 0.404562
0.753323 0.917479 0.404868
0.759106 0.917464 0.40528
0.766461 0.917449 0.405829
0.775677 0.917433 0.406561
0.786984 0.917403 0.407538
0.800565 0.917372 0.408865
0.816358 0.917342 0.41062
0.834058 0.917311 0.412985
0.85301 0.91664 0.416144
0.872465 0.915602 0.420356
0.892531 0.914488 0.425925
0.912459 0.913359 0.433249
0.931273 0.912261 0.442817
0.948669 0.911269 0.455238
0.963882 0.910399 0.471138
0.976898 0.909667 0.490837
0.983093 0.909102 0.521614
0.983078 0.908751 0.559792
0.983078 0.908598 0.601663
0.983078 0.908721 0.644282
0.983108 0.909072 0.68867
0.983139 0.909667 0.731563
0.983169 0.910475 0.771862
0.983215 0.911513 0.807996
0.799985 0.917266 0.509071
0.800931 0.917266 0.509148
0.801892 0.91725 0.509209
