BBLuts/BB_106_0180_LUT.cube
TITLE "Generated by Resolve"
LUT_3D_SIZE 5
0.0155184 0.0155184 0.0155184
0.18407 0.0155184 0.0155184
0.751705 0.0155184 0.0155184
0.999512 0.492699 0.153536
0.999512 0.946685 0.788998
0.0155184 0.202518 0.0155184
0.162768 0.20502 0.0155184
0.758831 0.082002 0.0155184
0.999512 0.559045 0.128099
0.999512 0.94786 0.788495
0.0155184 0.755001 0.0155184
0.0155184 0.754452 0.0155184
0.701045 0.741466 0.0155184
0.999512 0.801648 0.0155184
0.999512 0.9561 0.784573
0.598978 0.999512 0.263523
0.636576 0.999008 0.265171
0.794553 0.992538 0.278691
0.995956 0.982055 0.397833
0.999512 0.98909 0.80267
0.969146 0.999512 0.89102
0.969528 0.999512 0.891066
0.972412 0.999512 0.891371
0.990188 0.999512 0.894499
0.999512 0.999512 0.921431
0.0155184 0.0155184 0.187762
0.164508 0.0155184 0.187686
0.751446 0.0155184 0.190173
0.999512 0.477897 0.298619
0.999512 0.94638 0.801709
0.0155184 0.172244 0.172961
0.16907 0.16907 0.16907
0.752407 0.0155184 0.17528
0.999512 0.547875 0.283604
0.999512 0.94757 0.801251
0.0155184 0.75111 0.0155184
0.0155184 0.7505 0.0155184
0.70695 0.737545 0.0155184
0.999512 0.799802 0.145235
0.999512 0.955856 0.797726
0.605051 0.999512 0.263203
0.641566 0.998795 0.264851
0.796323 0.992401 0.278401
0.996063 0.98201 0.397803
0.999512 0.989075 0.802609
0.969207 0.999512 0.89102
0.969589 0.999512 0.891051
0.972473 0.999512 0.891371
0.990204 0.999512 0.894484
0.999512 0.999512 0.921431
0.0155184 0.0155184 0.725078
0.0155184 0.0155184 0.725307
0.758129 0.0155184 0.720134
0.999512 0.292775 0.742367
0.999512 0.94406 0.868116
0.0155184 0.0155184 0.723232
0.0155184 0.0155184 0.723476
0.768185 0.0155184 0.718151
0.999512 0.421347 0.738216
0.999512 0.945312 0.867842
0.0155184 0.694469 0.681834
0.0155184 0.69485 0.682155
0.683589 0.683589 0.683589
0.999512 0.773556 0.711498
0.999512 0.954025 0.865797
0.611032 0.998566 0.528969
0.645594 0.997391 0.52987
0.794446 0.991226 0.537362
0.991073 0.981018 0.608713
0.999512 0.988617 0.848798
0.969665 0.999512 0.890959
0.970047 0.999512 0.891005
0.972885 0.999512 0.89131
0.990372 0.999512 0.894438
0.999512 0.999512 0.921431
0.0155184 0.0155184 0.999512
0.0155184 0.0155184 0.999512
0.0155184 0.0155184 0.999512
0.999512 0.0155184 0.999512
0.999512 0.912963 0.982284
0.0155184 0.0155184 0.999512
0.0155184 0.0155184 0.999512
0.0155184 0.0155184 0.999512
0.999512 0.0155184 0.999512
0.999512 0.915557 0.982086
0.0155184 0.0155184 0.999512
0.0155184 0.0155184 0.999512
0.22092 0.0155184 0.999512
0.999512 0.0155184 0.999512
0.999512 0.932357 0.980789
0.0155184 0.999512 0.973968
0.0155184 0.999161 0.97377
0.635126 0.986542 0.972686
0.971847 0.971847 0.971847
0.999512 0.984573 0.975952
0.967346 0.999512 0.949111
0.967712 0.999512 0.949126
0.970428 0.999512 0.949248
0.987396 0.999512 0.950561
0.999512 0.999512 0.962036
0.0155184 0.315267 0.999512
0.0155184 0.315267 0.999512
0.0155184 0.315282 0.999512
0.0155184 0.315419 0.999512
0.999512 0.703502 0.999512
0.0155184 0.315251 0.999512
0.0155184 0.315251 0.999512
0.0155184 0.315267 0.999512
0.0155184 0.315404 0.999512
0.999512 0.703593 0.999512
0.0155184 0.31516 0.999512
0.0155184 0.31516 0.999512
0.0155184 0.315175 0.999512
0.0155184 0.315297 0.999512
0.999512 0.704341 0.999512
0.0155184 0.314076 0.999512
0.0155184 0.314076 0.999512
0.0155184 0.314092 0.999512
0.999512 0.0155184 0.999512
0.999512 0.707103 0.999512
0.90367 0.999512 0.999512
0.905364 0.999512 0.999512
0.917281 0.999512 0.999512
0.969177 0.999512 0.999512
0.999512 0.999512 0.999512
