BBLuts/BB_103_0440_LUT.cube
TITLE "Generated by Resolve"
LUT_3D_SIZE 33
0.0136416 0.0166781 0.00749218
0.0136416 0.0166781 0.00749218
0.0136416 0.0166781 0.00749218
0.0136416 0.0166781 0.00749218
0.0174563 0.0160983 0.00709544
0.0737774 0.0156558 0.00631724
0.133181 0.0156252 0.00587472
0.177188 0.0155489 0.00556954
0.222568 0.0152285 0.00517281
0.276539 0.0143282 0.00442512
0.340475 0.0125124 0.00317388
0.411276 0.00955215 0.00137331
0.490669 0.0055848 0
0.566705 0.00103761 0
0.635233 0 0
0.70869 0 0
0.78027 0 0
0.847654 0 0
0.905638 0 0
0.951583 0 0
0.963058 0 0
0.963989 0 0
0.956603 0.322454 0.0112459
0.945144 0.532494 0.0487221
0.937362 0.656718 0.0954147
0.930114 0.751263 0.148135
0.923156 0.831754 0.211551
0.91809 0.891447 0.298497
0.914015 0.932799 0.410925
0.910491 0.963134 0.505379
0.907469 0.985046 0.583169
0.904845 1 0.658625
0.902876 1 0.722332
0.0136416 0.0166781 0.00749218
0.0136416 0.0166781 0.00749218
0.0136416 0.0166781 0.00749218
0.0136416 0.0166781 0.00749218
0.0180667 0.016083 0.00709544
0.0849928 0.0156405 0.00622568
0.136904 0.0156252 0.00585946
0.180301 0.0155337 0.00555428
0.227634 0.0151675 0.00511177
0.282567 0.0141909 0.00433356
0.346883 0.0122835 0.00303655
0.416312 0.00932326 0.00123598
0.492149 0.00549325 0
0.568109 0.000946059 0
0.636393 0 0
0.709392 0 0
0.780819 0 0
0.847654 0 0
0.905577 0 0
0.951293 0 0
0.963043 0 0
0.962905 0.0202029 0
0.955322 0.356069 0.0125429
0.943542 0.546853 0.0330358
0.936797 0.662715 0.0915847
0.929732 0.755108 0.146136
0.922972 0.833722 0.21088
0.918013 0.892378 0.298375
0.913985 0.933257 0.41062
0.910475 0.963378 0.505257
0.907454 0.985153 0.583108
0.90483 1 0.658595
0.902876 1 0.722301
0.0136416 0.0166781 0.00749218
0.0136416 0.0166781 0.00749218
0.0136416 0.0166781 0.00749218
0.0136416 0.0166781 0.00749218
0.0182345 0.0162814 0.00720226
0.0908522 0.0156405 0.00616464
0.137392 0.0156252 0.00584421
0.182727 0.0155184 0.00553903
0.23241 0.0151064 0.00505074
0.286778 0.0140993 0.00425727
0.349615 0.012192 0.00297551
0.417472 0.00926223 0.00120546
0.494133 0.00538643 0
0.569772 0.000839246 0
0.637568 0 0
0.710369 0 0
0.781125 0 0
0.847898 0 0
0.905501 0 0
0.950957 0 0
0.963012 0 0
0.960449 0.098497 0
0.953735 0.389212 0.0134432
0.942123 0.55967 0.0212253
0.936248 0.668482 0.0880903
0.929381 0.758541 0.14435
0.922805 0.835538 0.210254
0.917937 0.893248 0.298253
0.913954 0.9337 0.41033
0.91046 0.963607 0.505135
0.907454 0.98529 0.583032
0.90483 1 0.658549
0.902876 1 0.722286
0.0133822 0.0173342 0.00737011
0.0133669 0.0174258 0.00737011
0.0133364 0.0178378 0.00737011
0.0130922 0.0248417 0.00735485
0.037644 0.0302129 0.00680552
0.0924697 0.0180514 0.00639353
0.13518 0.0179446 0.00608835
0.180362 0.0178836 0.00578317
0.230945 0.0171206 0.00529488
0.287938 0.0141909 0.00430304
0.352193 0.0120851 0.00291447
0.419608 0.00915541 0.00114443
0.496544 0.0052491 0
0.57142 0.000717174 0
0.638773 0 0
0.711086 0 0
0.781689 0 0
0.848112 0 0
0.905394 0 0
0.950622 0 0
0.962982 0 0
0.95935 0.184955 0.00329595
0.952285 0.414832 0.0138552
0.940978 0.570138 0.0132296
0.935775 0.673457 0.0850843
0.929061 0.761624 0.142748
0.922652 0.837247 0.209674
0.917876 0.894087 0.298131
0.913924 0.934142 0.41004
0.91046 0.963836 0.505013
0.907439 0.985412 0.582956
0.90483 1 0.658503
0.902876 1 0.722271
0.0077821 0.0794995 0.00688182
0.00747692 0.082887 0.00686656
0.007187 0.086183 0.0068513
0.00689708 0.0894179 0.00682078
0.00679026 0.0907454 0.00682078
0.0741588 0.0893416 0.00567636
0.122499 0.0868544 0.00521859
0.170352 0.0810712 0.00485237
0.224048 0.0678264 0.00444038
0.287541 0.0229496 0.00428778
0.353429 0.0170748 0.00300603
0.422156 0.0093843 0.00125124
0.498848 0.00511177 0
0.573037 0.000595102 0
0.640284 0 0
0.712093 0 0
0.782254 0 0
0.848325 0 0
0.905287 0 0
0.95024 0 0
0.962951 0 0
0.958694 0.235416 0.0065156
0.950881 0.436835 0.0140078
0.940185 0.580972 0.0131838
0.935241 0.678721 0.081178
0.92874 0.764782 0.140932
0.922515 0.838849 0.209125
0.917815 0.894911 0.298024
0.913893 0.934569 0.409751
0.910445 0.96405 0.504906
0.907439 0.985519 0.582879
0.90483 1 0.658457
0.902861 1 0.722255
0.00437934 0.117601 0.00666819
0.0041352 0.120317 0.00663767
0.00387579 0.123125 0.00663767
0.00367742 0.125307 0.00662242
0.00357061 0.126421 0.00660716
0.0484932 0.125811 0.00569161
0.108736 0.124743 0.00497444
0.160937 0.122377 0.00454719
0.216693 0.117281 0.00401312
0.279118 0.106798 0.00317388
0.347356 0.0862898 0.0019379
0.422339 0.0247349 0.000900282
0.500557 0.0145571 0
0.574914 0.00123598 0
0.641703 0 0
0.712978 0 0
0.782879 0 0
0.848569 0 0
0.905165 0 0
0.949844 0 0
0.961456 0.0285801 0
0.9579 0.277043 0.00898756
0.949523 0.456153 0.0139925
0.939529 0.590112 0.0131533
0.934737 0.683619 0.0774395
0.928405 0.768032 0.138933
0.922347 0.84065 0.208515
0.917754 0.895689 0.297917
0.913863 0.934997 0.409476
0.91043 0.964279 0.504784
0.907439 0.985641 0.582803
0.904814 1 0.658412
0.902861 1 0.722225
0.000579843 0.157488 0.00639353
0.000335698 0.159777 0.00636301
9.15541e-05 0.16202 0.00634775
0 0.163394 0.00634775
0 0.16437 0.00633249
0 0.164691 0.00633249
0.0827192 0.163607 0.00485237
0.147036 0.162524 0.00430304
0.206851 0.159792 0.0037995
0.27216 0.153826 0.00297551
0.341939 0.142611 0.00172427
0.415793 0.124498 1.5259e-05
0.496696 0.0920882 0
0.575113 0.0210574 0
0.642878 0.00669871 0
0.714473 0 0
0.783352 0 0
0.8486 0 0
0.904784 0 0
0.949355 0 0
0.959243 0.103853 0
0.956725 0.318746 0.0110933
0.947936 0.477745 0.013901
0.938796 0.600656 0.0131533
0.934173 0.688991 0.0733349
0.928023 0.771695 0.13669
0.922164 0.842786 0.207767
0.917662 0.896803 0.29781
0.913832 0.935485 0.409155
0.910414 0.964538 0.504662
0.907423 0.985779 0.582712
0.904814 1 0.658366
0.902861 1 0.72221
0 0.203098 0.00588998
0 0.205112 0.00585946
0 0.206592 0.00584421
0 0.207752 0.00582895
0 0.208453 0.00581369
0 0.209064 0.00579843
0.026276 0.208545 0.0049897
0.118654 0.207919 0.0039826
0.19086 0.20647 0.00352483
0.260563 0.202731 0.0028687
0.334035 0.194705 0.00175479
0.411734 0.182742 0.00015259
0.494347 0.165484 0
0.569284 0.138415 0
0.639475 0.0847334 0
0.713695 0.0189364 0
0.782834 0.0102693 0
0.849027 0 0
0.904555 0 0
0.945861 0.0551766 0
0.957946 0.204227 0.00454719
0.954803 0.367559 0.0129091
0.945876 0.505302 0.0137026
0.937911 0.613733 0.0131838
0.933303 0.696651 0.0650645
0.92752 0.776532 0.133684
0.921904 0.84564 0.20679
0.91754 0.898299 0.297658
0.913787 0.936324 0.408652
0.910384 0.96492 0.504463
0.907408 0.985977 0.582605
0.904814 1 0.658289
0.902861 1 0.722164
0 0.256748 0.00480659
0 0.258259 0.00476081
0 0.259281 0.0047303
0 0.260105 0.00471504
0 0.2607 0.00469978
0 0.261341 0.00468452
0 0.261616 0.00466926
0.0678111 0.260746 0.00329595
0.160067 0.259785 0.00291447
0.240162 0.257099 0.00256352
0.320027 0.251804 0.00178531
0.403906 0.243259 0.00047303
0.491463 0.231373 0
0.567681 0.214405 0
0.637079 0.19173 0
0.708553 0.162066 0
0.778332 0.120897 0
0.846387 0.0407416 0
0.901106 0.0542153 0
0.942611 0.173571 0.00177005
0.956008 0.299519 0.0101778
0.951934 0.420569 0.0139162
0.943511 0.5364 0.0134737
0.936904 0.628229 0.0131838
0.932067 0.706783 0.0522164
0.926787 0.783413 0.129183
0.921584 0.849424 0.205509
0.917388 0.900343 0.297475
0.91371 0.937469 0.40795
0.910353 0.965545 0.504173
0.907393 0.986267 0.582422
0.904799 1 0.658198
0.902846 1 0.722103
0 0.317617 0.00292973
0 0.318318 0.00289921
0 0.318776 0.00288396
0 0.319142 0.0028687
0 0.319661 0.00285344
0 0.319753 0.00285344
0 0.319677 0.00285344
0 0.319326 0.0028687
0.0989395 0.318639 0.00161746
0.205798 0.318029 0.00172427
0.29691 0.315236 0.00143435
0.389013 0.309483 0.000549325
0.484321 0.300786 0
0.56492 0.288808 0
0.636118 0.275334 0
0.70721 0.260945 0
0.775921 0.248493 0
0.840894 0.242023 9.15541e-05
0.895918 0.257023 0.00387579
0.938567 0.30837 0.00939956
0.952407 0.387442 0.0133974
0.947784 0.479744 0.0138857
0.94081 0.572396 0.0132296
0.935485 0.647456 0.013077
0.930373 0.720043 0.0346838
0.925841 0.792538 0.123033
0.921111 0.854719 0.203708
0.917174 0.903059 0.297215
0.913619 0.93904 0.407004
0.910307 0.9664 0.503761
0.907378 0.986755 0.582101
0.904784 1 0.658045
0.902846 1 0.722026
0 0.384787 0.000579843
0 0.385519 0.000549325
0 0.385977 0.000534066
0 0.386343 0.000534066
0 0.386618 0.000518807
0 0.386801 0.000518807
0 0.386908 0.000518807
0 0.387152 0.000503548
0 0.386709 0.000518807
0.133547 0.387518 0
0.258213 0.387854 0.000350958
0.363241 0.384909 0.000106813
0.469276 0.378973 0
0.558114 0.370932 0
0.633066 0.362661 0
0.705501 0.355291 0
0.773587 0.351629 0.00102235
0.837278 0.35491 0.00421149
0.890837 0.373312 0.00839246
0.931548 0.413321 0.0123751
0.946761 0.471824 0.0139162
0.943084 0.542168 0.0134279
0.938048 0.611521 0.0131685
0.933547 0.671946 0.0127871
0.928084 0.736507 0.0127718
0.924651 0.804303 0.11577
0.920531 0.861662 0.201373
0.916899 0.906813 0.296971
0.913481 0.9411 0.405722
0.910231 0.967559 0.503197
0.907332 0.987427 0.581674
0.904768 1 0.657771
0.902831 1 0.72192
0 0.4636 0
0 0.463935 0
0 0.464378 0
0 0.46511 0
0 0.465415 0
0 0.465644 0
0 0.465858 0
0 0.465965 0
0 0.465858 0
0.00570687 0.466224 0
0.17966 0.469749 0
0.3196 0.470527 0
0.441917 0.467918 0
0.544366 0.463539 0
0.624201 0.458061 0
0.69984 0.454231 0.000122072
0.768658 0.455268 0.00215152
0.8309 0.46244 0.00544747
0.882216 0.480766 0.0090486
0.921477 0.512551 0.0119326
0.940276 0.553719 0.0132906
0.93872 0.601587 0.0131533
0.935409 0.648432 0.013077
0.931075 0.701473 0.0122683
0.926009 0.758694 0.0109255
0.923217 0.818738 0.107591
0.919799 0.870542 0.198444
0.916533 0.911803 0.296757
0.913283 0.943999 0.405341
0.91014 0.9691 0.50248
0.907286 0.988342 0.581109
0.904738 1 0.657389
0.902815 1 0.721721
0 0.553979 0
0 0.554162 0
0 0.554498 0
0 0.554788 0
0 0.555016 0
0 0.555596 0
0 0.55581 0
0 0.555993 0
0 0.556146 0
0 0.556252 0
0.0534829 0.558007 0
0.237797 0.56286 0
0.394736 0.563226 0
0.520073 0.561547 0
0.606989 0.55877 0
0.687755 0.556817 0
0.75964 0.557656 0.00141909
0.822156 0.563653 0.00453193
0.872297 0.576822 0.0080415
0.91107 0.59765 0.0111086
0.935027 0.622843 0.0131228
0.935058 0.65304 0.0130312
0.931945 0.691295 0.0124666
0.928054 0.735866 0.01149
0.923644 0.785092 0.0102693
0.921508 0.836408 0.0956588
0.918898 0.881651 0.19501
0.91606 0.918181 0.296666
0.913008 0.947799 0.406088
0.910018 0.971252 0.501549
0.90721 0.989548 0.580331
0.904692 1 0.656886
0.902785 1 0.721431
0 0.634989 0
0 0.635035 0
0 0.635248 0
0 0.635447 0
0 0.635599 0
0 0.635752 0
0 0.635904 0
0 0.636088 0
0 0.6365 0
0 0.636561 0
0 0.636484 0
0.107668 0.638865 0
0.319249 0.641932 0
0.481697 0.640909 0
0.583047 0.639338 0
0.67071 0.637858 0
0.748287 0.638544 0.00106813
0.813352 0.64239 0.00428778
0.863386 0.650858 0.00772107
0.901091 0.664714 0.010544
0.929213 0.683833 0.0124666
0.930205 0.707912 0.0122072
0.92784 0.738384 0.011429
0.924575 0.774746 0.0105287
0.921065 0.814679 0.0096437
0.919631 0.856535 0.0809033
0.917891 0.894591 0.190784
0.915511 0.926009 0.296849
0.912657 0.952636 0.407279
0.909834 0.97409 0.50042
0.907118 0.991257 0.579278
0.904646 1 0.656214
0.902754 1 0.721065
0 0.710445 0
0 0.710445 0
0 0.710536 0
0 0.710658 0
0 0.71075 0
0 0.710842 0
0 0.710918 0
0 0.711025 0
0 0.71107 0
0 0.711055 0
0 0.711192 0
0 0.71075 0
0.186297 0.714137 0
0.420279 0.715099 0
0.5514 0.713787 0
0.646967 0.712398 0
0.731395 0.712276 0.000518807
0.800229 0.715068 0.00344854
0.851652 0.721279 0.00660716
0.888808 0.731563 0.00906386
0.917647 0.74641 0.0107576
0.92462 0.764935 0.0108186
0.923354 0.788266 0.010193
0.920958 0.815976 0.00961318
0.918532 0.846189 0.00921645
0.917601 0.878599 0.0615702
0.916823 0.909163 0.187167
0.914839 0.935607 0.297536
0.912245 0.958556 0.408972
0.909606 0.977676 0.500389
0.906996 0.99353 0.57792
0.90457 1 0.655268
0.902708 1 0.720546
0 0.785794 0
0 0.785794 0
0 0.785794 0
0 0.78587 0
0 0.785901 0
0 0.785931 0
0 0.785946 0
0 0.785977 0
0 0.785946 0
0 0.78584 0
0 0.78558 0
0 0.785367 0
0.00849927 0.785321 0
0.304829 0.78912 0.000122072
0.512245 0.788449 3.0518e-05
0.616983 0.786511 0
0.708827 0.785534 0.00062562
0.782345 0.786725 0.00282292
0.835981 0.790845 0.00544747
0.874449 0.797803 0.00753796
0.903059 0.808011 0.0089723
0.918593 0.821454 0.00953689
0.918929 0.837415 0.00939956
0.917754 0.856336 0.00914015
0.916213 0.877836 0.00907912
0.91548 0.900923 0.0351415
0.915724 0.925078 0.184192
0.914076 0.946624 0.299977
0.911727 0.965728 0.411521
0.90927 0.98204 0.502007
0.906813 0.996429 0.577157
0.904463 1 0.654017
0.902647 1 0.719814
0 0.858503 0.00170901
0 0.858503 0.00170901
0 0.858503 0.00170901
0 0.858503 0.00170901
0 0.858488 0.00170901
0 0.858473 0.00170901
0 0.858427 0.00169375
0 0.858381 0.00169375
0 0.858244 0.00167849
0 0.858 0.00166323
0 0.857618 0.00163272
0 0.856962 0.00157168
0 0.856153 0.00151064
0.185504 0.858885 0.00415045
0.454063 0.858534 0.00433356
0.58436 0.856077 0.00318914
0.683543 0.853407 0.00256352
0.761654 0.85275 0.00352483
0.818189 0.854185 0.0053254
0.858717 0.857755 0.00697337
0.888838 0.863325 0.00819409
0.910399 0.871595 0.0089723
0.915343 0.881605 0.00914015
0.91516 0.893492 0.00910964
0.914275 0.907378 0.00920119
0.913436 0.922789 0.0111849
0.914611 0.942046 0.184314
0.913237 0.958709 0.304479
0.911131 0.973816 0.4159
0.908858 0.987472 0.50425
0.906569 0.999985 0.577295
0.904326 1 0.652689
0.902571 1 0.718791
0 0.918959 0.00874342
0 0.918959 0.00874342
0 0.918959 0.00874342
0 0.918959 0.00874342
0 0.918959 0.00874342
0 0.918929 0.00874342
0 0.918837 0.00872816
0 0.918685 0.00869764
0 0.918441 0.00866712
0 0.918074 0.00862135
0 0.917525 0.00854505
0 0.916655 0.00842298
0 0.915434 0.00823987
0.0909285 0.915572 0.00943008
0.382986 0.91635 0.0107424
0.556939 0.912352 0.00791943
0.662272 0.908156 0.00572213
0.743236 0.905806 0.00537118
0.801495 0.905348 0.00628672
0.844129 0.90631 0.00743114
0.875792 0.908736 0.00836194
0.898726 0.912673 0.00901808
0.911971 0.918151 0.00936904
0.912917 0.925353 0.00947585
0.912673 0.934173 0.00950637
0.912566 0.945296 0.0275883
0.913542 0.959136 0.192065
0.912352 0.971374 0.312291
0.910445 0.982712 0.422293
0.908354 0.99379 0.507851
0.906218 1 0.579873
0.904158 1 0.651392
0.902449 1 0.71754
0 0.963973 0.015671
0 0.963973 0.015671
0 0.963973 0.015671
0 0.963973 0.015671
0 0.963973 0.015671
0 0.963973 0.015671
0 0.963973 0.015671
0 0.963806 0.0156558
0 0.9635 0.0155947
0 0.962982 0.0155184
0 0.96228 0.0153964
0 0.961303 0.0152438
0 0.959976 0.0150301
0.0397955 0.958724 0.0151369
0.329305 0.959319 0.0166934
0.540825 0.954284 0.0122683
0.648646 0.949096 0.00888075
0.729732 0.945541 0.00747692
0.78822 0.943954 0.00762951
0.83154 0.943572 0.00828565
0.864317 0.944121 0.00892653
0.88835 0.945891 0.00939956
0.906767 0.948806 0.00972
0.911055 0.952941 0.00984207
0.911269 0.958343 0.00984207
0.912169 0.966674 0.0741131
0.912505 0.975677 0.210086
0.911437 0.983902 0.324407
0.909697 0.992279 0.431388
0.90779 1 0.513024
0.905791 1 0.583963
0.903883 1 0.65388
0.902327 1 0.716045
0 0.998337 0.0212253
0 0.998337 0.0212253
0 0.998337 0.0212253
0 0.998337 0.0212253
0 0.998337 0.0212253
0 0.998337 0.0212253
0 0.998337 0.0212253
0 0.998337 0.0212253
0 0.998184 0.02121
0 0.997635 0.0211185
0 0.99675 0.0209812
0 0.995651 0.020798
0 0.994324 0.0205844
0.0468757 0.992782 0.0204623
0.340764 0.992248 0.0207523
0.538659 0.986297 0.0153201
0.643336 0.980682 0.0112306
0.721538 0.976608 0.00917067
0.778408 0.974273 0.00875868
0.821134 0.973114 0.0090486
0.854002 0.972702 0.00946059
0.878935 0.973022 0.00981155
0.89836 0.974197 0.0100404
0.908965 0.976211 0.0101625
0.910079 0.979095 0.010132
0.911528 0.985107 0.115587
0.911513 0.990799 0.235233
0.91046 0.996338 0.343175
0.908858 1 0.443442
0.907134 1 0.520256
0.905303 1 0.589517
0.903532 1 0.657893
0.902113 1 0.717571
0 1 0.0250706
0 1 0.0250706
0 1 0.0250706
0 1 0.0250706
0 1 0.0250706
0 1 0.0250706
0 1 0.0250706
0 1 0.0250706
0 1 0.0250706
0 1 0.0250706
0 1 0.0249332
0 1 0.0247349
0 1 0.0245212
0 1 0.0243076
0.402167 1 0.0222019
0.552346 1 0.0166781
0.648005 1 0.0124208
0.719738 0.999741 0.0102083
0.773098 0.997192 0.00955215
0.81413 0.99559 0.00961318
0.846036 0.994675 0.00987259
0.871 0.994293 0.0101167
0.891035 0.994415 0.0102998
0.906416 0.99527 0.0104067
0.908858 0.996933 0.014725
0.910796 1 0.16022
0.910475 1 0.269764
0.909407 1 0.369146
0.907958 1 0.46006
0.906416 1 0.529854
0.904738 1 0.597086
0.903136 1 0.663218
0.901839 1 0.720607
0 1 0.0277104
0 1 0.0277104
0 1 0.0277104
0 1 0.0277104
0 1 0.0277104
0 1 0.0277104
0 1 0.0277104
0 1 0.0277104
0 1 0.0277104
0 1 0.0277104
0 1 0.0277104
0 1 0.0275425
0 1 0.0274357
0.176104 1 0.0274815
0.471275 1 0.021622
0.578897 1 0.016556
0.660334 1 0.0127413
0.723033 1 0.0107424
0.771466 1 0.0100404
0.809918 1 0.0099794
0.840162 1 0.010132
0.864439 1 0.0103151
0.884398 1 0.0104524
0.900267 1 0.0130159
0.908812 1 0.116945
0.909926 1 0.222019
0.909346 1 0.31371
0.908278 1 0.402899
0.906996 1 0.480873
0.905608 1 0.543206
0.904112 1 0.606882
0.902678 1 0.670253
0.901534 1 0.724834
0 1 0.0295567
0 1 0.0295567
0 1 0.0295567
0 1 0.0295567
0 1 0.0295567
0 1 0.0295567
0 1 0.0295567
0 1 0.0295567
0 1 0.0295567
0 1 0.0295567
0 1 0.0295567
0 1 0.0295567
0 1 0.0293736
0.393744 1 0.0254978
0.529091 1 0.019852
0.612726 1 0.0154421
0.678935 1 0.0124514
0.73167 1 0.0108949
0.773846 1 0.0102693
0.808515 1 0.0101778
0.836515 1 0.010956
0.85977 1 0.0122072
0.879118 1 0.0136721
0.896162 1 0.103075
0.907576 1 0.201053
0.908598 1 0.285634
0.90811 1 0.365179
0.907118 1 0.440711
0.906004 1 0.503594
0.904753 1 0.560388
0.903426 1 0.620172
0.90219 1 0.679072
0.901198 1 0.730327
0.353155 1 0.0303655
0.353155 1 0.0303655
0.353155 1 0.0303655
0.353155 1 0.0303655
0.353124 1 0.0303655
0.353124 1 0.0303655
0.353124 1 0.0303655
0.353124 1 0.0303655
0.353109 1 0.0303807
0.353094 1 0.0303807
0.353094 1 0.0303807
0.353048 1 0.0303807
0.353017 1 0.0303807
0.496178 1 0.0249485
0.583963 1 0.0201267
0.648905 1 0.0168002
0.701106 1 0.0147707
0.74374 1 0.0137636
0.779751 1 0.0134279
0.810132 1 0.0135042
0.836149 1 0.0585946
0.858259 1 0.116686
0.87689 1 0.163394
0.892012 1 0.219181
0.904173 1 0.283955
0.907088 1 0.351568
0.906813 1 0.420493
0.905913 1 0.480705
0.904936 1 0.53019
0.903853 1 0.582177
0.902708 1 0.636942
0.901656 1 0.690639
0.900832 1 0.737438
0.576471 1 0.206912
0.576471 1 0.206912
0.576471 1 0.206912
0.576471 1 0.206912
0.576471 1 0.206912
0.576471 1 0.206912
0.576471 1 0.206912
0.576471 1 0.206912
0.576471 1 0.206912
0.576471 1 0.206912
0.576471 1 0.206912
0.576471 1 0.206912
0.576455 1 0.206912
0.57644 1 0.206912
0.630991 1 0.206516
0.68481 1 0.208392
0.725322 1 0.212589
0.759762 1 0.21883
0.789807 1 0.227909
0.815412 1 0.239658
0.837568 1 0.254765
0.857008 1 0.273777
0.873777 1 0.297871
0.887877 1 0.325704
0.899519 1 0.368811
0.905226 1 0.421256
0.905501 1 0.472282
0.904723 1 0.516808
0.903853 1 0.561502
0.902907 1 0.60856
0.901961 1 0.657603
0.901122 1 0.70457
0.900465 1 0.746197
0.678889 1 0.354192
0.678889 1 0.354192
0.678889 1 0.354192
0.678889 1 0.354192
0.678889 1 0.354192
0.678889 1 0.354192
0.678889 1 0.354192
0.678889 1 0.354192
0.678889 1 0.354192
0.678889 1 0.354192
0.678889 1 0.354192
0.678889 1 0.354192
0.678874 1 0.354192
0.678874 1 0.354192
0.678859 1 0.354192
0.711498 1 0.355489
0.746471 1 0.358968
0.774472 1 0.363394
0.798672 1 0.369299
0.819913 1 0.377371
0.83888 1 0.387442
0.856168 1 0.399863
0.87126 1 0.414847
0.884291 1 0.433265
0.895399 1 0.454536
0.903304 1 0.485527
0.90425 1 0.518044
0.903563 1 0.555444
0.902785 1 0.596201
0.901976 1 0.638743
0.901228 1 0.681224
0.900587 1 0.720913
0.900084 1 0.756512
0.741665 1 0.47364
0.741665 1 0.47364
0.741665 1 0.47364
0.741665 1 0.47364
0.741665 1 0.47364
0.741665 1 0.47364
0.741665 1 0.47364
0.741665 1 0.47364
0.741665 1 0.47364
0.741665 1 0.47364
0.741665 1 0.47364
0.741665 1 0.47364
0.741665 1 0.47364
0.741665 1 0.47364
0.74165 1 0.47364
0.74165 1 0.47364
0.763729 1 0.475288
0.787991 1 0.478141
0.807523 1 0.481621
0.824872 1 0.485908
0.841382 1 0.491447
0.856336 1 0.497414
0.869703 1 0.504646
0.881605 1 0.514321
0.89189 1 0.526925
0.90042 1 0.542351
0.90251 1 0.566522
0.902388 1 0.597818
0.901747 1 0.633356
0.901106 1 0.670726
0.900557 1 0.706325
0.900099 1 0.7393
0.899733 1 0.768399
0.78407 1 0.556527
0.78407 1 0.556527
0.78407 1 0.556527
0.78407 1 0.556527
0.78407 1 0.556527
0.78407 1 0.556527
0.78407 1 0.556527
0.78407 1 0.556527
0.78407 1 0.556527
