BBLuts/BB_103_0580_LUT.cube
TITLE "Generated by Resolve"
LUT_3D_SIZE 9
0.00415045 0.00553903 0.00477607
0.0216983 0.00608835 0.00576791
0.115129 0.00909438 0.00628672
0.406317 3.0518e-05 0.000610361
0.834852 0 0
0.979263 0 0
0.873106 0.526192 0.0172427
0.898665 0.809262 0.510781
0.93434 0.92697 0.82472
0.00358587 0.043946 0.0122072
0.0151064 0.0502174 0.0132906
0.142687 0.0595254 0.00607309
0.414786 0 0.000366217
0.835187 0 0
0.942382 0.0841535 0
0.870634 0.542519 0.0283055
0.899001 0.811368 0.512825
0.934417 0.927092 0.824887
0 0.232471 0.0206302
0 0.233234 0.0206302
0.130755 0.221347 0.0521096
0.364263 0.219043 0.00836194
0.710155 0.200687 0
0.895811 0.323583 0
0.86949 0.580163 0.0651102
0.90016 0.817685 0.518822
0.934676 0.927687 0.825605
0 0.474647 0.0368963
0 0.475135 0.0370336
0 0.475502 0.0371252
0.346197 0.459281 0.120211
0.658991 0.481254 0.0608988
0.865354 0.540383 0.0118257
0.879789 0.675761 0.177905
0.904112 0.837629 0.541543
0.935912 0.929885 0.828092
0.268238 0.769055 0.210391
0.268238 0.769055 0.210391
0.265812 0.767132 0.209155
0.321294 0.756008 0.211368
0.677531 0.748089 0.306355
0.864073 0.769985 0.266545
0.900282 0.809659 0.29601
0.913573 0.877836 0.600092
0.935668 0.929564 0.826642
0.516548 0.919921 0.482658
0.516548 0.919921 0.482658
0.516548 0.919921 0.482658
0.561456 0.916899 0.448463
0.78378 0.900313 0.498405
0.878294 0.90248 0.463203
0.925032 0.908644 0.37995
0.931228 0.927779 0.726848
0.935363 0.930053 0.830045
0.707958 0.91458 0.45922
0.707958 0.91458 0.45922
0.707958 0.91458 0.45922
0.71664 0.914275 0.462501
0.820294 0.913985 0.598795
0.88751 0.9187 0.687877
0.926879 0.926452 0.708339
0.932631 0.927565 0.775311
0.936675 0.930388 0.839963
0.854292 0.924285 0.756985
0.854292 0.924285 0.756985
0.854292 0.924285 0.756985
0.854292 0.924285 0.756985
0.856092 0.924239 0.757778
0.897658 0.924071 0.791135
0.926665 0.926421 0.814664
0.934661 0.93022 0.83209
0.936812 0.930205 0.854963
0.910857 0.929702 0.852552
0.910857 0.929702 0.852552
0.910857 0.929702 0.852552
0.910857 0.929702 0.852552
0.910857 0.929702 0.852552
0.910948 0.929702 0.852613
0.927764 0.931533 0.859342
0.937057 0.93344 0.863523
0.937438 0.933379 0.86923
0.00415045 0.00567636 0.0136263
0.00976577 0.00640879 0.0187686
0.0820478 0.0167239 0.0459907
0.36228 0.00148013 0.0799573
0.884871 0 0.0505837
0.997681 0 0.0618601
0.8822 0.522545 0.0470741
0.898665 0.809262 0.510781
0.93434 0.92697 0.82472
0.00320439 0.0352941 0.0434882
0.0139773 0.0397345 0.0499886
0.129442 0.0350958 0.0610208
0.383719 0.000839246 0.069749
0.892073 0 0.0290684
0.992584 0.000915541 0.00299077
0.877363 0.541421 0.059678
0.899001 0.811368 0.512825
0.934417 0.927092 0.824887
0 0.224521 0.036759
0 0.22565 0.0369116
0.133074 0.214038 0.0631876
0.361135 0.211322 0.0149538
0.719356 0.181643 0
0.904524 0.313024 0
0.872023 0.581048 0.0944533
0.90016 0.817685 0.518822
0.934676 0.927687 0.825605
0 0.470237 0.0357214
0 0.470726 0.0358434
0 0.47097 0.0359197
0.347631 0.456062 0.11574
0.65861 0.477546 0.0581979
0.865293 0.537758 0.0105135
0.879728 0.674556 0.17821
0.904082 0.837491 0.541299
0.935912 0.929885 0.828092
0.266423 0.76762 0.209461
0.266209 0.767452 0.209354
0.263981 0.765698 0.208209
0.328206 0.754452 0.213306
0.677943 0.747204 0.303655
0.864164 0.769268 0.265995
0.900282 0.80943 0.295384
0.913573 0.877836 0.600092
0.935668 0.929564 0.826642
0.516548 0.919921 0.482658
0.516548 0.919921 0.482658
0.516548 0.919921 0.482658
0.563836 0.916869 0.448142
0.784237 0.900023 0.497993
0.878294 0.902358 0.463371
0.924971 0.908507 0.379492
0.931228 0.927779 0.726848
0.935363 0.930053 0.830045
0.709545 0.914549 0.459586
0.709545 0.914549 0.459586
0.709545 0.914549 0.459586
0.718059 0.914199 0.462837
0.820691 0.91397 0.599252
0.887587 0.9187 0.687831
0.926879 0.926452 0.708339
0.932631 0.927565 0.775311
0.936675 0.930388 0.839963
0.854459 0.924269 0.757046
0.854459 0.924269 0.757046
0.854459 0.924269 0.757046
0.854459 0.924269 0.757046
0.85626 0.924224 0.757839
0.897749 0.924071 0.791226
0.926665 0.926421 0.814664
0.934661 0.93022 0.83209
0.936812 0.930205 0.854963
0.910948 0.929702 0.852567
0.910948 0.929702 0.852567
0.910948 0.929702 0.852567
0.910948 0.929702 0.852567
0.910948 0.929702 0.852567
0.91104 0.929717 0.852644
0.927764 0.931533 0.859342
0.937057 0.93344 0.863523
0.937438 0.933379 0.86923
0.0055848 0.00979629 0.04065
0.00576791 0.00979629 0.04094
0.0694896 0.0189517 0.100847
0.31107 0.0412757 0.188754
0.676402 3.0518e-05 0.224887
0.840787 0 0.241352
0.919615 0.494377 0.188571
0.898665 0.808911 0.554147
0.93434 0.92697 0.82472
0.00553903 0.0110018 0.0443427
0.00640879 0.0110781 0.0457465
0.0774701 0.019852 0.104829
0.308202 0.0408331 0.186679
0.676295 1.5259e-05 0.222263
0.86479 0 0.231617
0.912795 0.517647 0.186526
0.898939 0.811215 0.55668
0.934417 0.927092 0.824887
0 0.195911 0.200824
0 0.197818 0.20116
0.0951247 0.1935 0.19826
0.378515 0.174624 0.19382
0.720958 0.0841993 0.198291
0.979599 0.219226 0.169085
0.899565 0.569039 0.194858
0.899886 0.817914 0.563958
0.934676 0.927687 0.825605
0 0.457527 0.153277
0 0.458274 0.153613
0 0.458869 0.154833
0.346685 0.445945 0.211734
0.651667 0.472724 0.150927
0.886564 0.528969 0.0885023
0.881483 0.677378 0.284703
0.903456 0.838315 0.58407
0.935912 0.929885 0.828092
0.260868 0.763272 0.206699
0.260868 0.763272 0.206699
0.258778 0.761654 0.205524
0.320897 0.751614 0.210712
0.675059 0.74345 0.299748
0.862409 0.765713 0.266239
0.899245 0.809689 0.388922
0.913176 0.877989 0.622675
0.935668 0.929564 0.826642
0.516548 0.919921 0.482658
0.516548 0.919921 0.482658
0.516548 0.919921 0.482658
0.577508 0.916197 0.446983
0.785595 0.899626 0.497581
0.878462 0.902022 0.465126
0.924834 0.908248 0.378592
0.931182 0.927657 0.726345
0.935363 0.930053 0.830045
0.712917 0.914427 0.459968
0.712917 0.914427 0.459968
0.712993 0.914427 0.46009
0.72108 0.914 0.463432
0.821561 0.91397 0.600275
0.88777 0.91873 0.6878
0.926879 0.926452 0.708263
0.932631 0.927565 0.77525
0.936675 0.930388 0.839963
0.854795 0.924269 0.757168
0.854795 0.924269 0.757168
0.854795 0.924269 0.757168
0.854795 0.924269 0.757168
0.856596 0.924224 0.7579
0.897826 0.924071 0.791302
0.926741 0.926436 0.814649
0.934661 0.93022 0.83209
0.936812 0.930205 0.854963
0.910948 0.929702 0.852567
0.910948 0.929702 0.852567
0.910948 0.929702 0.852567
0.910948 0.929702 0.852567
0.910948 0.929702 0.852567
0.911025 0.929717 0.852598
0.927764 0.931533 0.859342
0.937057 0.93344 0.863523
0.937438 0.933379 0.86923
0.00872816 0.0144656 0.118944
0.00872816 0.0144808 0.119142
0.0130465 0.0160678 0.131731
0.276951 0.0508278 0.329519
0.63859 0.0681773 0.398566
0.780819 0.00169375 0.426551
0.881514 0.451164 0.486641
0.900542 0.804089 0.635737
0.935805 0.926329 0.83827
0.00869764 0.014435 0.118441
0.0087129 0.014435 0.118502
0.0156558 0.0164797 0.138689
0.284337 0.0522927 0.330098
0.637308 0.0681621 0.397391
0.781338 0.00141909 0.425055
0.894392 0.470207 0.484657
0.900786 0.806622 0.639231
0.935943 0.926589 0.838514
0 0.0703288 0.273777
0 0.0720226 0.276799
6.10361e-05 0.0721904 0.289708
0.292744 0.0709697 0.334493
0.626169 0.0706493 0.392325
0.816312 0.133715 0.427253
0.920409 0.513954 0.472496
0.901228 0.813657 0.649195
0.936294 0.927245 0.839139
0 0.415702 0.401038
0 0.416281 0.401114
0 0.417899 0.402014
0.28748 0.415335 0.402594
0.674083 0.416571 0.409125
0.923964 0.464912 0.418906
0.91371 0.649622 0.428885
0.903288 0.83476 0.676921
0.937636 0.929839 0.841672
0.268574 0.754849 0.459953
0.268574 0.754849 0.459953
0.267338 0.753826 0.460121
0.274037 0.744579 0.456489
0.672602 0.735454 0.5299
0.854994 0.763012 0.514199
0.899046 0.80914 0.578027
0.912291 0.875975 0.717922
0.937774 0.93048 0.841566
0.530861 0.921477 0.506355
0.530861 0.921477 0.506355
0.530861 0.921477 0.506355
0.557733 0.915557 0.507439
0.764538 0.905989 0.55848
0.880354 0.900465 0.684627
0.924712 0.911986 0.696452
0.933013 0.92604 0.778363
0.936889 0.93048 0.839094
0.72018 0.914717 0.475349
0.72018 0.914717 0.475349
0.72018 0.914717 0.475349
0.726375 0.914504 0.478218
0.82359 0.913664 0.593179
0.88893 0.918746 0.693751
0.926833 0.927214 0.714199
0.932662 0.92755 0.776623
0.93669 0.930388 0.840024
0.855909 0.924239 0.757412
0.855909 0.924239 0.757412
0.855909 0.924239 0.757412
0.855909 0.924239 0.757412
0.857633 0.924193 0.758175
0.898177 0.924056 0.791592
0.926818 0.926436 0.814618
0.934661 0.93022 0.832044
0.936812 0.930205 0.854932
0.911116 0.929717 0.852628
0.911116 0.929717 0.852628
0.911116 0.929717 0.852628
0.911116 0.929717 0.852628
0.911116 0.929717 0.852628
0.911208 0.929732 0.852659
0.927855 0.931548 0.859373
0.937057 0.93344 0.863523
0.937438 0.933379 0.86923
0 0.0229191 0.419944
0 0.0229038 0.420233
0 0.0229038 0.420539
0.0040589 0.0306706 0.603204
0.573831 0.0950484 0.680629
0.737255 0.0894636 0.681056
0.773022 0.281804 0.681102
0.912688 0.774853 0.755825
0.934691 0.925261 0.856107
0 0.0229191 0.419638
0 0.0229191 0.419638
0 0.0229191 0.419638
0.0100404 0.0317693 0.615228
0.57821 0.0953078 0.680064
0.737255 0.0894636 0.680537
0.783734 0.322927 0.683131
0.912978 0.778424 0.755245
0.934829 0.925505 0.85626
0 0.0229648 0.416968
0 0.0229648 0.416968
0 0.0229496 0.417273
0.069749 0.0362097 0.643091
0.584787 0.0956893 0.678538
0.737255 0.0894942 0.678645
0.803967 0.425498 0.689784
0.914199 0.788357 0.75346
0.935164 0.926146 0.856657
0 0.250477 0.678172
0 0.250477 0.678172
0 0.253788 0.678737
0.0407721 0.24712 0.678294
0.578622 0.228428 0.669474
0.789914 0.342489 0.669978
0.851896 0.590234 0.712474
0.911711 0.818402 0.758404
0.936477 0.928786 0.85832
0.220905 0.708354 0.712154
0.220905 0.708354 0.712154
0.221088 0.708492 0.712184
0.214771 0.703288 0.710292
0.61146 0.701595 0.709178
0.861387 0.725063 0.707576
0.912383 0.786801 0.71928
0.912367 0.869673 0.796353
0.938033 0.932052 0.860258
0.56968 0.92282 0.76965
0.56968 0.92282 0.76965
0.56968 0.92282 0.76965
0.561715 0.919005 0.766827
0.740078 0.903883 0.770184
0.864546 0.901915 0.789883
0.924804 0.909453 0.816587
0.935592 0.92549 0.84329
0.937606 0.931517 0.859266
0.711116 0.917433 0.747265
0.711116 0.917433 0.747265
0.711116 0.917433 0.747265
0.712856 0.917464 0.747509
0.80235 0.921157 0.763241
0.87686 0.925704 0.78822
0.927031 0.928527 0.828473
0.937209 0.930358 0.842084
0.93698 0.930327 0.856855
0.858549 0.924178 0.760876
0.858549 0.924178 0.760876
0.858549 0.924178 0.760876
0.858549 0.924178 0.760876
0.859907 0.924147 0.761364
0.898772 0.924086 0.7935
0.926863 0.926604 0.816434
0.934951 0.930449 0.834333
0.936812 0.93022 0.855299
0.911559 0.929763 0.852796
0.911559 0.929763 0.852796
0.911559 0.929763 0.852796
0.911559 0.929763 0.852796
0.911559 0.929763 0.852796
0.91165 0.929778 0.852827
0.927947 0.931548 0.859373
0.937057 0.93344 0.863493
0.937438 0.933379 0.8692
0 0.00959792 0.789746
0 0.00959792 0.789746
0 0.00959792 0.789746
0 0.00959792 0.789746
0.345617 0.082887 0.894667
0.740963 0.0840772 0.866835
0.740948 0.084062 0.867018
0.849851 0.662089 0.822232
0.932448 0.917388 0.874189
0 0.00959792 0.789746
0 0.00959792 0.789746
0 0.00959792 0.789746
0 0.00959792 0.789746
0.345464 0.0828717 0.894667
0.740963 0.0840772 0.866667
0.740963 0.0840772 0.866835
0.85243 0.671839 0.823026
0.932555 0.917647 0.874311
0 0.00962844 0.789487
0 0.00962844 0.789487
0 0.00962844 0.789487
0 0.00962844 0.789487
0.365423 0.0846265 0.894057
0.740978 0.0840925 0.866484
0.741085 0.0844739 0.866285
0.858671 0.695277 0.824857
0.932937 0.918517 0.874708
0 0.00967422 0.788708
0 0.00967422 0.788708
0 0.00967422 0.788708
0 0.00970474 0.78909
0.420569 0.0896773 0.891676
0.740993 0.0841077 0.865934
0.748425 0.133989 0.852308
0.876448 0.755184 0.830549
0.934325 0.921889 0.876326
0 0.494255 0.841367
0 0.494255 0.841367
0 0.494255 0.841367
0 0.499123 0.840833
0.428168 0.506508 0.829038
0.808316 0.553445 0.817273
0.857572 0.690166 0.820111
0.909316 0.842237 0.84271
0.938247 0.931395 0.880674
0.575372 0.913314 0.852552
0.575372 0.913314 0.852552
0.575372 0.913314 0.852552
0.571801 0.911833 0.85214
0.66923 0.89044 0.843748
0.849195 0.888457 0.849882
0.918547 0.898939 0.859297
0.933227 0.920134 0.870207
0.938537 0.933349 0.880583
0.660929 0.918593 0.84622
0.661021 0.918593 0.84622
0.661021 0.918593 0.84622
0.661021 0.918593 0.84622
0.779431 0.921614 0.851545
0.872068 0.926818 0.861112
0.922057 0.931136 0.868025
0.938155 0.93341 0.87361
0.937942 0.933288 0.87863
0.854551 0.925246 0.851225
0.854551 0.925246 0.851225
0.854551 0.925246 0.851225
0.854551 0.925246 0.851225
0.854994 0.925292 0.851255
0.889143 0.929564 0.85594
0.921263 0.93109 0.86244
0.937331 0.933364 0.868986
0.937621 0.933303 0.87483
0.912886 0.929885 0.853269
0.912886 0.929885 0.853269
0.912886 0.929885 0.853269
0.912886 0.929885 0.853269
0.912886 0.929885 0.853269
0.912886 0.929885 0.853269
0.928374 0.931594 0.859525
0.937057 0.93344 0.863523
0.937469 0.933379 0.869734
0 0.00839246 0.806287
0 0.00839246 0.806287
0 0.00839246 0.806287
0 0.00839246 0.806287
0 0.00834669 0.80943
0.719356 0.0860151 0.909636
0.738628 0.0825971 0.907912
0.742931 0.108049 0.905318
0.910948 0.872389 0.881422
0 0.00839246 0.806287
0 0.00839246 0.806287
0 0.00839246 0.806287
0 0.00839246 0.806287
0 0.00834669 0.80943
0.719356 0.0860151 0.909636
0.738628 0.0825971 0.907912
0.743221 0.110674 0.905135
0.911345 0.873274 0.881605
0 0.00839246 0.806287
0 0.00839246 0.806287
0 0.00839246 0.806287
0 0.00839246 0.806287
0 0.00834669 0.8094
0.719356 0.0860151 0.909636
0.738628 0.0825971 0.907912
0.743877 0.115648 0.904707
0.912444 0.875898 0.882139
0 0.00839246 0.806287
0 0.00839246 0.806287
0 0.00839246 0.806287
0 0.00839246 0.806287
0 0.00831617 0.810819
0.723949 0.0852064 0.909224
0.738628 0.0825971 0.907912
0.74609 0.126253 0.903792
0.916304 0.884886 0.883879
0 0.00839246 0.806287
0 0.00839246 0.806287
0 0.00839246 0.806287
0 0.00839246 0.806287
0 0.00839246 0.816007
0.7364 0.0829938 0.90811
0.740276 0.0880293 0.907057
0.793896 0.433143 0.88188
0.926055 0.90695 0.888609
0.228412 0.756008 0.877409
0.228412 0.756008 0.877409
0.228412 0.756008 0.877409
0.228412 0.756008 0.877409
0.232013 0.757153 0.87689
0.752987 0.757992 0.868086
0.887694 0.805203 0.871916
0.914321 0.87985 0.881483
0.942199 0.935958 0.897749
0.614069 0.925536 0.888441
0.614069 0.925536 0.888441
0.614069 0.925536 0.888441
0.614069 0.925536 0.888441
0.611963 0.923247 0.886473
0.853376 0.927169 0.887755
0.920913 0.933593 0.892882
0.941054 0.935592 0.89601
0.941054 0.935729 0.896574
0.840345 0.926436 0.883879
0.840345 0.926436 0.883879
0.840345 0.926436 0.883879
0.840345 0.926436 0.883879
0.840345 0.926436 0.883879
0.880858 0.929366 0.887434
0.918578 0.933227 0.890867
0.939269 0.93521 0.894423
0.940322 0.93547 0.895476
0.911467 0.932342 0.886961
0.911467 0.932342 0.886961
0.911467 0.932342 0.886961
0.911467 0.932342 0.886961
0.911467 0.932342 0.886961
0.911467 0.932342 0.886961
0.925978 0.933547 0.889143
0.937865 0.934478 0.8916
0.939681 0.93492 0.893248
0 0.0750134 0.888395
0 0.0750134 0.888395
0 0.0750134 0.888395
0 0.0750134 0.888395
0 0.0750134 0.888395
0 0.0751354 0.888441
0.738628 0.0825971 0.907912
0.748211 0.138628 0.903777
0.822873 0.585321 0.876478
0 0.0750134 0.888395
0 0.0750134 0.888395
0 0.0750134 0.888395
0 0.0750134 0.888395
0 0.0750134 0.888395
0 0.0751354 0.888441
0.738628 0.0825971 0.907912
0.748211 0.138628 0.903777
0.822873 0.585321 0.876478
0 0.0750134 0.888395
0 0.0750134 0.888395
0 0.0750134 0.888395
0 0.0750134 0.888395
0 0.0750134 0.888395
0 0.0751354 0.888441
0.738628 0.0825971 0.907912
0.748211 0.138628 0.903777
0.823026 0.585214 0.876478
0 0.0750134 0.888395
0 0.0750134 0.888395
0 0.0750134 0.888395
0 0.0750134 0.888395
0 0.0750134 0.888395
0 0.0751354 0.888441
0.738628 0.0825971 0.907912
0.748211 0.138628 0.903777
0.822995 0.585107 0.876478
0 0.0746624 0.888273
0 0.0746624 0.888273
0 0.0746624 0.888273
0 0.0746624 0.888273
0 0.0746624 0.888273
0 0.0747845 0.888304
0.738628 0.0825971 0.907912
0.748638 0.141588 0.903593
0.822858 0.584649 0.876493
0 0.073167 0.887709
0 0.073167 0.887709
0 0.073167 0.887709
0 0.073167 0.887709
0 0.073167 0.887709
0 0.0570382 0.887465
0.738628 0.0825971 0.907912
0.750835 0.162463 0.902998
0.871656 0.760632 0.878096
0.522591 0.887694 0.895811
0.522591 0.887694 0.895811
0.522591 0.887694 0.895811
0.522591 0.887694 0.895811
0.522591 0.887694 0.895811
0.51107 0.88098 0.892607
0.879103 0.868666 0.887587
0.930709 0.917144 0.898894
0.941817 0.936431 0.905135
0.683955 0.920913 0.895293
0.683955 0.920913 0.895293
0.683955 0.920913 0.895293
0.683955 0.920913 0.895293
0.683955 0.920913 0.895293
0.732509 0.921813 0.895949
0.910048 0.932525 0.901518
0.938842 0.936248 0.90454
0.940887 0.936355 0.904692
0.905608 0.932143 0.901015
0.905608 0.932143 0.901015
0.905608 0.932143 0.901015
0.905608 0.932143 0.901015
0.905608 0.932143 0.901015
0.905608 0.932143 0.901015
0.92195 0.933822 0.901686
0.93756 0.936172 0.904005
0.940887 0.936339 0.904295
0 0.250767 0.903838
0 0.250767 0.903838
0 0.250767 0.903838
0 0.250767 0.903838
0 0.250767 0.903838
0 0.250767 0.903838
0 0.249699 0.903761
0.75375 0.191791 0.901717
0.830945 0.617105 0.876112
0 0.250767 0.903838
0 0.250767 0.903838
0 0.250767 0.903838
0 0.250767 0.903838
0 0.250767 0.903838
0 0.250767 0.903838
0 0.249699 0.903761
0.75375 0.191791 0.901717
0.830945 0.617105 0.876112
0 0.250767 0.903838
0 0.250767 0.903838
0 0.250767 0.903838
0 0.250767 0.903838
0 0.250767 0.903838
0 0.250767 0.903838
0 0.249699 0.903761
0.75375 0.191791 0.901717
0.830945 0.617105 0.876112
0 0.250767 0.903838
0 0.250767 0.903838
0 0.250767 0.903838
0 0.250767 0.903838
0 0.250767 0.903838
0 0.250767 0.903838
0 0.249699 0.903761
0.753735 0.191699 0.901717
0.830945 0.617105 0.876112
0 0.250767 0.903838
0 0.250767 0.903838
0 0.250767 0.903838
0 0.250767 0.903838
0 0.250767 0.903838
0 0.250767 0.903838
0 0.249699 0.903761
0.753719 0.191608 0.901717
0.830945 0.617105 0.876112
0 0.250553 0.903838
0 0.250553 0.903838
0 0.250553 0.903838
0 0.250553 0.903838
0 0.250553 0.903838
0 0.250553 0.903838
0 0.248875 0.903792
0.758755 0.222019 0.900511
0.831693 0.619486 0.876081
0 0.249577 0.903883
0 0.249577 0.903883
0 0.249577 0.903883
0 0.249577 0.903883
0 0.249577 0.903883
0 0.249577 0.903883
0 0.185504 0.906981
0.766003 0.271 0.896956
0.832639 0.623697 0.876036
0.620447 0.92639 0.902296
0.620447 0.92639 0.902296
0.620447 0.92639 0.902296
0.620447 0.92639 0.902296
0.620447 0.92639 0.902296
0.620447 0.92639 0.902296
0.687312 0.921065 0.895293
0.937224 0.936172 0.904875
0.941146 0.936385 0.905043
0.871275 0.929641 0.899977
0.871275 0.929641 0.899977
0.871275 0.929641 0.899977
0.871275 0.929641 0.899977
0.871275 0.929641 0.899977
0.871275 0.929641 0.899977
0.887419 0.930785 0.90132
0.93431 0.935729 0.904387
0.940887 0.93637 0.904982
