BBLuts/BB_106_0090_LUT.cube
TITLE "Generated by Resolve"
LUT_3D_SIZE 5
0.0137179 0.0137179 0.0137179
0.186297 0.0133822 0.0138399
0.735119 0.0121767 0.0142672
0.968902 0.481956 0.161257
0.984634 0.874418 0.787396
0.0212711 0.198215 0.0145724
0.172137 0.200381 0.0146944
0.743542 0.0777447 0.0145724
0.971206 0.54432 0.13492
0.984665 0.875425 0.786954
0.0445716 0.714931 0.0171969
0.0445411 0.714473 0.0171969
0.715129 0.702327 0.0176394
0.979583 0.752697 0.018143
0.984955 0.882399 0.783459
0.634485 0.920439 0.278416
0.66746 0.919936 0.28014
0.805875 0.914168 0.294331
0.982712 0.904814 0.418036
0.986099 0.910262 0.799847
0.959808 0.91902 0.87921
0.960143 0.91902 0.87924
0.962676 0.91902 0.879515
0.978271 0.918975 0.882338
0.986465 0.918929 0.906538
0.0137331 0.0134737 0.194186
0.166293 0.0131685 0.194217
0.734905 0.0119173 0.197253
0.968399 0.467292 0.312856
0.984619 0.874159 0.79881
0.0200504 0.168124 0.179385
0.177157 0.164691 0.175402
0.735744 0.0119478 0.181659
0.970825 0.533852 0.29752
0.984665 0.875151 0.798413
0.0444038 0.71165 0.0171817
0.0443732 0.711116 0.0171817
0.720165 0.699001 0.0176242
0.979522 0.750988 0.15404
0.984955 0.88217 0.79527
0.639811 0.920424 0.278065
0.671824 0.919753 0.279805
0.807431 0.914061 0.294041
0.982803 0.904784 0.41799
0.986099 0.910246 0.799771
0.959869 0.91902 0.879194
0.960204 0.91902 0.87924
0.962722 0.91902 0.879515
0.978286 0.918975 0.882338
0.986465 0.918929 0.906538
0.0137636 0.0126802 0.725856
0.0137636 0.0126802 0.726055
0.74078 0.0111086 0.721859
0.962127 0.284184 0.742977
0.984543 0.872099 0.858427
0.0137636 0.0126802 0.724193
0.0137636 0.0126802 0.724407
0.749615 0.0110933 0.720073
0.966461 0.411032 0.739742
0.984588 0.873167 0.858198
0.0420233 0.662943 0.689586
0.0420386 0.663279 0.689876
0.697841 0.652613 0.691524
0.978637 0.728099 0.717113
0.984894 0.880537 0.856397
0.645029 0.919295 0.551278
0.675319 0.918242 0.552163
0.805753 0.912764 0.559472
0.978393 0.903685 0.62562
0.986084 0.909804 0.84126
0.960266 0.91902 0.879149
0.960601 0.91902 0.879194
0.963088 0.91902 0.879469
0.978439 0.918975 0.882292
0.986465 0.918929 0.906523
0.0137789 0.012253 0.972732
0.0137789 0.012253 0.972732
0.0137789 0.012253 0.972732
0.953079 0.0101625 0.973312
0.983474 0.845655 0.961257
0.0137789 0.012253 0.972732
0.0137789 0.012253 0.972732
0.0137789 0.012253 0.972732
0.953079 0.0101625 0.973312
0.983566 0.847868 0.961089
0.0137789 0.012253 0.972732
0.0137789 0.012253 0.972732
0.224094 0.011841 0.972839
0.953079 0.0101625 0.973312
0.984146 0.862058 0.960006
0.0550851 0.920562 0.953536
0.0550698 0.920256 0.953368
0.665797 0.908537 0.952712
0.961227 0.895521 0.952102
0.985946 0.906233 0.955856
0.958236 0.918959 0.931365
0.958556 0.918959 0.93138
0.960937 0.918944 0.931502
0.97583 0.918914 0.932692
0.986465 0.918883 0.94342
0.0259098 0.308034 0.973831
0.0259098 0.308034 0.973831
0.0259098 0.308049 0.973831
0.0259251 0.308171 0.973831
0.976226 0.668498 0.975921
0.0259098 0.308019 0.973831
0.0259098 0.308019 0.973831
0.0259098 0.308034 0.973831
0.0259098 0.308171 0.973831
0.976242 0.668589 0.975921
0.0259098 0.307912 0.973831
0.0259098 0.307927 0.973831
0.0259098 0.307927 0.973831
0.0259098 0.308064 0.973831
0.976257 0.66923 0.975921
0.025864 0.306859 0.973831
0.025864 0.306859 0.973831
0.025864 0.306874 0.973831
0.953079 0.0101625 0.973312
0.976364 0.67155 0.975937
0.90193 0.919005 0.97702
0.90341 0.919005 0.97702
0.913878 0.918975 0.97702
0.959838 0.918883 0.97705
0.986465 0.918837 0.977066
