BBLuts/BB_103_0590_LUT.cube
TITLE "Generated by Resolve"
LUT_3D_SIZE 33
0 0 0
0 0 0
0 0 0
0 0 0
0 0 0
0 0 0
0.0190585 0 0
0.0547189 0 0
0.107042 0 0
0.18117 0 0
0.272679 0 0
0.382177 0 0
0.508446 0 0
0.644785 0 0
0.764401 0 0
0.883833 0 0
1 0 0
1 0 0
1 0 0
1 0 0
1 0 0
1 0.00196841 0
1 0.283314 0
1 0.430625 0
1 0.542138 0
1 0.639246 0.100526
1 0.730938 0.245045
1 0.810529 0.387778
1 0.873518 0.510094
1 0.922988 0.61677
1 0.961212 0.704204
1 0.991867 0.771206
1 1 0.824552
0 0 0
0 0 0
0 0 0
0 0 0
0 0 0
0 0 0
0.0206149 0 0
0.0574655 0 0
0.110338 0 0
0.184375 0 0
0.275746 0 0
0.385168 0 0
0.511147 0 0
0.646433 0 0
0.765454 0 0
0.884627 0 0
1 0 0
1 0 0
1 0 0
1 0 0
1 0 0
1 0.0673075 0
1 0.309422 0
1 0.442756 0
1 0.550042 0
1 0.644556 0.104707
1 0.734585 0.249454
1 0.81294 0.390661
1 0.874861 0.511604
1 0.923919 0.617594
1 0.961624 0.70454
1 0.992172 0.77142
1 1 0.824872
0 0 0
0 0 0
0 0 0
0 0 0
0 0 0
0 0 0
0.0213626 0 0
0.0590982 0 0
0.112886 0 0
0.187243 0 0
0.27866 0 0
0.38793 0 0
0.513664 0 0
0.648234 0 0
0.76669 0 0
0.885222 0 0
1 0 0
1 0 0
1 0 0
1 0 0
1 0 0
1 0.112367 0
1 0.332494 0
1 0.45388 0
1 0.557427 0
1 0.649821 0.109133
1 0.738064 0.253651
1 0.815061 0.393042
1 0.876188 0.513191
1 0.924697 0.618235
1 0.962219 0.705089
1 0.992462 0.771634
1 1 0.824994
0 0 0
0 0 0
0 0 0
0 0 0
0 0 0
0 0 0
0.0243381 0 0
0.0710765 0 0
0.127626 0 0
0.193103 0 0
0.282124 0 0
0.391409 0 0
0.516991 0 0
0.650416 0 0
0.767895 0 0
0.885969 0 0
1 0 0
1 0 0
1 0 0
1 0 0
1 0 0
1 0.175357 0
1 0.352544 0
1 0.465202 0
1 0.564736 0
1 0.655055 0.113802
1 0.741543 0.257755
1 0.817304 0.395697
1 0.877546 0.514595
1 0.925643 0.619028
1 0.962646 0.705486
1 0.992752 0.771847
1 1 0.825147
0 0.0018616 0
0 0.00364691 0
0 0.00460822 0
0 0.00497444 0
0 0.0080415 0
0.002121 0.0146029 0
0.0384527 0.0207828 0
0.0871595 0.0231479 0
0.145373 0.0195163 0
0.213199 0.00222782 0
0.289189 0 0
0.391592 0 0
0.520775 0 0
0.652949 0 0
0.769604 0 0
0.886885 0 0
1 0 0
1 0 0
1 0 0
1 0 0
1 0 0
1 0.228931 0
1 0.374975 0
1 0.479347 0
1 0.573541 0
1 0.661265 0.119326
1 0.745754 0.262684
1 0.820005 0.39884
1 0.87924 0.516152
1 0.926574 0.619821
1 0.963226 0.705974
1 0.993179 0.772213
1 1 0.825422
0 0.0560922 0
0 0.0577401 0
0 0.0585641 0
0 0.058854 0
0 0.0599832 0
0 0.061677 0
0.0473487 0.0679789 0
0.100938 0.0744335 0
0.161563 0.0739757 0
0.222873 0.0692302 0
0.291142 0.0582742 0
0.381674 0.0245518 0
0.49662 0 0
0.640528 0 0
0.771725 0 0
0.888273 0 0
1 0 0
1 0 0
1 0 0
1 0 0
1 0.0781872 0
1 0.276066 0
1 0.400336 0
1 0.497032 0
1 0.584115 0
1 0.669291 0.126513
1 0.751247 0.269291
1 0.823621 0.402975
1 0.881392 0.518196
1 0.927977 0.621042
1 0.963958 0.706615
1 0.993622 0.772564
1 1 0.825711
0 0.126986 0
0 0.128145 0
0 0.128832 0
0 0.129335 0
0 0.128725 0
0 0.128908 0
0.046067 0.123903 0
0.103304 0.127794 0
0.164965 0.129396 0
0.228885 0.127169 0
0.291279 0.122072 0
0.362539 0.113069 0
0.454505 0.0888228 0
0.572839 0.0348821 0
0.707439 0 0
0.856565 0 0
1 0 0
1 0 0
1 0 0
1 0 0
1 0.189548 0
1 0.323278 0
1 0.427558 0
1 0.515541 0
1 0.597055 0
1 0.679393 0.135607
1 0.758267 0.277226
1 0.828 0.407919
1 0.884138 0.520745
1 0.929854 0.622538
1 0.964981 0.7075
1 0.994202 0.772992
1 1 0.825986
0 0.194369 0
0 0.194965 0
0 0.195254 0
0 0.195392 0
0 0.195392 0
0 0.193637 0
0 0.188449 0
0.0969711 0.177951 0
0.155077 0.183719 0
0.223056 0.18381 0
0.290822 0.178607 0
0.363226 0.173419 0
0.440681 0.167239 0
0.534493 0.155428 0
0.646998 0.128679 0
0.774701 0.0770275 0
0.912077 0 0
1 0 0
1 0.0215457 0
1 0.16231 0
1 0.276448 0
1 0.374334 0
1 0.458824 0
1 0.536263 0
1 0.612741 0.000381476
1 0.691524 0.148775
1 0.76701 0.287373
1 0.833753 0.414252
1 0.887663 0.523949
1 0.932021 0.624384
1 0.966125 0.708461
1 0.995056 0.773693
1 1 0.826551
0 0.254353 0
0 0.254765 0
0 0.254902 0
0 0.255039 0
0 0.255039 0
0 0.254902 0
0 0.252354 0
0.00285344 0.242908 0
0.149157 0.233783 0.00103761
0.211231 0.240375 0
0.28275 0.2383 0
0.363363 0.235187 0
0.443091 0.229938 0
0.528252 0.227634 0
0.621164 0.222995 0
0.725368 0.215976 0
0.84358 0.202075 0
0.96054 0.194171 0
1 0.218128 0
1 0.278874 0
1 0.351049 0
1 0.423636 0
1 0.495064 0
1 0.560845 0
1 0.631724 0.0184787
1 0.706432 0.164645
1 0.777859 0.299275
1 0.84065 0.421286
1 0.892103 0.527977
1 0.934844 0.626581
1 0.967712 0.709911
1 0.996078 0.774426
1 1 0.827283
0 0.31606 0
0 0.316457 0
0 0.316594 0
0 0.316854 0
0 0.316854 0
0 0.316854 0
0 0.316716 0
0 0.310689 0
0.0971084 0.294743 0.00131228
0.203967 0.292622 0.0145876
0.271214 0.299962 0
0.357595 0.300221 0
0.44419 0.296696 0
0.530327 0.295384 0
0.615228 0.298238 0
0.704204 0.302937 0
0.80766 0.307607 0
0.914549 0.314427 0
1 0.333455 0
1 0.37116 0
1 0.420325 0
1 0.475242 0
1 0.532769 0
1 0.590173 0
1 0.654643 0.0389563
1 0.724178 0.182712
1 0.790753 0.313405
1 0.849195 0.429358
1 0.897765 0.532967
1 0.938445 0.629511
1 0.969879 0.711772
1 0.997391 0.775433
1 1 0.828
0 0.388571 0
0 0.388846 0
0 0.389105 0
0 0.389242 0
0 0.38938 0
0 0.389517 0
0 0.389517 0
0 0.387747 0
0 0.380789 0
0.165576 0.360922 0.0280308
0.266087 0.363439 0.0285954
0.342351 0.371923 0
0.438621 0.372122 0
0.530526 0.372229 0
0.615885 0.374807 0
0.699306 0.38497 0
0.790936 0.395941 0
0.88838 0.407538 0
0.97641 0.425452 0
1 0.449622 0
1 0.486336 0
1 0.528084 0
1 0.573144 0
1 0.623987 0
1 0.682628 0.072221
1 0.745434 0.203738
1 0.806317 0.328389
1 0.859236 0.438453
1 0.904448 0.538766
1 0.942977 0.633127
1 0.97232 0.713878
1 0.999023 0.777325
1 1 0.828992
0 0.467369 0
0 0.467643 0
0 0.467765 0
0 0.467903 0
0 0.468162 0
0 0.468299 0
0 0.468299 0
0 0.468421 0
0 0.465202 0
0 0.454551 0
0.248722 0.435004 0.0602426
0.343832 0.441428 0.0472419
0.430396 0.453223 0
0.526421 0.455558 0
0.61593 0.457511 0
0.703075 0.463371 0
0.790311 0.470649 0
0.877012 0.484535 0
0.953002 0.50277 0
1 0.521828 0
1 0.547601 0
1 0.579431 0
1 0.61767 0
1 0.663615 0.0250706
1 0.715129 0.110658
1 0.770199 0.226246
1 0.823987 0.344442
1 0.870939 0.448753
1 0.912459 0.54551
1 0.94815 0.637003
1 0.975464 0.716625
1 1 0.779599
1 1 0.830274
0 0.549294 0
0 0.549416 0
0 0.549554 0
0 0.549691 0
0 0.549813 0
0 0.549813 0
0 0.54995 0
0 0.54995 0
0 0.549813 0
0 0.544808 0
0.130327 0.527504 0.035523
0.356481 0.51548 0.0980545
0.438041 0.52517 0.0721599
0.523247 0.534707 0.0200809
0.615045 0.536248 0.0143893
0.703853 0.539467 0.0208743
0.791516 0.544671 0.0149691
0.874739 0.553338 0
0.944121 0.567514 0
1 0.586313 0
1 0.607309 0
1 0.633539 0
1 0.667857 0.0312352
1 0.708186 0.0872663
1 0.750561 0.14818
1 0.797894 0.24921
1 0.843519 0.3617
1 0.884398 0.459052
1 0.921523 0.552651
1 0.954406 0.641718
1 0.979202 0.719814
1 1 0.782345
1 1 0.832013
0 0.630289 0.0347906
0 0.630426 0.0348669
0 0.630426 0.0348669
0 0.630549 0.0349584
0 0.630549 0.0349584
0 0.630549 0.0349584
0 0.630549 0.0349584
0 0.630426 0.0348669
0 0.630152 0.034699
0 0.629602 0.0343481
0 0.617502 0.0343481
0.339132 0.595056 0.116762
0.463081 0.591974 0.144137
0.534051 0.605341 0.109407
0.613336 0.614084 0.0635386
0.703685 0.615335 0.0645151
0.793881 0.618219 0.0733349
0.87396 0.625315 0.0711223
0.940429 0.636469 0.0584726
0.996124 0.6533 0.0346685
1 0.672404 0.0396887
1 0.695628 0.0699779
1 0.723445 0.105791
1 0.755474 0.143389
1 0.7897 0.18584
1 0.827756 0.270512
1 0.864897 0.381247
1 0.899977 0.471733
1 0.932143 0.560891
1 0.961349 0.647593
1 0.983841 0.723827
1 1 0.785779
1 1 0.833875
0.0907454 0.715846 0.087068
0.0907454 0.715846 0.087068
0.0907454 0.715846 0.087068
0.0907454 0.715846 0.087068
0.0907454 0.715846 0.087068
0.0907454 0.715846 0.087068
0.0902724 0.715694 0.0869764
0.0893263 0.715389 0.0868086
0.0879072 0.714946 0.0865339
0.0860151 0.714336 0.086183
0.0772564 0.708888 0.0826123
0.272404 0.690944 0.105119
0.479393 0.67097 0.191257
0.561776 0.674098 0.200641
0.629541 0.686244 0.160388
0.708339 0.694514 0.120577
0.796857 0.697902 0.121889
0.876554 0.703029 0.130983
0.939895 0.711971 0.135164
0.991455 0.72491 0.13315
1 0.7411 0.130953
1 0.758495 0.14696
1 0.779217 0.169284
1 0.803555 0.194278
1 0.830091 0.222187
1 0.858595 0.286213
1 0.887907 0.402014
1 0.917052 0.488014
1 0.943984 0.571511
1 0.969116 0.655085
1 0.989181 0.728374
1 1 0.790051
1 1 0.836347
0.253025 0.807996 0.148043
0.253025 0.807996 0.148043
0.252781 0.807828 0.147921
0.252781 0.807828 0.147921
0.252537 0.80766 0.147784
0.252293 0.807492 0.147662
0.251789 0.807172 0.147387
0.251301 0.806851 0.147143
0.250309 0.806195 0.146624
0.248814 0.805188 0.145861
0.246418 0.803571 0.144823
0.281498 0.786145 0.140948
0.474403 0.764706 0.205875
0.594079 0.75555 0.2654
0.665537 0.758984 0.267567
0.729335 0.769406 0.224308
0.804547 0.776013 0.185168
0.879332 0.781888 0.183825
0.940078 0.787793 0.193332
0.989349 0.795117 0.199985
1 0.806134 0.203204
1 0.818616 0.21004
1 0.833127 0.223285
1 0.849943 0.238468
1 0.869154 0.255558
1 0.889372 0.303883
1 0.911925 0.424506
1 0.935027 0.508034
1 0.957031 0.586145
1 0.977996 0.664881
1 0.995392 0.733898
1 1 0.794934
1 1 0.839246
0.369299 0.887495 0.206516
0.369055 0.887327 0.206394
0.368795 0.887144 0.206271
0.368795 0.887144 0.206271
0.368292 0.886793 0.206027
0.368032 0.88661 0.205905
0.367269 0.886076 0.205524
0.366506 0.885527 0.205158
0.36524 0.884627 0.204532
0.363455 0.883375 0.203677
0.360906 0.88159 0.202426
0.354803 0.866728 0.193927
0.470375 0.851316 0.21619
0.623835 0.836164 0.297002
0.706798 0.833204 0.33547
0.768475 0.835615 0.331807
0.827619 0.843351 0.290806
0.88864 0.84918 0.251881
0.943084 0.853544 0.2439
0.989761 0.858427 0.249119
1 0.864073 0.254932
1 0.871809 0.258366
1 0.880934 0.264256
1 0.892058 0.27245
1 0.904952 0.283146
1 0.919753 0.335164
1 0.936294 0.45005
1 0.953506 0.530343
1 0.970794 0.607111
1 0.987716 0.678477
1 1 0.743847
1 1 0.800427
1 1 0.842725
0.460853 0.951598 0.247715
0.460563 0.951431 0.247669
0.460288 0.951263 0.247623
0.459998 0.95111 0.247562
0.459419 0.950774 0.247471
0.458839 0.950439 0.247364
0.457969 0.94995 0.247211
0.456535 0.949111 0.246952
0.4551 0.948287 0.246677
0.452781 0.94696 0.246281
0.449622 0.945144 0.245716
0.436118 0.931762 0.238651
0.507668 0.915267 0.243214
0.651499 0.901366 0.306325
0.747295 0.893446 0.367315
0.810971 0.891539 0.389853
0.860914 0.894316 0.383642
0.905196 0.900252 0.343984
0.950896 0.90544 0.30634
0.992493 0.909209 0.292714
1 0.912612 0.291157
1 0.917296 0.290608
1 0.923156 0.290272
1 0.930358 0.292195
1 0.937255 0.304097
1 0.947356 0.38201
1 0.959258 0.478828
1 0.970687 0.559243
1 0.985443 0.630747
1 0.998108 0.696239
1 1 0.756756
1 1 0.807095
1 1 0.84448
0.556695 0.998932 0.354406
0.555886 0.998596 0.352621
0.555474 0.998444 0.35172
0.55465 0.998108 0.349935
0.553841 0.997787 0.34815
0.553002 0.997452 0.346334
0.551369 0.996796 0.342748
0.549722 0.996155 0.339162
0.546853 0.994995 0.33286
0.543572 0.993683 0.325643
0.539467 0.99205 0.316579
0.517845 0.976242 0.256458
0.58912 0.963485 0.267445
0.699199 0.951354 0.316503
0.789273 0.943343 0.381262
0.85095 0.938521 0.418265
0.893904 0.937987 0.428977
0.93051 0.941192 0.414313
0.964538 0.946029 0.375647
0.998627 0.949371 0.344625
1 0.952575 0.333654
1 0.955718 0.320882
1 0.958709 0.309224
1 0.962615 0.30779
1 0.965286 0.333669
1 0.971099 0.408621
1 0.979614 0.513603
1 0.988022 0.591394
1 1 0.659434
1 1 0.718425
1 1 0.772396
1 1 0.816037
1 1 0.843778
0.617838 1 0.481102
0.617838 1 0.481102
0.617838 1 0.481102
0.617838 1 0.481102
0.617838 1 0.481102
0.617838 1 0.481102
0.617838 1 0.481102
0.617838 1 0.481102
0.617838 1 0.481102
0.617838 1 0.481102
0.617838 1 0.481102
0.608621 1 0.401724
0.686244 0.996078 0.372854
0.763561 0.987976 0.387762
0.834775 0.980911 0.422446
0.886244 0.975021 0.445212
0.923384 0.973007 0.450324
0.95523 0.9738 0.436301
0.982589 0.976455 0.388418
1 0.978958 0.375189
1 0.981826 0.432349
1 0.984405 0.400992
1 0.986908 0.348867
1 0.988907 0.330922
1 0.988418 0.346883
1 0.993942 0.46569
1 0.99826 0.56376
1 1 0.637613
1 1 0.696086
1 1 0.741497
1 1 0.789487
1 1 0.82208
1 1 0.843717
0.617853 1 0.481132
0.617853 1 0.481132
0.617853 1 0.481132
0.617853 1 0.481132
0.617853 1 0.481132
0.617853 1 0.481132
0.617853 1 0.481132
0.617853 1 0.481132
0.617853 1 0.481132
0.617853 1 0.481132
0.631785 1 0.453239
0.70074 1 0.443
0.763531 1 0.452598
0.824903 1 0.473106
0.87776 1 0.493874
0.916808 1 0.502403
0.948623 1 0.50135
0.977157 1 0.485847
1 1 0.436973
1 1 0.425208
1 1 0.537224
1 1 0.570642
1 1 0.513344
1 1 0.463081
1 1 0.404837
1 1 0.551827
1 1 0.630243
1 1 0.68748
1 1 0.728328
1 1 0.766552
1 1 0.801038
1 1 0.82472
1 1 0.84506
0.617868 1 0.481163
0.617868 1 0.481163
0.617868 1 0.481163
0.617868 1 0.481163
0.617868 1 0.481163
0.617868 1 0.481163
0.617868 1 0.481163
0.620447 1 0.460029
0.645838 1 0.448844
0.674662 1 0.444251
0.718654 1 0.444327
0.767208 1 0.453254
0.815091 1 0.468711
0.860243 1 0.489632
0.899245 1 0.506355
0.933089 1 0.516121
0.961379 1 0.517739
0.989029 1 0.504952
1 1 0.461402
1 1 0.454231
1 1 0.582238
1 1 0.710384
1 1 0.566979
1 1 0.385031
1 1 0.552178
1 1 0.636133
1 1 0.690791
1 1 0.726879
1 1 0.745022
1 1 0.778668
1 1 0.807019
1 1 0.82797
1 1 0.846647
0.659861 1 0.446952
0.664408 1 0.445884
0.668544 1 0.445045
0.672343 1 0.444556
0.676783 1 0.443976
0.682567 1 0.443534
0.690135 1 0.443305
0.71783 1 0.44416
0.746014 1 0.449378
0.771771 1 0.454475
0.801907 1 0.464164
0.832959 1 0.476677
0.864576 1 0.491539
0.893965 1 0.504204
0.921019 1 0.513344
0.946822 1 0.518166
0.970062 1 0.515267
0.993729 1 0.500648
1 1 0.457664
1 1 0.456046
1 1 0.407691
1 1 0.41706
1 1 0.481666
1 1 0.568887
1 1 0.630076
1 1 0.680446
1 1 0.715816
1 1 0.73933
1 1 0.757992
1 1 0.788495
1 1 0.813367
1 1 0.83209
1 1 0.848569
0.766812 1 0.464851
0.771389 1 0.466011
0.775814 1 0.467124
0.78024 1 0.468238
0.785733 1 0.469673
0.792615 1 0.471534
0.801297 1 0.473686
0.812024 1 0.477668
0.824872 1 0.48336
0.840192 1 0.49012
0.858244 1 0.498665
0.878477 1 0.509789
0.899413 1 0.524025
0.920439 1 0.537408
0.941329 1 0.551171
0.961746 1 0.563546
0.981857 1 0.572488
1 1 0.579049
1 1 0.583474
1 1 0.603235
1 1 0.618082
1 1 0.627558
1 1 0.637339
1 1 0.655787
1 1 0.684489
1 1 0.712596
1 1 0.735729
1 1 0.748852
1 1 0.775921
1 1 0.799481
1 1 0.819257
1 1 0.837034
1 1 0.850935
0.851316 1 0.470176
0.853834 1 0.471092
0.856245 1 0.471992
0.858656 1 0.472892
0.861524 1 0.47393
0.865248 1 0.475349
0.8701 1 0.478874
0.876005 1 0.482963
0.88333 1 0.487938
0.892561 1 0.494362
0.904204 1 0.502464
0.917418 1 0.511162
0.930968 1 0.526436
0.945769 1 0.551553
0.96199 1 0.589105
0.978988 1 0.602777
0.995926 1 0.62739
1 1 0.661097
1 1 0.678737
1 1 0.691234
1 1 0.700114
1 1 0.705577
1 1 0.707988
1 1 0.711833
1 1 0.723278
1 1 0.737179
1 1 0.746685
1 1 0.769497
1 1 0.792157
1 1 0.812329
1 1 0.827054
1 1 0.842802
1 1 0.853727
0.907027 1 0.583703
0.908431 1 0.584451
0.909834 1 0.585184
0.911238 1 0.585824
0.912932 1 0.586694
0.915236 1 0.587839
0.918029 1 0.589288
0.921614 1 0.591012
0.926192 1 0.593347
0.931807 1 0.597055
0.938704 1 0.602655
0.946883 1 0.609369
0.956359 1 0.617456
0.968093 1 0.629877
0.98117 1 0.643778
0.994949 1 0.659648
1 1 0.676844
1 1 0.691478
1 1 0.706783
1 1 0.718822
1 1 0.72813
1 1 0.738216
1 1 0.740764
1 1 0.742611
1 1 0.74493
1 1 0.753491
1 1 0.771756
1 1 0.790646
1 1 0.808499
1 1 0.821744
1 1 0.835904
1 1 0.847974
1 1 0.856992
0.951598 1 0.665141
0.952392 1 0.665614
0.95317 1 0.66601
0.953948 1 0.666484
0.954925 1 0.666972
0.956176 1 0.667689
0.957839 1 0.668589
0.959869 1 0.669764
0.962493 1 0.671153
0.965866 1 0.673045
0.969909 1 0.675258
0.974746 1 0.67805
0.98143 1 0.683894
0.989197 1 0.690715
0.998062 1 0.698466
1 1 0.708644
1 1 0.721218
1 1 0.734661
1 1 0.74551
1 1 0.757595
1 1 0.764004
1 1 0.770352
1 1 0.77409
1 1 0.775006
1 1 0.778912
1 1 0.786084
1 1 0.795926
1 1 0.810162
1 1 0.820768
1 1 0.833051
1 1 0.844877
1 1 0.853056
1 1 0.860609
0.986419 1 0.725231
0.986877 1 0.725414
0.98735 1 0.725673
0.987732 1 0.725826
0.988296 1 0.726116
0.989044 1 0.726436
0.989975 1 0.726879
0.991104 1 0.727398
0.992691 1 0.728115
