BBLuts/BB_102_0620_LUT.cube
TITLE "Generated by Resolve"
LUT_3D_SIZE 9
0 0 0
0 0 0
0.121569 0 0
0.357275 0 0
0.701671 0 0
0.919676 0 0
0.915373 0.459892 0.0489204
0.883833 0.835492 0.30013
0.869032 0.955276 0.649958
0 0 0
0 0.00567636 0
0.128527 0 0
0.368185 0 0
0.70425 0 0
0.919676 0 0
0.912398 0.497398 0.0400702
0.883452 0.840436 0.297902
0.868986 0.955856 0.649699
0 0.139116 0
0 0.142306 0
0.0837568 0.140826 0
0.369528 0.113237 0
0.707439 0.00656138 0
0.925383 0.135668 0
0.907515 0.549401 0.0228275
0.882887 0.84802 0.294362
0.868925 0.956802 0.649241
0 0.398993 0
0 0.400137 0
0 0.400763 0
0.294316 0.407935 0
0.700679 0.399802 0
0.910307 0.466239 0
0.893935 0.662928 0
0.881468 0.867857 0.284047
0.868742 0.959503 0.647898
0 0.765789 0
0 0.765698 0
0 0.76524 0
0 0.762203 0
0.615915 0.761135 0
0.853361 0.772976 0
0.880705 0.825299 0
0.878538 0.907515 0.287343
0.868269 0.966613 0.643854
0 0.968231 0
0 0.967391 0
0 0.966003 0
0 0.961761 0
0.586023 0.945022 0
0.801526 0.935531 0
0.873549 0.938003 0
0.874388 0.958282 0.327718
0.867231 0.981659 0.639155
0.460288 1 0.104692
0.481361 1 0.104509
0.511543 1 0.104448
0.579675 1 0.105486
0.687663 1 0.114397
0.79443 1 0.148547
0.865156 1 0.245182
0.869505 0.998367 0.447608
0.865385 1 0.669245
0.755917 1 0.53109
0.757336 1 0.531273
0.759594 1 0.531548
0.766079 1 0.532418
0.782605 1 0.535058
0.814038 1 0.54313
0.851743 1 0.566232
0.864607 1 0.626581
0.863615 1 0.728511
0.831281 1 0.760296
0.831449 1 0.760327
0.831739 1 0.760342
0.832593 1 0.760464
0.835019 1 0.760754
0.841169 1 0.761669
0.852964 1 0.764385
0.863325 1 0.77174
0.863203 1 0.791302
0 0 0
0 0 0
0.122789 0 0
0.358862 0 0
0.702586 0 0
0.921935 0 0.000808728
0.917311 0.45478 0.0985275
0.883558 0.834089 0.333455
0.868955 0.955062 0.657023
0 0 0
0 0 0
0.138506 0 0
0.364187 0 0
0.703151 0 0
0.92108 0 0
0.914412 0.4934 0.0894942
0.883177 0.839078 0.331548
0.868925 0.955642 0.656764
0 0.131014 0
0 0.1337 0
0.101061 0.132326 0
0.368124 0.104173 0
0.704723 0 0
0.925048 0.118212 0
0.909712 0.54699 0.073167
0.882597 0.846723 0.328496
0.868849 0.956573 0.656352
0 0.394614 0
0 0.395712 0
0 0.39617 0
0.306249 0.402747 0
0.700511 0.395544 0
0.910536 0.462715 0
0.89575 0.662455 0
0.881132 0.866712 0.319677
0.868666 0.959289 0.65507
0 0.764294 0
0 0.764157 0
0 0.763699 0
0 0.760586 0
0.619028 0.759731 0
0.853544 0.772 0
0.880735 0.824796 0
0.878462 0.90721 0.295659
0.868193 0.96643 0.65124
0 0.967941 0
0 0.967086 0
0 0.965698 0
0 0.961456 0
0.588113 0.944762 0
0.801846 0.935393 0
0.873564 0.937896 0
0.874388 0.958221 0.32752
0.867216 0.981628 0.639811
0.463539 1 0.104387
0.484291 1 0.104234
0.514031 1 0.104189
0.581323 1 0.105287
0.68835 1 0.11426
0.794614 1 0.14844
0.865187 1 0.245167
0.869505 0.998352 0.447532
0.865385 1 0.6692
0.75613 1 0.53106
0.757565 1 0.531243
0.759808 1 0.531518
0.766262 1 0.532372
0.782742 1 0.535027
0.814115 1 0.543114
0.851774 1 0.566201
0.864607 1 0.626566
0.863615 1 0.728496
0.831312 1 0.760296
0.831479 1 0.760327
0.831754 1 0.760342
0.832609 1 0.760449
0.83505 1 0.760754
0.841184 1 0.761669
0.852964 1 0.764385
0.863325 1 0.77174
0.863203 1 0.791302
0 0 0.0867933
0 0 0.0869612
0.104982 0 0.0835584
0.37258 0 0.071107
0.70515 0 0.0626078
0.924498 0 0.0878767
0.919631 0.442741 0.184573
0.883162 0.8318 0.381521
0.868849 0.954711 0.667628
0 0 0.0838026
0 0 0.0840772
0.128908 0 0.079942
0.371008 0 0.0682994
0.70753 0 0.0594492
0.924422 0 0.0823529
0.916793 0.483131 0.178393
0.882765 0.836866 0.379812
0.868818 0.955306 0.667399
0 0.110933 0.0729229
0 0.112978 0.0726329
0.096376 0.106416 0.0677958
0.357427 0.0837415 0.0635843
0.705959 0 0.0509957
0.928878 0.066865 0.0854353
0.912306 0.539223 0.167666
0.882155 0.844617 0.377081
0.868757 0.956252 0.667002
0 0.38407 0.00668345
0 0.385458 0.00723278
0 0.386145 0.00801099
0.310765 0.392935 0.0133516
0.69958 0.386023 0.0188296
0.915694 0.455497 0.0495155
0.90042 0.661082 0.132143
0.880644 0.864897 0.369253
0.868574 0.958968 0.665827
0 0.761196 0
0 0.761059 0
0 0.760571 0
0 0.757443 0
0.621805 0.756802 0
0.853574 0.769711 0
0.883299 0.826123 0.0207675
0.877867 0.905837 0.348669
0.868086 0.96614 0.662303
0 0.967468 0
0 0.966613 0
0 0.965225 0
0 0.960983 0
0.591455 0.94432 0
0.802335 0.935134 0
0.873564 0.937728 0
0.874403 0.958129 0.327199
0.867079 0.981369 0.651881
0.468772 1 0.103929
0.489021 1 0.103792
0.517998 1 0.103792
0.583963 1 0.104967
0.689479 1 0.114046
0.794919 1 0.148257
0.865263 1 0.245136
0.86952 0.998337 0.447379
0.865385 1 0.669154
0.756481 1 0.531014
0.7579 1 0.531197
0.760128 1 0.531472
0.766567 1 0.532341
0.782971 1 0.534981
0.814237 1 0.543069
0.851804 1 0.566171
0.864607 1 0.626566
0.863615 1 0.728481
0.831342 1 0.760296
0.831525 1 0.760311
0.831815 1 0.760342
0.832654 1 0.760449
0.835081 1 0.760739
0.841199 1 0.761654
0.852979 1 0.76437
0.863325 1 0.77174
0.863203 1 0.791302
0 0 0.294331
0 0 0.294484
0 0 0.29456
0.347494 0 0.280568
0.724575 0 0.269261
0.924926 0 0.293309
0.923644 0.396307 0.377462
0.882124 0.82472 0.495201
0.868635 0.95378 0.694118
0 0 0.29221
0 0 0.292409
0.0246738 0 0.290684
0.363241 0 0.277516
0.72253 0 0.266865
0.924941 0 0.290578
0.920256 0.443214 0.373846
0.881666 0.830045 0.493889
0.868605 0.95436 0.693935
0 0.013611 0.287922
0 0.0185397 0.288045
0.0485695 0.0127565 0.285939
0.36968 0 0.273381
0.716228 0 0.263005
0.924956 0 0.285435
0.915633 0.506935 0.367987
0.88098 0.838163 0.491783
0.868528 0.955337 0.693614
0 0.340459 0.254047
0 0.342321 0.254276
0 0.343633 0.254902
0.307118 0.349523 0.262181
0.689616 0.342916 0.267704
0.922057 0.417151 0.29659
0.902846 0.641917 0.347845
0.879301 0.859327 0.485908
0.868345 0.958099 0.692683
0 0.756512 0.173098
0 0.756497 0.173739
0 0.756146 0.174685
0 0.753307 0.177234
0.624048 0.751812 0.1897
0.857053 0.765789 0.222492
0.884947 0.821988 0.300908
0.876234 0.901854 0.470893
0.867842 0.965362 0.689906
0 0.96614 0
0 0.965286 0
0 0.963867 0
0 0.95964 0
0.591363 0.943099 0
0.804974 0.937697 0.0712139
0.876921 0.940734 0.217884
0.872908 0.955795 0.435248
0.866789 0.980728 0.681895
0.483955 1 0.102541
0.5028 1 0.102495
0.529549 1 0.102586
0.59176 1 0.104021
0.692836 1 0.11339
0.795834 1 0.147753
0.865476 1 0.245029
0.86952 0.998276 0.446967
0.865385 1 0.668956
0.757534 1 0.530877
0.758923 1 0.531044
0.761151 1 0.531334
0.767483 1 0.532189
0.783673 1 0.534844
0.814588 1 0.542931
0.851911 1 0.566064
0.864607 1 0.626535
0.863615 1 0.72842
0.831479 1 0.760281
0.831647 1 0.760296
0.831937 1 0.760327
0.832776 1 0.760433
0.835187 1 0.760723
0.841306 1 0.761654
0.853025 1 0.764355
0.863325 1 0.77174
0.863203 1 0.791302
0 0 0.624079
0 0 0.62417
0 0 0.624308
0.184451 0 0.61799
0.707942 0 0.596307
0.923033 0 0.606607
0.932769 0.131746 0.647089
0.881849 0.803418 0.674647
0.86836 0.951293 0.74519
0 0 0.623377
0 0 0.623453
0 0 0.623621
0.211673 0 0.616205
0.71368 0 0.595575
0.923033 0 0.605859
0.931899 0.250935 0.652903
0.881193 0.809918 0.673716
0.86833 0.951934 0.745052
0 0 0.622202
0 0 0.622309
0 0 0.622461
0.248463 0 0.613382
0.717174 0 0.594308
0.923033 0 0.604547
0.925292 0.368978 0.651576
0.880247 0.819593 0.672328
0.868254 0.952941 0.744854
0 0.159854 0.614801
0 0.162646 0.614801
0 0.166232 0.61474
0.247929 0.160525 0.613779
0.719051 0.0530404 0.601205
0.933333 0.182696 0.625452
0.90959 0.564584 0.640894
0.878004 0.844068 0.668681
0.86804 0.955856 0.744228
0 0.708598 0.575708
0 0.70898 0.575875
0 0.709087 0.576059
0 0.707118 0.576379
0.60763 0.705852 0.581537
0.849393 0.726772 0.591608
0.883162 0.797253 0.609674
0.87364 0.892119 0.660578
0.867506 0.963455 0.742443
0 0.967407 0.548196
0 0.966598 0.548318
0 0.96524 0.548531
0 0.961105 0.549142
0.560464 0.940566 0.53872
0.792264 0.928985 0.547204
0.87219 0.931823 0.579034
0.869474 0.949981 0.644999
0.866392 0.979324 0.737575
0.468833 1 0.439734
0.488334 1 0.439231
0.51635 1 0.438621
0.58024 1 0.437919
0.683391 1 0.441169
0.787411 0.999924 0.458595
0.857145 0.99585 0.508339
0.866636 0.99498 0.608637
0.864927 1 0.724773
0.760693 1 0.530434
0.76202 1 0.530617
0.764126 1 0.530892
0.770199 1 0.531762
0.785763 1 0.534432
0.815686 1 0.542519
0.852293 1 0.565698
0.864607 1 0.626474
0.863615 1 0.728252
0.831876 1 0.760235
0.832044 1 0.76025
0.832319 1 0.760281
0.833158 1 0.760388
0.835538 1 0.760678
0.84155 1 0.761608
0.853162 1 0.764324
0.863325 1 0.771695
0.863203 1 0.791302
0 0 0.821561
0 0 0.821561
0 0 0.821591
0 0 0.821637
0.589624 0 0.795605
0.923552 0 0.796857
0.923552 0 0.797833
0.892226 0.710063 0.810697
0.868437 0.944137 0.807675
0 0 0.821485
0 0 0.821485
0 0 0.8215
0 0 0.821561
0.598474 0 0.795193
0.923552 0 0.79678
0.923552 0 0.797742
0.890517 0.723552 0.809155
0.868376 0.944884 0.807584
0 0 0.821347
0 0 0.821363
0 0 0.821378
0 0 0.821408
0.612146 0 0.794537
0.923552 0 0.796628
0.923552 0 0.79762
0.888075 0.743191 0.806912
0.868284 0.94609 0.807446
0 0 0.820935
0 0 0.820951
0 0 0.820966
0 0 0.82063
0.641825 0 0.793179
0.923552 0 0.796185
0.923552 0 0.795544
0.882628 0.789395 0.801678
0.86804 0.949523 0.80705
0 0.474083 0.805508
0 0.475624 0.805447
0 0.478096 0.805356
0 0.481971 0.804715
0.604532 0.481224 0.809094
0.91136 0.519554 0.818097
0.895171 0.687282 0.804547
0.874769 0.864775 0.793881
0.867399 0.958389 0.805966
0 0.951995 0.796857
0 0.951492 0.79678
0 0.950515 0.796628
0 0.946624 0.796048
0.470588 0.92755 0.783978
0.778714 0.911589 0.776974
0.866743 0.917906 0.779171
0.868803 0.941253 0.785641
0.866148 0.976181 0.803418
0.30454 1 0.775982
0.341817 1 0.774273
0.391806 1 0.772045
0.496651 1 0.767178
0.641062 1 0.76199
0.766537 0.993637 0.761944
0.843778 0.990387 0.766308
0.865202 0.991653 0.776654
0.864515 0.998947 0.79826
0.749004 1 0.724392
0.750378 1 0.724453
0.75256 1 0.724529
0.758831 1 0.724788
0.774853 1 0.725597
0.805646 1 0.72813
0.843473 1 0.735409
0.863432 1 0.753674
0.863233 1 0.786328
0.833082 1 0.760082
0.833234 1 0.760113
0.833494 1 0.760143
0.834287 1 0.760235
0.836561 1 0.76054
0.842329 1 0.761456
0.85359 1 0.764187
0.863325 1 0.771572
0.863203 1 0.791272
0 0 0.877943
0 0 0.877943
0 0 0.877943
0 0 0.877943
0 0 0.877943
0.905699 0 0.863722
0.923888 0 0.864515
0.923888 0 0.864515
0.870314 0.913863 0.858152
0 0 0.877943
0 0 0.877943
0 0 0.877943
0 0 0.877943
0 0 0.877943
0.907057 0 0.863783
0.923888 0 0.864515
0.923888 0 0.864515
0.870207 0.915236 0.858015
0 0 0.877943
0 0 0.877943
0 0 0.877943
0 0 0.877943
0 0 0.877943
0.909239 0 0.86389
0.923888 0 0.864515
0.923888 0 0.864515
0.870039 0.917433 0.857847
0 0 0.877943
0 0 0.877943
0 0 0.877943
0 0 0.877943
0 0 0.877943
0.915633 0 0.86421
0.923888 0 0.864515
0.923888 0 0.864515
0.869581 0.923598 0.857328
0 0 0.877943
0 0 0.877943
0 0 0.877943
0 0 0.877943
0.261479 0 0.870237
0.923888 0 0.864515
0.923888 0 0.864515
0.910063 0.570764 0.889921
0.868452 0.938857 0.856062
0 0.832761 0.87422
0 0.833112 0.87425
0 0.833677 0.874266
0 0.835416 0.874327
0 0.829129 0.872404
0.790692 0.81445 0.862379
0.876814 0.842237 0.859709
0.87097 0.90573 0.8551
0.866514 0.965896 0.853697
0 1 0.872862
0 1 0.87277
0 1 0.872633
0 1 0.872221
0.526574 1 0.852476
0.744747 0.987442 0.846723
0.838422 0.98378 0.847013
0.865095 0.986404 0.847776
0.864393 0.995727 0.850568
0.719463 1 0.840162
0.721309 1 0.840146
0.724254 1 0.840131
0.732586 1 0.840101
0.753414 1 0.84007
0.791623 1 0.840253
0.834974 1 0.840909
0.862898 1 0.842588
0.862867 1 0.84683
0.82855 1 0.826719
0.828717 1 0.826734
0.828992 1 0.826734
0.829786 1 0.82678
0.83212 1 0.826871
0.837995 1 0.827192
0.84947 1 0.828122
0.862608 1 0.830839
0.862928 1 0.837674
0 0 0.878401
0 0 0.878401
0 0 0.878401
0 0 0.878401
0 0 0.878401
0 0 0.878401
0.923888 0 0.864515
0.923888 0 0.864515
0.903014 0.628321 0.892149
0 0 0.878401
0 0 0.878401
0 0 0.878401
0 0 0.878401
0 0 0.878401
0 0 0.878401
0.923888 0 0.864515
0.923888 0 0.864515
0.903014 0.62829 0.892149
0 0 0.878401
0 0 0.878401
0 0 0.878401
0 0 0.878401
0 0 0.878401
0 0 0.878401
0.923888 0 0.864515
0.923888 0 0.864515
0.903014 0.62826 0.892164
0 0 0.878401
0 0 0.878401
0 0 0.878401
0 0 0.878401
0 0 0.878401
0 0 0.87837
0.923888 0 0.864515
0.923888 0 0.864515
0.903044 0.628077 0.89218
0 0 0.878401
0 0 0.878401
0 0 0.878401
0 0 0.878401
0 0 0.878401
0.297398 0 0.868772
0.923888 0 0.864515
0.923888 0 0.864515
0.903105 0.627558 0.89221
0 0 0.878401
0 0 0.878401
0 0 0.878401
0 0 0.878401
0 0 0.878401
0.726253 0 0.856916
0.923888 0 0.864515
0.927504 0 0.872862
0.873823 0.868421 0.877455
0 0.993027 0.899229
0 0.993072 0.899245
0 0.993133 0.899245
0 0.993332 0.899245
0 0.993896 0.899275
0.632364 0.954498 0.877958
0.843091 0.947204 0.876402
0.866911 0.957458 0.87631
0.865187 0.981628 0.876173
0.547936 1 0.879271
0.55729 1 0.878843
0.571267 1 0.878264
0.606943 1 0.876905
0.676555 1 0.874586
0.760006 1 0.873869
0.826291 1 0.873945
0.861601 1 0.874418
0.863005 1 0.874571
0.817807 1 0.87158
0.818036 1 0.87158
0.818402 1 0.87158
0.819486 1 0.871595
0.822553 1 0.871595
0.830167 1 0.871641
0.84416 1 0.871717
0.859251 1 0.871916
0.862684 1 0.872374
0 0.219944 0.879591
0 0.219944 0.879591
0 0.219944 0.879591
0 0.219959 0.879591
0 0.219959 0.879591
0 0.22002 0.879591
0 0.220127 0.879591
0.934249 0.232547 0.897841
0.895766 0.682551 0.888121
0 0.219944 0.879591
0 0.219944 0.879591
0 0.219944 0.879591
0 0.219944 0.879591
0 0.219959 0.879591
0 0.219989 0.879591
0 0.220127 0.879591
0.934234 0.232868 0.897856
0.895766 0.682612 0.888121
0 0.219913 0.879591
0 0.219913 0.879591
0 0.219913 0.879591
0 0.219944 0.879591
0 0.219944 0.879591
0 0.219989 0.879591
0 0.220111 0.879591
0.934218 0.233356 0.897871
0.89575 0.682689 0.888106
0 0.219898 0.879591
0 0.219898 0.879591
0 0.219898 0.879591
0 0.219898 0.879591
0 0.219913 0.879591
0 0.219959 0.879591
0 0.220066 0.879591
0.934188 0.234867 0.897948
0.89572 0.682963 0.88809
0 0.219791 0.879591
0 0.219791 0.879591
0 0.219791 0.879591
0 0.219791 0.879591
0 0.219806 0.879591
0 0.219837 0.879591
0.295293 0.204746 0.883589
0.934066 0.239475 0.898146
0.895613 0.683742 0.888029
0 0.219471 0.879591
0 0.219471 0.879591
0 0.219471 0.879591
0 0.219486 0.879591
0 0.219486 0.879591
0 0.219532 0.879591
0.755093 0.0101167 0.867536
0.933639 0.253056 0.89868
0.89546 0.684916 0.887938
0 0.218494 0.879606
0 0.218494 0.879606
0 0.218494 0.879606
0 0.218509 0.879606
0 0.218509 0.879606
0 0.218555 0.879606
0.923888 0 0.864515
0.932616 0.279469 0.899458
0.895155 0.687114 0.88777
0 1 0.900496
0 1 0.900496
0 1 0.900496
0 1 0.900496
0 1 0.900496
0 1 0.900496
0.787717 1 0.875715
0.863661 0.998123 0.876158
0.863722 1 0.876036
0.76701 1 0.875166
0.767788 1 0.875166
0.769055 1 0.875181
0.772702 1 0.875181
0.782376 1 0.875242
0.803174 1 0.875364
0.832868 1 0.875563
0.856535 1 0.875715
0.862989 1 0.876081
