BBLuts/BB_102_0290_LUT.cube
TITLE "Generated by Resolve"
LUT_3D_SIZE 33
0 0 0
0 0 0
0 0 0
0 0 0
0 0 0
0.0605478 0 0
0.147845 0 0
0.215686 0 0
0.285801 0 0
0.367102 0 0
0.458732 0 0
0.557809 0 0
0.646387 0 0
0.710216 0 0
0.780133 0 0
0.856672 0 0
0.93669 0 0
1 0 0
1 0 0
1 0 0
1 0 0
1 0 0
0.868528 0.407416 0
1 0.552682 0
1 0.625986 0.00192264
1 0.697993 0.0966659
1 0.763363 0.203998
1 0.814145 0.332464
1 0.851789 0.472663
0.996384 0.881163 0.553765
0.991623 0.902998 0.625452
0.987549 0.920165 0.696437
0.98436 0.933486 0.760342
0 0 0
0 0 0
0 0 0
0 0 0
0 0 0
0.076463 0 0
0.153384 0 0
0.220691 0 0
0.29337 0 0
0.376242 0 0
0.467735 0 0
0.564034 0 0
0.647959 0 0
0.711452 0 0
0.781277 0 0
0.85745 0 0
0.937362 0 0
1 0 0
1 0 0
1 0 0
1 0 0
1 0 0
0.853086 0.4477 0
1 0.555245 0
1 0.630396 0
1 0.701167 0.0925002
1 0.765072 0.203082
1 0.815045 0.332204
1 0.852247 0.472267
0.996368 0.881407 0.553613
0.991608 0.90312 0.625376
0.987533 0.920226 0.696391
0.98436 0.933516 0.760311
0 0 0
0 0 0
0 0 0
0 0 0
0 0 0
0.0850385 0 0
0.154116 0 0
0.224598 0 0
0.300893 0 0
0.38201 0 0
0.471382 0 0
0.565545 0 0
0.650004 0 0
0.713054 0 0
0.782406 0 0
0.858518 0 0
0.937713 0 0
1 0 0
1 0 0
1 0 0
1 0 0
1 0.0498665 0
0.856794 0.478462 0
1 0.562127 0
1 0.634714 0
1 0.704021 0.0894484
1 0.766552 0.201465
1 0.815869 0.33196
1 0.852674 0.471885
0.996338 0.881636 0.55346
0.991592 0.903258 0.625284
0.987533 0.920302 0.69633
0.98436 0.933547 0.760296
0 0 0
0 0 0
0 0 0
0 0 0
0.0103151 0 0
0.0868849 0 0
0.150286 0 0
0.220737 0 0
0.298528 0 0
0.383764 0 0
0.4748 0 0
0.568292 0 0
0.652369 0 0
0.714549 0 0
0.783673 0 0
0.859327 0 0
0.938308 0 0
1 0 0
1 0 0
1 0 0
1 0 0
1 0.164858 0
0.878019 0.496208 0
1 0.56878 0
1 0.638773 0
1 0.70663 0.0868086
1 0.768093 0.200397
1 0.816678 0.331685
1 0.853117 0.471519
0.996307 0.881865 0.553307
0.991577 0.903365 0.625193
0.987533 0.920363 0.696284
0.984344 0.933593 0.760281
0 0.0555734 0
0 0.0605631 0
0 0.0649577 0
0 0.0695811 0
0 0.0715496 0
0.049958 0.0730449 0
0.120027 0.0690929 0
0.14873 0.0771496 0
0.272358 0.0408484 0
0.38294 0 0
0.476555 0 0
0.571542 0 0
0.65478 0 0
0.716136 0 0
0.78529 0 0
0.860441 0 0
0.938872 0 0
1 0 0
1 0 0
1 0 0
1 0 0
1 0.255085 0
0.914626 0.506127 0
1 0.574685 0
1 0.642908 0
1 0.709133 0.0832227
1 0.769512 0.199588
1 0.817456 0.331456
1 0.853513 0.471061
0.996277 0.882078 0.553201
0.991562 0.903487 0.625116
0.987518 0.920439 0.696239
0.984344 0.933623 0.76025
0 0.10985 0
0 0.11371 0
0 0.117845 0
0 0.121065 0
0 0.122698 0
0.0117494 0.124849 0
0.0957504 0.123796 0
0.175265 0.11899 0
0.20827 0.130068 0
0.292912 0.118135 0
0.449531 0.064271 0
0.569696 0 0
0.655802 0 0
0.718196 0 0
0.786786 0 0
0.861402 0 0
0.93962 0 0
1 0 0
1 0 0
1 0 0
1 0 0
0.928389 0.337285 0
0.953124 0.511833 0
1 0.579736 0
1 0.646906 0
1 0.71194 0.0793774
1 0.77113 0.198566
1 0.818204 0.331228
1 0.853864 0.470588
0.996246 0.882307 0.553079
0.991547 0.903609 0.625025
0.987503 0.920501 0.696178
0.984329 0.933654 0.76022
0 0.166888 0
0 0.169772 0
0 0.1729 0
0 0.174899 0
0 0.176333 0
0 0.176791 0
0.054551 0.179065 0
0.149935 0.176394 0
0.241581 0.170413 0
0.296651 0.176287 0
0.342199 0.18027 0
0.489723 0.138125 0
0.63241 0.0716564 0
0.715541 0 0
0.786831 0 0
0.86305 0 0
0.9402 0 0
1 0 0
1 0 0
1 0 0
1 0.0570687 0
0.871656 0.402289 0
0.992538 0.517006 0
1 0.586389 0
1 0.651255 0
1 0.715038 0.0754101
1 0.773068 0.197162
1 0.819211 0.331289
1 0.854307 0.470085
0.996216 0.882567 0.552941
0.991531 0.903761 0.624918
0.987503 0.920562 0.696132
0.984329 0.9337 0.760174
0 0.231006 0
0 0.233509 0
0 0.23563 0
0 0.237263 0
0 0.238254 0
0 0.239139 0
0 0.239994 0
0.10399 0.241123 0
0.213138 0.236301 0
0.31725 0.22858 0
0.399222 0.223911 0
0.411917 0.242069 0
0.499031 0.220981 0
0.63241 0.15996 0
0.764614 0.0657359 0
0.857862 0 0
0.937057 0 0
1 0 0
1 0 0
1 0 0
1 0.196948 0
0.852018 0.459083 0
1 0.527443 0
1 0.595514 0
1 0.657664 0
1 0.719066 0.0696269
1 0.775448 0.195224
1 0.82063 0.330938
1 0.855146 0.469413
0.99617 0.882948 0.552743
0.991501 0.90396 0.624781
0.987488 0.920699 0.69604
0.984329 0.933761 0.760143
0 0.303548 0
0 0.305623 0
0 0.307042 0
0 0.308156 0
0 0.308965 0
0 0.30985 0
0 0.310231 0
0.0301213 0.312306 0
0.164202 0.308614 0
0.283528 0.301579 0
0.396567 0.291188 0
0.503044 0.280369 0
0.505302 0.298756 0
0.523232 0.295689 0
0.598428 0.266819 0
0.751553 0.19826 0
0.902617 0.11191 0
1 0 0
1 0.00370794 0
1 0.152392 0
0.890211 0.374868 0
0.885985 0.499397 0
1 0.545586 0
1 0.607202 0
1 0.666209 0
1 0.724849 0.0608072
1 0.778912 0.192767
1 0.822507 0.330251
1 0.856275 0.468482
0.996078 0.883589 0.552407
0.99147 0.90425 0.624567
0.987472 0.920851 0.695918
0.984314 0.933852 0.760067
0 0.382559 0
0 0.383474 0
0 0.38407 0
0 0.384543 0
0 0.385214 0
0 0.385336 0
0 0.385245 0
0 0.384771 0
0.0733349 0.385855 0
0.230503 0.37998 0
0.361563 0.371984 0
0.485267 0.360784 0
0.5888 0.347524 0
0.631342 0.340932 0
0.615213 0.356069 0
0.63093 0.357519 0
0.69604 0.341863 0
0.788052 0.319509 0
0.854902 0.326436 0
0.855756 0.392218 0
0.855039 0.476875 0
0.995575 0.517388 0
1 0.570062 0
1 0.622171 0
1 0.67744 0
1 0.73257 0.0495766
1 0.783536 0.18967
1 0.824979 0.329747
1 0.857771 0.467475
0.996139 0.884382 0.552026
0.991409 0.904753 0.624186
0.987442 0.921096 0.695735
0.984298 0.933974 0.75996
0 0.461921 0
0 0.462654 0
0 0.463096 0
0 0.463462 0
0 0.463722 0
0 0.463874 0
0 0.463996 0
0 0.464256 0
0 0.463798 0
0.125566 0.463996 0
0.305333 0.456931 0
0.446967 0.447669 0
0.566186 0.436377 0
0.641779 0.424231 0
0.715999 0.411933 0
0.767895 0.407446 0
0.770474 0.423041 0
0.774578 0.442741 0
0.810864 0.462196 0
0.87187 0.491249 0
0.983063 0.514717 0
1 0.549325 0
1 0.593759 0
1 0.641123 0
1 0.691936 0
1 0.742718 0.0356451
1 0.789761 0.185153
1 0.828595 0.329
1 0.859831 0.465797
0.995941 0.885512 0.551232
0.991363 0.905425 0.623713
0.987396 0.921492 0.695415
0.984283 0.934157 0.759823
0 0.547921 0
0 0.548226 0
0 0.548608 0
0 0.549249 0
0 0.549523 0
0 0.549722 0
0 0.549935 0
0 0.550027 0
0 0.549935 0
0 0.549874 0
0.195361 0.548501 0
0.386175 0.540154 0
0.532753 0.531014 0
0.620798 0.52253 0
0.699031 0.513176 0
0.775677 0.504051 0
0.85034 0.497749 0
0.919188 0.496284 0
0.971344 0.508156 0
1 0.529534 0
1 0.557702 0
1 0.587015 0
1 0.62295 0
1 0.664195 0
1 0.709911 0
1 0.755489 0.0201572
1 0.797925 0.179736
1 0.833204 0.328069
1 0.862516 0.464881
0.995621 0.886946 0.550164
0.991394 0.90631 0.623163
0.987457 0.921996 0.695064
0.984253 0.934478 0.759579
0 0.617746 0
0 0.617838 0
0 0.618021 0
0 0.618173 0
0 0.618311 0
0 0.618616 0
0 0.618738 0
0 0.61883 0
0 0.618921 0
0 0.618982 0
0.0248875 0.62089 0
0.279164 0.615534 0
0.481926 0.606546 0
0.59472 0.599847 0
0.678462 0.593927 0
0.759335 0.587854 0
0.836942 0.58262 0
0.909377 0.579538 0
0.970657 0.58056 0
1 0.588052 0
1 0.603128 0
1 0.626429 0
1 0.656199 0
1 0.691493 0
1 0.731426 0
1 0.771023 0
1 0.80763 0.17258
1 0.83917 0.327169
1 0.8663 0.465354
0.995361 0.889143 0.548928
0.991241 0.907546 0.622263
0.987411 0.922728 0.694484
0.984176 0.93489 0.759182
0 0.672404 0
0 0.67245 0
0 0.672602 0
0 0.672755 0
0 0.672877 0
0 0.672999 0
0 0.673106 0
0 0.673259 0
0 0.673579 0
0 0.67364 0
0 0.673579 0
0.0989395 0.674784 0
0.386007 0.665339 0
0.562463 0.656168 0
0.653284 0.649989 0
0.740459 0.643626 0
0.823209 0.63772 0
0.897871 0.633814 0
0.95845 0.634089 0
1 0.639765 0
1 0.650797 0
1 0.669383 0
1 0.693492 0
1 0.722881 0
1 0.756405 0
1 0.789014 0
1 0.819623 0.164675
1 0.846601 0.326467
0.999847 0.870924 0.466056
0.995178 0.891951 0.547524
0.991043 0.909285 0.621103
0.987305 0.923705 0.69369
0.984009 0.935393 0.758618
0 0.729915 0
0 0.729915 0
0 0.729992 0
0 0.730083 0
0 0.730159 0
0 0.73022 0
0 0.730282 0
0 0.730373 0
0 0.730419 0
0 0.730388 0
0 0.730495 0
0 0.730159 0
0.20885 0.728298 0
0.504479 0.715892 0
0.620233 0.708751 0
0.71397 0.702174 0
0.802792 0.695735 0
0.880949 0.690929 0
0.943282 0.689647 0
0.989593 0.693004 0
1 0.701015 0
1 0.714961 0
1 0.734066 0
1 0.757519 0
1 0.783551 0
1 0.809171 0
1 0.833158 0.156939
1 0.855756 0.326574
0.999191 0.876799 0.46746
0.994522 0.895445 0.546899
0.990692 0.911376 0.619547
0.987137 0.925109 0.692561
0.983856 0.93611 0.7579
0 0.788266 0
0 0.788266 0
0 0.788266 0
0 0.788327 0
0 0.788357 0
0 0.788388 0
0 0.788403 0
0 0.788418 0
0 0.788403 0
0 0.788312 0
0 0.788098 0
0 0.78793 0
0 0.786877 0
0.362753 0.779431 0
0.577996 0.768673 0
0.680613 0.761685 0
0.775525 0.754833 0
0.858076 0.74905 0
0.922866 0.746471 0
0.970764 0.747631 0
1 0.75259 0
1 0.76228 0
1 0.775799 0
1 0.792309 0
1 0.811215 0
1 0.830625 0
1 0.848203 0.14995
1 0.866361 0.329015
0.998138 0.883787 0.469368
0.994049 0.89984 0.548226
0.990356 0.914336 0.618463
0.986831 0.926863 0.691096
0.983734 0.937209 0.756985
0 0.845518 0
0 0.845518 0
0 0.845518 0
0 0.845518 0
0 0.845502 0
0 0.845502 0
0 0.845472 0
0 0.845426 0
0 0.845319 0
0 0.845121 0
0 0.8448 0
0 0.844251 0
0 0.84361 0
0.192432 0.841535 0
0.525734 0.827054 0
0.643046 0.819608 0
0.743801 0.812253 0
0.830488 0.805737 0
0.898634 0.801434 0
0.949248 0.800092 0
0.987778 0.801663 0
1 0.806271 0
1 0.814694 0
1 0.82533 0
1 0.838209 0
1 0.852461 0
1 0.864363 0.148196
1 0.877943 0.333654
0.997101 0.891691 0.473075
0.99324 0.905165 0.549905
0.98999 0.917861 0.618265
0.986618 0.929076 0.689616
0.983719 0.938613 0.756024
0 0.893797 0
0 0.893797 0
0 0.893797 0
0 0.893797 0
0 0.893797 0
0 0.893767 0
0 0.893706 0
0 0.893599 0
0 0.8934 0
0 0.893111 0
0 0.892653 0
0 0.891936 0
0 0.890898 0
0.047776 0.891005 0
0.441779 0.877943 0
0.610208 0.867857 0
0.716426 0.859922 0
0.80528 0.853056 0
0.874891 0.847715 0
0.928542 0.844251 0
0.96907 0.84329 0
0.998459 0.844617 0
1 0.848325 0
1 0.855009 0
1 0.86331 0
1 0.872786 0
1 0.880674 0.159457
1 0.890318 0.343648
0.995605 0.900374 0.478614
0.992279 0.911421 0.552621
0.989227 0.922225 0.619959
0.986267 0.93196 0.687953
0.983505 0.94049 0.754452
0 0.930907 0
0 0.930907 0
0 0.930907 0
0 0.930907 0
0 0.930907 0
0 0.930907 0
0 0.930907 0
0 0.93077 0
0 0.93051 0
0 0.930053 0
0 0.929458 0
0 0.928618 0
0 0.92752 0
0 0.925475 0
0.36321 0.917403 0
0.58938 0.905165 0
0.697948 0.897108 0
0.786694 0.88986 0
0.85565 0.884153 0
0.909987 0.879835 0
0.952132 0.877287 0
0.9832 0.876677 0
1 0.877699 0
1 0.881224 0
1 0.886503 0
1 0.891356 0
1 0.896376 0.187762
0.998199 0.902403 0.359838
0.994186 0.909773 0.487007
0.991287 0.918425 0.556741
0.988434 0.927138 0.623331
0.985733 0.93521 0.689998
0.983246 0.942824 0.75256
0 0.959854 0
0 0.959854 0
0 0.959854 0
0 0.959854 0
0 0.959854 0
0 0.959854 0
0 0.959854 0
0 0.959854 0
0 0.959716 0
0 0.959228 0
0 0.95845 0
0 0.95758 0
0 0.956481 0
0 0.954162 0
0.371359 0.945846 0
0.583597 0.934157 0
0.68925 0.926375 0
0.774533 0.91931 0
0.841245 0.913512 0
0.894652 0.908812 0
0.937057 0.90547 0
0.969451 0.903487 0
0.994675 0.902831 0
1 0.903822 0
1 0.906569 0
1 0.908293 0.0187839
1 0.910735 0.22649
0.996063 0.914534 0.385595
0.992691 0.91957 0.498116
0.990158 0.926009 0.562799
0.987747 0.932769 0.628092
0.985214 0.939193 0.693553
0.982803 0.945403 0.753872
0 0.981353 0
0 0.981353 0
0 0.981353 0
0 0.981353 0
0 0.981353 0
0 0.981353 0
0 0.981353 0
0 0.981353 0
0 0.981353 0
0 0.981323 0
0 0.980499 0
0 0.979385 0
0 0.978164 0
0 0.975982 0
0.444114 0.964477 0
0.594507 0.955367 0
0.691875 0.94789 0
0.770459 0.941405 0
0.833051 0.93576 0
0.884428 0.93109 0
0.92546 0.927489 0
0.958038 0.924865 0
0.98407 0.923201 0
1 0.922621 0
1 0.923827 0
1 0.923018 0.0979477
0.99736 0.923873 0.27866
0.993774 0.926009 0.416892
0.990967 0.929366 0.50956
0.988891 0.933761 0.571099
0.986755 0.938643 0.634607
0.98439 0.943542 0.698161
0.98233 0.948638 0.756588
0 0.997589 0
0 0.997589 0
0 0.997589 0
0 0.997589 0
0 0.997589 0
0 0.997589 0
0 0.997589 0
0 0.997589 0
0 0.997589 0
0 0.997589 0
0 0.997589 0
0 0.99649 0
0 0.995026 0
0.13228 0.993851 0
0.516533 0.978164 0
0.619257 0.971145 0
0.703258 0.964431 0
0.772885 0.95848 0
0.829862 0.95346 0
0.877989 0.94905 0
0.916869 0.945388 0
0.948531 0.94255 0
0.974456 0.940444 0
0.994858 0.93904 0
1 0.936782 0.0177005
0.997574 0.935637 0.202396
0.994324 0.935592 0.33994
0.99144 0.936446 0.453407
0.989456 0.938521 0.524346
0.987701 0.94136 0.583017
0.985702 0.944717 0.643153
0.983764 0.948348 0.704784
0.981735 0.95198 0.760723
0 1 0
0 1 0
0 1 0
0 1 0
0 1 0
0 1 0
0 1 0
0 1 0
0 1 0
0 1 0
0 1 0
0 1 0
0 1 0
0.428931 0.996963 0
0.568215 0.988678 0
0.652491 0.982635 0
0.722225 0.977005 0
0.781476 0.971786 0
0.832074 0.967178 0
0.875319 0.963134 0
0.911315 0.959655 0
0.941573 0.956664 0
0.966781 0.95436 0
0.983658 0.950545 0
0.994812 0.947784 0.166339
0.993652 0.946242 0.298405
0.991318 0.945449 0.409628
0.989349 0.9458 0.492424
0.9879 0.946975 0.544366
0.986343 0.948669 0.598413
0.984634 0.950744 0.655436
0.982879 0.953094 0.71339
0.981262 0.955718 0.766278
0.375799 1 0
0.375799 1 0
0.375799 1 0
0.375799 1 0
0.375784 1 0
0.375784 1 0
0.375784 1 0
0.375784 1 0
0.375769 1 0
0.375738 1 0
0.375738 1 0
0.375692 1 0
0.375662 1 0
0.533715 1 0
0.621988 0.995941 0
0.688899 0.990738 0
0.746044 0.986068 0
0.794934 0.981704 0
0.838361 0.977539 0
0.87657 0.973877 0
0.906966 0.969497 0
0.93315 0.965774 0.018204
0.955703 0.962509 0.101946
0.973541 0.959472 0.196262
0.987518 0.956786 0.295201
0.989944 0.954955 0.391913
0.988846 0.954101 0.470558
0.987488 0.953979 0.522438
0.986297 0.954498 0.5691
0.984955 0.955337 0.618402
0.983566 0.956374 0.671016
0.981949 0.957748 0.724529
0.980423 0.959396 0.772839
0.605783 1 0.174395
0.605783 1 0.174395
0.605783 1 0.174395
0.605783 1 0.174395
0.605783 1 0.174395
0.605783 1 0.174395
0.605783 1 0.174395
0.605783 1 0.174395
0.605783 1 0.174395
0.605783 1 0.174411
0.605783 1 0.174411
0.605783 1 0.174411
0.605753 1 0.174411
0.605753 1 0.174411
0.661143 0.997345 0.177829
0.718791 0.99263 0.183917
0.764065 0.988449 0.192004
0.803998 0.98471 0.201785
0.840742 0.980972 0.215686
0.872786 0.977523 0.233448
0.900969 0.974319 0.25568
0.92578 0.971542 0.282795
0.947173 0.968795 0.316014
0.96495 0.966293 0.355795
0.979416 0.963928 0.412436
0.986481 0.962325 0.470451
0.986633 0.961334 0.514839
0.985763 0.961028 0.555581
0.984634 0.96083 0.598001
0.983581 0.96112 0.642939
0.982238 0.961456 0.690578
0.981018 0.962005 0.738384
0.979873 0.963088 0.782025
0.708095 0.994217 0.402945
0.708095 0.994217 0.402945
0.708095 0.994217 0.402945
0.708095 0.994217 0.402945
0.708095 0.994217 0.402945
0.708095 0.994217 0.402945
0.708095 0.994217 0.402945
0.708095 0.994217 0.402945
0.708095 0.994217 0.402945
0.708095 0.994217 0.402945
0.708095 0.994217 0.402945
0.708095 0.994217 0.402945
0.70808 0.994217 0.402945
0.70808 0.994217 0.402945
0.708049 0.994217 0.402945
0.744488 0.992309 0.404685
0.784695 0.989899 0.40885
0.818418 0.986816 0.413001
0.848554 0.983764 0.418906
0.875502 0.980911 0.426825
0.899794 0.978225 0.436881
0.922408 0.975769 0.449836
0.941863 0.973449 0.464836
0.958816 0.971466 0.483375
0.973175 0.969635 0.502068
0.983719 0.968185 0.524788
0.984894 0.967193 0.555871
0.984176 0.966613 0.59173
0.983154 0.966064 0.630503
0.982238 0.965896 0.671687
0.981094 0.965774 0.713878
0.980117 0.966049 0.754955
0.979141 0.966354 0.792798
0.77818 0.988525 0.524788
0.77818 0.988525 0.524788
0.77818 0.988525 0.524788
0.77818 0.988525 0.524788
0.77818 0.988525 0.524788
0.77818 0.988525 0.524788
0.77818 0.988525 0.524788
0.77818 0.988525 0.524788
0.778164 0.98854 0.524804
0.778164 0.98854 0.524804
0.778164 0.98854 0.524804
0.778164 0.98854 0.524804
0.778164 0.98854 0.524804
0.778164 0.98854 0.524804
0.778149 0.988525 0.524804
0.778149 0.988525 0.524804
0.804562 0.98706 0.525063
0.834546 0.985382 0.525902
0.859129 0.983932 0.527535
0.881392 0.982681 0.529793
0.902724 0.981262 0.533532
0.922301 0.979339 0.538216
0.939681 0.977539 0.544686
0.955215 0.975631 0.553246
0.968795 0.974105 0.564675
0.979767 0.97261 0.57879
0.982727 0.971725 0.601633
0.982635 0.970947 0.631678
0.98175 0.970199 0.665888
0.980957 0.969787 0.702785
0.97998 0.96936 0.739178
0.979202 0.969284 0.773785
0.978439 0.96939 0.805615
0.829664 0.984375 0.600107
0.829664 0.984375 0.600107
0.829664 0.984375 0.600107
0.829664 0.984375 0.600107
0.829664 0.984375 0.600107
0.829664 0.984375 0.600107
0.829664 0.984375 0.600107
0.829664 0.984375 0.600107
0.829664 0.984375 0.600107
