BBLuts/BB_103_0810_LUT.cube
TITLE "Generated by Resolve"
LUT_3D_SIZE 33
0 0 0
0 0 0
0 0 0
0 0 0
0 0 0
0.0554818 0 0
0.119371 0 0
0.164706 0 0
0.209659 0 0
0.261189 0 0
0.318853 0 0
0.379995 0 0
0.444221 0 0.00112917
0.51841 0 0.00309758
0.600412 0.000854505 0.00538643
0.685313 0.00355535 0.00788891
0.772091 0.00634775 0.0104829
0.858686 0.00915541 0.0130922
0.936706 0.0116884 0.0154726
0.998306 0.0137026 0.017319
1 0.0140688 0.0176699
1 0.0140688 0.0176699
0.986389 0.203525 0.0485847
0.964401 0.396551 0.0723735
0.950393 0.521248 0.104417
0.938491 0.628489 0.144747
0.927977 0.723827 0.196643
0.919158 0.80502 0.270802
0.912505 0.867094 0.350362
0.9075 0.9149 0.42945
0.903777 0.951461 0.505821
0.90103 0.979461 0.579126
0.898878 1 0.642771
0 0 0
0 0 0
0 0 0
0 0 0
0 0 0
0.068513 0 0
0.123766 0 0
0.168246 0 0
0.215152 0 0
0.267338 0 0
0.324819 0 0
0.384741 0 0
0.447135 0 0.00120546
0.520348 0 0.00315862
0.601984 0.000915541 0.00543221
0.686412 0.00360113 0.00791943
0.772763 0.00637827 0.0105135
0.858991 0.00917067 0.0131075
0.936599 0.0116884 0.0154726
0.997909 0.0136873 0.017319
1 0.0140688 0.0176699
1 0.0140688 0.0176699
0.982025 0.241978 0.0261692
0.962814 0.410727 0.064683
0.949432 0.529931 0.100328
0.93785 0.63415 0.142412
0.92755 0.727703 0.194446
0.918898 0.80734 0.269642
0.912367 0.868391 0.349752
0.907408 0.915679 0.429099
0.903731 0.951904 0.505638
0.900999 0.979736 0.578988
0.898863 1 0.642695
0 0 0
0 0 0
0 0 0
0 0 0
0 0 0
0.0762188 0 0
0.125277 0 0
0.171618 0 0
0.220874 0 0
0.273014 0 0
0.329351 0 0
0.387213 0 0
0.449561 0 0.00128176
0.522408 0 0.00320439
0.603571 0.000961318 0.00547799
0.687495 0.00363165 0.00796521
0.773434 0.00639353 0.0105287
0.859297 0.00917067 0.0131228
0.936477 0.0116732 0.0154726
0.997482 0.0136721 0.0173037
1 0.0140688 0.0176699
1 0.0140688 0.0176699
0.978698 0.272953 0
0.961334 0.423926 0.0563973
0.948486 0.538338 0.0961471
0.93724 0.639658 0.140093
0.927123 0.731517 0.192309
0.918639 0.809613 0.268467
0.912215 0.869688 0.349157
0.907332 0.916457 0.428748
0.903685 0.952331 0.505425
0.900969 0.979995 0.578866
0.898848 1 0.642618
0 0 0
0 0 0
0 0 0
0 0 0
0.0249485 0.000320439 0
0.0820935 0 0
0.125978 0 0
0.171923 0 0
0.221836 0 0
0.275319 0 0
0.33228 0 0
0.389502 0 0
0.451896 0 0.00134279
0.524483 0 0.00326543
0.605173 0.0010071 0.00552377
0.688609 0.00366217 0.00799573
0.77409 0.00640879 0.010544
0.859571 0.00918593 0.0131228
0.936339 0.0116732 0.0154726
0.997024 0.0136568 0.0172885
1 0.0140688 0.0176699
1 0.0140688 0.0176699
0.975723 0.299184 0
0.95993 0.436484 0.0472267
0.947585 0.546471 0.0919203
0.936645 0.645014 0.137789
0.926711 0.735225 0.191119
0.918395 0.811856 0.267323
0.912077 0.87097 0.348562
0.90724 0.91722 0.428397
0.903624 0.952758 0.505226
0.900938 0.980255 0.578729
0.898833 1 0.642542
0 0.0521553 0
0 0.055787 0
0 0.0592813 0
0 0.0626535 0
0 0.0639811 0
0.0677653 0.063386 0
0.115541 0.0611582 0
0.163745 0.0554055 0
0.216648 0.0415351 0
0.276341 0 0
0.333959 0 0
0.391577 0 0
0.45417 0 0.00140383
0.526604 0 0.00332647
0.606806 0.00106813 0.00556954
0.689723 0.00370794 0.00802625
0.774746 0.00643931 0.0105745
0.859815 0.00918593 0.013138
0.936172 0.0116732 0.0154574
0.996567 0.0136416 0.0172732
1 0.0140688 0.0176699
1 0.0748913 0.0096437
0.973114 0.322271 0
0.958602 0.448463 0.0367437
0.946715 0.554345 0.0875715
0.936065 0.650263 0.13547
0.926314 0.738857 0.189929
0.918151 0.814069 0.266194
0.91194 0.872221 0.347951
0.907149 0.917967 0.428046
0.903578 0.95317 0.505013
0.900908 0.980514 0.578607
0.898802 1 0.642466
0 0.0918898 0
0 0.094728 0
0 0.0975357 0
0 0.0997482 0
0 0.100801 0
0.0433356 0.100679 0
0.10428 0.100084 0
0.15552 0.0980087 0
0.20972 0.0932479 0
0.267994 0.0834516 0
0.328344 0.0633707 0
0.393423 0 0
0.456458 0 0.00144961
0.528847 0 0.0033875
0.60856 0.00112917 0.00563058
0.690929 0.00373846 0.00805676
0.775418 0.00645457 0.0105898
0.860075 0.00920119 0.013138
0.936004 0.0116579 0.0154574
0.996063 0.0136263 0.017258
1 0.0140688 0.0176699
0.990509 0.170001 0
0.970703 0.34374 0
0.95729 0.460441 0.0232853
0.94583 0.562325 0.0829328
0.93547 0.65565 0.133043
0.925902 0.742565 0.188724
0.917891 0.816312 0.264988
0.911788 0.873533 0.347341
0.907073 0.918746 0.427695
0.903532 0.953613 0.504799
0.900877 0.980789 0.578454
0.898787 1 0.64239
0 0.13315 0
0 0.1355 0
0 0.137819 0
0 0.139116 0
0 0.139971 0
0 0.140261 0
0.0838026 0.139803 0
0.14342 0.13901 0
0.201053 0.136782 0
0.261585 0.132021 0
0.322393 0.122606 0
0.384451 0.106859 0
0.451392 0.0755779 0
0.531731 0 0.0034638
0.610834 0.0011902 0.00569161
0.69247 0.0037995 0.00810254
0.776303 0.00648508 0.0106203
0.860395 0.00921645 0.0131533
0.935744 0.0116579 0.0154421
0.995377 0.0135958 0.0172427
1 0.0140688 0.0176699
0.983673 0.229328 0
0.96791 0.36849 0
0.955749 0.475257 0
0.944732 0.572259 0.0767834
0.934707 0.66247 0.129931
0.925383 0.747234 0.187198
0.917571 0.819181 0.263478
0.911604 0.875196 0.346548
0.90695 0.919738 0.427222
0.903471 0.954177 0.50454
0.900832 0.98114 0.578271
0.898772 1 0.642267
0 0.179324 0
0 0.181338 0
0 0.182849 0
0 0.183856 0
0 0.184573 0
0 0.18497 0
0.021561 0.18468 0
0.122072 0.184253 0
0.187335 0.183276 0
0.251362 0.180255 0
0.314763 0.174166 0
0.379431 0.165225 0
0.446571 0.151476 0
0.522103 0.127306 0
0.606241 0.0735027 0
0.69456 0.00386053 0.00816358
0.777508 0.00653086 0.0106508
0.860838 0.00923171 0.0131685
0.935378 0.0116426 0.0154421
0.994415 0.0135805 0.0172122
0.996048 0.123003 0.00373846
0.977539 0.283177 0
0.964675 0.397391 0
0.953902 0.493782 0
0.943328 0.584848 0.0681926
0.93373 0.67126 0.12578
0.924712 0.753246 0.185229
0.917159 0.822843 0.261479
0.91136 0.877333 0.345525
0.906813 0.92105 0.426612
0.90338 0.954925 0.504173
0.900786 0.981598 0.578058
0.898741 1 0.642145
0 0.232563 0
0 0.234043 0
0 0.234882 0
0 0.235721 0
0 0.236301 0
0 0.236713 0
0 0.236957 0
0.0748302 0.236133 0
0.162844 0.234684 0
0.234302 0.232288 0
0.302754 0.228458 0
0.371771 0.222644 0
0.4421 0.213947 0
0.518471 0.200656 0
0.598535 0.181888 0
0.680873 0.154467 0
0.767391 0.110079 0
0.861402 0.00924697 0.0131838
0.934829 0.0116274 0.0154269
0.978714 0.129992 0.00241093
0.982635 0.238361 0
0.971466 0.336889 0
0.96112 0.429129 0
0.951415 0.516091 0
0.941588 0.600656 0.0558175
0.932479 0.68246 0.120287
0.923873 0.760861 0.182727
0.91664 0.827543 0.258885
0.911055 0.880125 0.344152
0.906615 0.922728 0.425803
0.903273 0.955871 0.5037
0.90071 0.982208 0.577737
0.898695 1 0.641962
0 0.29015 0
0 0.290593 0
0 0.29102 0
0 0.291371 0
0 0.2916 0
0 0.291646 0
0 0.291539 0
0 0.291157 0
0.117205 0.289342 0
0.207797 0.287938 0
0.284459 0.285588 0
0.359716 0.281819 0
0.434592 0.275929 0
0.51458 0.267201 0
0.594858 0.257069 0
0.674693 0.244785 0
0.756237 0.230961 0
0.83798 0.21883 0
0.908965 0.223911 0
0.961791 0.2598 0
0.97348 0.319097 0
0.965316 0.391669 0
0.957015 0.465721 0
0.948455 0.542855 0
0.939452 0.620249 0.0366522
0.930922 0.69662 0.112993
0.922805 0.770443 0.179568
0.915984 0.833463 0.255512
0.910658 0.88368 0.342367
0.906371 0.924895 0.424765
0.903136 0.957137 0.503075
0.900633 0.982986 0.57734
0.898634 1 0.641718
0 0.349844 0
0 0.350256 0
0 0.350683 0
0 0.350988 0
0 0.351232 0
0 0.35137 0
0 0.351431 0
0 0.351324 0
0 0.350866 0
0.161776 0.348791 0
0.256077 0.347463 0
0.340169 0.345113 0
0.421653 0.341146 0
0.507469 0.335531 0
0.590387 0.329198 0
0.670024 0.32282 0
0.749401 0.317372 0
0.828122 0.314977 0
0.896483 0.323476 0
0.948775 0.350088 0
0.965133 0.393362 0
0.959228 0.445991 0
0.952361 0.507668 0
0.944961 0.574426 0
0.936965 0.643778 0
0.928969 0.714244 0.103227
0.921492 0.782269 0.175677
0.91516 0.840833 0.251133
0.91014 0.888212 0.340063
0.906065 0.927657 0.423392
0.902953 0.958755 0.502266
0.900511 0.984009 0.576806
0.898573 1 0.641413
0 0.416251 0
0 0.416617 0
0 0.416968 0
0 0.417243 0
0 0.417456 0
0 0.417624 0
0 0.417762 0
0 0.417807 0
0 0.41767 0
0.0231022 0.416449 0
0.207355 0.415198 0
0.308934 0.413993 0
0.400671 0.412024 0
0.493599 0.409003 0
0.58117 0.405264 0
0.663493 0.401953 0
0.742596 0.400275 0
0.818936 0.401923 0
0.884581 0.411048 0
0.935699 0.431098 0
0.957427 0.462058 0
0.952789 0.503761 0
0.947204 0.554192 0
0.940902 0.611109 0
0.934188 0.672007 0
0.926619 0.735592 0.0903334
0.919905 0.796613 0.170993
0.914168 0.84979 0.249622
0.909499 0.893904 0.337057
0.905669 0.931151 0.421607
0.902724 0.96083 0.501198
0.900359 0.985336 0.576104
0.898482 1 0.641001
0 0.491081 0
0 0.491432 0
0 0.491737 0
0 0.491981 0
0 0.49218 0
0 0.492363 0
0 0.492515 0
0 0.492653 0
0 0.492775 0
0 0.492866 0
0.0865492 0.491295 0
0.256199 0.490654 0
0.36788 0.489769 0
0.469963 0.487861 0
0.564294 0.485359 0
0.651408 0.482979 0
0.733577 0.481971 0
0.809232 0.484001 0
0.87248 0.49192 0
0.921965 0.507836 0
0.94966 0.531945 0
0.946059 0.564446 0
0.941558 0.605188 0
0.936355 0.652247 0
0.930541 0.705074 0
0.923888 0.760418 0.073579
0.918044 0.813535 0.165621
0.912978 0.860502 0.248173
0.908721 0.900923 0.333196
0.90518 0.935531 0.419318
0.902419 0.963485 0.499809
0.900175 0.987015 0.575189
0.89836 1 0.640452
0 0.573693 0
0 0.573968 0
0 0.574197 0
0 0.57438 0
0 0.574563 0
0 0.574716 0
0 0.574868 0
0 0.575021 0
0 0.575128 0
0 0.575174 0
0 0.575021 0
0.151369 0.572671 0
0.318395 0.571694 0
0.435706 0.57026 0
0.538903 0.568307 0
0.632242 0.566171 0
0.71957 0.564782 0
0.797284 0.565774 0
0.859159 0.57171 0
0.90692 0.583856 0
0.941863 0.602472 0
0.939055 0.627771 0
0.935561 0.659525 0
0.931304 0.698207 0
0.92639 0.742809 0
0.920836 0.788373 0.0518044
0.915892 0.832898 0.159899
0.911589 0.873121 0.246845
0.907774 0.909407 0.328801
0.90457 0.940856 0.416358
0.902037 0.966827 0.497993
0.899931 0.989151 0.573999
0.898207 1 0.639735
0 0.656352 0
0 0.656504 0
0 0.656641 0
0 0.656748 0
0 0.65684 0
0 0.656901 0
0 0.656977 0
0 0.657038 0
0 0.657053 0
0 0.656992 0
0 0.656794 0
0 0.65626 0
0.237659 0.653056 0
0.389761 0.651698 0
0.504936 0.65008 0
0.605722 0.648188 0
0.699092 0.646494 0
0.780438 0.646433 0
0.843275 0.650141 0
0.890211 0.658839 0
0.926635 0.672724 0
0.931975 0.692103 0
0.929183 0.717449 0
0.925795 0.748333 0
0.921996 0.782895 0
0.917556 0.818647 0.0231937
0.913542 0.85417 0.154528
0.909957 0.887785 0.245853
0.906661 0.919387 0.329091
0.903853 0.94725 0.412604
0.901564 0.970962 0.495644
0.899611 0.991852 0.572427
0.898024 1 0.638804
0 0.738277 0
0 0.738354 0
0 0.738384 0
0 0.73843 0
0 0.738445 0
0 0.73846 0
0 0.738476 0
0 0.738445 0
0 0.738384 0
0 0.738231 0
0 0.737896 0
0 0.737301 0
0.0345922 0.73463 0
0.328054 0.732097 0
0.462806 0.730449 0
0.572641 0.728573 0
0.671901 0.72665 0
0.757336 0.72578 0
0.822599 0.727764 0
0.870268 0.733654 0
0.906889 0.743786 0
0.924712 0.758114 0
0.922713 0.776303 0
0.920302 0.798276 0
0.917556 0.823377 0
0.91426 0.849821 0
0.91107 0.876707 0.150729
0.908141 0.90428 0.245762
0.905409 0.930816 0.329992
0.903029 0.954665 0.408743
0.900999 0.976028 0.492638
0.899245 0.995178 0.570397
0.89778 1 0.637598
0 0.818051 0
0 0.818036 0
0 0.818021 0
0 0.81799 0
0 0.81796 0
0 0.817914 0
0 0.817838 0
0 0.817731 0
0 0.817548 0
0 0.817273 0
0 0.816785 0
0 0.816007 0
0 0.814801 0
0.239399 0.810208 0
0.413336 0.808133 0
0.535866 0.805982 0
0.64065 0.803647 0
0.729381 0.801877 0
0.79762 0.801892 0
0.848127 0.804486 0
0.886503 0.81001 0
0.913649 0.81886 0
0.916777 0.830518 0
0.91519 0.844953 0
0.913344 0.861799 0
0.911284 0.880613 0
0.908446 0.900465 0.149554
0.906188 0.922087 0.247333
0.904021 0.943374 0.331975
0.902083 0.963226 0.410697
0.900313 0.98204 0.488746
0.898772 0.999695 0.567773
0.89749 1 0.636011
0 0.88542 0
0 0.885344 0
0 0.885252 0
0 0.885161 0
0 0.885069 0
0 0.884962 0
0 0.88481 0
0 0.884611 0
0 0.884306 0
0 0.883864 0
0 0.883192 0
0 0.8822 0
0 0.880812 0
0.131243 0.876234 0
0.370321 0.873304 0
0.505379 0.870695 0
0.614084 0.867842 0
0.7037 0.865339 0
0.773312 0.86392 0
0.826505 0.864057 0
0.86717 0.866148 0
0.896056 0.870542 0
0.911665 0.877119 0
0.910704 0.885939 0
0.909483 0.897078 0
0.907866 0.910109 0
0.905806 0.924422 0.153155
0.904173 0.940444 0.251667
0.902571 0.956634 0.335607
0.901015 0.972946 0.413657
0.899535 0.989013 0.487984
0.898238 1 0.564416
0.897063 1 0.633921
0 0.93698 0
0 0.936843 0
0 0.936721 0
0 0.936584 0
0 0.936446 0
0 0.936278 0
0 0.93608 0
0 0.935775 0
0 0.935393 0
0 0.934829 0
0 0.934005 0
0 0.932906 0
0 0.931426 0
0.0661936 0.927108 0
0.35053 0.923461 0
0.489158 0.920607 0
0.59765 0.917525 0
0.685222 0.914687 0
0.753491 0.912612 0
0.807553 0.911498 0
0.849287 0.911681 0
0.880308 0.913527 0
0.903883 0.917082 0
0.906722 0.922347 0
0.905943 0.929366 0
0.904524 0.937392 0.00927749
0.903319 0.947188 0.163867
0.90222 0.958312 0.260029
0.901045 0.970565 0.341497
0.899855 0.983612 0.418112
0.89868 0.996826 0.491279
0.897612 1 0.561318
0.896635 1 0.631266
0 0.977172 0
0 0.976989 0
0 0.976837 0
0 0.976654 0
0 0.976471 0
0 0.976287 0
0 0.976028 0
0 0.975677 0
0 0.975189 0
0 0.974563 0
0 0.973709 0
0 0.97258 0
0 0.971084 0
0.135729 0.966094 0
0.359426 0.962905 0
0.489815 0.960037 0
0.591638 0.956985 0
0.674022 0.954101 0
0.73901 0.951766 0
0.791882 0.950042 0
0.833692 0.949157 0
0.866026 0.949371 0
0.891051 0.950683 0
0.903334 0.953277 0
0.902907 0.957107 0
0.901762 0.961471 0.0625467
0.901045 0.967895 0.1832
0.900313 0.975799 0.273106
0.899489 0.984909 0.350378
0.898634 0.994873 0.424613
0.897765 1 0.495964
0.896956 1 0.56492
0.896132 1 0.627848
0 1 0
0 1 0
0 1 0
0 1 0
0 1 0
0 1 0
0 1 0
0 1 0
0 1 0
0 1 0
0 1 0
0 1 0
0 1 0
0.250019 0.994919 0
0.39823 0.992309 0
0.508614 0.989593 0
0.597574 0.98674 0
0.671489 0.983993 0
0.731365 0.981628 0
0.781521 0.97966 0
0.821714 0.978286 0
0.854185 0.977615 0
0.880079 0.977707 0
0.899763 0.978744 0
0.900328 0.980728 0
0.899367 0.982956 0.115328
0.898955 0.987198 0.210758
0.898497 0.992584 0.290852
0.897978 0.998993 0.36318
0.897414 1 0.43389
0.896819 1 0.502632
0.896178 1 0.569741
0.895598 1 0.630137
0 1 0
0 1 0
0 1 0
0 1 0
0 1 0
0 1 0
0 1 0
0 1 0
0 1 0
0 1 0
0 1 0
0 1 0
0.225772 1 0
0.354726 1 0
0.4551 1 0
0.539513 1 0
0.61294 1 0
0.675853 1 0
0.729381 1 0
0.775479 1 0
0.813001 1 0
0.844007 1 0
0.870283 1 0
0.890517 1 0
0.897459 1 0.0634928
0.897276 1 0.168292
0.897093 1 0.246052
0.896849 1 0.314382
0.896574 1 0.380697
0.896193 1 0.446677
0.895811 1 0.511818
0.89543 1 0.576349
0.895018 1 0.63418
0 1 0
0 1 0
0 1 0
0 1 0
0 1 0
0 1 0
0 1 0
0 1 0
0 1 0
0.127001 1 0
0.231266 1 0
0.311192 1 0
0.383597 1 0
0.452705 1 0
0.517464 1 0
0.578561 1 0
0.635431 1 0
0.686412 1 0
0.732845 1 0
0.773709 1 0
0.807767 1 0
0.837079 1 0
0.862348 1 0
0.88188 1 0.0475929
0.895491 1 0.148028
0.895491 1 0.221485
0.89546 1 0.285557
0.895369 1 0.344045
0.895247 1 0.403311
0.895079 1 0.463691
0.894896 1 0.524254
0.894682 1 0.585107
0.894438 1 0.639597
0.251102 1 0
0.266865 1 0
0.28098 1 0
0.293812 1 0
0.305943 1 0
0.317906 1 0
0.332464 1 0
0.350469 1 0
0.372305 1 0
0.397971 1 0
0.427543 1 0
0.460945 1 0
0.497704 1 0
0.536843 1 0
0.578393 1 0
0.620798 1 0
0.662226 1 0
0.702678 1 0
0.741176 1 0
0.775891 1 0
0.805508 1 0
0.83238 1 0.056672
0.856031 1 0.103929
0.875303 1 0.160754
0.891325 1 0.218677
0.894072 1 0.274586
0.894118 1 0.326436
0.894148 1 0.378759
0.894133 1 0.43122
0.894102 1 0.485206
0.894041 1 0.540612
0.893965 1 0.59646
0.893858 1 0.646662
0.473335 1 0.125521
0.47834 1 0.125765
0.483207 1 0.125994
0.487922 1 0.126238
0.49247 1 0.126482
0.497063 1 0.126726
0.5028 1 0.127062
0.510124 1 0.127504
0.519463 1 0.128069
0.531167 1 0.128832
0.545556 1 0.129839
0.562936 1 0.131167
0.583429 1 0.132952
0.606928 1 0.135302
0.632929 1 0.138384
0.661021 1 0.142458
0.691096 1 0.147768
0.722042 1 0.154589
0.752377 1 0.163333
0.780468 1 0.17438
0.806622 1 0.188159
0.830716 1 0.205112
0.852338 1 0.225483
0.870481 1 0.249561
0.885863 1 0.285023
0.892912 1 0.325933
0.893034 1 0.370367
0.893141 1 0.416403
0.893217 1 0.463584
0.893263 1 0.511193
0.893309 1 0.561303
0.893339 1 0.610727
0.893324 1 0.65568
0.59292 1 0.262669
0.595254 1 0.262791
0.597574 1 0.262913
0.599832 1 0.26302
0.602075 1 0.263157
0.604379 1 0.263279
0.607279 1 0.263447
0.611017 1 0.263661
0.615824 1 0.263951
0.621897 1 0.264347
0.629526 1 0.264851
0.639017 1 0.265538
0.65069 1 0.266423
0.66479 1 0.267613
0.681407 1 0.269184
0.700496 1 0.271275
0.721584 1 0.273915
0.743954 1 0.277378
0.766506 1 0.281926
0.788769 1 0.287816
0.810773 1 0.295384
0.831586 1 0.305028
0.850736 1 0.31722
0.867384 1 0.332464
0.881819 1 0.351293
0.892058 1 0.38085
0.89221 1 0.416983
0.892348 1 0.456748
0.892485 1 0.498314
0.892592 1 0.541573
0.892699 1 0.585534
0.892775 1 0.627817
0.892836 1 0.666712
0.671901 1 0.362539
0.673152 1 0.362615
0.674403 1 0.362707
0.675639 1 0.362783
0.676875 1 0.36286
0.678126 1 0.362951
0.679728 1 0.363058
0.681834 1 0.363195
0.684565 1 0.363378
0.688075 1 0.363622
0.692576 1 0.363958
0.698253 1 0.364385
0.705333 1 0.364965
0.714046 1 0.365728
0.724514 1 0.36672
0.736767 1 0.368032
0.750607 1 0.369772
0.765682 1 0.372061
0.782055 1 0.375051
0.799435 1 0.378958
0.817151 1 0.384085
0.834424 1 0.390768
0.850935 1 0.399283
0.865766 1 0.410071
0.87892 1 0.423606
0.889982 1 0.440345
0.8916 1 0.466957
0.891768 1 0.499367
0.89192 1 0.535714
0.892073 1 0.574273
0.89221 1 0.611856
0.892332 1 0.647227
0.892409 1 0.679652
0.729397 1 0.451194
0.730098 1 0.45124
0.730785 1 0.451301
0.731472 1 0.451362
0.732143 1 0.451408
0.73286 1 0.451453
0.733745 1 0.451545
0.73492 1 0.451637
0.736461 1 0.451774
