BBLuts/BB_103_0840_LUT.cube
TITLE "Generated by Resolve"
LUT_3D_SIZE 33
0 0 0
0 0 0
0 0 0
0 0 0
0 0 0
0.0381323 0 0
0.0944228 0 0
0.134081 0 0
0.174929 0 0
0.231464 0 0
0.294469 0 0
0.361227 0 0
0.434424 0 0
0.516869 0 0.0271153
0.601801 0 0.0887465
0.68278 0 0.226673
0.762051 0 0.362264
0.844617 0 0.478386
0.919448 0.00166323 0.570565
0.977874 0.00325017 0.633616
0.988617 0.00355535 0.644694
0.988617 0.00355535 0.644694
0.988617 0.00355535 0.645228
0.988617 0.00355535 0.64509
0.981491 0.435966 0.638941
0.976806 0.580224 0.629969
0.96672 0.677684 0.609064
0.964508 0.753674 0.56849
0.962997 0.810849 0.447517
0.964416 0.857176 0
0.963531 0.890684 0
0.960052 0.914153 0.580407
0.959976 0.935485 0.718715
0 0 0
0 0 0
0 0 0
0 0 0
0 0 0
0.0496681 0 0
0.0982834 0 0
0.137194 0 0
0.180743 0 0
0.238224 0 0
0.300984 0 0
0.36672 0 0
0.437675 0 0
0.518944 0 0.0280919
0.603342 0 0.090486
0.683818 0 0.228733
0.762692 0 0.363226
0.844923 0 0.478782
0.919356 0.00166323 0.570474
0.977478 0.00325017 0.633219
0.988617 0.00355535 0.644694
0.988617 0.00355535 0.644694
0.988617 0.00355535 0.644846
0.986175 0.041825 0.64271
0.982071 0.449928 0.639033
0.976043 0.586755 0.628824
0.966598 0.681361 0.607797
0.964431 0.755825 0.565774
0.962982 0.812055 0.437507
0.964385 0.857862 0
0.963531 0.891051 0
0.960037 0.914397 0.578485
0.959976 0.935622 0.718395
0 0 0
0 0 0
0 0 0
0 0 0
0 0 0
0.0564736 0 0
0.0995956 0 0
0.140139 0 0
0.186999 0 0
0.244465 0 0
0.305913 0 0
0.36965 0 0
0.440391 0 0.000396735
0.521141 0 0.0291905
0.604883 0 0.0922713
0.684825 0 0.230732
0.763333 0 0.364187
0.845197 0 0.479164
0.919234 0.00164797 0.570336
0.977081 0.00323491 0.632807
0.988617 0.00355535 0.644694
0.988617 0.00355535 0.644694
0.988617 0.00354009 0.64419
0.982879 0.119768 0.639826
0.982406 0.463035 0.638911
0.975265 0.59295 0.627649
0.966506 0.684962 0.606485
0.964385 0.757916 0.562982
0.962966 0.813245 0.426566
0.96437 0.858564 0
0.9635 0.891447 0
0.960037 0.914626 0.576608
0.959976 0.93576 0.718059
0 0 0
0 0 0
0 0 0
0 0 0
0.0112306 0 0
0.0616617 0 0
0.100221 0 0
0.140398 0 0
0.188067 0 0
0.246967 0 0
0.309102 0 0
0.372305 0 0
0.443015 0 0.00108339
0.523369 0 0.0302892
0.606424 0 0.0941176
0.685878 0 0.232792
0.763958 0 0.365118
0.845472 0 0.479515
0.919097 0.00164797 0.570169
0.976654 0.00321965 0.632349
0.988617 0.00355535 0.644694
0.988617 0.00355535 0.644694
0.988617 0.00354009 0.644099
0.980224 0.200122 0.637583
0.982452 0.475334 0.638529
0.974517 0.598703 0.62649
0.9664 0.688457 0.605173
0.964324 0.759991 0.560082
0.962951 0.81445 0.414405
0.964355 0.859251 0
0.9635 0.891829 0
0.960037 0.91487 0.574609
0.959976 0.935897 0.717754
0 0.0217288 0
0 0.0251469 0
0 0.0284276 0
0 0.0315709 0
0 0.0328069 0
0.0525521 0.0316167 0
0.094316 0.0292668 0
0.136156 0.0236362 0
0.185489 0.0104982 0
0.248096 0 0
0.310948 0 0
0.374716 0 0
0.445533 0 0.00175479
0.525612 0 0.0314336
0.607996 0 0.0960098
0.686931 0 0.234836
0.764569 0 0.366064
0.845701 0 0.479835
0.918944 0.00164797 0.570001
0.976211 0.00320439 0.631907
0.988617 0.00355535 0.644694
0.988617 0.00355535 0.644587
0.988617 0.00354009 0.643992
0.9785 0.258015 0.636027
0.982284 0.486763 0.637964
0.97377 0.604166 0.625299
0.966308 0.69189 0.603815
0.964263 0.76202 0.557046
0.962951 0.81561 0.400931
0.964324 0.859937 0
0.963485 0.892195 0
0.960037 0.915099 0.572625
0.959945 0.936034 0.717433
0 0.0587167 0
0 0.0613413 0
0 0.0639353 0
0 0.0659648 0
0 0.0669566 0
0.0331884 0.0662852 0
0.0869001 0.0651713 0
0.131746 0.0628519 0
0.1823 0.0580453 0
0.246525 0.0486 0
0.310826 0.0297093 0
0.376883 0 0
0.448096 0 0.00248722
0.528008 0 0.0326696
0.609659 0 0.0981003
0.688045 0 0.237034
0.765209 0 0.367025
0.845945 0 0.480171
0.918776 0.00164797 0.569787
0.975723 0.00318914 0.631388
0.988617 0.00355535 0.644694
0.988617 0.00355535 0.644419
0.988617 0.00354009 0.64387
0.977295 0.300206 0.634806
0.982086 0.497856 0.637339
0.973022 0.609659 0.624063
0.966186 0.695384 0.60235
0.964202 0.76408 0.55378
0.962951 0.816846 0.384649
0.964309 0.860639 0
0.96347 0.892607 0
0.960006 0.915343 0.570474
0.959945 0.936187 0.717083
0 0.0967422 0
0 0.0988937 0
0 0.101045 0
0 0.102235 0
0 0.102998 0
0 0.103288 0
0.0709392 0.101884 0
0.124117 0.100282 0
0.176989 0.097673 0
0.244526 0.0927749 0
0.310567 0.0835889 0
0.377646 0.068452 0
0.449866 0.0386206 0
0.531044 0 0.0342718
0.611795 0 0.100832
0.689494 0 0.239826
0.766064 0 0.368277
0.84625 0 0.480583
0.918532 0.00163272 0.569512
0.975067 0.00317388 0.630716
0.988617 0.00355535 0.644694
0.988617 0.00354009 0.644297
0.988617 0.00354009 0.643702
0.976226 0.340597 0.633371
0.981872 0.511086 0.636545
0.972107 0.616632 0.622492
0.966064 0.699794 0.600366
0.964141 0.76672 0.549386
0.962982 0.818418 0.359228
0.964279 0.86154 0
0.963455 0.893095 0
0.960006 0.915663 0.567575
0.959945 0.936355 0.716655
0 0.139101 0
0 0.140948 0
0 0.142336 0
0 0.143236 0
0 0.143893 0
0 0.144259 0
0.0185397 0.143526 0
0.106767 0.14226 0
0.165957 0.140322 0
0.238102 0.136538 0
0.307347 0.130434 0
0.377966 0.121462 0
0.45214 0.107561 0
0.532708 0.0825055 0.0137789
0.613535 0.0267491 0.0924392
0.691432 0 0.243549
0.767208 0 0.369985
0.846662 0 0.481132
0.918181 0.00161746 0.5691
0.974151 0.00315862 0.62977
0.988617 0.00355535 0.644495
0.988617 0.00354009 0.64416
0.988617 0.00354009 0.643458
0.978561 0.380911 0.63476
0.981384 0.527199 0.635248
0.970947 0.62565 0.620401
0.965911 0.705409 0.597559
0.964034 0.770092 0.543221
0.963058 0.820508 0.313726
0.964233 0.862715 0
0.963439 0.893767 0
0.960006 0.91606 0.56376
0.95993 0.936599 0.71606
0 0.193851 0
0 0.195514 0
0 0.196429 0
0 0.19736 0
0 0.198016 0
0 0.198459 0
0 0.198734 0
0.068101 0.196918 0
0.144793 0.194568 0
0.222065 0.190417 0
0.299519 0.184802 0
0.375219 0.177325 0
0.453681 0.165988 0
0.536278 0.149187 0.00332647
0.615747 0.124926 0.0793317
0.691752 0.0851148 0.230961
0.767941 0.0111391 0.368185
0.847211 0 0.481865
0.917662 0.00161746 0.56849
0.972839 0.00311284 0.628168
0.988617 0.00354009 0.644282
0.988617 0.00354009 0.643915
0.982437 0.132082 0.638041
0.98114 0.422599 0.636362
0.980163 0.546654 0.633051
0.969635 0.636988 0.617655
0.965698 0.712551 0.593576
0.963912 0.774411 0.53434
0.96347 0.823514 0.195636
0.964187 0.864225 0
0.963394 0.894621 0
0.959991 0.916594 0.558343
0.959915 0.936904 0.715282
0 0.256367 0
0 0.25684 0
0 0.257298 0
0 0.257679 0
0 0.257908 0
0 0.257984 0
0 0.257862 0
0 0.257435 0
0.107012 0.254246 0
0.193378 0.252018 0
0.282231 0.247852 0
0.367361 0.2421 0
0.451759 0.234531 0
0.538964 0.222568 0
0.618982 0.204898 0.070161
0.693812 0.175601 0.226169
0.770489 0.123873 0.367895
0.846036 0.0315099 0.478141
0.916442 0.00158694 0.566583
0.970962 0.00306706 0.62591
0.988617 0.00354009 0.644007
0.988617 0.00354009 0.643503
0.976989 0.311406 0.633585
0.982528 0.466575 0.636469
0.977996 0.569787 0.629557
0.968215 0.651087 0.613993
0.965423 0.721477 0.587854
0.96376 0.779843 0.52108
0.965194 0.82855 0
0.964126 0.866194 0
0.963348 0.89575 0
0.95996 0.917311 0.55079
0.959899 0.937301 0.714244
0 0.319142 0
0 0.31957 0
0 0.320012 0
0 0.320333 0
0 0.320577 0
0 0.320729 0
0 0.32079 0
0 0.320668 0
0 0.320211 0
0.146792 0.316472 0
0.251942 0.314275 0
0.348684 0.309895 0
0.443976 0.303746 0
0.538277 0.296178 0
0.621317 0.285496 0.0493629
0.696239 0.270436 0.215915
0.771725 0.245457 0.36492
0.843763 0.185565 0.474418
0.912169 0.0548714 0.561166
0.968231 0.00299077 0.622599
0.988617 0.00354009 0.643503
0.979126 0.236728 0.635401
0.980362 0.407538 0.635981
0.981857 0.511803 0.634302
0.974868 0.596445 0.624247
0.967056 0.668284 0.609049
0.965103 0.732479 0.579461
0.963592 0.786633 0.500023
0.965087 0.832685 0
0.96405 0.868696 0
0.963302 0.8972 0
0.959945 0.918212 0.539895
0.959869 0.937835 0.712901
0 0.389319 0
0 0.389731 0
0 0.390112 0
0 0.390402 0
0 0.390631 0
0 0.390814 0
0 0.390951 0
0 0.390997 0
0 0.39086 0
0.0225986 0.389242 0
0.19678 0.386206 0
0.315099 0.384085 0
0.424033 0.379675 0
0.530785 0.373953 0
0.619974 0.367742 0
0.6972 0.35845 0.179904
0.772473 0.347417 0.356405
0.845853 0.329076 0.472557
0.907164 0.300221 0.555138
0.954299 0.263142 0.610071
0.97731 0.29984 0.63386
0.979995 0.400259 0.635767
0.982315 0.483742 0.635767
0.979232 0.557794 0.62974
0.971099 0.625101 0.617029
0.966384 0.688579 0.601923
0.964721 0.745785 0.566567
0.963409 0.794888 0.464164
0.96492 0.837858 0
0.963928 0.871855 0
0.963226 0.899062 0
0.95993 0.919402 0.523156
0.959838 0.938521 0.711101
0 0.469017 0
0 0.469368 0
0 0.469718 0
0 0.469963 0
0 0.470176 0
0 0.470359 0
0 0.470527 0
0 0.470665 0
0 0.470817 0
0 0.470893 0
0.0691234 0.468482 0
0.254841 0.466163 0
0.387579 0.464363 0
0.508934 0.459602 0
0.611078 0.4542 0
0.693477 0.448539 0.0669871
0.771115 0.441947 0.328634
0.843641 0.435401 0.460777
0.905043 0.42974 0.548043
0.954055 0.429679 0.607004
0.982238 0.449165 0.636713
0.982086 0.498314 0.63505
0.979858 0.550668 0.630686
0.973754 0.604761 0.621607
0.967666 0.658335 0.608469
0.965698 0.71191 0.590005
0.964279 0.761425 0.545464
0.963287 0.804837 0.387167
0.964721 0.844236 0
0.963806 0.875807 0
0.963149 0.901442 0
0.959915 0.920943 0.49575
0.959792 0.939406 0.708644
0 0.552453 0
0 0.552697 0
0 0.552926 0
0 0.553109 0
0 0.553277 0
0 0.553429 0
0 0.553582 0
0 0.553735 0
0 0.553841 0
0 0.553872 0
0 0.553735 0
0.0998398 0.550591 0
0.328038 0.54789 0
0.47071 0.545678 0
0.588373 0.541115 0
0.683284 0.536126 0
0.765393 0.530877 0.211902
0.83946 0.527504 0.432059
0.899214 0.527764 0.531319
0.94609 0.533501 0.592584
0.980133 0.547356 0.631083
0.977188 0.577447 0.626734
0.972747 0.612222 0.619944
0.968215 0.651576 0.610361
0.966201 0.694514 0.595438
0.96495 0.737926 0.569467
0.96379 0.779278 0.506004
0.965454 0.81883 0
0.964477 0.851957 0
0.963638 0.880629 0
0.963043 0.904418 0
0.95996 0.922927 0.442267
0.959731 0.940551 0.705379
0 0.629114 0
0 0.629252 0
0 0.629358 0
0 0.629465 0
0 0.629541 0
0 0.629602 0
0 0.629679 0
0 0.62974 0
0 0.629755 0
0 0.629694 0
0 0.629496 0
0 0.629023 0
0.173342 0.62475 0
0.41648 0.62211 0
0.552941 0.619944 0
0.65951 0.615732 0
0.744274 0.614862 0
0.830732 0.607553 0.324514
0.890639 0.608408 0.492195
0.932754 0.614771 0.564065
0.964355 0.626444 0.608545
0.968795 0.645472 0.611994
0.966949 0.670375 0.604791
0.966064 0.699748 0.592889
0.965118 0.732113 0.570794
0.964157 0.76585 0.529152
0.963409 0.798947 0.401465
0.965057 0.832227 0
0.964187 0.861036 0
0.963455 0.886412 0
0.962905 0.908141 0
0.960418 0.925856 0.266224
0.95967 0.942 0.700938
0 0.703059 0
0 0.70312 0
0 0.703166 0
0 0.703212 0
0 0.703212 0
0 0.703227 0
0 0.703243 0
0 0.703212 0
0 0.703166 0
0 0.703014 0
0 0.702724 0
0 0.702174 0
0 0.701198 0
0.297963 0.695293 0
0.506065 0.692821 0
0.627375 0.690455 0
0.724056 0.687984 0
0.806043 0.686244 0
0.87483 0.681895 0.301106
0.913771 0.687892 0.493156
0.947692 0.696422 0.562554
0.965789 0.708934 0.587808
0.965301 0.725978 0.576028
0.964706 0.74641 0.555627
0.964065 0.769619 0.515419
0.963516 0.794522 0.408072
0.965347 0.822065 0
0.964599 0.847257 0
0.963851 0.871412 0
0.963211 0.893111 0
0.962722 0.913085 0
0.962524 0.931014 0
0.959579 0.943801 0.694942
0 0.775021 0
0 0.775006 0
0 0.77499 0
0 0.77496 0
0 0.774929 0
0 0.774899 0
0 0.774823 0
0 0.774731 0
0 0.774563 0
0 0.774319 0
0 0.773877 0
0 0.773175 0
0 0.772091 0
0 0.770565 0
0.416663 0.763287 0
0.591165 0.760555 0
0.698375 0.757809 0
0.784772 0.75555 0
0.850401 0.754849 0
0.898955 0.756466 0
0.933608 0.758373 0.387778
0.959991 0.765591 0.509407
0.963897 0.776226 0.497093
0.963592 0.789578 0.436561
0.964477 0.806287 0.105562
0.965255 0.824781 0
0.964691 0.843763 0
0.964096 0.863493 0
0.9635 0.882826 0
0.962951 0.900877 0
0.962509 0.918486 0
0.962371 0.934569 0
0.959457 0.946029 0.68658
0 0.835782 0
0 0.835721 0
0 0.835645 0
0 0.835569 0
0 0.835477 0
0 0.835386 0
0 0.835248 0
0 0.835065 0
0 0.834791 0
0 0.834394 0
0 0.833783 0
0 0.832883 0
0 0.831632 0
0 0.829969 0
1.5259e-05 0.827298 0
0.545251 0.819135 0
0.673747 0.81593 0
0.763806 0.813107 0
0.831495 0.811292 0
0.88275 0.81091 0
0.921904 0.812314 0
0.949889 0.815869 0
0.965347 0.821607 0
0.965103 0.829664 0
0.964797 0.839811 0
0.964431 0.851896 0
0.964004 0.865583 0
0.963546 0.880171 0
0.963088 0.89485 0
0.962646 0.909682 0
0.96228 0.924773 0
0.962188 0.938781 0
0.959319 0.948775 0.674708
0 0.882307 0
0 0.882185 0
0 0.882063 0
0 0.881956 0
0 0.881819 0
0 0.881666 0
0 0.881483 0
0 0.881224 0
0 0.880873 0
0 0.880354 0
0 0.879622 0
0 0.87863 0
0 0.877302 0
0 0.875547 0
0 0.87332 0
0.494545 0.864378 0
0.655024 0.860868 0
0.747616 0.857786 0
0.815351 0.855467 0
0.867887 0.854047 0
0.908156 0.853834 0
0.938079 0.855177 0
0.960952 0.858106 0
0.964065 0.862852 0
0.963882 0.869245 0
0.963623 0.877119 0
0.963333 0.88629 0
0.962997 0.896391 0
0.962646 0.9075 0
0.962295 0.919738 0
0.962036 0.931838 0
0.961975 0.943633 0
0.959152 0.952056 0.657084
0 0.918975 0
0 0.918822 0
0 0.918654 0
0 0.918486 0
0 0.918349 0
0 0.918166 0
0 0.917937 0
0 0.917617 0
0 0.917174 0
0 0.916609 0
0 0.915846 0
0 0.914824 0
0 0.913466 0
0 0.911711 0
0 0.909102 0
0.444907 0.900175 0
0.643961 0.896498 0
0.736767 0.893431 0
0.803052 0.890929 0
0.855131 0.889021 0
0.895766 0.887907 0
0.926955 0.887816 0
0.951156 0.888762 0
0.963149 0.890974 0
0.963043 0.894469 0
0.962875 0.899153 0
0.962676 0.905104 0
0.962432 0.912657 0
0.962173 0.920897 0
0.961929 0.929931 0
0.961746 0.939467 0
0.961791 0.949126 0
0.958968 0.955886 0.628977
0 0.945693 0
0 0.94551 0
0 0.945327 0
0 0.945144 0
0 0.944961 0
0 0.944762 0
0 0.944518 0
0 0.944183 0
0 0.94374 0
0 0.94316 0
0 0.942382 0
0 0.94136 0
0 0.940047 0
0 0.938338 0
0 0.936187 0
0.453361 0.927184 0
0.646036 0.923735 0
0.733639 0.920836 0
0.796399 0.918349 0
0.846601 0.916259 0
0.885985 0.914733 0
0.917479 0.913878 0
0.942535 0.913741 0
0.961578 0.914504 0
0.96228 0.916289 0
0.962173 0.919142 0
0.962051 0.923033 0
0.961883 0.927871 0
0.961715 0.933654 0
0.961547 0.940215 0
0.961471 0.947402 0
0.961578 0.955154 0
0.958831 0.960296 0.620859
0 0.965927 0
0 0.965743 0
0 0.96556 0
0 0.965377 0
0 0.965179 0
0 0.964996 0
0 0.964752 0
0 0.964416 0
0 0.963989 0
0 0.963424 0
0 0.962676 0
0 0.961715 0
0 0.960449 0
0 0.958846 0
0 0.956832 0
0.521584 0.947738 0
0.661051 0.944854 0
0.737469 0.942306 0
0.794842 0.940002 0
0.841672 0.937926 0
0.878843 0.936324 0
0.909148 0.935149 0
0.93463 0.934447 0
0.954223 0.934371 0
0.961578 0.935027 0
0.961532 0.936461 0
0.961456 0.938735 0
0.961364 0.941787 0
0.961257 0.945586 0
0.961181 0.950179 0
0.961181 0.95552 0
0.961379 0.961547 0
0.958709 0.965087 0.619745
0 0.980972 0
0 0.980804 0
0 0.980621 0
0 0.980453 0
0 0.98027 0
0 0.980087 0
0 0.979858 0
0 0.979553 0
0 0.979141 0
0 0.978607 0
0 0.97792 0
0 0.97702 0
0 0.97586 0
0 0.974395 0
0.238621 0.967636 0
0.598901 0.963607 0
0.686748 0.961334 0
0.748302 0.959182 0
0.798642 0.957092 0
0.84065 0.955184 0
0.874708 0.953582 0
0.903563 0.95227 0
0.928176 0.951263 0
0.947707 0.950713 0
0.960952 0.950622 0
0.960952 0.95111 0
0.960922 0.952255 0
0.960876 0.95407 0
0.96083 0.956542 0
0.96083 0.959701 0
0.960906 0.963546 0
0.961196 0.968063 0
0.958572 0.970092 0.625696
0 0.991562 0
0 0.991409 0
0 0.991241 0
0 0.991073 0
0 0.990921 0
0 0.990768 0
0 0.990539 0
0 0.990265 0
0 0.989899 0
0 0.989425 0
0 0.988815 0
0 0.988052 0
0 0.987091 0
0.386374 0.979675 0
0.585031 0.977432 0
0.662058 0.975692 0
0.718196 0.973983 0
0.765698 0.972183 0
0.807401 0.970413 0
0.84332 0.968734 0
0.87364 0.967254 0
0.900389 0.965957 0
0.923552 0.964858 0
0.942336 0.964096 0
0.957855 0.963623 0
0.960433 0.963577 0
0.960449 0.964004 0
0.960449 0.964935 0
0.960464 0.966445 0
0.96051 0.968505 0
0.960678 0.97113 0
0.961059 0.97438 0
0.95848 0.975128 0.641337
0 0.99884 0
0 0.998703 0
0 0.998581 0
0 0.998459 0
0 0.998322 0
0 0.998199 0
0 0.998047 0
0 0.997833 0
0 0.997559 0
0 0.997208 0
0.398962 0.990372 0
0.518791 0.989227 0
0.586633 0.988281 0
0.635157 0.987305 0
0.677119 0.986206 0
0.715618 0.985031 0
0.752392 0.983719 0
0.787411 0.9823 0
0.819913 0.980835 0
0.848981 0.979446 0
0.87541 0.978119 0
0.899367 0.976867 0
0.920607 0.975784 0
0.938308 0.974914 0
0.953231 0.974273 0
0.959991 0.973907 0
0.960037 0.973861 0
0.960082 0.974197 0
0.960159 0.974975 0
0.960281 0.976242 0
0.960525 0.977996 0
0.960983 0.98027 0
0.958434 0.980011 0.666163
0.604379 0.993103 0
0.609262 0.993088 0
0.613886 0.993072 0
0.618326 0.993057 0
0.622705 0.993042 0
0.6271 0.993042 0
0.632471 0.993027 0
0.639216 0.992996 0
0.647547 0.992981 0
0.657618 0.99295 0
0.669642 0.992935 0
0.683787 0.992905 0
0.700236 0.992889 0
0.718944 0.992859 0
0.739788 0.99266 0
0.76257 0.991806 0
0.786511 0.990814 0
0.810895 0.989746 0
0.834684 0.988617 0
0.857603 0.987488 0
0.87985 0.986328 0
0.900587 0.985214 0
0.919448 0.984192 0
0.935714 0.983322 0
0.949767 0.982605 0
0.95967 0.982101 0
0.959731 0.981826 0
0.959808 0.981811 0
0.959945 0.982162 0
0.960143 0.98291 0
0.960479 0.98407 0
0.961013 0.985718 0
0.958465 0.984649 0.696773
0.728481 0.99292 0
0.730053 0.99292 0
0.731609 0.99292 0
0.73312 0.99292 0
0.73463 0.99292 0
0.736187 0.99292 0
0.738155 0.99292 0
0.740688 0.992905 0
0.743984 0.992889 0
0.748196 0.992889 0
0.753506 0.992889 0
0.760143 0.992889 0
0.768292 0.992889 0
0.778164 0.992889 0
0.789807 0.992889 0
0.803174 0.992889 0
0.818006 0.992889 0
0.833875 0.992905 0
0.850843 0.99292 0
0.868589 0.99292 0
0.886458 0.992538 0
0.903655 0.991577 0
0.919905 0.990677 0
0.934447 0.989853 0
0.94728 0.989166 0
0.958007 0.988602 0
0.959548 0.98822 0
0.95967 0.988052 0
0.959854 0.988144 0
0.960143 0.988586 0
0.960586 0.98938 0
0.958068 0.987518 0.545251
0.958633 0.988907 0.729686
0.795743 0.993027 0
0.79649 0.993027 0
0.797238 0.993027 0
0.797971 0.993027 0
0.798703 0.993042 0
0.799466 0.993042 0
0.800443 0.993042 0
0.801694 0.993042 0
0.803357 0.993042 0
