BBLuts/BB_103_0730_LUT.cube
TITLE "Generated by Resolve"
LUT_3D_SIZE 9
0.00500496 0 0.0280156
0.00674449 0 0.0275883
0.133211 0.00807202 0.0376287
0.343404 0.00552377 0.0230716
0.781476 0 0
1 0 0
1 0.608499 0.193286
0.978729 0.931563 0.595941
0.956329 1 0.894697
0 0.0538033 0.0169223
0 0.0636454 0.0158389
0.122881 0.0558328 0.028687
0.350805 0.00529488 0.0214542
0.785122 0 0
1 0 0
1 0.636362 0.171939
0.978469 0.933669 0.594644
0.956313 1 0.894652
0 0.207263 7.62951e-05
0 0.210758 0
0.0581216 0.222019 0.0133211
0.313649 0.205798 0.0131075
0.763272 0.110475 0
1 0.260182 0.0399023
1 0.67071 0.125856
0.978058 0.937087 0.59263
0.956268 1 0.894575
0 0.474052 0
0 0.475135 0
0 0.476295 0
0.209918 0.505394 0.00987259
0.71783 0.501884 0.0236362
1 0.570001 0.0498512
1 0.7664 0.0474556
0.976486 0.949279 0.590829
0.95613 1 0.894209
0 0.829389 0
0 0.829374 0
0 0.829099 0
0 0.826734 0
0.567987 0.852491 0.0334325
0.946487 0.860151 0.0458228
0.993744 0.910903 0.0489815
0.972198 0.980453 0.603098
0.955596 1 0.892775
0 1 0.0474556
0 1 0.0474556
0 1 0.0474556
0 1 0.0462043
0.499413 1 0.0613718
0.86128 1 0.0551003
0.980438 1 0.0645151
0.965072 1 0.658885
0.95404 1 0.89427
0.367605 1 0.355306
0.367605 1 0.355306
0.367605 1 0.355306
0.367559 1 0.355306
0.626932 1 0.364355
0.832731 1 0.416251
0.948867 1 0.551293
0.956497 1 0.790265
0.951385 1 0.910124
0.784466 1 0.843992
0.784466 1 0.843992
0.784466 1 0.843992
0.784466 1 0.843992
0.784451 1 0.843992
0.852628 1 0.847776
0.924804 1 0.859388
0.949905 1 0.88925
0.94902 1 0.939971
0.899229 1 0.956603
0.899229 1 0.956603
0.899229 1 0.956603
0.899229 1 0.956603
0.899229 1 0.956603
0.899199 1 0.956603
0.925689 1 0.957732
0.948913 1 0.961227
0.948898 1 0.970504
0.00228885 0 0.12076
0.00227359 0 0.121492
0.127932 0.0053254 0.132815
0.338766 0.00218204 0.128832
0.775586 0 0.107805
1 0 0.11667
1 0.605661 0.230457
0.978729 0.931533 0.595956
0.956329 1 0.894697
0 0.0236057 0.102937
0.00927749 0.0400397 0.102495
0.13872 0.00688182 0.122499
0.341619 0.00248722 0.111818
0.779248 0 0.0411536
1 0 0.0547494
1 0.634104 0.20354
0.978485 0.933639 0.594659
0.956313 1 0.894652
0 0.196536 0.0122683
0 0.199649 0.0122072
0.0715648 0.211902 0.0263066
0.312459 0.194324 0.0222629
0.76257 0.0785534 0
1 0.244511 0.0376898
1 0.668727 0.155032
0.978058 0.937087 0.59263
0.956268 1 0.894575
0 0.468544 0
0 0.46952 0
0 0.470558 0
0.220432 0.499443 0.0102235
0.717372 0.496666 0.0236362
1 0.566354 0.0497597
1 0.765423 0.0474708
0.976486 0.949279 0.590829
0.95613 1 0.894209
0 0.827573 0
0 0.827558 0
0 0.827253 0
0 0.824887 0
0.571908 0.851072 0.0332952
0.946624 0.859251 0.0457923
0.99379 0.910597 0.0489662
0.972198 0.980453 0.603098
0.955596 1 0.892775
0 1 0.0473487
0 1 0.0473793
0 1 0.0473793
0 1 0.046128
0.502617 1 0.0612192
0.861601 1 0.0550851
0.980438 1 0.0645151
0.965072 1 0.658885
0.95404 1 0.89427
0.372274 1 0.354818
0.372274 1 0.354818
0.372259 1 0.354818
0.372244 1 0.354818
0.628367 1 0.364004
0.83299 1 0.416007
0.948913 1 0.551278
0.956497 1 0.790265
0.951385 1 0.910124
0.784772 1 0.843976
0.784772 1 0.843976
0.784772 1 0.843976
0.784772 1 0.843976
0.784756 1 0.843976
0.85275 1 0.847761
0.924834 1 0.859373
0.949905 1 0.88925
0.94902 1 0.939971
0.899245 1 0.956603
0.899245 1 0.956603
0.899245 1 0.956603
0.899245 1 0.956603
0.899245 1 0.956603
0.899245 1 0.956603
0.925704 1 0.957732
0.948913 1 0.961227
0.948898 1 0.970504
0 0 0.318807
0 0 0.319188
0.101884 0.00105287 0.328084
0.342931 0 0.321813
0.770748 0 0.312673
1 0 0.34258
1 0.592935 0.420172
0.97792 0.930449 0.634318
0.956329 1 0.894697
0 0 0.315343
0 0 0.315908
0.11812 0.00178531 0.324926
0.342092 0 0.317357
0.772717 0 0.307118
1 0 0.332158
1 0.622675 0.410834
0.977661 0.932586 0.633021
0.956313 1 0.894652
0 0.162188 0.27715
0 0.164797 0.27689
0.0593729 0.17171 0.283787
0.296056 0.157519 0.288533
0.766064 0.00457771 0.290105
1 0.183948 0.319097
1 0.658412 0.396719
0.977249 0.936049 0.630808
0.956268 1 0.894575
0 0.448386 0.146456
0 0.449836 0.146868
0 0.450752 0.148669
0.216297 0.480613 0.190219
0.707713 0.478904 0.202487
1 0.551431 0.238346
1 0.756786 0.341207
0.975799 0.948409 0.622385
0.95613 1 0.894209
0 0.824094 0
0 0.824094 0
0 0.823804 0
0 0.821454 0
0.575463 0.847547 0.0328832
0.946685 0.856535 0.0457008
0.992126 0.907637 0.122301
0.972168 0.980285 0.604852
0.955596 1 0.892775
0 1 0.0471962
0 1 0.0471962
0 1 0.0471962
0 1 0.0462348
0.508217 1 0.0609598
0.862348 1 0.0550698
0.980484 1 0.0644846
0.965087 1 0.658625
0.95404 1 0.89427
0.378592 1 0.354101
0.378592 1 0.354101
0.378592 1 0.354101
0.378576 1 0.354101
0.630289 1 0.363531
0.833555 1 0.415702
0.948974 1 0.550988
0.956512 1 0.790204
0.951385 1 0.910124
0.785214 1 0.843946
0.785214 1 0.843946
0.785214 1 0.843946
0.785214 1 0.843946
0.785214 1 0.843946
0.852918 1 0.84773
0.924895 1 0.859358
0.949905 1 0.889235
0.94902 1 0.939971
0.899275 1 0.956603
0.899275 1 0.956603
0.899275 1 0.956603
0.899275 1 0.956603
0.899275 1 0.956603
0.899275 1 0.956603
0.925719 1 0.957732
0.948913 1 0.961227
0.948898 1 0.970504
0 0 0.637324
0 0 0.637446
0 0 0.637812
0.300649 0 0.647013
0.794751 0 0.638987
1 0 0.661799
1 0.546746 0.714488
0.974411 0.923537 0.804196
0.956191 1 0.901061
0 0 0.63537
0 0 0.635538
0.00653086 0 0.637903
0.314229 0 0.644083
0.792355 0 0.636515
1 0 0.658305
1 0.582101 0.711192
0.97409 0.925795 0.803754
0.956161 1 0.901015
0 0.0333257 0.620264
0 0.0356603 0.620035
0 0.0390326 0.622614
0.320562 0 0.639643
0.783993 0 0.631846
1 0 0.651682
1 0.625376 0.705898
0.973587 0.929427 0.803021
0.95613 1 0.900954
0 0.391516 0.559609
0 0.392416 0.559655
0 0.394446 0.560327
0.198413 0.423209 0.593881
0.685435 0.421576 0.606119
1 0.500175 0.634943
1 0.733883 0.685084
0.971832 0.942428 0.800259
0.955993 1 0.900649
0 0.805936 0.459983
0 0.805936 0.459983
0 0.806165 0.461051
0 0.8038 0.464866
0.557763 0.830182 0.513619
0.934508 0.840436 0.550942
0.983047 0.89575 0.630671
0.967712 0.975723 0.790295
0.955444 1 0.899428
0 1 0.183749
0 1 0.183749
0 1 0.183749
0 1 0.185183
0.497749 1 0.204471
0.853986 1 0.350927
0.969757 1 0.530159
0.9626 1 0.759579
0.954009 1 0.895903
0.398169 1 0.351156
0.398169 1 0.351156
0.398169 1 0.351156
0.398169 1 0.351156
0.636179 1 0.36202
0.835019 1 0.414664
0.949294 1 0.550546
0.956527 1 0.789822
0.951385 1 0.910079
0.786755 1 0.84387
0.786755 1 0.84387
0.786755 1 0.84387
0.786755 1 0.84387
0.786755 1 0.84387
0.853498 1 0.847654
0.925124 1 0.859297
0.949905 1 0.889174
0.94902 1 0.939956
0.899443 1 0.956603
0.899443 1 0.956603
0.899443 1 0.956603
0.899443 1 0.956603
0.899443 1 0.956603
0.899443 1 0.956603
0.92578 1 0.957717
0.948913 1 0.961227
0.948898 1 0.970504
0 0 0.894118
0 0 0.894118
0 0 0.894163
0.0509651 0 0.901244
0.742031 0 0.909056
1 0 0.909743
1 0.298314 0.900023
0.973663 0.905608 0.907912
0.955795 1 0.941939
0 0 0.894072
0 0 0.894072
0 0 0.894102
0.0554208 0 0.901366
0.747936 0 0.908812
1 0 0.909529
1 0.383215 0.898528
0.973205 0.908415 0.90779
0.955779 1 0.941924
0 0 0.893523
0 0 0.893523
0 0 0.893553
0.118532 0 0.904555
0.756786 0 0.908186
1 0 0.908949
1 0.472709 0.896696
0.972519 0.912673 0.907591
0.955749 1 0.941894
0 0.160815 0.866316
0 0.160815 0.866316
0 0.164614 0.866056
0.0834058 0.172793 0.879683
0.735668 0.0851453 0.89102
1 0.181842 0.89099
1 0.651637 0.892729
0.970092 0.92813 0.906859
0.955581 1 0.941772
0 0.751781 0.838056
0 0.751781 0.838056
0 0.751858 0.838071
0 0.751629 0.838285
0.514763 0.779065 0.870893
0.9234 0.79704 0.874876
0.97998 0.869627 0.882689
0.96463 0.966033 0.904631
0.954986 1 0.941268
0 1 0.834195
0 1 0.834195
0 1 0.834165
0 1 0.834257
0.408865 1 0.858167
0.825025 0.998215 0.860578
0.95877 0.999512 0.872755
0.9579 1 0.899214
0.953414 1 0.939376
0.359228 1 0.818372
0.359228 1 0.818372
0.359228 1 0.818372
0.359228 1 0.818372
0.600763 1 0.819211
0.813153 1 0.824567
0.932158 1 0.843961
0.952956 1 0.883711
0.951095 1 0.933333
0.791684 1 0.843427
0.791684 1 0.843427
0.791684 1 0.843427
0.791684 1 0.843427
0.791684 1 0.843427
0.855375 1 0.847364
0.925704 1 0.859052
0.949905 1 0.889067
0.94902 1 0.939849
0.900053 1 0.956573
0.900053 1 0.956573
0.900053 1 0.956573
0.900053 1 0.956573
0.900053 1 0.956573
0.900038 1 0.956573
0.925994 1 0.957687
0.948913 1 0.961212
0.948913 1 0.970489
0 0 0.985138
0 0 0.985183
0 0 0.985183
0 0 0.985199
0.43122 0 1
1 0 0.997452
1 0 0.997681
0.989578 0.824537 0.972305
0.95639 1 0.976852
0 0 0.985183
0 0 0.985183
0 0 0.985183
0 0 0.985199
0.430335 0 1
1 0 0.997452
1 0 0.99765
0.988159 0.831006 0.972107
0.956359 1 0.976837
0 0 0.985153
0 0 0.985153
0 0 0.985153
0 0 0.985168
0.443748 0 1
1 0 0.997406
1 0 0.997589
0.986038 0.840833 0.971817
0.956313 1 0.976837
0 0 0.984955
0 0 0.984955
0 0 0.984955
0 0 0.984955
0.523156 0 1
1 0 0.997177
1 0 0.996674
0.979522 0.872618 0.970947
0.95613 1 0.976791
0 0.449332 0.94432
0 0.449332 0.94432
0 0.449332 0.94432
0 0.453696 0.944183
0.438193 0.484932 0.972946
1 0.521584 0.975967
1 0.735286 0.971756
0.968215 0.937606 0.969635
0.955413 1 0.976638
0 0.992813 0.946212
0 0.992813 0.946212
0 0.992813 0.946212
0 0.992813 0.946212
0.157107 1 0.966873
0.800229 0.981231 0.965408
0.952529 0.985733 0.965194
0.958144 1 0.968292
0.953628 1 0.976074
0.170825 1 0.963928
0.170825 1 0.963928
0.171771 1 0.963928
0.171771 1 0.963928
0.468574 1 0.963378
0.778195 1 0.961608
0.912886 1 0.96228
0.95201 1 0.966064
0.951064 1 0.974533
0.771069 1 0.947692
0.771069 1 0.947692
0.771069 1 0.947692
0.771069 1 0.947692
0.771069 1 0.947692
0.835798 1 0.948272
0.910536 1 0.950561
0.948409 1 0.957259
0.948898 1 0.96965
0.902022 1 0.956481
0.902022 1 0.956481
0.902022 1 0.956481
0.902022 1 0.956481
0.902022 1 0.956481
0.902022 1 0.956481
0.926726 1 0.957595
0.948913 1 0.961135
0.948913 1 0.970474
0 0 1
0 0 1
0 0 1
0 0 1
0 0 1
0.969162 0 1
1 0 1
1 0 1
0.959884 0.996139 1
0 0 1
0 0 1
0 0 1
0 0 1
0 0 1
0.969162 0 1
1 0 1
1 0 1
0.959823 0.996597 1
0 0 1
0 0 1
0 0 1
0 0 1
0 0 1
0.969162 0 1
1 0 1
1 0 1
0.959716 0.997421 1
0 0 1
0 0 1
0 0 1
0 0 1
0 0 1
0.976974 0 1
1 0 1
1 0 1
0.959289 1 1
0 0 1
0 0 1
0 0 1
0 0 1
0 0 1
1 0 1
1 0 1
1 0.448295 1
0.9579 1 1
0 0.792874 0.972656
0 0.792874 0.972656
0 0.792874 0.972656
0 0.792874 0.972656
0 0.796811 0.972793
0.803601 0.818402 1
0.979507 0.871382 1
0.964019 0.96582 0.999222
0.954925 1 1
0 1 0.983246
0 1 0.983246
0 1 0.983246
0 1 0.983246
0 1 0.983246
0.706233 1 0.999939
0.903288 1 0.998627
0.952667 1 0.998505
0.951446 1 0.999878
0.724727 1 0.997757
0.724727 1 0.997757
0.724727 1 0.997757
0.724727 1 0.997757
0.724727 1 0.997757
0.797452 1 0.997406
0.896635 1 0.997024
0.947066 1 0.997284
0.948913 1 0.998871
0.894118 1 0.991424
0.894118 1 0.991424
0.894118 1 0.991424
0.894118 1 0.991424
0.894118 1 0.991424
0.894118 1 0.991424
0.91899 1 0.991577
0.945846 1 0.992401
0.948913 1 0.995163
0 0.0563211 0.994125
0 0.0563211 0.994125
0 0.0563211 0.994125
0 0.0563211 0.994125
0 0.0563211 0.994125
0 0.0564126 0.99411
1 0 1
1 0.0174105 1
1 0.705608 1
0 0.0563211 0.994125
0 0.0563211 0.994125
0 0.0563211 0.994125
0 0.0563211 0.994125
0 0.0563211 0.994125
0 0.0564126 0.99411
1 0 1
1 0.0174105 1
1 0.705608 1
0 0.0563211 0.994125
0 0.0563211 0.994125
0 0.0563211 0.994125
0 0.0563211 0.994125
0 0.0563211 0.994125
0 0.0564126 0.99411
1 0 1
1 0.0174105 1
1 0.705562 1
0 0.0563211 0.994125
0 0.0563211 0.994125
0 0.0563211 0.994125
0 0.0563211 0.994125
0 0.0563211 0.994125
0 0.0564126 0.99411
1 0 1
1 0.0174105 1
1 0.705455 1
0 0.0562142 0.994141
0 0.0562142 0.994141
0 0.0562142 0.994141
0 0.0562142 0.994141
0 0.0562142 0.994141
0 0.0562905 0.994125
1 0 1
1 0.0197299 1
1 0.705089 1
0 0.0547189 0.994324
0 0.0547189 0.994324
0 0.0547189 0.994324
0 0.0547189 0.994324
0 0.0547189 0.994324
0 0.0547951 0.994308
1 0 1
1 0.062089 1
0.980392 0.869307 1
0 0.988418 0.989517
0 0.988418 0.989517
0 0.988418 0.989517
0 0.988418 0.989517
0 0.988418 0.989517
0 0.990494 0.989654
0.907332 0.977295 1
0.958022 1 1
0.953536 1 1
0.265721 1 1
0.265721 1 1
0.265721 1 1
0.265721 1 1
0.265721 1 1
0.265721 1 1
0.869581 1 1
0.944549 1 1
0.949447 1 1
0.877089 1 1
0.877089 1 1
0.877089 1 1
0.877089 1 1
0.877089 1 1
0.877089 1 1
0.904112 1 1
0.940719 1 1
0.948898 1 1
0 0.280125 0.979339
0 0.280125 0.979339
0 0.280125 0.979339
0 0.280125 0.979339
0 0.280125 0.979339
0 0.280125 0.979339
0 0.280201 0.979339
1 0.12752 1
1 0.744945 1
0 0.280125 0.979339
0 0.280125 0.979339
0 0.280125 0.979339
0 0.280125 0.979339
0 0.280125 0.979339
0 0.280125 0.979339
0 0.280201 0.979339
1 0.12752 1
1 0.744945 1
0 0.280125 0.979339
0 0.280125 0.979339
0 0.280125 0.979339
0 0.280125 0.979339
0 0.280125 0.979339
0 0.280125 0.979339
0 0.280201 0.979339
1 0.12752 1
1 0.744945 1
0 0.280125 0.979339
0 0.280125 0.979339
0 0.280125 0.979339
0 0.280125 0.979339
0 0.280125 0.979339
0 0.280125 0.979339
0 0.280201 0.979339
1 0.12752 1
1 0.744945 1
0 0.280125 0.979339
0 0.280125 0.979339
0 0.280125 0.979339
0 0.280125 0.979339
0 0.280125 0.979339
0 0.280125 0.979339
0 0.280201 0.979339
1 0.12752 1
1 0.744945 1
0 0.280049 0.979355
0 0.280049 0.979355
0 0.280049 0.979355
0 0.280049 0.979355
0 0.280049 0.979355
0 0.280049 0.979355
0 0.280095 0.979339
1 0.128527 1
1 0.746548 1
0 0.278859 0.9794
0 0.278859 0.9794
0 0.278859 0.9794
0 0.278859 0.9794
0 0.278859 0.9794
0 0.278859 0.9794
0 0.27892 0.9794
1 0.260517 1
1 0.749447 1
0 1 0.994568
0 1 0.994568
0 1 0.994568
0 1 0.994568
0 1 0.994568
0 1 0.994568
0 1 0.994583
0.942199 1 1
0.95082 1 1
0.799435 1 1
0.799435 1 1
0.799435 1 1
0.799435 1 1
0.799435 1 1
0.799435 1 1
0.799435 1 1
0.932647 1 1
0.949401 1 1
