BBLuts/BB_103_0500_LUT.cube
TITLE "Generated by Resolve"
LUT_3D_SIZE 33
0 0 0
0 0 0
0 0 0
0 0 0
0.0324865 0 0
0.0705119 0 0
0.100084 0 0
0.130526 0 0
0.167285 0 0
0.212253 0 0
0.264134 0 0
0.322637 0 0
0.390066 0 0
0.466377 0 0
0.549096 0 0
0.629038 0 0
0.704707 0 0
0.773816 0 0
0.833173 0 0
0.870588 0 0
0.880247 0 0
0.887297 0.0332952 0
0.895506 0.264805 0
0.88838 0.418723 0.011017
0.8822 0.544533 0.0466773
0.874571 0.649622 0.083711
0.867735 0.734829 0.131289
0.862791 0.798993 0.198688
0.858885 0.845136 0.287694
0.855467 0.879576 0.378607
0.852369 0.904982 0.469596
0.849622 0.924926 0.553017
0.847517 0.940749 0.62359
0 0 0
0 0 0
0 0 0
0 0 0
0.0368353 0 0
0.0716259 0 0
0.101549 0 0
0.133486 0 0
0.170565 0 0
0.215 0 0
0.265736 0 0
0.324041 0 0
0.391608 0 0
0.467918 0 0
0.550179 0 0
0.629557 0 0
0.704967 0 0
0.773892 0 0
0.832959 0 0
0.870344 0 0
0.881468 0 0
0.890501 0.0769207 0
0.894453 0.287388 0
0.887266 0.429358 0.0053254
0.88159 0.550851 0.0446632
0.874205 0.653132 0.0826429
0.867567 0.736736 0.130877
0.86273 0.799924 0.198581
0.858854 0.845609 0.287465
0.855451 0.879835 0.378454
0.852354 0.905119 0.469505
0.849622 0.925017 0.552972
0.847501 0.94078 0.623575
0 0 0
0 0 0
0 0 0
0.00767529 0 0
0.0390936 0 0
0.0695048 0 0
0.0998856 0 0
0.133196 0 0
0.171633 0 0
0.216663 0 0
0.26746 0 0
0.325734 0 0
0.39324 0 0
0.469398 0 0
0.551293 0 0
0.630274 0 0
0.705348 0 0
0.773968 0 0
0.832746 0 0
0.870085 0 0
0.882994 0 0
0.893675 0.130343 0
0.893385 0.306065 0
0.88632 0.43859 0.00132753
0.881041 0.556435 0.0428779
0.873854 0.656336 0.0816663
0.867399 0.738506 0.130495
0.862654 0.800809 0.198459
0.858824 0.846082 0.287221
0.855436 0.880079 0.378317
0.852354 0.905257 0.469429
0.849607 0.925078 0.552926
0.847501 0.940826 0.623545
0 0.0236362 0
0 0.0254368 0
0 0.0272831 0
0 0.0282597 0
0.0270085 0.0270542 0
0.0616464 0.0252537 0
0.0940414 0.0216526 0
0.12961 0.0136873 0
0.170977 0 0
0.217884 0 0
0.269398 0 0
0.327703 0 0
0.39501 0 0
0.47097 0 0
0.552499 0 0
0.631083 0 0
0.70576 0 0
0.774044 0 0
0.832502 0 0
0.869795 0 0
0.883925 0.000640879 0
0.895033 0.166613 0
0.892424 0.322621 0
0.885664 0.44799 0.000442512
0.880476 0.562081 0.0407721
0.873518 0.65948 0.0806439
0.867247 0.740185 0.130144
0.862577 0.801678 0.198352
0.858778 0.846555 0.286976
0.855421 0.880323 0.37818
0.852338 0.905379 0.469352
0.849607 0.925155 0.55288
0.847501 0.940871 0.623514
0 0.0513161 0
0 0.0532235 0
0 0.0548409 0
0 0.0556344 0
0.0143435 0.0552682 0
0.0515602 0.0542 0
0.0871138 0.0518654 0
0.124666 0.046952 0
0.167605 0.0368658 0
0.216297 0.0239567 0
0.269902 0 0
0.329656 0 0
0.397208 0 0
0.472999 0 0
0.553826 0 0
0.631739 0 0
0.706004 0 0
0.773999 0 0
0.832227 0 0
0.870298 0 0
0.885557 0.0226596 0
0.895552 0.195148 0
0.891554 0.33727 0
0.885115 0.456565 7.62951e-05
0.879911 0.567498 0.0386206
0.873167 0.662745 0.0794842
0.867079 0.741985 0.129763
0.862516 0.802518 0.198245
0.858747 0.846998 0.286763
0.855406 0.880583 0.378027
0.852338 0.905516 0.469261
0.849607 0.925246 0.552834
0.847501 0.940902 0.623484
0 0.0774548 0
0 0.0791333 0
0 0.0802472 0
0 0.0808423 0
0 0.0812085 0
0.0317845 0.0804913 0
0.0764782 0.079408 0
0.117845 0.0770123 0
0.16289 0.072282 0
0.213413 0.063447 0
0.268635 0.0467231 0
0.330144 0.0262455 0
0.3991 0 0
0.475395 0 0
0.555779 0 0
0.632898 0 0
0.706447 0 0
0.773953 0 0
0.831739 0 0
0.871031 0 0
0.888594 0.0636759 0
0.895994 0.22356 0
0.890593 0.35285 0
0.884489 0.466041 0
0.879301 0.573266 0.0363317
0.872786 0.666407 0.0781872
0.86688 0.744076 0.129305
0.862425 0.803616 0.198138
0.858717 0.847517 0.286503
0.855375 0.880842 0.377874
0.852323 0.905669 0.469169
0.849592 0.925307 0.552773
0.847501 0.940963 0.623468
0 0.107317 0
0 0.108568 0
0 0.109453 0
0 0.109972 0
0 0.110353 0
0.00787366 0.110292 0
0.0572518 0.109926 0
0.106096 0.10869 0
0.155001 0.105776 0
0.208133 0.0999313 0
0.266133 0.0905623 0
0.330175 0.0762493 0
0.400519 0.0525673 0
0.477791 0.0214694 0
0.558022 0 0
0.634562 0 0
0.707698 0 0
0.774319 0 0
0.832349 0 0
0.873594 0.0116579 0
0.892256 0.122515 0
0.895445 0.25626 0
0.889372 0.372305 0
0.883604 0.478477 0
0.878431 0.580941 0.0323796
0.872282 0.671077 0.076524
0.866636 0.746838 0.12874
0.862303 0.805097 0.197986
0.858656 0.848341 0.286122
0.85536 0.881239 0.377646
0.852308 0.905882 0.469047
0.849592 0.925429 0.552712
0.847486 0.941009 0.623438
0 0.142855 0
0 0.143709 0
0 0.144396 0
0 0.144839 0
0 0.145266 0
0 0.145663 0
0.0256199 0.145708 0
0.0838788 0.145266 0
0.140246 0.143313 0
0.197986 0.139086 0
0.260517 0.132311 0
0.328847 0.12253 0
0.401968 0.108659 0
0.480873 0.08748 0
0.561334 0.059205 0
0.637552 0.0310674 0
0.710048 0 0
0.775845 0 0
0.834669 0.00383001 0
0.87805 0.0840772 0
0.894347 0.186679 0
0.894011 0.293645 0
0.887816 0.396658 0
0.882353 0.494728 0
0.877195 0.59118 0.0261692
0.87158 0.677485 0.0741588
0.8663 0.750515 0.127977
0.862135 0.807111 0.197787
0.858579 0.84947 0.285573
0.855314 0.881834 0.377325
0.852293 0.906188 0.468864
0.849577 0.925597 0.552605
0.847486 0.9411 0.623377
0 0.184726 0
0 0.185321 0
0 0.185718 0
0 0.186007 0
0 0.186221 0
0 0.186282 0
0 0.186648 0
0.0416266 0.18674 0
0.113024 0.186358 0
0.180117 0.183978 0
0.249058 0.179171 0
0.323262 0.171695 0
0.401404 0.161578 0
0.483513 0.148898 0
0.565164 0.133608 0
0.641505 0.115694 0
0.714794 0.0938888 0
0.781582 0.0838178 0
0.840253 0.110811 0
0.881102 0.172656 0
0.894392 0.250919 0
0.8916 0.336492 0
0.88603 0.425391 0
0.88069 0.515038 0
0.875486 0.604547 0.0176394
0.870649 0.686137 0.0708476
0.865843 0.75552 0.12694
0.861921 0.809781 0.197528
0.858457 0.851026 0.284855
0.855253 0.882704 0.376852
0.852262 0.906645 0.468559
0.849561 0.925841 0.552453
0.847471 0.941238 0.623285
0 0.233158 0
0 0.23357 0
0 0.23386 0
0 0.23418 0
0 0.234348 0
0 0.234379 0
0 0.234348 0
0 0.234928 0
0.0588083 0.236088 0
0.147448 0.236378 0
0.228504 0.233738 0
0.31043 0.228489 0
0.395941 0.221012 0
0.483238 0.212146 0
0.567193 0.202747 0
0.644038 0.194537 0
0.717632 0.189914 0
0.784466 0.194156 0
0.841154 0.215442 0
0.879316 0.257191 0
0.891524 0.315343 0
0.888548 0.385275 0
0.88394 0.460563 0
0.878508 0.540322 0
0.873243 0.621256 0.00712596
0.869459 0.697353 0.0668193
0.865248 0.762203 0.125566
0.861631 0.813428 0.197208
0.85832 0.853086 0.283894
0.855177 0.883879 0.376211
0.852216 0.907332 0.468116
0.849531 0.926223 0.552209
0.847456 0.941436 0.623178
0 0.290776 0
0 0.291096 0
0 0.291402 0
0 0.291707 0
0 0.292027 0
0 0.292195 0
0 0.292256 0
0 0.29218 0
0 0.294148 0
0.0915236 0.296941 0
0.191424 0.29749 0
0.286564 0.294865 0
0.382132 0.290166 0
0.476402 0.284443 0
0.564614 0.27866 0
0.643214 0.274937 0
0.716564 0.275547 0
0.781857 0.283574 0
0.836255 0.303166 0
0.873365 0.3364 0
0.887205 0.382574 0
0.885283 0.437781 0
0.881193 0.502342 0
0.875898 0.571115 0
0.870954 0.641855 0.00210575
0.86804 0.711284 0.062211
0.8645 0.770779 0.123857
0.861265 0.818296 0.196963
0.858122 0.855894 0.283253
0.85507 0.885435 0.375357
0.852155 0.908263 0.467521
0.8495 0.926772 0.551827
0.84744 0.941726 0.622995
0 0.361044 0
0 0.361334 0
0 0.361639 0
0 0.361868 0
0 0.362173 0
0 0.362387 0
0 0.362661 0
0 0.362783 0
0 0.363729 0
0.0183261 0.367315 0
0.127367 0.371893 0
0.244862 0.372763 0
0.356374 0.370489 0
0.459449 0.367102 0
0.554376 0.363363 0
0.636744 0.361471 0
0.710994 0.363577 0
0.77496 0.371954 0
0.827604 0.389075 0
0.865553 0.415122 0
0.882765 0.450553 0
0.881651 0.495735 0
0.877699 0.548852 0
0.872831 0.606973 0
0.868482 0.667231 0.00047303
0.866316 0.728237 0.0561685
0.8636 0.781308 0.121843
0.860777 0.824552 0.196872
0.857832 0.859648 0.28333
0.854932 0.887556 0.374289
0.852079 0.909499 0.466743
0.849454 0.927504 0.551324
0.84741 0.942168 0.622705
0 0.442176 0
0 0.44242 0
0 0.442664 0
0 0.442863 0
0 0.443076 0
0 0.443259 0
0 0.443549 0
0 0.443748 0
0 0.443961 0
0 0.44593 0
0.0413519 0.451255 0
0.176669 0.456275 0
0.314183 0.456168 0
0.43122 0.453986 0
0.534997 0.451057 0
0.623758 0.449577 0
0.701595 0.451606 0
0.766323 0.458793 0
0.81799 0.472709 0
0.856886 0.494041 0
0.877379 0.522316 0
0.876692 0.557519 0
0.873457 0.599786 0
0.869322 0.646281 0
0.86569 0.696559 0
0.864317 0.74818 0.0484016
0.862547 0.794049 0.119448
0.860182 0.832349 0.196979
0.857481 0.864469 0.283894
0.854734 0.890379 0.372961
0.851972 0.911177 0.465675
0.849393 0.928496 0.550668
0.847379 0.942748 0.622324
0 0.530434 0
0 0.530587 0
0 0.53077 0
0 0.530922 0
0 0.53106 0
0 0.531197 0
0 0.531334 0
0 0.531472 0
0 0.531624 0
0 0.531685 0
0 0.534447 0
0.0754101 0.540795 0
0.245045 0.543923 0
0.389151 0.542794 0
0.506035 0.540749 0
0.603815 0.539345 0
0.687175 0.540734 0
0.754238 0.546181 0
0.805783 0.556619 0
0.844892 0.572625 0
0.868498 0.594049 0
0.871031 0.62092 0
0.868772 0.652293 0
0.865492 0.688685 0
0.86276 0.728557 0
0.862135 0.770306 0.0387121
0.861357 0.808835 0.117082
0.85948 0.841886 0.197375
0.857038 0.870436 0.284886
0.85449 0.893996 0.372198
0.851835 0.913451 0.464302
0.849302 0.929839 0.549783
0.847333 0.943542 0.62182
0 0.617166 0
0 0.617212 0
0 0.617304 0
0 0.617395 0
0 0.617456 0
0 0.617517 0
0 0.617578 0
0 0.617594 0
0 0.617548 0
0 0.617472 0
0 0.617136 0
0 0.621714 0
0.145647 0.627665 0
0.330678 0.628519 0
0.468116 0.627329 0
0.576837 0.625879 0
0.66656 0.626276 0
0.737194 0.629709 0
0.790127 0.636637 0
0.829572 0.647532 0
0.855756 0.662699 0
0.864866 0.681926 0
0.863752 0.705257 0
0.86183 0.732006 0
0.859907 0.761608 0
0.8598 0.793729 0.0261997
0.860105 0.825299 0.115175
0.858656 0.853147 0.198581
0.856489 0.877668 0.28658
0.854154 0.898482 0.373053
0.851637 0.916381 0.463066
0.849195 0.931655 0.548562
0.847257 0.944595 0.621118
0 0.698131 0
0 0.698131 0
0 0.698161 0
0 0.698177 0
0 0.698192 0
0 0.698192 0
0 0.698161 0
0 0.6981 0
0 0.697948 0
0 0.697643 0
0 0.697124 0
0 0.698009 0
0.0491493 0.704295 0
0.253666 0.708339 0
0.422217 0.707301 0
0.545357 0.70518 0
0.641672 0.704234 0
0.71632 0.705684 0
0.771618 0.709819 0
0.812406 0.716716 0
0.84184 0.72665 0
0.857771 0.739605 0
0.859525 0.755261 0
0.85861 0.773465 0
0.857298 0.794003 0
0.85742 0.817502 0.0130007
0.858808 0.843168 0.114549
0.85774 0.865797 0.20119
0.855863 0.886122 0.289448
0.853727 0.90399 0.37528
0.851377 0.920043 0.462608
0.849042 0.934005 0.547158
0.847166 0.946029 0.620127
0 0.772503 0
0 0.772503 0
0 0.772503 0
0 0.772488 0
0 0.772473 0
0 0.772412 0
0 0.77232 0
0 0.772137 0
0 0.771847 0
0 0.771389 0
0 0.770657 0
0 0.769574 0
0 0.774243 0
0.175738 0.779675 0
0.372656 0.778637 0
0.514122 0.775402 0
0.61677 0.772732 0
0.694804 0.772107 0
0.75256 0.77351 0
0.795407 0.776822 0
0.827405 0.782162 0
0.848127 0.7897 0
0.855772 0.799298 0
0.85568 0.811002 0
0.855177 0.82472 0
0.855665 0.841672 0.0105898
0.857542 0.86183 0.117281
0.856764 0.879423 0.205814
0.855146 0.895582 0.293904
0.853208 0.910567 0.378698
0.851026 0.924483 0.46389
0.848844 0.936904 0.545693
0.847044 0.947906 0.61886
0 0.832502 0
0 0.832502 0
0 0.832502 0
0 0.832502 0
0 0.832502 0
0 0.832441 0
0 0.832303 0
0 0.832029 0
0 0.831601 0
0 0.830961 0
0 0.83006 0
0 0.828794 0
0 0.8309 0
0.116701 0.836027 0
0.331914 0.835203 0
0.489464 0.830915 0
0.596963 0.826764 0
0.6766 0.824598 0
0.735622 0.824155 0
0.780087 0.82504 0
0.81355 0.827359 0
0.837629 0.83122 0
0.85153 0.836698 0
0.853422 0.843854 0
0.85359 0.853117 0
0.854856 0.865904 0.0263981
0.856352 0.8804 0.125566
0.855772 0.8934 0.213138
0.854353 0.905867 0.300328
0.852598 0.918059 0.38378
0.850584 0.929732 0.467369
0.848585 0.940398 0.545983
0.846876 0.95024 0.61735
0 0.878691 0
0 0.878691 0
0 0.878691 0
0 0.878691 0
0 0.878691 0
0 0.878691 0
0 0.878614 0
0 0.878386 0
0 0.877882 0
0 0.877089 0
0 0.87602 0
0 0.874647 0
0 0.875502 0
0.0922713 0.879896 0
0.313405 0.878752 0
0.476417 0.873625 0
0.584298 0.868635 0
0.663096 0.865476 0
0.721767 0.863935 0
0.766629 0.863462 0
0.801022 0.864012 0
0.827146 0.86569 0
0.844892 0.868544 0
0.851164 0.872663 0
0.852323 0.878828 0
0.854307 0.888457 0.0521248
0.855253 0.898283 0.139971
0.854734 0.907469 0.224292
0.853483 0.916808 0.308843
0.851911 0.926329 0.390814
0.850065 0.935683 0.472602
0.848219 0.944549 0.549279
0.846677 0.953094 0.617014
0 0.913832 0
0 0.913832 0
0 0.913832 0
0 0.913832 0
0 0.913832 0
0 0.913832 0
0 0.913832 0
0 0.913756 0
0 0.913436 0
0 0.912612 0
0 0.911406 0
0 0.909941 0
0 0.909987 0
0.0958724 0.914305 0
0.326024 0.911955 0
0.477256 0.906279 0
0.57969 0.900969 0
0.654871 0.897368 0
0.711666 0.895216 0
0.755734 0.894011 0
0.790112 0.893538 0
0.816999 0.893828 0
0.837308 0.894942 0
0.848722 0.897032 0
0.85095 0.901274 0.00328069
0.853651 0.908461 0.0785687
0.8542 0.914977 0.160159
0.853666 0.92137 0.24036
0.852552 0.928023 0.320699
0.851148 0.935073 0.400244
0.84947 0.942184 0.479683
0.847807 0.949279 0.554147
0.846387 0.956466 0.619348
0 0.939818 0
0 0.939818 0
0 0.939818 0
0 0.939818 0
0 0.939818 0
0 0.939818 0
0 0.939818 0
0 0.939818 0
0 0.939803 0
0 0.93933 0
0 0.93817 0
0 0.936736 0
0 0.937133 0
0.13431 0.940887 0
0.363302 0.936492 0
0.492363 0.930632 0
0.583612 0.925444 0
0.652476 0.921874 0
0.705821 0.919524 0
0.747997 0.917952 0
0.78146 0.916976 0
0.808301 0.916533 0
0.829984 0.916671 0
0.845212 0.917906 0
0.850553 0.921569 0.0263523
0.852964 0.926421 0.111589
0.853147 0.930465 0.187228
0.852567 0.934569 0.262028
0.851575 0.93904 0.33695
0.850324 0.943893 0.412787
0.848814 0.94905 0.489036
0.847318 0.954513 0.560555
0.846052 0.960281 0.623163
0 0.959548 0
0 0.959548 0
0 0.959548 0
0 0.959548 0
0 0.959548 0
0 0.959548 0
0 0.959548 0
0 0.959548 0
0 0.959548 0
0 0.959548 0
0 0.958953 0
0 0.957656 0
0.0302892 0.960662 0
0.244938 0.960571 0
0.413123 0.954833 0
0.517494 0.949233 0
0.594736 0.944625 0
0.655314 0.941344 0
0.703807 0.939025 0
0.743145 0.937377 0
0.77499 0.936187 0
0.801129 0.935393 0
0.82298 0.935302 0
0.840497 0.937118 0.0191653
0.850416 0.939986 0.0853437
0.851896 0.942229 0.154803
0.852064 0.944259 0.221561
0.851453 0.946593 0.289952
0.850568 0.949371 0.358099
0.849439 0.952544 0.429435
0.848096 0.956085 0.501244
0.846784 0.960052 0.568841
0.845685 0.964462 0.628321
0 0.97792 0
0 0.97792 0
0 0.97792 0
0 0.97792 0
0 0.97792 0
0 0.97792 0
0 0.97792 0
0 0.97792 0
0 0.97792 0
0 0.97792 0
0 0.97792 0
0 0.977234 0
0.151858 0.979049 0
0.354818 0.973526 0
0.466651 0.968215 0
0.547707 0.963363 0
0.611322 0.959548 0
0.662867 0.95671 0
0.705745 0.954574 0
0.741573 0.953124 0
0.771618 0.952499 0
0.79704 0.952071 0.00694286
0.818814 0.952346 0.0257572
0.837049 0.95378 0.0799573
0.848966 0.954757 0.141756
0.850889 0.955459 0.201587
0.850935 0.956176 0.261982
0.850324 0.95729 0.322789
0.849531 0.958846 0.385214
0.848508 0.960754 0.450446
0.847333 0.963012 0.516548
0.846204 0.965652 0.579339
0.845273 0.968841 0.634882
0.281895 0.991455 0.0201877
0.28188 0.991455 0.0201877
0.28188 0.991455 0.0201877
0.28188 0.991455 0.0201877
0.28188 0.991455 0.0201877
0.28188 0.991455 0.0201877
0.281865 0.991455 0.0201877
0.281865 0.99147 0.0201877
0.281865 0.991455 0.0201877
0.281849 0.991455 0.0201877
0.281834 0.991455 0.0201877
0.281804 0.99147 0.0201877
0.338003 0.989364 0.0191806
0.435554 0.985 0.0174716
0.519173 0.979751 0.0160983
0.581811 0.97586 0.0155032
0.632822 0.972915 0.0156252
0.6757 0.970626 0.0163577
0.712688 0.968811 0.0176547
0.744595 0.967758 0.0275883
0.772229 0.967544 0.0552224
0.796094 0.967361 0.0869917
0.816327 0.967056 0.117678
0.833112 0.966842 0.155764
0.845762 0.966628 0.201617
0.849546 0.966445 0.252613
0.84979 0.966354 0.306355
0.84921 0.966659 0.36025
0.848463 0.967285 0.417472
0.847547 0.968185 0.476234
0.84654 0.969421 0.535439
0.845609 0.971084 0.592615
0.844862 0.97322 0.643
0.487709 0.994995 0.137331
0.487709 0.994995 0.137331
0.487709 0.994995 0.137331
0.487709 0.994995 0.137331
0.487709 0.994995 0.137331
0.487694 0.994995 0.137331
0.487694 0.994995 0.137331
0.487694 0.994995 0.137331
0.487694 0.994995 0.137331
0.487694 0.994995 0.137331
0.487694 0.994995 0.137331
0.487678 0.994995 0.137331
0.487663 0.994995 0.137331
0.514488 0.993393 0.13753
0.565682 0.990341 0.138598
0.615564 0.987671 0.141115
0.656718 0.985565 0.144991
0.692042 0.983291 0.150362
0.72311 0.981765 0.157534
0.750149 0.980468 0.16669
0.773999 0.979324 0.178225
0.795163 0.978317 0.192798
0.813489 0.977432 0.21091
0.829053 0.976654 0.234104
0.841337 0.975967 0.267018
0.847929 0.975341 0.30808
0.848646 0.974792 0.353002
0.848081 0.974517 0.402655
0.847379 0.974456 0.454093
0.846571 0.974685 0.506645
0.845762 0.975189 0.55848
0.845029 0.976135 0.60853
0.844434 0.977523 0.653223
0.595331 0.993225 0.24892
0.595331 0.993225 0.24892
0.595331 0.993225 0.24892
0.595331 0.993225 0.24892
0.595331 0.993225 0.24892
0.595331 0.993225 0.24892
0.595331 0.993225 0.24892
0.595331 0.993225 0.24892
0.595331 0.993225 0.24892
0.595331 0.993225 0.24892
0.595331 0.993225 0.24892
0.595331 0.993225 0.24892
0.595315 0.993225 0.24892
0.5953 0.993225 0.24892
0.61062 0.992874 0.249454
0.643793 0.992142 0.251499
0.677775 0.991241 0.254475
0.706889 0.990036 0.258381
0.732372 0.988968 0.263462
0.755093 0.988006 0.270024
0.77583 0.987045 0.278309
0.794614 0.986038 0.288746
0.811246 0.984634 0.301808
0.825635 0.98378 0.317357
0.837766 0.982986 0.337667
0.846113 0.982238 0.367056
0.84715 0.981537 0.405142
0.846967 0.980819 0.447944
0.846326 0.980362 0.493843
0.84564 0.980163 0.539254
0.844999 0.980255 0.584466
0.84445 0.980697 0.626963
0.844007 0.981521 0.665171
0.66302 0.991379 0.350042
0.66302 0.991379 0.350042
0.66302 0.991379 0.350042
0.66302 0.991379 0.350042
0.66302 0.991379 0.350042
0.66302 0.991379 0.350042
0.66302 0.991379 0.350042
0.66302 0.991379 0.350042
0.66302 0.991379 0.350042
0.66302 0.991379 0.350042
0.66302 0.991379 0.350042
0.66302 0.991379 0.350042
0.66302 0.991379 0.350042
0.663005 0.991379 0.350042
0.663005 0.991379 0.350042
0.673259 0.991302 0.350744
0.696498 0.991211 0.352773
0.720699 0.991241 0.35581
0.74168 0.991318 0.359548
0.761013 0.991272 0.364538
0.77882 0.991104 0.370565
0.795178 0.990509 0.37818
0.809903 0.989761 0.387747
0.823011 0.989059 0.399725
0.834409 0.988373 0.41471
0.843305 0.987732 0.433906
0.845716 0.98703 0.461494
0.845853 0.985748 0.496452
0.845319 0.985107 0.53431
0.8448 0.98471 0.57377
0.844327 0.984543 0.611872
0.843931 0.984649 0.647105
0.843626 0.985031 0.678828
0.709682 0.990188 0.445609
0.709682 0.990188 0.445609
0.709682 0.990188 0.445609
0.709682 0.990188 0.445609
0.709682 0.990188 0.445609
0.709682 0.990188 0.445609
0.709682 0.990188 0.445609
0.709682 0.990188 0.445609
0.709682 0.990188 0.445609
