BBLuts/BB_102_0530_LUT.cube
TITLE "Generated by Resolve"
LUT_3D_SIZE 33
0 0 0
0 0 0
0 0 0
0 0 0
0.00132753 0 0
0.0449683 0 0
0.0937972 0 0
0.130632 0 0
0.168414 0 0
0.213336 0 0
0.265965 0 0
0.324849 0 0
0.392126 0 0
0.470192 0 0
0.55935 0 0
0.653056 0 0
0.749752 0 0
0.84799 0 0
0.938109 0 0
1 0 0
1 0 0
1 0 0
1 0.229831 0
1 0.403586 0.013489
1 0.5449 0.0487831
0.998001 0.666621 0.0923934
0.991318 0.775189 0.145602
0.985946 0.862242 0.215641
0.981857 0.928084 0.307546
0.978485 0.979156 0.406317
0.975692 1 0.505028
0.973297 1 0.600839
0.971252 1 0.688319
0 0 0
0 0 0
0 0 0
0 0 0
0.00178531 0 0
0.0540322 0 0
0.09691 0 0
0.133227 0 0
0.172641 0 0
0.218326 0 0
0.271214 0 0
0.329061 0 0
0.3935 0 0
0.471824 0 0
0.560845 0 0
0.653956 0 0
0.75053 0 0
0.84799 0 0
0.938018 0 0
1 0 0
1 0 0
1 0 0
1 0.256168 0
1 0.417151 0.00328069
1 0.552712 0.0458991
0.99762 0.671641 0.0909133
0.991119 0.777951 0.145098
0.98584 0.863645 0.215549
0.981811 0.928801 0.307271
0.978454 0.979538 0.406149
0.975677 1 0.504936
0.973297 1 0.600793
0.971252 1 0.688289
0 0 0
0 0 0
0 0 0
0 0 0
0.00175479 0 0
0.0588083 0 0
0.0973068 0 0
0.135256 0 0
0.176638 0 0
0.221805 0 0
0.273442 0 0
0.330037 0 0
0.395331 0 0
0.473854 0 0
0.562356 0 0
0.655238 0 0
0.750957 0 0
0.848371 0 0
0.937896 0 0
1 0 0
1 0 0
1 0.0571145 0
1 0.282368 0
1 0.429618 0
1 0.560204 0.0432746
0.997284 0.676112 0.0895857
0.990936 0.780514 0.144625
0.985748 0.864958 0.215457
0.98175 0.929488 0.307027
0.978424 0.979904 0.405982
0.975662 1 0.504845
0.973281 1 0.600732
0.971237 1 0.688273
0 0 0
0 0 0
0 6.10361e-05 0
0 0.00486763 0
0.0164187 0.00848402 0
0.0598764 0 0
0.0952316 0 0
0.133089 0 0
0.175219 0 0
0.22269 0 0
0.275547 0 0
0.331838 0 0
0.397589 0 0
0.475898 0 0
0.563897 0 0
0.656168 0 0
0.751751 0 0
0.848692 0 0
0.937728 0 0
1 0 0
1 0 0
1 0.123934 0
1 0.303395 0
1 0.440208 0
1 0.566644 0.0410315
0.996963 0.68014 0.0883955
0.990753 0.78291 0.144198
0.985656 0.866224 0.215366
0.981704 0.930175 0.306767
0.978393 0.98027 0.405829
0.975647 1 0.504753
0.973281 1 0.600671
0.971237 1 0.688228
0 0.0464027 0
0 0.0491035 0
0 0.0517281 0
0 0.0543069 0
0 0.055375 0
0.0458534 0.0542916 0
0.0862898 0.0519722 0
0.126772 0.0468757 0
0.171695 0.0357824 0
0.222797 0 0
0.276677 0 0
0.333776 0 0
0.399756 0 0
0.477989 0 0
0.56585 0 0
0.657496 0 0
0.752544 0 0
0.849027 0 0
0.93756 0 0
1 0 0
1 0 0
1 0.162478 0
1 0.321736 0
1 0.451453 0
1 0.573465 0.0381323
0.996658 0.684291 0.0870527
0.990585 0.785168 0.143786
0.985565 0.86746 0.215274
0.981659 0.930861 0.306508
0.978378 0.980621 0.405676
0.975647 1 0.504662
0.973266 1 0.60061
0.971237 1 0.688197
0 0.0771344 0
0 0.0793469 0
0 0.081651 0
0 0.0834516 0
0 0.0843671 0
0.0246433 0.0842145 0
0.0747692 0.0833143 0
0.119127 0.081117 0
0.166217 0.0767529 0
0.218524 0.0682841 0
0.274723 0.0520943 0
0.335164 0.00299077 0
0.402106 0 0
0.480293 0 0
0.567681 0 0
0.658625 0 0
0.753429 0 0
0.849378 0 0
0.937362 0 0
1 0 0
1 0.0024567 0
1 0.194568 0
1 0.337865 0
1 0.461158 0
1 0.579828 0.0353704
0.996323 0.688563 0.0855573
0.990402 0.787717 0.143328
0.985473 0.868635 0.215198
0.981598 0.931517 0.306264
0.978347 0.980987 0.405509
0.975631 1 0.50457
0.973266 1 0.600565
0.971237 1 0.688167
0 0.110124 0
0 0.112032 0
0 0.113909 0
0 0.115053 0
0 0.115862 0
0 0.116136 0
0.052781 0.115908 0
0.107378 0.114885 0
0.158068 0.11252 0
0.21297 0.107836 0
0.270771 0.099382 0
0.332738 0.085832 0
0.402548 0.0608225 0
0.483223 0.00427253 0
0.570504 0 0
0.660426 0 0
0.754101 0 0
0.849424 0 0
0.936767 0 0
1 0 0
1 0.061265 0
1 0.226947 0
1 0.355657 0
1 0.472633 0
1 0.586786 0.0323339
0.995941 0.693401 0.0838636
0.990173 0.790753 0.142763
0.985351 0.870329 0.215106
0.981552 0.93228 0.305974
0.978317 0.981399 0.405325
0.975601 1 0.504448
0.973251 1 0.600488
0.971222 1 0.688136
0 0.148287 0
0 0.149981 0
0 0.151217 0
0 0.152178 0
0 0.152773 0
0 0.153292 0
0.00611887 0.153429 0
0.083299 0.15317 0
0.144656 0.151797 0
0.203281 0.148882 0
0.264179 0.143053 0
0.329335 0.134676 0
0.401205 0.122271 0
0.482887 0.101778 0
0.572015 0.0594492 0
0.662669 0.00689708 0
0.755901 0 0
0.85005 0 0
0.9364 0 0
1 0.0245365 0
1 0.138674 0
1 0.265217 0
1 0.378698 0
1 0.488197 0
1 0.596735 0.026276
0.995438 0.699809 0.0816205
0.989868 0.794812 0.142016
0.985199 0.872587 0.215015
0.981445 0.933608 0.305531
0.978271 0.98201 0.405066
0.975586 1 0.504311
0.973251 1 0.600397
0.971222 1 0.688075
0 0.193515 0
0 0.194812 0
0 0.195682 0
0 0.196384 0
0 0.196887 0
0 0.197421 0
0 0.197665 0
0.0408484 0.197803 0
0.11902 0.196704 0
0.186358 0.194278 0
0.252506 0.190372 0
0.322408 0.184512 0
0.398383 0.176333 0
0.48278 0.163958 0
0.571374 0.147005 0
0.661524 0.123491 0
0.755184 0.0889448 0
0.851041 0.02121 0
0.936217 0.0277256 0
1 0.116793 0
1 0.211994 0
1 0.308186 0
1 0.407004 0
1 0.508232 0
0.999573 0.609918 0.0171054
0.99472 0.708995 0.0782025
0.989471 0.800198 0.141039
0.98497 0.875669 0.214847
0.981308 0.935393 0.304906
0.978195 0.983017 0.404654
0.975555 1 0.504082
0.97322 1 0.600259
0.971206 1 0.687999
0 0.245151 0
0 0.245762 0
0 0.246143 0
0 0.246448 0
0 0.246891 0
0 0.246967 0
0 0.246906 0
0 0.246601 0
0.0682994 0.246525 0
0.15819 0.245151 0
0.233646 0.242725 0
0.309758 0.238712 0
0.391562 0.232715 0
0.480705 0.223819 0
0.570916 0.213535 0
0.660258 0.201541 0
0.752285 0.189212 0
0.845441 0.179492 0
0.929046 0.185611 0
0.994446 0.220661 0
1 0.280964 0
1 0.35729 0
1 0.442542 0
1 0.533288 0
0.997726 0.627131 0.00535592
0.993744 0.721218 0.0735332
0.988907 0.807797 0.139666
0.984665 0.87982 0.214664
0.981125 0.93785 0.304067
0.978088 0.984375 0.404089
0.975494 1 0.50367
0.973205 1 0.600061
0.971191 1 0.687877
0 0.301701 0
0 0.302312 0
0 0.302693 0
0 0.303014 0
0 0.303243 0
0 0.303395 0
0 0.303471 0
0 0.303685 0
0 0.303319 0
0.0993668 0.303365 0
0.202686 0.302281 0
0.288548 0.29984 0
0.377798 0.295537 0
0.473884 0.289235 0
0.568353 0.28246 0
0.659022 0.275395 0
0.749966 0.26949 0
0.841016 0.26717 0
0.922591 0.276249 0
0.986252 0.304082 0
1 0.350851 0
1 0.412497 0
1 0.485298 0
1 0.564965 0
0.995163 0.647944 0
0.992477 0.737148 0.0680095
0.988159 0.817807 0.13785
0.984253 0.885527 0.214466
0.98088 0.941085 0.302937
0.977951 0.986252 0.403311
0.975418 1 0.503136
0.973159 1 0.599695
0.971176 1 0.687724
0 0.369223 0
0 0.369497 0
0 0.369879 0
0 0.370489 0
0 0.370733 0
0 0.370932 0
0 0.371115 0
0 0.371191 0
0 0.371115 0
0 0.371801 0
0.139376 0.371679 0
0.253223 0.370748 0
0.353811 0.368505 0
0.458671 0.364706 0
0.559762 0.359762 0
0.654276 0.355184 0
0.746319 0.352941 0
0.835615 0.354192 0
0.914458 0.364263 0
0.976593 0.387274 0
1 0.423774 0
1 0.473671 0
1 0.534554 0
0.998184 0.603082 0
0.993072 0.67657 0
0.99089 0.756939 0.0617838
0.987198 0.830701 0.135576
0.983688 0.893187 0.214282
0.980545 0.945663 0.302571
0.977768 0.988708 0.402304
0.975311 1 0.502388
0.973083 1 0.599191
0.971145 1 0.687434
0 0.450019 0
0 0.450187 0
0 0.450538 0
0 0.450813 0
0 0.451041 0
0 0.451606 0
0 0.451835 0
0 0.452003 0
0 0.452155 0
0 0.452277 0
0.0354314 0.453315 0
0.186526 0.454276 0
0.314244 0.453483 0
0.431037 0.451423 0
0.540993 0.448203 0
0.642161 0.445121 0
0.73843 0.443214 0
0.828183 0.444862 0
0.904738 0.453696 0
0.964904 0.471946 0
1 0.500969 0
1 0.540536 0
0.9991 0.589929 0
0.995132 0.647135 0
0.9906 0.711315 0
0.988861 0.781552 0.0525521
0.985992 0.846555 0.132845
0.982971 0.903014 0.214191
0.980117 0.951736 0.303197
0.977523 0.992172 0.401007
0.975158 1 0.501411
0.973007 1 0.59852
0.971084 1 0.687022
0 0.541878 0
0 0.541939 0
0 0.542199 0
0 0.542443 0
0 0.542641 0
0 0.542824 0
0 0.543023 0
0 0.543236 0
0 0.543755 0
0 0.543847 0
0 0.54374 0
0.0762951 0.545037 0
0.248432 0.545663 0
0.388968 0.544335 0
0.511101 0.542199 0
0.620996 0.539422 0
0.723995 0.537499 0
0.816861 0.537987 0
0.892882 0.544366 0
0.95111 0.558526 0
0.994995 0.580468 0
0.997528 0.611322 0
0.994904 0.650339 0
0.991577 0.697612 0
0.987747 0.751308 0
0.986419 0.810132 0.0411078
0.984543 0.865827 0.129442
0.982086 0.915175 0.214267
0.979553 0.959503 0.304173
0.977188 0.996719 0.39942
0.97496 1 0.500069
0.9729 1 0.597635
0.971023 1 0.686473
0 0.63505 0
0 0.63505 0
0 0.635157 0
0 0.635309 0
0 0.635431 0
0 0.635523 0
0 0.63563 0
0 0.635752 0
0 0.635813 0
0 0.635782 0
0 0.63595 0
0 0.635431 0
0.136812 0.636927 0
0.328603 0.637079 0
0.470283 0.635523 0
0.590341 0.633478 0
0.701137 0.631281 0
0.798795 0.630976 0
0.876509 0.634806 0
0.934646 0.644648 0
0.97995 0.661234 0
0.991608 0.684657 0
0.990295 0.715557 0
0.98761 0.753079 0
0.984573 0.795178 0
0.983566 0.841627 0.0262303
0.982895 0.887861 0.126452
0.981003 0.93022 0.214725
0.978866 0.969039 0.305592
0.976761 1 0.399359
0.974701 1 0.498314
0.972732 1 0.596384
0.970932 1 0.68574
0 0.727657 0
0 0.727657 0
0 0.727657 0
0 0.727733 0
0 0.727764 0
0 0.727825 0
0 0.72784 0
0 0.727871 0
0 0.72784 0
0 0.727703 0
0 0.727382 0
0 0.727108 0
0 0.727657 0
0.227008 0.728191 0
0.41619 0.727916 0
0.550607 0.726009 0
0.669627 0.723918 0
0.773053 0.722652 0
0.854093 0.724758 0
0.914519 0.73135 0
0.959701 0.74316 0
0.984466 0.760601 0
0.985428 0.782727 0
0.98352 0.809628 0
0.981277 0.840284 0
0.980148 0.874693 0.00700389
0.981048 0.912322 0.123857
0.979736 0.947662 0.216526
0.978027 0.980621 0.307744
0.976196 1 0.401541
0.97435 1 0.497307
0.972519 1 0.59472
0.97081 1 0.684672
0 0.81915 0
0 0.81915 0
0 0.81915 0
0 0.81915 0
0 0.819135 0
0 0.81912 0
0 0.819059 0
0 0.818998 0
0 0.81883 0
0 0.818524 0
0 0.818021 0
0 0.817182 0
0 0.816159 0
0.118532 0.817517 0
0.346395 0.817578 0
0.504555 0.816281 0
0.632212 0.813779 0
0.740978 0.811749 0
0.826307 0.811475 0
0.890242 0.81442 0
0.938094 0.820829 0
0.972412 0.831312 0
0.980301 0.845701 0
0.979568 0.863386 0
0.978027 0.88423 0
0.97641 0.907713 0
0.97911 0.938842 0.123705
0.978363 0.96701 0.22005
0.977081 0.993835 0.311543
0.975555 1 0.404578
0.973922 1 0.497444
0.972259 1 0.592966
0.970657 1 0.683207
0 0.897307 0
0 0.897307 0
0 0.897307 0
0 0.897307 0
0 0.897307 0
0 0.897261 0
0 0.897139 0
0 0.896941 0
0 0.89662 0
0 0.896132 0
0 0.895399 0
0 0.894255 0
0 0.892653 0
0.025864 0.892958 0
0.272404 0.893507 0
0.463142 0.892134 0
0.599374 0.889387 0
0.711025 0.886687 0
0.798505 0.884916 0
0.86598 0.884901 0
0.916655 0.887373 0
0.953445 0.892546 0
0.974578 0.900542 0
0.975967 0.911574 0
0.974975 0.925338 0
0.974685 0.94287 0.00157168
0.977203 0.966003 0.129702
0.976913 0.987533 0.226322
0.975998 1 0.317205
0.974792 1 0.409308
0.973388 1 0.500694
0.971923 1 0.591226
0.970443 1 0.681407
0 0.957732 0
0 0.957732 0
0 0.957732 0
0 0.957732 0
0 0.957732 0
0 0.957732 0
0 0.957732 0
0 0.957504 0
0 0.957092 0
0 0.95639 0
0 0.955428 0
0 0.954101 0
0 0.9523 0
0 0.952285 0
0.218341 0.952239 0
0.436622 0.951385 0
0.577096 0.948623 0
0.688685 0.945434 0
0.775601 0.943008 0
0.843778 0.941619 0
0.896956 0.941726 0
0.935821 0.943938 0
0.96553 0.94818 0
0.97232 0.954635 0
0.972137 0.963302 0
0.973922 0.977127 0.0345006
0.975479 0.992782 0.143999
0.975448 1 0.236042
0.974868 1 0.32549
0.973938 1 0.4159
0.972778 1 0.505791
0.971496 1 0.594461
0.970184 1 0.679255
0 1 0
0 1 0
0 1 0
0 1 0
0 1 0
0 1 0
0 1 0
0 1 0
0 1 0
0 1 0
0 1 0
0 1 0
0 0.999512 0
0 0.999512 0
0.221408 1 0
0.429526 0.998505 0
0.56672 0.995941 0
0.674281 0.992782 0
0.75848 0.989944 0
0.825666 0.987884 0
0.879103 0.986786 0
0.919646 0.986923 0
0.951186 0.988556 0
0.968307 0.991699 0
0.96965 0.996475 0
0.972732 1 0.0670634
0.973907 1 0.164019
0.974044 1 0.251148
0.973709 1 0.336873
0.973007 1 0.425055
0.972091 1 0.512673
0.971008 1 0.59971
0.969833 1 0.681437
0 1 0
0 1 0
0 1 0
0 1 0
0 1 0
0 1 0
0 1 0
0 1 0
0 1 0
0 1 0
0 1 0
0 1 0
0 1 0
0 1 0
0.269764 1 0
0.4448 1 0
0.570611 1 0
0.669856 1 0
0.748867 1 0
0.813336 1 0
0.865248 1 0
0.905959 1 0
0.938659 1 0
0.963638 1 0
0.967544 1 0
0.971603 1 0.102876
0.972519 1 0.19147
0.972732 1 0.271824
0.972549 1 0.353307
0.972061 1 0.437201
0.971344 1 0.521965
0.970443 1 0.606714
0.969436 1 0.68574
0 1 0
0 1 0
0 1 0
0 1 0
0 1 0
0 1 0
0 1 0
0 1 0
0 1 0
0 1 0
0 1 0
0 1 0
0 1 0
0.0690318 1 0
0.336416 1 0
0.47808 1 0
0.585595 1 0
0.673396 1 0
0.745388 1 0
0.805829 1 0
0.85507 1 0
0.894713 1 0
0.927352 1 0
0.953231 1 0
0.968124 1 0.0674907
0.970718 1 0.15288
0.971328 1 0.226703
0.971542 1 0.299397
0.97145 1 0.375143
0.971115 1 0.454063
0.970565 1 0.534112
0.969833 1 0.616053
0.968978 1 0.691783
0 1 0
0 1 0
0 1 0
0 1 0
0 1 0
0 1 0
0 1 0
0 1 0
0 1 0
0 1 0
0 1 0
0 1 0
0 1 0
0.256458 1 0
0.410178 1 0
0.521294 1 0
0.61001 1 0
0.684779 1 0
0.748455 1 0
0.803098 1 0
0.84828 1 0
0.886702 1 0
0.91841 1 0
0.947204 1 0.0560464
0.966842 1 0.135607
0.969848 1 0.203677
0.970306 1 0.268391
0.970489 1 0.333883
0.970443 1 0.403265
0.970199 1 0.475746
0.969772 1 0.550866
0.969192 1 0.627894
0.968475 1 0.699718
0.219516 1 0
0.219516 1 0
0.219516 1 0
0.219516 1 0
0.219501 1 0
0.219501 1 0
0.219501 1 0
0.219501 1 0
0.219486 1 0
0.219471 1 0
0.219471 1 0
0.219425 1 0
0.219394 1 0
0.362982 1 0
0.482658 1 0
0.568414 1 0
0.640467 1 0
0.70219 1 0
0.757259 1 0
0.805386 1 0
0.84799 1 0.0209201
0.885069 1 0.0666514
0.916075 1 0.104555
0.941573 1 0.150072
0.962524 1 0.202182
0.968673 1 0.257282
0.969406 1 0.314824
0.969543 1 0.374807
0.969528 1 0.437446
0.969345 1 0.503319
0.969009 1 0.57229
0.968536 1 0.643641
0.967971 1 0.70959
0.474586 1 0.128832
0.474586 1 0.128832
0.474586 1 0.128832
0.474586 1 0.128832
0.474586 1 0.128832
0.474586 1 0.128832
0.474586 1 0.128832
0.474586 1 0.128832
0.474586 1 0.128832
0.474571 1 0.128832
0.474571 1 0.128832
0.474571 1 0.128832
0.474556 1 0.128832
0.474525 1 0.128832
0.546471 1 0.132128
0.619516 1 0.136767
0.677424 1 0.142
0.728481 1 0.14818
0.77525 1 0.156161
0.816266 1 0.165988
0.852888 1 0.178332
0.885008 1 0.193683
0.912978 1 0.21297
0.93669 1 0.235966
0.956664 1 0.270924
0.967208 1 0.315343
0.968627 1 0.365713
0.968719 1 0.420356
0.968704 1 0.477073
0.968551 1 0.536126
0.968292 1 0.599191
0.96791 1 0.662959
0.967453 1 0.722484
0.613886 1 0.254643
0.613886 1 0.254643
0.613886 1 0.254643
0.613886 1 0.254643
0.613886 1 0.254643
0.613886 1 0.254643
0.613886 1 0.254643
0.613886 1 0.254643
0.613886 1 0.254643
0.613886 1 0.254643
0.613886 1 0.254643
0.613886 1 0.254643
0.61387 1 0.254643
0.61387 1 0.254643
0.613855 1 0.254643
0.660014 1 0.257252
0.710781 1 0.261021
0.753719 1 0.265324
0.791959 1 0.270436
0.82623 1 0.277134
0.857725 1 0.285451
0.886336 1 0.29601
0.911467 1 0.309285
0.933318 1 0.326345
0.952056 1 0.347173
0.96582 1 0.379873
0.967956 1 0.421927
0.968017 1 0.469368
0.967971 1 0.520684
0.967849 1 0.574563
0.96762 1 0.630747
0.967315 1 0.686091
0.966934 1 0.737881
0.7066 1 0.365255
0.7066 1 0.365255
0.7066 1 0.365255
0.7066 1 0.365255
0.7066 1 0.365255
0.7066 1 0.365255
0.7066 1 0.365255
0.7066 1 0.365255
0.706584 1 0.365255
0.706584 1 0.365255
0.706584 1 0.365255
0.706584 1 0.365255
0.706584 1 0.365255
0.706584 1 0.365255
0.706569 1 0.365255
0.706569 1 0.365255
0.740139 1 0.367666
0.778088 1 0.371237
0.809323 1 0.375296
0.837461 1 0.380163
0.864576 1 0.386465
0.889265 1 0.394369
0.911452 1 0.404349
0.931273 1 0.416938
0.948516 1 0.433082
0.962905 1 0.452689
0.967056 1 0.483299
0.967376 1 0.522667
0.96733 1 0.567605
0.967193 1 0.616571
0.966995 1 0.665385
0.966751 1 0.712276
0.966461 1 0.755917
0.774273 1 0.470115
0.774273 1 0.470115
0.774273 1 0.470115
0.774273 1 0.470115
0.774273 1 0.470115
0.774273 1 0.470115
0.774273 1 0.470115
0.774273 1 0.470115
0.774273 1 0.470115
