BBLuts/BB_102_0420_LUT.cube
TITLE "Generated by Resolve"
LUT_3D_SIZE 33
0 0 0
0 0 0
0 0 0
0 0 0
0.0308843 0 0
0.0828412 0 0
0.122469 0 0
0.162722 0 0
0.210788 0 0
0.26836 0 0
0.33434 0 0
0.407843 0 0
0.492683 0 0
0.582712 0 0
0.672129 0 0
0.763943 0 0
0.851652 0 0
0.931228 0 0
0.998688 0 0
1 0 0
1 0 0
1 0.054612 0
1 0.344198 0
1 0.531563 0.0138247
1 0.670268 0.0618143
1 0.78558 0.111147
1 0.882277 0.173724
1 0.954742 0.260441
1 1 0.373358
1 1 0.484993
0.998734 1 0.58471
0.995346 1 0.68101
0.992752 1 0.763134
0 0 0
0 0 0
0 0 0
0 0 0
0.0368963 0 0
0.0843519 0 0
0.124407 0 0
0.166613 0 0
0.215061 0 0
0.271824 0 0
0.336385 0 0
0.409598 0 0
0.494606 0 0
0.584344 0 0
0.67332 0 0
0.764538 0 0
0.851942 0 0
0.931319 0 0
0.998444 0 0
1 0 0
1 0 0
1 0.11046 0
1 0.371954 0
1 0.544381 0.00590524
1 0.677012 0.0590219
1 0.789609 0.109697
1 0.884443 0.17319
1 0.955795 0.260304
1 1 0.373053
1 1 0.484825
0.998734 1 0.584619
0.995346 1 0.680949
0.992752 1 0.763119
0 0 0
0 0 0
0 0 0
0 0 0
0.0400244 0 0
0.0814832 0 0
0.12221 0 0
0.166232 0 0
0.216449 0 0
0.27396 0 0
0.338552 0 0
0.411704 0 0
0.496651 0 0
0.585916 0 0
0.674571 0 0
0.765377 0 0
0.852384 0 0
0.931395 0 0
0.998199 0 0
1 0 0
1 0 0
1 0.178073 0
1 0.394903 0
1 0.555291 0.000579843
1 0.683009 0.0565805
1 0.793301 0.108385
1 0.886458 0.172702
1 0.956802 0.260151
1 1 0.372747
1 1 0.484642
0.998718 1 0.584512
0.995331 1 0.680903
0.992752 1 0.763088
0 0.0173495 0
0 0.019852 0
0 0.0224308 0
0 0.0238193 0
0.023331 0.0221714 0
0.0706493 0.0198367 0
0.114061 0.0152132 0
0.161105 0.00479133 0
0.215473 0 0
0.27541 0 0
0.340963 0 0
0.41413 0 0
0.498848 0 0
0.587564 0 0
0.675914 0 0
0.766323 0 0
0.852857 0 0
0.931472 0 0
0.997925 0 0
1 0 0
1 0.012314 0
1 0.223575 0
1 0.414801 0
1 0.566217 0
1 0.689067 0.053666
1 0.796902 0.107012
1 0.888365 0.172244
1 0.957794 0.260014
1 1 0.372442
1 1 0.484489
0.998703 1 0.584436
0.995331 1 0.680842
0.992752 1 0.763058
0 0.0556344 0
0 0.0582437 0
0 0.0604715 0
0 0.0615396 0
0.00579843 0.0610056 0
0.0569772 0.0594492 0
0.104616 0.0564736 0
0.154131 0.0502022 0
0.210117 0.0371557 0
0.272297 0.0205692 0
0.3411 0 0
0.416251 0 0
0.501411 0 0
0.58967 0 0
0.677378 0 0
0.767086 0 0
0.853132 0 0
0.931426 0 0
0.99762 0 0
1 0 0
1 0.0408484 0
1 0.258946 0
1 0.432441 0
1 0.576074 0
1 0.694911 0.050721
1 0.800641 0.10547
1 0.89041 0.17174
1 0.95874 0.259876
1 1 0.372168
1 1 0.484321
0.998703 1 0.584344
0.995331 1 0.680781
0.992737 1 0.763027
0 0.091249 0
0 0.0935225 0
0 0.0950179 0
0 0.0958267 0
0 0.0963149 0
0.0302586 0.0950484 0
0.0904707 0.0935531 0
0.145022 0.0905928 0
0.203555 0.0847486 0
0.267781 0.0737163 0
0.337926 0.0523995 0
0.415137 0.0264286 0
0.502754 0 0
0.591546 0 0
0.679271 0 0
0.768414 0 0
0.853635 0 0
0.93138 0 0
0.99707 0 0
1 0 0
1 0.0935225 0
1 0.293675 0
1 0.45127 0
1 0.586831 0
1 0.701152 0.0475624
1 0.804852 0.103716
1 0.89279 0.17116
1 0.95996 0.259724
1 1 0.371832
1 1 0.484138
0.998688 1 0.584237
0.995315 1 0.68072
0.992737 1 0.762997
0 0.131411 0
0 0.133089 0
0 0.134264 0
0 0.134951 0
0 0.135454 0
0 0.135286 0
0.0650034 0.134249 0
0.129625 0.132647 0
0.193164 0.129137 0
0.260624 0.121996 0
0.333913 0.110536 0
0.413748 0.0929122 0
0.502174 0.063386 0
0.59118 0.0243992 0
0.68011 0 0
0.769268 0 0
0.854414 0 0
0.931746 0 0
0.996612 0 0
1 0.0261845 0
1 0.168185 0
1 0.333776 0
1 0.474998 0
1 0.600778 0
1 0.709484 0.0421302
1 0.810193 0.101488
1 0.895933 0.170413
1 0.961639 0.259541
1 1 0.371344
1 1 0.483879
0.998672 1 0.5841
0.995315 1 0.680644
0.992737 1 0.762951
0 0.178592 0
0 0.179721 0
0 0.180621 0
0 0.181216 0
0 0.181781 0
0 0.182239 0
0.0228275 0.181689 0
0.10071 0.180743 0
0.174121 0.178271 0
0.247623 0.173159 0
0.32636 0.165042 0
0.411231 0.153384 0
0.502434 0.136828 0
0.591455 0.111147 0
0.680125 0.0766308 0
0.769146 0.0425269 0
0.854353 0.000854505 0
0.931304 0 0
0.996292 0.0144961 0
1 0.119127 0
1 0.248508 0
1 0.379644 0
1 0.504692 0
1 0.618753 0
1 0.720638 0.0335699
1 0.817533 0.0982986
1 0.900099 0.169421
1 0.963912 0.259281
1 1 0.370657
1 1 0.483513
0.998657 1 0.583902
0.9953 1 0.680522
0.992737 1 0.76289
0 0.233539 0
0 0.234302 0
0 0.234821 0
0 0.235203 0
0 0.235477 0
0 0.235554 0
0 0.235828 0
0.0452125 0.235004 0
0.139178 0.234104 0
0.225147 0.231174 0
0.311711 0.225498 0
0.403769 0.216754 0
0.500755 0.205005 0
0.592309 0.190311 0
0.681773 0.172656 0
0.770504 0.151904 0
0.855299 0.126284 0
0.932143 0.115587 0
0.997482 0.151766 0
1 0.230716 0
1 0.327184 0
1 0.43151 0
1 0.539879 0
1 0.639551 0
1 0.735271 0.0218357
1 0.827451 0.0938582
1 0.905776 0.168063
1 0.966934 0.258961
1 1 0.369741
1 1 0.482963
0.998627 1 0.583566
0.995285 1 0.680339
0.992721 1 0.762798
0 0.295613 0
0 0.296132 0
0 0.296498 0
0 0.296925 0
0 0.297124 0
0 0.297169 0
0 0.297124 0
0 0.297459 0
0.0690318 0.297642 0
0.18407 0.297536 0
0.286 0.294362 0
0.387717 0.288334 0
0.493538 0.279973 0
0.590478 0.270207 0
0.682383 0.260105 0
0.771389 0.251698 0
0.85565 0.247776 0
0.931792 0.254765 0
0.995224 0.282338 0
1 0.334524 0
1 0.406027 0
1 0.490898 0
1 0.580819 0
1 0.666194 0
1 0.753674 0.00741588
1 0.840269 0.088426
1 0.913375 0.166293
1 0.971038 0.258549
1 1 0.368521
1 1 0.482231
0.998581 1 0.583062
0.995254 1 0.680049
0.992706 1 0.762661
0 0.36936 0
0 0.369772 0
0 0.370169 0
0 0.37055 0
0 0.370947 0
0 0.371176 0
0 0.371252 0
0 0.371145 0
0 0.372595 0
0.112917 0.374609 0
0.239948 0.374868 0
0.358465 0.371786 0
0.476555 0.366583 0
0.581827 0.360433 0
0.678233 0.354482 0
0.768994 0.351308 0
0.85304 0.353536 0
0.926848 0.364813 0
0.987716 0.390112 0
1 0.431052 0
1 0.487572 0
1 0.554528 0
1 0.626719 0
1 0.699199 0
1 0.777447 0.000808728
1 0.856184 0.0822309
1 0.923095 0.164065
1 0.976547 0.258228
1 1 0.367681
1 1 0.481254
0.99852 1 0.582406
0.995224 1 0.679622
0.992691 1 0.762448
0 0.457664 0
0 0.45803 0
0 0.458412 0
0 0.458701 0
0 0.459083 0
0 0.459342 0
0 0.459709 0
0 0.459846 0
0 0.460624 0
0.018555 0.463508 0
0.160342 0.46775 0
0.307408 0.468391 0
0.44509 0.465812 0
0.562676 0.462242 0
0.665614 0.458534 0
0.760464 0.457359 0
0.845365 0.461128 0
0.917586 0.472511 0
0.976516 0.494469 0
1 0.527199 0
1 0.569329 0
1 0.619913 0
1 0.675288 0
1 0.738155 0
1 0.806546 0
1 0.875532 0.0740826
1 0.935042 0.16144
1 0.983597 0.258122
1 1 0.367803
1 1 0.480018
0.998428 1 0.581537
0.995163 1 0.679026
0.992645 1 0.762112
0 0.55906 0
0 0.55935 0
0 0.55964 0
0 0.559884 0
0 0.560128 0
0 0.560357 0
0 0.560693 0
0 0.560922 0
0 0.561196 0
0 0.562829 0
0.0513161 0.566918 0
0.223621 0.571252 0
0.393194 0.570764 0
0.532372 0.568536 0
0.643336 0.565728 0
0.744823 0.564828 0
0.833356 0.568063 0
0.906767 0.577142 0
0.964721 0.593576 0
1 0.617761 0
1 0.647135 0
1 0.684565 0
1 0.730312 0
1 0.782788 0
1 0.840055 0
1 0.898253 0.0635691
1 0.949462 0.158282
1 0.99237 0.258274
1 1 0.368536
1 1 0.478477
0.998322 1 0.580362
0.995102 1 0.678264
0.992615 1 0.761685
0 0.657176 0
0 0.657359 0
0 0.657542 0
0 0.65771 0
0 0.657862 0
0 0.658015 0
0 0.658167 0
0 0.658305 0
0 0.658457 0
0 0.658549 0
0 0.660487 0
0.0986191 0.664698 0
0.310704 0.666667 0
0.485801 0.665263 0
0.611933 0.66334 0
0.722393 0.662425 0
0.817151 0.664591 0
0.893187 0.671061 0
0.951019 0.682811 0
0.994736 0.700496 0
1 0.72401 0
1 0.753491 0
1 0.789685 0
1 0.831281 0
1 0.876539 0
1 0.923445 0.0504463
1 0.966583 0.1552
1 1 0.258808
1 1 0.369802
1 1 0.477607
0.998169 1 0.57882
0.99501 1 0.677211
0.992554 1 0.76109
0 0.752987 0
0 0.753033 0
0 0.75314 0
0 0.753231 0
0 0.753307 0
0 0.753384 0
0 0.753445 0
0 0.753475 0
0 0.753414 0
0 0.753338 0
0 0.752956 0
0 0.7561 0
0.190066 0.760327 0
0.417258 0.760189 0
0.571344 0.758602 0
0.692103 0.757137 0
0.79411 0.758038 0
0.874144 0.762478 0
0.933471 0.770932 0
0.977493 0.783902 0
1 0.801495 0
1 0.823545 0
1 0.850156 0
1 0.880613 0
1 0.914107 0
1 0.950515 0.0334325
1 0.985183 0.152728
1 1 0.26038
1 1 0.371984
1 1 0.478599
0.997955 1 0.577447
0.994888 1 0.675807
0.992477 1 0.760281
0 0.84744 0
0 0.84744 0
0 0.847471 0
0 0.847486 0
0 0.847517 0
0 0.847517 0
0 0.847486 0
0 0.84741 0
0 0.847227 0
0 0.846876 0
0 0.846265 0
0 0.846677 0
0.0708171 0.850767 0
0.324742 0.853056 0
0.523293 0.851118 0
0.656367 0.8486 0
0.766064 0.847745 0
0.85066 0.849744 0
0.912657 0.854749 0
0.958221 0.862882 0
0.990982 0.874388 0
1 0.88922 0
1 0.907012 0
1 0.927642 0
1 0.951263 0
1 0.977523 0.0154269
1 1 0.151949
1 1 0.263752
1 1 0.375662
1 1 0.481163
0.997665 1 0.576959
0.994736 1 0.674159
0.992386 1 0.759136
0 0.933089 0
0 0.933089 0
0 0.933089 0
0 0.933074 0
0 0.933059 0
0 0.932998 0
0 0.932876 0
0 0.932677 0
0 0.932342 0
0 0.931807 0
0 0.930983 0
0 0.929747 0
0 0.932494 0
0.230991 0.935592 0
0.46949 0.932921 0
0.621408 0.928801 0
0.73814 0.925811 0
0.826612 0.925322 0
0.891402 0.927138 0
0.939269 0.93109 0
0.974899 0.937331 0
0.99794 0.945968 0
1 0.95729 0
1 0.970504 0
1 0.985962 0
1 1 0.0122072
1 1 0.155596
1 1 0.269718
1 1 0.381353
1 1 0.485115
0.997284 1 0.578363
0.994522 1 0.67245
0.992248 1 0.757671
0 1 0
0 1 0
0 1 0
0 1 0
0 1 0
0 1 0
0 1 0
0 1 0
0 1 0
0 1 0
0 0.999283 0
0 0.997833 0
0 0.998627 0
0.160067 1 0
0.422705 0.99794 0
0.594842 0.992325 0
0.715969 0.987503 0
0.806302 0.985168 0
0.872557 0.984833 0
0.92224 0.986007 0
0.959518 0.988754 0
0.986282 0.99324 0
1 0.999466 0
1 1 0
1 1 0
1 1 0.0339208
1 1 0.166491
1 1 0.279149
1 1 0.389502
0.999405 1 0.490959
0.99678 1 0.582238
0.994232 1 0.672801
0.992081 1 0.755901
0 1 0
0 1 0
0 1 0
0 1 0
0 1 0
0 1 0
0 1 0
0 1 0
0 1 0
0 1 0
0 1 0
0 1 0
0 1 0
0.131044 1 0
0.401053 1 0
0.580987 1 0
0.70193 1 0
0.790936 1 0
0.857191 1 0
0.907347 1 0
0.945663 1 0
0.974701 1 0
0.9944 1 0
1 1 0
1 1 0
1 1 0.0689403
1 1 0.185138
1 1 0.293492
1 1 0.400702
0.998611 1 0.498955
0.996185 1 0.588083
0.99382 1 0.676646
0.991852 1 0.755535
0 1 0
0 1 0
0 1 0
0 1 0
0 1 0
0 1 0
0 1 0
0 1 0
0 1 0
0 1 0
0 1 0
0 1 0
0 1 0
0.136645 1 0
0.417136 1 0
0.582086 1 0
0.696956 1 0
0.781888 1 0
0.846021 1 0
0.895293 1 0
0.933623 1 0
0.9635 1 0
0.986038 1 0
0.998245 1 0
1 1 0.00263981
1 1 0.104494
1 1 0.211124
1 1 0.313771
0.999741 1 0.415808
0.997726 1 0.509041
0.995499 1 0.595987
0.993332 1 0.682338
0.991547 1 0.758236
0 1 0
0 1 0
0 1 0
0 1 0
0 1 0
0 1 0
0 1 0
0 1 0
0 1 0
0 1 0
0 1 0
0 1 0
0 1 0
0.184634 1 0
0.460868 1 0
0.598581 1 0
0.701625 1 0
0.779355 1 0
0.839612 1 0
0.886763 1 0
0.924071 1 0
0.953918 1 0
0.977996 1 0
0.994324 1 0
0.999969 1 0.0340887
1 1 0.148333
1 1 0.246021
1 1 0.341009
0.998566 1 0.43592
0.99675 1 0.522271
0.994751 1 0.606455
0.992782 1 0.689845
0.991165 1 0.762661
0 1 0
0 1 0
0 1 0
0 1 0
0 1 0
0 1 0
0 1 0
0 1 0
0 1 0
0 1 0
0 1 0
0 1 0
0.0560616 1 0
0.319753 1 0
0.514321 1 0
0.626444 1 0
0.714397 1 0
0.782712 1 0
0.837491 1 0
0.881468 1 0
0.91696 1 0
0.946014 1 0
0.970199 1 0
0.989395 1 0.0243229
0.999268 1 0.113649
1 1 0.204349
0.999939 1 0.29012
0.998764 1 0.376486
0.997345 1 0.46128
0.995712 1 0.540383
0.993896 1 0.620157
0.992157 1 0.699504
0.990738 1 0.768643
0.0146639 1 0
0.0146639 1 0
0.0146639 1 0
0.0146639 1 0
0.0146639 1 0
0.0146639 1 0
0.0146639 1 0
0.0146487 1 0
0.0146487 1 0
0.0146487 1 0
0.0146487 1 0
0.0157015 1 0
0.207172 1 0
0.451804 1 0
0.571099 1 0
0.661234 1 0
0.733272 1 0
0.791302 1 0
0.83975 1 0
0.879744 1 0
0.913069 1 0
0.941329 1 0.00766003
0.965331 1 0.0333867
0.985 1 0.106538
0.997192 1 0.187655
0.99881 1 0.264561
0.998413 1 0.341024
0.997314 1 0.418494
0.996048 1 0.492668
0.994583 1 0.5635
0.992996 1 0.638148
0.991485 1 0.711742
0.990265 1 0.776242
0.364736 1 0.0285344
0.364736 1 0.0285344
0.364736 1 0.0285344
0.364736 1 0.0285344
0.364736 1 0.0285344
0.364736 1 0.0285344
0.364721 1 0.0285344
0.364721 1 0.0285344
0.364706 1 0.0285344
0.364706 1 0.0285344
0.364675 1 0.0285344
0.364645 1 0.0285344
0.432364 1 0.0265202
0.537865 1 0.023331
0.628428 1 0.0208591
0.699748 1 0.0197147
0.757321 1 0.0197147
0.805875 1 0.0206302
0.847288 1 0.0223392
0.882811 1 0.0359197
0.913314 1 0.0734112
0.939544 1 0.115923
0.961715 1 0.156466
0.97998 1 0.205661
0.993164 1 0.264637
0.996948 1 0.32929
0.996841 1 0.39765
0.995865 1 0.463844
0.994705 1 0.527382
0.993423 1 0.592172
0.99205 1 0.660487
0.990784 1 0.727214
0.989776 1 0.785641
0.592615 1 0.183093
0.592615 1 0.183093
0.592615 1 0.183093
0.592615 1 0.183093
0.592615 1 0.183093
0.592615 1 0.183093
0.592615 1 0.183093
0.592615 1 0.183093
0.592615 1 0.183093
0.592615 1 0.183093
0.592599 1 0.183093
0.592584 1 0.183093
0.592569 1 0.183093
0.621927 1 0.183139
0.680354 1 0.184176
0.736721 1 0.187182
0.783017 1 0.192004
0.822934 1 0.198795
0.857618 1 0.207965
0.887724 1 0.219715
0.914183 1 0.234577
0.937591 1 0.2533
0.957809 1 0.276555
0.974868 1 0.306111
0.988235 1 0.347433
0.994797 1 0.399908
0.995285 1 0.455329
0.994385 1 0.51162
0.993347 1 0.567559
0.992218 1 0.626429
0.991073 1 0.687449
0.990082 1 0.745708
0.989273 1 0.797452
0.713039 1 0.325048
0.713039 1 0.325048
0.713039 1 0.325048
0.713039 1 0.325048
0.713039 1 0.325048
0.713039 1 0.325048
0.713039 1 0.325048
0.713039 1 0.325048
0.713024 1 0.325048
0.713024 1 0.325048
0.713024 1 0.325048
0.713024 1 0.325048
0.713024 1 0.325048
0.713008 1 0.325048
0.730297 1 0.325658
0.767651 1 0.328115
0.80618 1 0.331746
0.838773 1 0.336614
0.867201 1 0.342962
0.8925 1 0.351217
0.915511 1 0.36173
0.936339 1 0.375036
0.954665 1 0.391684
0.970504 1 0.411749
0.98381 1 0.436912
0.992416 1 0.471809
0.993362 1 0.514214
0.99292 1 0.560769
0.991989 1 0.611887
0.991043 1 0.664958
0.990158 1 0.717739
0.989395 1 0.767086
0.988769 1 0.811246
0.788602 1 0.451881
0.788602 1 0.451881
0.788602 1 0.451881
0.788602 1 0.451881
0.788602 1 0.451881
0.788602 1 0.451881
0.788602 1 0.451881
0.788586 1 0.451881
0.788586 1 0.451881
0.788586 1 0.451881
0.788586 1 0.451881
0.788586 1 0.451881
0.788586 1 0.451881
0.788571 1 0.451881
0.788571 1 0.451881
0.800443 1 0.452689
0.82649 1 0.45507
0.853544 1 0.458625
0.876951 1 0.46302
0.898466 1 0.468833
0.918257 1 0.475822
0.936385 1 0.484596
0.952682 1 0.495583
0.967132 1 0.508522
0.97969 1 0.524407
0.988998 1 0.545342
0.991516 1 0.575784
0.99147 1 0.614816
0.990723 1 0.65919
0.98996 1 0.705303
0.989303 1 0.749584
0.988754 1 0.790387
0.988296 1 0.827375
0.840726 1 0.558129
0.840726 1 0.558129
0.840726 1 0.558129
0.840726 1 0.558129
0.840726 1 0.558129
0.840726 1 0.558129
0.840726 1 0.558129
0.840726 1 0.558129
0.840726 1 0.558129
