BBLuts/BB_102_0290_LUT.cube
TITLE "Generated by Resolve"
LUT_3D_SIZE 9
0 0 0
0 0 0
0.285801 0 0
0.646387 0 0
0.93669 0 0
1 0 0
1 0.625986 0.00192264
1 0.851789 0.472663
0.98436 0.933486 0.760342
0 0.0555734 0
0 0.0715496 0
0.272358 0.0408484 0
0.65478 0 0
0.938872 0 0
1 0 0
1 0.642908 0
1 0.853513 0.471061
0.984344 0.933623 0.76025
0 0.303548 0
0 0.308965 0
0.164202 0.308614 0
0.505302 0.298756 0
0.902617 0.11191 0
0.890211 0.374868 0
1 0.666209 0
1 0.856275 0.468482
0.984314 0.933852 0.760067
0 0.617746 0
0 0.618311 0
0 0.618921 0
0.481926 0.606546 0
0.836942 0.58262 0
1 0.603128 0
1 0.731426 0
1 0.8663 0.465354
0.984176 0.93489 0.759182
0 0.845518 0
0 0.845502 0
0 0.845319 0
0 0.84361 0
0.743801 0.812253 0
0.987778 0.801663 0
1 0.838209 0
0.997101 0.891691 0.473075
0.983719 0.938613 0.756024
0 0.981353 0
0 0.981353 0
0 0.981353 0
0 0.978164 0
0.691875 0.94789 0
0.92546 0.927489 0
1 0.923827 0
0.990967 0.929366 0.50956
0.98233 0.948638 0.756588
0.605783 1 0.174395
0.605783 1 0.174395
0.605783 1 0.174395
0.605753 1 0.174411
0.764065 0.988449 0.192004
0.900969 0.974319 0.25568
0.979416 0.963928 0.412436
0.984634 0.96083 0.598001
0.979873 0.963088 0.782025
0.86598 0.98114 0.67306
0.86598 0.98114 0.673075
0.86598 0.98114 0.673075
0.86598 0.98114 0.673075
0.865965 0.98114 0.673091
0.913268 0.978469 0.67715
0.962539 0.97528 0.693751
0.979263 0.973373 0.743358
0.977111 0.971908 0.835843
0.942733 0.97348 0.869368
0.942733 0.97348 0.869368
0.942733 0.97348 0.869368
0.942733 0.97348 0.869368
0.942733 0.97348 0.869368
0.942718 0.97348 0.869368
0.960418 0.97232 0.87097
0.976089 0.971191 0.877241
0.975647 0.970886 0.89572
0 0 0.0757305
0 0 0.0766155
0.280049 0 0.0791638
0.646113 0 0.070222
0.937591 0 0.0581216
1 0 0.0524147
1 0.626917 0.0433509
1 0.851759 0.472679
0.98436 0.933471 0.760357
0 0.00906386 0.0527657
0.0179904 0.0328374 0.0487526
0.30338 0 0.0666209
0.649409 0 0.0510567
0.939696 0 0
1 0 0
1 0.641321 0.0145266
1 0.853498 0.471092
0.984344 0.933623 0.76025
0 0.287861 0
0 0.292348 0
0.193805 0.292348 0
0.482536 0.291112 0
0.911437 0.0617227 0
0.917266 0.346319 0
1 0.664668 0
1 0.856275 0.468482
0.984314 0.933837 0.760067
0 0.615091 0
0 0.615579 0
0 0.616083 0
0.495201 0.602853 0
0.836408 0.579629 0
1 0.600961 0
1 0.730724 0
1 0.8663 0.465354
0.984176 0.93489 0.759182
0 0.844236 0
0 0.844221 0
0 0.844007 0
0 0.842329 0
0.746044 0.811124 0
0.9879 0.800946 0
1 0.837964 0
0.997101 0.891691 0.473075
0.983719 0.938613 0.756024
0 0.981048 0
0 0.981109 0
0 0.981109 0
0 0.977951 0
0.693828 0.947601 0
0.925673 0.927367 0
1 0.923766 0
0.990967 0.929366 0.50956
0.98233 0.948638 0.756588
0.608804 1 0.173968
0.608804 1 0.173968
0.608804 1 0.173953
0.608789 1 0.173953
0.764996 0.988357 0.191546
0.901152 0.974273 0.255344
0.979431 0.963912 0.412421
0.984634 0.96083 0.598001
0.979873 0.963088 0.782025
0.866194 0.981125 0.673045
0.866194 0.981125 0.673045
0.866194 0.981125 0.673045
0.866194 0.981125 0.673045
0.866194 0.981125 0.673045
0.913344 0.978469 0.677134
0.96257 0.97528 0.693721
0.979263 0.973373 0.743358
0.977111 0.971908 0.835843
0.942748 0.97348 0.869368
0.942748 0.97348 0.869368
0.942748 0.97348 0.869368
0.942748 0.97348 0.869368
0.942748 0.97348 0.869368
0.942748 0.97348 0.869368
0.960433 0.97232 0.870954
0.976089 0.971191 0.877241
0.975647 0.970886 0.89572
0 0 0.333318
0 0 0.333837
0.225422 0 0.33521
0.650156 0 0.317754
0.931151 0 0.313085
1 0 0.336721
0.901335 0.665019 0.184894
1 0.850767 0.505974
0.98436 0.933471 0.760357
0 0 0.328893
0 0 0.329488
0.261891 0 0.329381
0.64918 0 0.31194
0.932555 0 0.305821
1 0 0.323537
0.908385 0.679484 0.184497
1 0.852384 0.50454
0.984344 0.933623 0.76025
0 0.237934 0.255726
0 0.242023 0.25539
0.168032 0.235782 0.252277
0.5897 0.19234 0.24741
0.926146 0 0.281605
1 0.191135 0.246799
0.952178 0.685664 0.202182
1 0.855283 0.502541
0.984314 0.933837 0.760067
0 0.602792 0.0724193
0 0.603937 0.0728771
0 0.604623 0.075227
0.48957 0.590967 0.0710307
0.829038 0.566308 0.0596475
0.994003 0.609552 0.0290074
1 0.722622 0.1897
1 0.865476 0.493919
0.984176 0.93489 0.759182
0 0.841856 0
0 0.841856 0
0 0.841627 0
0 0.839918 0
0.748653 0.808392 0
0.987945 0.798886 0
1 0.83563 0
0.997086 0.891539 0.474723
0.983719 0.938613 0.756024
0 0.980667 0
0 0.980667 0
0 0.980667 0
0 0.977584 0
0.697093 0.947158 0
0.926207 0.927108 0
1 0.923613 0
0.990997 0.92932 0.509453
0.98233 0.948638 0.756588
0.613077 1 0.173144
0.613077 1 0.173144
0.613077 1 0.173144
0.613062 1 0.173144
0.766278 0.98822 0.190921
0.901564 0.974212 0.254948
0.979492 0.963882 0.412116
0.984634 0.96083 0.59794
0.979873 0.963088 0.782025
0.866514 0.981109 0.672984
0.866514 0.981109 0.672984
0.866514 0.981109 0.672984
0.866514 0.981109 0.672984
0.866514 0.981109 0.672984
0.913466 0.978454 0.677073
0.962615 0.97528 0.69369
0.979263 0.973373 0.743343
0.977111 0.971908 0.835843
0.942763 0.97348 0.869383
0.942763 0.97348 0.869383
0.942763 0.97348 0.869383
0.942763 0.97348 0.869383
0.942763 0.97348 0.869383
0.942763 0.97348 0.869383
0.960449 0.97232 0.870954
0.976089 0.971191 0.877241
0.975647 0.970886 0.89572
0 0 0.694148
0 0 0.694224
0 0 0.694423
0.59501 0 0.683757
0.941024 0 0.670466
1 0 0.670893
1 0.579812 0.587503
0.99704 0.845655 0.628397
0.984146 0.93315 0.771649
0 0 0.692775
0 0 0.692897
0.00332647 0 0.694286
0.612909 0 0.681071
0.939452 0 0.66891
1 0 0.669017
1 0.601633 0.579904
0.997543 0.847059 0.628168
0.984131 0.933288 0.771542
0 0.0306401 0.671534
0 0.0346227 0.670802
0 0.0367132 0.671962
0.620844 0 0.677378
0.934188 0 0.665721
1 0 0.662959
1 0.628595 0.573083
0.99826 0.849683 0.627878
0.9841 0.933532 0.771389
0 0.546212 0.563409
0 0.547158 0.563378
0 0.548989 0.563592
0.456275 0.536416 0.55845
0.809949 0.508812 0.548333
1 0.554864 0.539727
0.96556 0.7252 0.491203
0.997543 0.860212 0.62385
0.983795 0.934432 0.770459
0 0.82446 0.422202
0 0.82446 0.422202
0 0.824598 0.423514
0 0.822919 0.428397
0.730999 0.792142 0.421805
0.973419 0.783291 0.44152
1 0.822965 0.507454
0.994095 0.887465 0.609689
0.98349 0.938277 0.767819
0 0.977768 0
0 0.977768 0
0 0.977768 0
0 0.974807 0
0.689632 0.944274 0
0.917906 0.921859 0.180713
0.995132 0.915496 0.39791
0.989624 0.927703 0.576608
0.982269 0.948547 0.759548
0.625544 1 0.169528
0.625544 1 0.169528
0.625544 1 0.169528
0.625544 1 0.169528
0.769985 0.987869 0.189059
0.902632 0.974044 0.253559
0.979721 0.963775 0.411643
0.984649 0.960769 0.597574
0.979873 0.963073 0.781949
0.867613 0.981048 0.672816
0.867613 0.981048 0.672816
0.867613 0.981048 0.672816
0.867613 0.981048 0.672816
0.867613 0.981048 0.672816
0.913893 0.978439 0.676936
0.962768 0.97528 0.693584
0.979263 0.973388 0.743221
0.977111 0.971908 0.835813
0.942855 0.97348 0.869368
0.942855 0.97348 0.869368
0.942855 0.97348 0.869368
0.942855 0.97348 0.869368
0.942855 0.97348 0.869368
0.942855 0.97348 0.869368
0.960479 0.97232 0.870939
0.976089 0.971191 0.877226
0.975647 0.970886 0.89572
0 0 0.957565
0 0 0.957565
0 0 0.957656
0.110536 0 0.9608
0.903853 0 0.929976
1 0 0.920592
1 0.328222 0.852964
0.997177 0.82858 0.802533
0.982422 0.930159 0.847868
0 0 0.957488
0 0 0.957488
0 0 0.957549
0.120897 0 0.96022
0.907607 0 0.929381
1 0 0.920241
1 0.432593 0.836606
0.996948 0.830823 0.802075
0.982437 0.930297 0.847822
0 0 0.956497
0 0 0.956497
0 0 0.956558
0.268437 0 0.956481
0.913115 0 0.928267
1 0 0.919203
1 0.526223 0.821591
0.996521 0.834394 0.801205
0.982452 0.930526 0.847776
0 0.242267 0.894087
0 0.242267 0.894087
0 0.248096 0.893278
0.227451 0.235386 0.895338
0.880766 0.0720378 0.891386
1 0.177478 0.860258
1 0.641947 0.799893
0.987381 0.850263 0.787411
0.982391 0.931609 0.847349
0 0.781994 0.787579
0 0.781994 0.787579
0 0.78204 0.78761
0 0.781872 0.787991
0.702007 0.752621 0.771176
0.962676 0.748211 0.760357
1 0.800656 0.762493
0.956954 0.891356 0.760662
0.981689 0.935576 0.845396
0 0.963836 0.727321
0 0.963836 0.727321
0 0.963897 0.72726
0 0.961501 0.728145
0.63064 0.933059 0.716167
0.895567 0.910506 0.711879
0.987167 0.907042 0.728054
0.985519 0.922179 0.770596
0.980514 0.946166 0.83978
0.596689 0.993454 0.642481
0.596689 0.993454 0.642481
0.596689 0.993454 0.642481
0.596689 0.993454 0.642481
0.744747 0.981491 0.639673
0.886259 0.968032 0.644587
0.968002 0.959289 0.672236
0.981643 0.957916 0.736934
0.978821 0.961898 0.825147
0.871122 0.980865 0.671962
0.871122 0.980865 0.671962
0.871122 0.980865 0.671962
0.871122 0.980865 0.671962
0.871122 0.980865 0.671962
0.915206 0.978363 0.676478
0.96318 0.97525 0.693172
0.979278 0.973388 0.743038
0.977111 0.971908 0.835615
0.943297 0.973449 0.869291
0.943297 0.973449 0.869291
0.943297 0.973449 0.869291
0.943297 0.973449 0.869291
0.943297 0.973449 0.869291
0.943282 0.973449 0.869291
0.960647 0.972305 0.870878
0.976089 0.971191 0.877195
0.975647 0.970886 0.895705
0 0 1
0 0 1
0 0 1
0 0 1
0.707835 0 1
1 0 1
1 0 1
1 0.761898 0.936278
0.981537 0.924071 0.917723
0 0 1
0 0 1
0 0 1
0 0 1
0.70721 0 1
1 0 1
1 0 1
1 0.766979 0.935393
0.981506 0.924254 0.917647
0 0 1
0 0 1
0 0 1
0 0 1
0.716564 0 1
1 0 1
1 0 1
1 0.774639 0.933806
0.981414 0.92459 0.917464
0 0 1
0 0 1
0 0 1
0 0 1
0.768917 0 1
1 0 1
1 0 1
0.998032 0.79971 0.928771
0.980743 0.926116 0.916381
0 0.586557 1
0 0.586557 1
0 0.586557 1
0 0.589929 1
0.652461 0.564416 0.991165
1 0.558206 0.966232
1 0.696223 0.941924
0.991135 0.852598 0.917586
0.973159 0.933577 0.907439
0 0.947295 0.932326
0 0.947295 0.932326
0 0.947295 0.932326
0 0.947295 0.932326
0.411383 0.92842 0.926482
0.875639 0.894408 0.906096
0.980255 0.892943 0.901305
0.983261 0.912978 0.902876
0.975555 0.943954 0.909697
0.430411 0.996475 0.903151
0.430411 0.996475 0.903151
0.431724 0.996429 0.903075
0.431724 0.996429 0.903075
0.659983 0.981109 0.893584
0.859113 0.963363 0.885359
0.952193 0.954421 0.884031
0.978286 0.953582 0.890455
0.977249 0.959655 0.906065
0.85452 0.978759 0.855711
0.85452 0.978759 0.855711
0.85452 0.978759 0.855711
0.85452 0.978759 0.855711
0.85452 0.978759 0.855711
0.899214 0.97612 0.854871
0.950744 0.97319 0.857481
0.976043 0.971496 0.869734
0.975677 0.970916 0.894041
0.944686 0.973373 0.869062
0.944686 0.973373 0.869062
0.944686 0.973373 0.869062
0.944686 0.973373 0.869062
0.944686 0.973373 0.869062
0.944686 0.973373 0.869062
0.961166 0.97229 0.870665
0.976089 0.971206 0.877089
0.975647 0.970886 0.895644
0 0 1
0 0 1
0 0 1
0 0 1
0 0 1
1 0 1
1 0 1
1 0 1
0.98323 0.900008 0.969619
0 0 1
0 0 1
0 0 1
0 0 1
0 0 1
1 0 1
1 0 1
1 0 1
0.983261 0.900374 0.969619
0 0 1
0 0 1
0 0 1
0 0 1
0 0 1
1 0 1
1 0 1
1 0 1
0.983185 0.901076 0.969482
0 0 1
0 0 1
0 0 1
0 0 1
0 0 1
1 0 1
1 0 1
1 0 1
0.982849 0.903838 0.968887
0 0 1
0 0 1
0 0 1
0 0 1
0 0 1
1 0 1
1 0 1
1 0.493172 1
0.981796 0.912932 0.966995
0 0.802411 1
0 0.802411 1
0 0.802411 1
0 0.802411 1
0 0.805127 1
0.875196 0.764675 1
0.996506 0.797986 0.986389
0.98645 0.875029 0.971893
0.979171 0.932555 0.962478
0 1 0.987991
0 1 0.987991
0 1 0.987991
0 1 0.987991
0 1 0.987991
0.808484 0.960586 0.96405
0.944076 0.947997 0.957626
0.977386 0.94789 0.955932
0.973373 0.957137 0.953796
0.820523 0.978851 0.955642
0.820523 0.978851 0.955642
0.820523 0.978851 0.955642
0.820523 0.978851 0.955642
0.820523 0.978851 0.955642
0.870512 0.976104 0.953017
0.939193 0.972213 0.94966
0.973251 0.97026 0.949081
0.974441 0.970077 0.952148
0.937575 0.972473 0.93901
0.937575 0.972473 0.93901
0.937575 0.972473 0.93901
0.937575 0.972473 0.93901
0.937575 0.972473 0.93901
0.937575 0.972473 0.93901
0.954131 0.97145 0.938598
0.97258 0.970443 0.939712
0.974609 0.970184 0.944686
0 0.069688 1
0 0.069688 1
0 0.069688 1
0 0.069688 1
0 0.069688 1
0 0.0697948 1
1 0 1
1 0 1
1 0.672999 1
0 0.069688 1
0 0.069688 1
0 0.069688 1
0 0.069688 1
0 0.069688 1
0 0.0697948 1
1 0 1
1 0 1
1 0.672999 1
0 0.069688 1
0 0.069688 1
0 0.069688 1
0 0.069688 1
0 0.069688 1
0 0.0697948 1
1 0 1
1 0 1
1 0.672969 1
0 0.069688 1
0 0.069688 1
0 0.069688 1
0 0.069688 1
0 0.069688 1
0 0.0697948 1
1 0 1
1 0 1
1 0.672877 1
0 0.0695354 1
0 0.0695354 1
0 0.0695354 1
0 0.0695354 1
0 0.0695354 1
0 0.0696269 1
1 0 1
1 0 1
1 0.672663 1
0 0.0672313 1
0 0.0672313 1
0 0.0672313 1
0 0.0672313 1
0 0.0672313 1
0 0.0673381 1
1 0 1
1 0 1
0.996277 0.795743 0.99942
0 0.942489 1
0 0.942489 1
0 0.942489 1
0 0.942489 1
0 0.942489 1
0 0.943969 1
0.947478 0.886625 0.98999
0.981384 0.911681 0.984604
0.977615 0.941207 0.98085
0.521614 0.993729 0.998749
0.521614 0.993729 0.998749
0.521614 0.993729 0.998749
0.521614 0.993729 0.998749
0.521614 0.993729 0.998749
0.521614 0.993729 0.998749
0.919676 0.972686 0.979248
0.97084 0.968627 0.976608
0.974105 0.968688 0.97641
0.924971 0.972549 0.977081
0.924971 0.972549 0.977081
0.924971 0.972549 0.977081
0.924971 0.972549 0.977081
0.924971 0.972549 0.977081
0.924971 0.972549 0.977081
0.943557 0.97142 0.976013
0.968231 0.970123 0.974868
0.973754 0.969573 0.974685
0 0.399954 1
0 0.399954 1
0 0.399954 1
0 0.399954 1
0 0.399954 1
0 0.399954 1
0 0.400061 1
1 0.0887007 1
1 0.701076 1
0 0.399954 1
0 0.399954 1
0 0.399954 1
0 0.399954 1
0 0.399954 1
0 0.399954 1
0 0.400061 1
1 0.0887007 1
1 0.701076 1
0 0.399954 1
0 0.399954 1
0 0.399954 1
0 0.399954 1
0 0.399954 1
0 0.399954 1
0 0.400061 1
1 0.0887007 1
1 0.701076 1
0 0.399954 1
0 0.399954 1
0 0.399954 1
0 0.399954 1
0 0.399954 1
0 0.399954 1
0 0.400061 1
1 0.0887007 1
1 0.701076 1
0 0.399954 1
0 0.399954 1
0 0.399954 1
0 0.399954 1
0 0.399954 1
0 0.399954 1
0 0.400061 1
1 0.0887007 1
1 0.701076 1
0 0.399863 1
0 0.399863 1
0 0.399863 1
0 0.399863 1
0 0.399863 1
0 0.399863 1
0 0.399924 1
1 0.0901503 1
1 0.702281 1
0 0.398337 1
0 0.398337 1
0 0.398337 1
0 0.398337 1
0 0.398337 1
0 0.398337 1
0 0.398398 1
1 0.267674 1
1 0.704387 1
0 1 1
0 1 1
0 1 1
0 1 1
0 1 1
0 1 1
0 1 1
0.969329 0.955291 0.979385
0.975326 0.959381 0.978576
0.871015 0.97554 0.982513
0.871015 0.97554 0.982513
0.871015 0.97554 0.982513
0.871015 0.97554 0.982513
0.871015 0.97554 0.982513
0.871015 0.97554 0.982513
0.871015 0.97554 0.982513
0.962676 0.970367 0.977752
0.973983 0.969863 0.977234
