BBLuts/BB_103_0520_LUT.cube
TITLE "Generated by Resolve"
LUT_3D_SIZE 9
0 0 0
0.00434882 0 0
0.172274 0 0
0.438071 0 0
0.776883 0 0
0.960815 0 0
0.96527 0.543053 0.059556
0.936919 0.898573 0.355383
0.92314 1 0.704814
0 0.0252537 0
0 0.0302129 0
0.178302 0.00445563 0
0.447196 0 0
0.77847 0 0
0.964324 0 0
0.962386 0.578317 0.0499123
0.936568 0.903304 0.353201
0.923095 1 0.70454
0 0.188449 0
0 0.190021 0
0.122362 0.189822 0
0.45597 0.1561 0
0.787533 0.0570687 0
0.975494 0.234607 0
0.956802 0.635187 0.0278782
0.935912 0.912062 0.348989
0.923018 1 0.70399
0 0.489632 0
0 0.490608 0
0 0.491157 0
0.372412 0.504753 0
0.774197 0.49781 0
0.957321 0.570367 0
0.943175 0.749142 0
0.934371 0.933837 0.337179
0.922805 1 0.702388
0 0.843153 0
0 0.842893 0
0 0.842054 0
0.00291447 0.847028 0
0.691295 0.84358 0
0.905547 0.853819 0
0.930755 0.898497 0
0.93138 0.974975 0.335744
0.922271 1 0.697734
0 1 0
0 1 0
0 1 0
0.133547 1 0
0.667002 1 0
0.857404 1 0
0.926482 1 0.0123293
0.92726 1 0.385122
0.921126 1 0.693736
0.536767 1 0.142748
0.554223 1 0.142809
0.584649 1 0.143191
0.651209 1 0.145647
0.752682 1 0.157931
0.852399 1 0.197757
0.918868 1 0.305333
0.92256 1 0.512932
0.919249 1 0.72604
0.808347 1 0.590463
0.810101 1 0.590631
0.812757 1 0.590967
0.820081 1 0.591959
0.837812 1 0.594934
0.869718 1 0.603571
0.906706 1 0.627207
0.91841 1 0.687129
0.91751 1 0.786877
0.883787 1 0.818097
0.88397 1 0.818112
0.884321 1 0.818143
0.885344 1 0.818265
0.888167 1 0.818631
0.894911 1 0.819684
0.90721 1 0.823072
0.91722 1 0.830884
0.917098 1 0.850996
0 0 0.0125124
0 0 0.0119173
0.174655 0 0.00726329
0.439429 0 0
0.778592 0 0
0.964126 0 0.000915541
0.967773 0.538125 0.127413
0.936721 0.897307 0.391089
0.923079 1 0.71191
0 0.00868238 0.00723278
0.00608835 0.0114748 0.00549325
0.18114 0 0.00299077
0.443381 0 0
0.778546 0 0
0.966018 0 0
0.965026 0.574701 0.118349
0.936355 0.902083 0.38909
0.923033 1 0.71165
0 0.179339 0
0 0.181003 0
0.136965 0.180224 0
0.453193 0.146059 0
0.784375 0.036759 0
0.976471 0.21912 0
0.959808 0.63386 0.0987564
0.935683 0.910918 0.385229
0.922957 1 0.711131
0 0.485008 0
0 0.485924 0
0 0.486305 0
0.383032 0.499687 0
0.774212 0.493339 0
0.957565 0.566781 0
0.945678 0.749554 0.0133974
0.934096 0.93286 0.37435
0.922728 1 0.709606
0 0.841901 0
0 0.841627 0
0 0.840772 0
0.0152285 0.846143 0
0.693767 0.842451 0
0.90573 0.85304 0
0.930724 0.897993 0
0.931304 0.97467 0.346777
0.922194 1 0.705196
0 1 0
0 1 0
0 1 0
0.141619 1 0
0.668589 1 0
0.857679 1 0
0.926482 1 0.0122225
0.92726 1 0.384909
0.921111 1 0.695262
0.539452 1 0.142473
0.55668 1 0.14255
0.586725 1 0.142947
0.652552 1 0.145464
0.753262 1 0.157794
0.852567 1 0.19765
0.918898 1 0.305303
0.92256 1 0.512871
0.919249 1 0.725994
0.80856 1 0.590433
0.8103 1 0.5906
0.812955 1 0.590936
0.820249 1 0.591928
0.837949 1 0.594903
0.86978 1 0.60354
0.906737 1 0.627176
0.918425 1 0.687114
0.91751 1 0.786862
0.883803 1 0.818082
0.883986 1 0.818112
0.884352 1 0.818143
0.885359 1 0.818265
0.888182 1 0.818631
0.894926 1 0.819684
0.90721 1 0.823072
0.91722 1 0.830884
0.917098 1 0.850996
0 0 0.123659
0 0 0.123705
0.153307 0 0.116808
0.455451 0 0.0958877
0.782055 0 0.0798962
0.967025 0 0.105333
0.970367 0.523949 0.238575
0.936309 0.894728 0.450309
0.922957 1 0.724743
0 0 0.120836
0 0 0.120989
0.173724 0 0.113146
0.452674 0 0.093019
0.782925 0 0.0762951
0.966949 0 0.0995346
0.967742 0.562921 0.232517
0.935927 0.89958 0.448661
0.922911 1 0.724514
0 0.153216 0.103883
0 0.155001 0.103716
0.133227 0.151202 0.101472
0.442084 0.120073 0.0939193
0.785504 0 0.0777295
0.982849 0.171756 0.125277
0.962692 0.626062 0.21944
0.935225 0.908583 0.445472
0.922835 1 0.724041
0 0.474174 0.0178988
0 0.475288 0.0183261
0 0.475883 0.0190738
0.387503 0.489158 0.0308232
0.775189 0.483665 0.0368353
0.964721 0.561074 0.0769513
0.950637 0.74844 0.178515
0.933593 0.930892 0.436622
0.922606 1 0.722652
0 0.83856 0
0 0.838285 0
0 0.837415 0
0.0239567 0.843153 0
0.695735 0.839368 0
0.905699 0.850599 0
0.935546 0.9019 0.0677806
0.930709 0.973312 0.413794
0.922057 1 0.718654
0 1 0
0 1 0
0 1 0
0.156649 1 0
0.671717 1 0
0.858228 1 0
0.926497 1 0.0120394
0.927275 1 0.384878
0.920989 1 0.707225
0.544701 1 0.141939
0.561486 1 0.142046
0.590784 1 0.142489
0.655192 1 0.145083
0.754391 1 0.157519
0.852888 1 0.197452
0.918975 1 0.305257
0.92256 1 0.512718
0.919249 1 0.725933
0.808972 1 0.590387
0.810712 1 0.590555
0.813352 1 0.59089
0.8206 1 0.591882
0.838209 1 0.594858
0.869917 1 0.603494
0.906783 1 0.627131
0.918425 1 0.687114
0.91751 1 0.786847
0.883864 1 0.818082
0.884047 1 0.818097
0.884398 1 0.818143
0.88542 1 0.818265
0.888228 1 0.818631
0.894972 1 0.819669
0.90724 1 0.823056
0.91722 1 0.830884
0.917098 1 0.850996
0 0 0.375784
0 0 0.376013
0.0101015 0 0.374853
0.431296 0 0.353506
0.799359 0 0.334981
0.966567 0 0.356359
0.974243 0.467613 0.462684
0.935241 0.886839 0.572732
0.922728 1 0.754971
0 0 0.37377
0 0 0.373983
0.0593576 0 0.37142
0.444053 0 0.350439
0.798062 0 0.33283
0.966598 0 0.353719
0.971313 0.516075 0.459876
0.934798 0.891981 0.571557
0.922683 1 0.754788
0 0.0375372 0.368948
0 0.0406958 0.369131
0.0658885 0.036408 0.367605
0.450828 0 0.347951
0.791623 0 0.328145
0.972976 0 0.35996
0.96611 0.590723 0.453452
0.93402 0.901473 0.569314
0.922606 1 0.754421
0 0.426566 0.327504
0 0.428153 0.32781
0 0.429297 0.328496
0.379919 0.441123 0.342046
0.767636 0.435538 0.347646
0.971115 0.519951 0.377157
0.952834 0.728725 0.43125
0.932189 0.924941 0.563256
0.922362 1 0.753353
0 0.837247 0.238071
0 0.837079 0.238743
0 0.836362 0.240009
0.0043946 0.840772 0.252155
0.698863 0.837095 0.267124
0.910445 0.849363 0.304097
0.936767 0.897551 0.384298
0.929046 0.969192 0.548455
0.921798 1 0.750286
0 1 0.0565652
0 1 0.0569467
0 1 0.0577249
0.158572 1 0.0676738
0.674296 1 0.0663767
0.862486 1 0.143847
0.929244 1 0.304372
0.925704 1 0.514595
0.920668 1 0.741772
0.559503 1 0.140414
0.575036 1 0.140597
0.602304 1 0.141161
0.66276 1 0.144015
0.757717 1 0.156725
0.853849 1 0.196796
0.919158 1 0.305104
0.922576 1 0.512291
0.919249 1 0.72723
0.810544 1 0.590234
0.811902 1 0.590387
0.814481 1 0.590723
0.821637 1 0.59173
0.838972 1 0.59469
0.870314 1 0.603342
0.906905 1 0.627008
0.918425 1 0.687068
0.917525 1 0.78677
0.884016 1 0.818051
0.884199 1 0.818082
0.88455 1 0.818128
0.885573 1 0.81825
0.888365 1 0.818601
0.895064 1 0.819654
0.907286 1 0.823041
0.91722 1 0.830854
0.917098 1 0.850996
0 0 0.703334
0 0 0.70341
0 0 0.703563
0.246571 0 0.693828
0.781338 0 0.663737
0.963394 0 0.670634
0.981918 0.130846 0.71957
0.935302 0.863355 0.748363
0.922454 1 0.809735
0 0 0.702754
0 0 0.702831
0 0 0.702983
0.276936 0 0.69163
0.78558 0 0.663096
0.963394 0 0.670008
0.983215 0.254551 0.72813
0.934676 0.86978 0.747509
0.922408 1 0.809613
0 0 0.701595
0 0 0.701671
0 0 0.701762
0.319112 0 0.687984
0.789364 0 0.661814
0.963409 0 0.668544
0.97586 0.431098 0.729763
0.933577 0.881331 0.745983
0.922316 1 0.809369
0 0.205814 0.694926
0 0.20914 0.694881
0 0.213596 0.694743
0.321294 0.194797 0.696437
0.798199 0.114794 0.685298
0.983139 0.258732 0.705974
0.959289 0.652216 0.719265
0.931136 0.908949 0.742168
0.922072 1 0.808667
0 0.79115 0.653635
0 0.791348 0.653758
0 0.79118 0.65391
0 0.790158 0.65594
0.67953 0.793164 0.66537
0.902663 0.811933 0.673961
0.934859 0.873686 0.690211
0.927153 0.959152 0.734218
0.921462 1 0.806714
0 1 0.627787
0 1 0.627878
0 1 0.628077
0 1 0.632624
0.64271 1 0.625574
0.848798 0.997208 0.63473
0.924269 1 0.662943
0.923033 1 0.719631
0.920256 1 0.801663
0.536202 1 0.535454
0.553002 1 0.535149
0.582284 1 0.534752
0.646693 1 0.534676
0.74583 1 0.538689
0.843976 1 0.555276
0.910704 1 0.599557
0.920195 1 0.686412
0.918776 1 0.788922
0.814038 1 0.589746
0.815305 1 0.589914
0.817777 1 0.590249
0.824598 1 0.591257
0.841199 1 0.594232
0.871473 1 0.602899
0.907301 1 0.626612
0.918425 1 0.686976
0.91751 1 0.786572
0.884489 1 0.818006
0.884672 1 0.818036
0.885008 1 0.818067
0.886015 1 0.818189
0.888762 1 0.81854
0.895369 1 0.819608
0.907439 1 0.822995
0.91722 1 0.830823
0.917098 1 0.85098
0 0 0.882628
0 0 0.882643
0 0 0.882658
0 0 0.882582
0.671382 0 0.84593
0.963363 0 0.843839
0.963363 0 0.844648
0.947036 0.755154 0.878904
0.922576 1 0.873243
0 0 0.882551
0 0 0.882567
0 0 0.882582
0 0 0.88246
0.678798 0 0.845487
0.963363 0 0.843763
0.963363 0 0.844572
0.945266 0.769497 0.877317
0.922515 1 0.873152
0 0 0.882414
0 0 0.882414
0 0 0.882429
0 0 0.8822
0.692943 0 0.844678
0.963363 0 0.843595
0.963363 0 0.844266
0.942214 0.794751 0.874556
0.922408 1 0.872984
0 0 0.881987
0 0 0.881987
0 0 0.882002
0 0 0.881178
0.720348 0 0.843122
0.963363 0 0.843122
0.9776 0.0482032 0.867521
0.935943 0.849821 0.868574
0.922103 1 0.872526
0 0.55787 0.865354
0 0.559304 0.865278
0 0.562127 0.865125
0 0.564874 0.864256
0.681712 0.567269 0.875395
0.953918 0.611383 0.881941
0.94548 0.76791 0.8692
0.928298 0.931472 0.860441
0.921386 1 0.871305
0 1 0.854978
0 1 0.854917
0 1 0.854734
0 1 0.854063
0.567178 0.992645 0.848524
0.835737 0.980285 0.844251
0.919249 0.986389 0.846342
0.922499 1 0.852384
0.920012 1 0.868605
0.3673 1 0.840131
0.406928 1 0.838926
0.465599 1 0.836881
0.570321 1 0.832746
0.70724 1 0.829099
0.824598 1 0.82977
0.898375 1 0.834028
0.919005 1 0.843641
0.918364 1 0.863416
0.799924 1 0.794751
0.801266 1 0.794797
0.803861 1 0.794888
0.811414 1 0.795178
0.828824 1 0.796002
0.86041 1 0.798474
0.897795 1 0.805234
0.917281 1 0.82211
0.917098 1 0.851804
0.885847 1 0.817853
0.886 1 0.817868
0.886336 1 0.817899
0.887282 1 0.818036
0.889906 1 0.818387
0.896223 1 0.81944
0.907897 1 0.822843
0.91722 1 0.830686
0.917098 1 0.850965
0 0 0.932708
0 0 0.932708
0 0 0.932708
0 0 0.932708
0.0367437 0 0.931258
0.945968 0 0.905516
0.963409 0 0.906004
0.966567 0 0.911238
0.924773 0.969467 0.923583
0 0 0.932708
0 0 0.932708
0 0 0.932708
0 0 0.932708
0.045304 0 0.931105
0.94696 0 0.905547
0.963409 0 0.906004
0.966567 0 0.911223
0.924666 0.971038 0.923445
0 0 0.932708
0 0 0.932708
0 0 0.932708
0 0 0.932708
0.0607309 0 0.930816
0.948882 0 0.905623
0.963409 0 0.906004
0.967117 0 0.912108
0.924437 0.974044 0.923201
0 0 0.932708
0 0 0.932708
0 0 0.932708
0 0 0.932708
0.0986038 0 0.930068
0.954284 0 0.905806
0.963409 0 0.906004
0.970626 0 0.917693
0.923842 0.982086 0.922545
0 0 0.932708
0 0 0.932708
0 0 0.932708
0 0 0.932708
0.380957 0 0.918318
0.961013 0 0.90605
0.963409 0 0.906004
0.965209 0.600031 0.951598
0.922515 1 0.921035
0 0.885039 0.928893
0 0.88539 0.928908
0 0.886091 0.928954
0 0.887984 0.929015
0.119097 0.889586 0.93576
0.850782 0.87715 0.926818
0.929732 0.908827 0.924163
0.924636 0.971878 0.91986
0.920394 1 0.918441
0 1 0.928695
0 1 0.92903
0 1 0.929351
0.0756237 1 0.929808
0.603616 1 0.915084
0.803632 1 0.911406
0.892958 1 0.911849
0.918898 1 0.912596
0.918242 1 0.915221
0.769604 1 0.90483
0.77145 1 0.904814
0.77499 1 0.904799
0.784604 1 0.904799
0.807324 1 0.904845
0.846799 1 0.905104
0.889601 1 0.905821
0.916396 1 0.907546
0.916716 1 0.911467
0.880385 1 0.892409
0.880552 1 0.892424
0.880888 1 0.892439
0.881865 1 0.89247
0.884581 1 0.892576
0.891112 1 0.892912
0.903181 1 0.893843
0.916228 1 0.896437
0.916777 1 0.90277
0 0 0.934844
0 0 0.934844
0 0 0.934844
0 0 0.934844
0 0 0.934844
0.179461 0 0.931105
0.963409 0 0.906004
0.96994 0 0.91722
0.956039 0.682445 0.954833
0 0 0.934844
0 0 0.934844
0 0 0.934844
0 0 0.934844
0 0 0.934844
0.181659 0 0.931044
0.963409 0 0.906004
0.969955 0 0.91725
0.956039 0.682399 0.954833
0 0 0.934844
0 0 0.934844
0 0 0.934844
0 0 0.934844
0 0 0.934844
0.185901 0 0.930922
0.963409 0 0.906004
0.969985 0 0.917296
0.956054 0.682353 0.954849
0 0 0.934844
0 0 0.934844
0 0 0.934844
0 0 0.934844
0 0 0.934844
0.197116 0 0.928893
0.963409 0 0.906004
0.970047 0 0.917418
0.956069 0.68217 0.954849
0 0 0.934829
0 0 0.934829
0 0 0.934829
0 0 0.934829
0 0 0.934829
0.517433 0 0.912505
0.963409 0 0.906004
0.97023 0 0.917754
0.956146 0.681636 0.954894
0 0 0.934798
0 0 0.934798
0 0 0.934798
0 0 0.934798
0 0 0.934798
0.782681 0 0.9028
0.963409 0 0.906004
0.975692 0.0214084 0.928298
0.928512 0.920501 0.941649
0 1 0.952712
0 1 0.952712
0 1 0.952712
0 1 0.952728
0 1 0.952728
0.70248 1 0.94081
0.898528 1 0.940566
0.920699 1 0.940459
0.919036 1 0.940337
0.550301 1 0.943526
0.558007 1 0.943191
0.59649 1 0.94168
0.650538 1 0.939849
0.730999 1 0.93817
0.81648 1 0.937835
0.881483 1 0.938399
0.915373 1 0.938613
0.916869 1 0.93875
0.869123 1 0.935897
0.869368 1 0.935897
0.869825 1 0.935897
0.871153 1 0.935897
0.874754 1 0.935912
0.883223 1 0.935973
0.897917 1 0.93608
0.913252 1 0.936294
0.916533 1 0.93669
0 0.235019 0.937774
0 0.235019 0.937774
0 0.235019 0.937774
0 0.235035 0.937774
0 0.23505 0.937774
0 0.235096 0.937774
0.17879 0.167407 0.942046
0.984024 0.264149 0.955352
0.949325 0.735424 0.951247
0 0.235019 0.937774
0 0.235019 0.937774
0 0.235019 0.937774
0 0.235019 0.937774
0 0.23505 0.937774
0 0.235096 0.937774
0.17879 0.167407 0.942046
0.984024 0.264485 0.955383
0.949325 0.735485 0.951232
0 0.235004 0.937774
0 0.235004 0.937774
0 0.235004 0.937774
0 0.235004 0.937774
0 0.235035 0.937774
0 0.23508 0.937774
0.17879 0.167391 0.942046
0.984009 0.265141 0.955413
0.94931 0.735576 0.951232
0 0.234974 0.937774
0 0.234974 0.937774
0 0.234974 0.937774
0 0.234974 0.937774
0 0.234989 0.937774
0 0.235035 0.937774
0.17879 0.167346 0.942046
0.983978 0.267094 0.95552
0.949264 0.735897 0.951217
0 0.234836 0.937774
0 0.234836 0.937774
0 0.234836 0.937774
0 0.234852 0.937774
0 0.234852 0.937774
0 0.234913 0.937774
0.550072 0.136431 0.936294
0.983871 0.272801 0.955825
0.949157 0.736812 0.951156
0 0.234455 0.937774
0 0.234455 0.937774
0 0.234455 0.937774
0 0.23447 0.937774
0 0.23447 0.937774
0 0.234516 0.937774
0.851804 0 0.911955
0.983505 0.289128 0.956619
0.949004 0.737942 0.951064
0 0.233295 0.937789
0 0.233295 0.937789
0 0.23331 0.937789
0 0.23331 0.937789
0 0.233326 0.937789
0 0.233356 0.937789
0.963409 0 0.906004
0.982681 0.317113 0.957748
0.948699 0.740307 0.950912
0 1 0.953521
0 1 0.953521
0 1 0.953521
0 1 0.953521
0 1 0.953521
0 1 0.954604
0.84686 1 0.939849
0.916991 1 0.940322
0.91754 1 0.940215
0.816938 1 0.939178
0.817746 1 0.939193
0.819287 1 0.939193
0.823636 1 0.939223
0.834607 1 0.9393
0.856855 1 0.939467
0.886992 1 0.939712
0.910567 1 0.939879
0.916854 1 0.940261
