BBLuts/BB_103_0380_LUT.cube
TITLE "Generated by Resolve"
LUT_3D_SIZE 9
0 0 0
0 0 0
0.15314 0 0
0.39646 0 0
0.714702 0 0
0.900832 0 0
0.877546 0.570123 0.0467689
0.853162 0.857191 0.314504
0.84181 0.942275 0.64921
0 0.0226596 0
0 0.0323491 0
0.154025 0.0114595 0
0.404746 0 0
0.716716 0 0
0.90071 0 0
0.874998 0.596445 0.0354467
0.853025 0.859007 0.313375
0.841794 0.942412 0.649134
0 0.174166 0
0 0.177584 0
0.0990311 0.175723 0
0.399573 0.150759 0
0.713939 0.0576638 0
0.896284 0.210803 0
0.871443 0.62678 0.0130465
0.852827 0.861952 0.31162
0.841779 0.942641 0.648981
0 0.447486 0
0 0.4486 0
0 0.449836 0
0.307378 0.456214 0
0.698146 0.449805 0
0.87541 0.52726 0
0.862364 0.706096 0
0.852064 0.87248 0.309804
0.841718 0.943694 0.648295
0 0.78233 0
0 0.782315 0
0 0.782071 0
0 0.77995 0
0.61796 0.775769 0
0.826719 0.785824 0
0.852415 0.830396 0
0.850065 0.899016 0.319112
0.841459 0.947585 0.645624
0 0.949966 0
0 0.949966 0
0 0.949966 0
0 0.946242 0
0.581003 0.928893 0
0.78262 0.919661 0
0.846433 0.92195 0
0.846723 0.938323 0.364858
0.840681 0.957763 0.64741
0.50901 0.992248 0.134707
0.50901 0.992248 0.134707
0.50901 0.992248 0.134707
0.508995 0.992248 0.134707
0.660227 0.982223 0.13959
0.774563 0.976165 0.175357
0.837812 0.972671 0.275456
0.842527 0.970413 0.486931
0.839231 0.972778 0.672816
0.749554 0.983581 0.560708
0.749554 0.983581 0.560723
0.749554 0.983581 0.560723
0.749554 0.983581 0.560723
0.749538 0.983581 0.560723
0.786984 0.98378 0.567529
0.825437 0.983856 0.587472
0.838651 0.983215 0.637171
0.837781 0.982498 0.722393
0.811292 0.982177 0.749966
0.811292 0.982177 0.749966
0.811292 0.982177 0.749966
0.811292 0.982177 0.749966
0.811292 0.982177 0.749966
0.811276 0.982177 0.749966
0.825147 0.982315 0.752285
0.837537 0.982345 0.758648
0.83743 0.982284 0.774914
0 0 0.0142367
0 0 0.0145418
0.151705 0 0.0126345
0.39675 0 0.00747692
0.715221 0 0
0.902403 0 0.00544747
0.878325 0.568246 0.067216
0.853162 0.85716 0.314519
0.84181 0.94226 0.649226
0 0 0.00968948
0.00143435 0.00857557 0.00805676
0.164797 0 0.00816358
0.399222 0 0.0010071
0.715084 0 0
0.901244 0 0
0.875669 0.59501 0.0519875
0.853025 0.858976 0.31339
0.841794 0.942412 0.649134
0 0.16405 0
0 0.167132 0
0.11577 0.165499 0
0.397284 0.140017 0
0.711803 0.0264439 0
0.896559 0.195651 0
0.872099 0.625971 0.0267185
0.852827 0.861952 0.31162
0.841779 0.942626 0.648981
0 0.441703 0
0 0.442741 0
0 0.443809 0
0.31902 0.449683 0
0.697871 0.444404 0
0.875547 0.523568 0
0.86244 0.705242 0
0.852064 0.87248 0.309804
0.841718 0.943694 0.648295
0 0.780743 0
0 0.780728 0
0 0.780453 0
0 0.778302 0
0.620157 0.774533 0
0.826795 0.785046 0
0.85243 0.830137 0
0.850065 0.899016 0.319112
0.841459 0.947585 0.645624
0 0.949599 0
0 0.949676 0
0 0.949676 0
0 0.945983 0
0.582849 0.928634 0
0.782788 0.919539 0
0.846433 0.921889 0
0.846723 0.938323 0.364858
0.840681 0.957763 0.64741
0.512047 0.99202 0.13434
0.512047 0.99202 0.13434
0.512032 0.99202 0.13434
0.512016 0.99202 0.13434
0.661036 0.982162 0.139361
0.774701 0.976135 0.175189
0.837827 0.972656 0.275425
0.842527 0.970413 0.486931
0.839231 0.972778 0.672816
0.749722 0.983581 0.560708
0.749722 0.983581 0.560708
0.749722 0.983581 0.560708
0.749722 0.983581 0.560708
0.749706 0.983581 0.560708
0.78706 0.98378 0.567529
0.825452 0.983856 0.587457
0.838651 0.983215 0.637171
0.837781 0.982498 0.722393
0.811307 0.982177 0.749966
0.811307 0.982177 0.749966
0.811307 0.982177 0.749966
0.811307 0.982177 0.749966
0.811307 0.982177 0.749966
0.811307 0.982177 0.749966
0.825162 0.982315 0.752285
0.837537 0.982345 0.758648
0.83743 0.982284 0.774914
0 0 0.120912
0 0 0.121157
0.125658 0 0.118502
0.408011 0 0.108431
0.71722 0 0.101976
0.904967 0 0.124498
0.881254 0.558785 0.188037
0.852888 0.856306 0.346838
0.84181 0.94226 0.649226
0 0 0.118761
0 0 0.119112
0.146014 0 0.115877
0.406912 0 0.10573
0.718242 0 0.0986496
0.904723 0 0.117983
0.878843 0.587381 0.18117
0.85275 0.858137 0.345678
0.841794 0.942412 0.649134
0 0.13843 0.107805
0 0.141009 0.107759
0.105791 0.134905 0.102281
0.38471 0.112978 0.0980697
0.715999 0 0.090135
0.901778 0.145068 0.120119
0.875715 0.621637 0.170932
0.852552 0.861128 0.343725
0.841779 0.942626 0.648981
0 0.428336 0.0405432
0 0.429862 0.0407568
0 0.4309 0.0416876
0.320989 0.436713 0.0465858
0.697276 0.432273 0.0506752
0.879927 0.514321 0.0726024
0.867079 0.705074 0.13257
0.851835 0.871794 0.336248
0.841718 0.943694 0.648295
0 0.777691 0
0 0.777691 0
0 0.777417 0
0 0.775265 0
0.622126 0.771466 0
0.826795 0.782696 0
0.853727 0.830198 0.00856031
0.85005 0.898878 0.320562
0.841459 0.947585 0.645624
0 0.949172 0
0 0.949172 0
0 0.949172 0
0 0.945602 0
0.586053 0.928222 0
0.783185 0.919326 0
0.846448 0.921736 0
0.846738 0.938277 0.364645
0.840681 0.957763 0.64741
0.516045 0.991699 0.133822
0.516045 0.991699 0.133822
0.516045 0.991699 0.133822
0.51603 0.991699 0.133822
0.662104 0.982071 0.139055
0.775006 0.976089 0.17499
0.837858 0.972625 0.275212
0.842527 0.970413 0.486854
0.839231 0.972778 0.672816
0.749966 0.983581 0.560662
0.749966 0.983581 0.560662
0.749966 0.983581 0.560662
0.749966 0.983581 0.560662
0.749966 0.983581 0.560662
0.787152 0.98378 0.567468
0.825483 0.983856 0.587427
0.838651 0.983215 0.637156
0.837781 0.982498 0.722393
0.811322 0.982177 0.749966
0.811322 0.982177 0.749966
0.811322 0.982177 0.749966
0.811322 0.982177 0.749966
0.811322 0.982177 0.749966
0.811322 0.982177 0.749966
0.825177 0.982315 0.752285
0.837537 0.982345 0.758648
0.83743 0.982284 0.774914
0 0 0.354925
0 0 0.355032
0 0 0.355291
0.363943 0 0.344457
0.733822 0 0.33521
0.905196 0 0.359182
0.8851 0.513542 0.423728
0.851209 0.850019 0.50779
0.841688 0.94197 0.659922
0 0 0.353277
0 0 0.353414
0 0 0.353094
0.379705 0 0.34168
0.732479 0 0.333135
0.905089 0 0.356252
0.882383 0.549279 0.420264
0.851057 0.851972 0.507225
0.841672 0.942123 0.659846
0 0.0160525 0.348547
0 0.0183413 0.348623
0 0.0184634 0.348013
0.386923 0 0.337789
0.727794 0 0.329198
0.904662 0 0.352255
0.878828 0.591287 0.414786
0.850813 0.8551 0.50631
0.841657 0.942351 0.659724
0 0.373938 0.315892
0 0.374914 0.315953
0 0.377127 0.316548
0.30428 0.382498 0.322148
0.689128 0.377249 0.327932
0.886122 0.464179 0.355337
0.869032 0.687465 0.394675
0.849973 0.866346 0.502907
0.841596 0.943404 0.659144
0 0.772183 0.239216
0 0.772183 0.239216
0 0.772396 0.240009
0 0.770336 0.242847
0.620615 0.766003 0.25098
0.82887 0.777905 0.280888
0.855299 0.826566 0.34519
0.848035 0.894743 0.490761
0.841337 0.947295 0.656825
0 0.950698 0.0555428
0 0.950698 0.0555428
0 0.950698 0.0555428
0 0.947341 0.0563668
0.583902 0.929595 0.0451057
0.785 0.921386 0.133455
0.848478 0.923445 0.261479
0.845579 0.936477 0.455909
0.84065 0.957687 0.650126
0.528496 0.990723 0.131746
0.528496 0.990723 0.131746
0.528496 0.990723 0.131746
0.528496 0.990723 0.131746
0.665385 0.981781 0.138079
0.775784 0.975967 0.174273
0.838026 0.972534 0.274861
0.842542 0.970352 0.486412
0.839231 0.972778 0.67274
0.750805 0.983581 0.560555
0.750805 0.983581 0.560555
0.750805 0.983581 0.560555
0.750805 0.983581 0.560555
0.750805 0.983581 0.560555
0.787472 0.98378 0.567346
0.825605 0.983856 0.587335
0.838651 0.983215 0.637049
0.837781 0.982498 0.722362
0.811414 0.982177 0.749966
0.811414 0.982177 0.749966
0.811414 0.982177 0.749966
0.811414 0.982177 0.749966
0.811414 0.982177 0.749966
0.811414 0.982177 0.749966
0.825208 0.982315 0.75227
0.837537 0.982345 0.758633
0.83743 0.982284 0.774914
0 0 0.657679
0 0 0.657679
0 0 0.657771
0.0610208 0 0.655253
0.704631 0 0.63798
0.904814 0 0.647166
0.902113 0.257588 0.675074
0.850111 0.833585 0.678553
0.841138 0.939651 0.728969
0 0 0.657618
0 0 0.657618
0 0 0.657664
0.0673075 0 0.654749
0.707942 0 0.637598
0.904814 0 0.646815
0.89749 0.342672 0.674891
0.849897 0.836011 0.678187
0.841123 0.939788 0.728923
0 0 0.656703
0 0 0.656703
0 0 0.656764
0.150805 0 0.652506
0.712856 0 0.636622
0.904814 0 0.645853
0.890791 0.435004 0.672511
0.849561 0.839704 0.677638
0.841108 0.940032 0.728862
0 0.142275 0.650065
0 0.142275 0.650065
0 0.146014 0.65005
0.143923 0.138399 0.647257
0.709499 0.0462043 0.636088
0.902876 0.145052 0.653101
0.875425 0.616236 0.663264
0.848386 0.85304 0.675593
0.841031 0.941131 0.728557
0 0.725475 0.619257
0 0.725475 0.619257
0 0.725521 0.619287
0 0.725322 0.619638
0.596033 0.721645 0.62005
0.822797 0.739803 0.62742
0.853574 0.803021 0.638224
0.845762 0.885756 0.669795
0.840742 0.94522 0.727428
0 0.947555 0.601312
0 0.947555 0.601312
0 0.947646 0.601267
0 0.944976 0.601572
0.53695 0.924834 0.590143
0.771191 0.912398 0.593256
0.843091 0.914992 0.614939
0.842527 0.930816 0.657725
0.839979 0.955993 0.723415
0.506203 0.987625 0.521431
0.506203 0.987625 0.521431
0.506203 0.987625 0.521431
0.506203 0.987625 0.521431
0.647868 0.977844 0.519646
0.765286 0.971191 0.530587
0.829358 0.967651 0.563836
0.840223 0.967239 0.629358
0.838895 0.972076 0.711986
0.753506 0.983612 0.559869
0.753506 0.983612 0.559869
0.753506 0.983612 0.559869
0.753506 0.983612 0.559869
0.753506 0.983612 0.559869
0.788479 0.983795 0.566888
0.825925 0.983871 0.586954
0.838651 0.98323 0.636866
0.837781 0.982498 0.722194
0.811734 0.982177 0.74992
0.811734 0.982177 0.74992
0.811734 0.982177 0.74992
0.811734 0.982177 0.74992
0.811734 0.982177 0.74992
0.811734 0.982177 0.74992
0.82533 0.982315 0.752224
0.837537 0.982345 0.758602
0.83743 0.982284 0.774884
0 0 0.812375
0 0 0.812467
0 0 0.812467
0 0 0.812482
0.507103 0 0.797086
0.90161 0 0.796216
0.905486 0 0.796857
0.857282 0.762875 0.79237
0.841077 0.934279 0.789441
0 0 0.812467
0 0 0.812467
0 0 0.812467
0 0 0.812482
0.50631 0 0.797116
0.90161 0 0.796216
0.905486 0 0.79678
0.856596 0.768475 0.79173
0.841062 0.934462 0.789425
0 0 0.812421
0 0 0.812421
0 0 0.812421
0 0 0.812436
0.518364 0 0.796658
0.9019 0 0.796155
0.905486 0 0.796689
0.855573 0.776959 0.790768
0.841047 0.934752 0.78938
0 0 0.81207
0 0 0.81207
0 0 0.81207
0 0 0.812085
0.58027 0 0.794232
0.902647 0 0.795804
0.905684 0 0.795804
0.852399 0.804395 0.787717
0.840955 0.936049 0.789212
0 0.43389 0.79913
0 0.43389 0.79913
0 0.43389 0.79913
0 0.438499 0.799008
0.548211 0.441245 0.799054
0.878798 0.484459 0.80705
0.867185 0.686717 0.795087
0.846922 0.86041 0.78204
0.840604 0.940856 0.788602
0 0.932662 0.790906
0 0.932662 0.790906
0 0.932662 0.790906
0 0.932662 0.790906
0.293538 0.918532 0.783932
0.756817 0.895979 0.769879
0.838972 0.901549 0.771191
0.842023 0.922713 0.77557
0.839734 0.95314 0.78674
0.313497 0.991119 0.772625
0.313497 0.991119 0.772625
0.314595 0.991089 0.772549
0.314595 0.991089 0.772549
0.57145 0.976822 0.7617
0.745266 0.966369 0.758419
0.818494 0.963272 0.761364
0.839033 0.96434 0.768368
0.838483 0.970672 0.782773
0.741466 0.981582 0.733623
0.741466 0.981582 0.733623
0.741466 0.981582 0.733623
0.741466 0.981582 0.733623
0.741466 0.981582 0.733623
0.777142 0.981857 0.73518
0.817441 0.982284 0.740001
0.837293 0.982437 0.751965
0.837446 0.982284 0.773159
0.812787 0.982193 0.749798
0.812787 0.982193 0.749798
0.812787 0.982193 0.749798
0.812787 0.982193 0.749798
0.812787 0.982193 0.749798
0.812787 0.982193 0.749798
0.825711 0.982315 0.752071
0.837537 0.982345 0.758495
0.83743 0.982284 0.774853
0 0 0.853803
0 0 0.853803
0 0 0.853803
0 0 0.853803
0 0 0.853803
0.829252 0 0.842771
0.905791 0 0.846815
0.905791 0 0.846815
0.842542 0.910353 0.831678
0 0 0.853803
0 0 0.853803
0 0 0.853803
0 0 0.853803
0 0 0.853803
0.829252 0 0.842771
0.905791 0 0.846815
0.905791 0 0.846815
0.842512 0.91075 0.831647
0 0 0.853803
0 0 0.853803
0 0 0.853803
0 0 0.853803
0 0 0.853803
0.829252 0 0.842771
0.905791 0 0.846815
0.905791 0 0.846815
0.842451 0.911452 0.831586
0 0 0.853803
0 0 0.853803
0 0 0.853803
0 0 0.853803
0 0 0.853803
0.833494 0 0.842985
0.905791 0 0.846815
0.905791 0 0.846815
0.842252 0.914183 0.831357
0 0 0.853803
0 0 0.853803
0 0 0.853803
0 0 0.853803
0 0 0.853803
0.863355 0 0.844556
0.905791 0 0.846815
0.894881 0.406348 0.863828
0.841566 0.923491 0.830579
0 0.759945 0.845762
0 0.759945 0.845762
0 0.759945 0.845762
0 0.759945 0.845762
0 0.763394 0.845884
0.756863 0.75584 0.840742
0.852262 0.803494 0.83772
0.844572 0.884382 0.83125
0.840116 0.943633 0.828855
0 1 0.850172
0 1 0.850172
0 1 0.850172
0 1 0.850172
0 1 0.850172
0.705348 0.961654 0.824369
0.81294 0.957076 0.824262
0.839017 0.959365 0.824689
0.838407 0.967681 0.826429
0.71545 0.981155 0.819242
0.71545 0.981155 0.819242
0.71545 0.981155 0.819242
0.71545 0.981155 0.819242
0.71545 0.981155 0.819242
0.755474 0.981323 0.81912
0.809522 0.981903 0.819577
0.836179 0.982208 0.820798
0.83714 0.982132 0.823575
0.808179 0.981933 0.810224
0.808179 0.981933 0.810224
0.808179 0.981933 0.810224
0.808179 0.981933 0.810224
0.808179 0.981933 0.810224
0.808179 0.981933 0.810224
0.82121 0.982071 0.810849
0.835569 0.982223 0.812726
0.837186 0.982147 0.817151
0 0.0388342 0.852247
0 0.0388342 0.852247
0 0.0388342 0.852247
0 0.0388342 0.852247
0 0.0388342 0.852247
0 0.0389258 0.852247
0.905791 0 0.846815
0.905608 0 0.848463
0.870878 0.660273 0.859159
0 0.0388342 0.852247
0 0.0388342 0.852247
0 0.0388342 0.852247
0 0.0388342 0.852247
0 0.0388342 0.852247
0 0.0389258 0.852247
0.905791 0 0.846815
0.905608 0 0.848463
0.870878 0.660273 0.859159
0 0.0388342 0.852247
0 0.0388342 0.852247
0 0.0388342 0.852247
0 0.0388342 0.852247
0 0.0388342 0.852247
0 0.0389258 0.852247
0.905791 0 0.846815
0.905608 0 0.848463
0.870878 0.660243 0.859159
0 0.0388342 0.852247
0 0.0388342 0.852247
0 0.0388342 0.852247
0 0.0388342 0.852247
0 0.0388342 0.852247
0 0.0389258 0.852247
0.905791 0 0.846815
0.905608 0 0.848463
0.870893 0.660136 0.859159
0 0.0387427 0.852247
0 0.0387427 0.852247
0 0.0387427 0.852247
0 0.0387427 0.852247
0 0.0387427 0.852247
0 0.0388037 0.852247
0.905791 0 0.846815
0.905562 0 0.848569
0.870939 0.659815 0.85919
0 0.0372931 0.852262
0 0.0372931 0.852262
0 0.0372931 0.852262
0 0.0372931 0.852262
0 0.0372931 0.852262
0 0.0373541 0.852262
0.905791 0 0.846815
0.904967 0.028336 0.850813
0.85243 0.801236 0.849149
0 0.929137 0.865873
0 0.929137 0.865873
0 0.929137 0.865873
0 0.929137 0.865873
0 0.929137 0.865873
0 0.930938 0.866026
0.814527 0.89398 0.84622
0.841505 0.922362 0.845945
0.839307 0.952697 0.845731
0.421622 0.990402 0.855329
0.421622 0.990402 0.855329
0.421622 0.990402 0.855329
0.421622 0.990402 0.855329
0.421622 0.990402 0.855329
0.421622 0.990402 0.855329
0.794827 0.981491 0.844373
0.834669 0.980713 0.844556
0.837293 0.981155 0.844617
0.79881 0.981689 0.842802
0.79881 0.981689 0.842802
0.79881 0.981689 0.842802
0.79881 0.981689 0.842802
0.79881 0.981689 0.842802
0.79881 0.981689 0.842802
0.813397 0.981857 0.842878
0.832639 0.982071 0.84303
0.837003 0.98204 0.843275
0 0.258122 0.852079
0 0.258122 0.852079
0 0.258122 0.852079
0 0.258122 0.852079
0 0.258122 0.852079
0 0.258122 0.852079
0 0.258198 0.852079
0.905394 0.090486 0.855787
0.8663 0.694072 0.856596
0 0.258122 0.852079
0 0.258122 0.852079
0 0.258122 0.852079
0 0.258122 0.852079
0 0.258122 0.852079
0 0.258122 0.852079
0 0.258198 0.852079
0.905394 0.090486 0.855787
0.8663 0.694072 0.856596
0 0.258122 0.852079
0 0.258122 0.852079
0 0.258122 0.852079
0 0.258122 0.852079
0 0.258122 0.852079
0 0.258122 0.852079
0 0.258198 0.852079
0.905394 0.090486 0.855787
0.8663 0.694072 0.856596
0 0.258122 0.852079
0 0.258122 0.852079
0 0.258122 0.852079
0 0.258122 0.852079
0 0.258122 0.852079
0 0.258122 0.852079
0 0.258198 0.852079
0.905394 0.090486 0.855787
0.8663 0.694072 0.856596
0 0.258122 0.852079
0 0.258122 0.852079
0 0.258122 0.852079
0 0.258122 0.852079
0 0.258122 0.852079
0 0.258122 0.852079
0 0.258198 0.852079
0.905394 0.090486 0.855787
0.8663 0.694072 0.856596
0 0.258045 0.852079
0 0.258045 0.852079
0 0.258045 0.852079
0 0.258045 0.852079
0 0.258045 0.852079
0 0.258045 0.852079
0 0.258106 0.852079
0.905409 0.0914778 0.855863
0.866117 0.69546 0.856489
0 0.256855 0.852094
0 0.256855 0.852094
0 0.256855 0.852094
0 0.256855 0.852094
0 0.256855 0.852094
0 0.256855 0.852094
0 0.256916 0.852079
0.905028 0.218402 0.864637
0.865782 0.697948 0.856291
0 0.999435 0.869978
0 0.999435 0.869978
0 0.999435 0.869978
0 0.999435 0.869978
0 0.999435 0.869978
0 0.999435 0.869978
0 0.999619 0.869978
0.833341 0.966812 0.845701
0.837964 0.971374 0.845624
0.756329 0.981186 0.844923
0.756329 0.981186 0.844923
0.756329 0.981186 0.844923
0.756329 0.981186 0.844923
0.756329 0.981186 0.844923
0.756329 0.981186 0.844923
0.756329 0.981186 0.844923
0.828305 0.981994 0.845319
0.837263 0.982361 0.84564
