BBLuts/BB_101_0190_LUT.cube
TITLE "Generated by Resolve"
LUT_3D_SIZE 5
0 0 0
0.197345 0 0
0.781369 0 0
0.994568 0.513466 0.132479
0.992737 0.937118 0.77673
0.0256504 0.196216 0.0256504
0.173297 0.209918 0.0381781
0.784237 0.0875715 0
0.9944 0.590463 0.0871595
0.992737 0.938567 0.776074
0 0.78352 0
0 0.783093 0
0.732448 0.7682 0
0.99472 0.816892 0
0.992737 0.947845 0.771282
0.60238 0.992859 0.22034
0.644755 0.99147 0.222827
0.804852 0.98497 0.243488
0.986755 0.975311 0.401465
0.992721 0.980911 0.794705
0.959869 0.992691 0.881483
0.960342 0.992691 0.881544
0.96376 0.992691 0.88191
0.982315 0.992691 0.885695
0.992676 0.992676 0.911864
0 0 0.19971
0.172976 0 0.200793
0.780728 0 0.211933
0.994293 0.494102 0.321553
0.992721 0.936736 0.792844
0.0225681 0.166369 0.166903
0.174243 0.174243 0.174243
0.781689 0 0.193362
0.993927 0.577829 0.301411
0.992721 0.938201 0.792279
0 0.779919 0
0 0.779431 0
0.73753 0.764599 0
0.994034 0.814435 0.0919814
0.992721 0.947555 0.788037
0.60914 0.992599 0.219715
0.650294 0.991226 0.222232
0.806622 0.984833 0.243015
0.986862 0.975265 0.401419
0.992721 0.980896 0.794614
0.95993 0.992691 0.881483
0.960418 0.992691 0.881544
0.963821 0.992691 0.881895
0.98233 0.992691 0.885679
0.992676 0.992676 0.911864
0 0 0.756085
0 0 0.756283
0.787503 0 0.756207
0.997147 0.198871 0.770092
0.992691 0.933974 0.866041
0 0 0.754391
0 0 0.75462
0.796338 0 0.754498
0.994644 0.422782 0.763912
0.992691 0.935546 0.865721
0 0.729381 0.718822
0 0.729747 0.719112
0.716121 0.716121 0.716121
0.992874 0.788815 0.738369
0.992691 0.94551 0.863478
0.610697 0.99057 0.593484
0.650477 0.989258 0.594095
0.80293 0.983032 0.599802
0.981781 0.973846 0.654124
0.992691 0.980377 0.846815
0.960494 0.992691 0.881422
0.960952 0.992691 0.881483
0.964294 0.992691 0.881834
0.982513 0.992691 0.885634
0.992676 0.992676 0.911864
0 0 0.999222
0 0 0.999222
0 0 0.999222
1 0 1
0.992706 0.898894 0.975464
0 0 0.999222
0 0 0.999222
0 0 0.999222
1 0 1
0.992706 0.902281 0.975204
0 0 0.999222
0 0 0.999222
0.371878 0 0.999359
1 0 1
0.992691 0.922621 0.973678
0 0.996979 0.973281
0 0.995163 0.973098
0.662562 0.978515 0.966461
0.965286 0.965286 0.965286
0.99266 0.97641 0.968765
0.957458 0.992676 0.946319
0.9579 0.992676 0.946334
0.961151 0.992676 0.946456
0.979095 0.992676 0.947555
0.992676 0.992676 0.956786
0 0.308232 0.996002
0 0.308232 0.996002
0 0.308248 0.996002
0 0.308415 0.996002
0.993225 0.689662 0.993225
0 0.308217 0.996002
0 0.308217 0.996002
0 0.308232 0.996002
0 0.3084 0.996002
0.993225 0.689784 0.993225
0 0.30808 0.996002
0 0.30808 0.996002
0 0.308095 0.996002
0.401846 0.282841 0.994034
0.993225 0.690654 0.993225
0 0.306783 0.996002
0 0.306783 0.996002
0 0.306798 0.996002
1 0 1
0.99321 0.693492 0.99321
0.893904 0.992706 0.992706
0.896025 0.992706 0.992706
0.90985 0.992691 0.992691
0.96231 0.992676 0.992676
0.99266 0.99266 0.99266
