BBLuts/BB_103_0510_LUT.cube
TITLE "Generated by Resolve"
LUT_3D_SIZE 5
0 0 0
0.158694 0 0
0.686809 0 0
0.847242 0.537804 0.0397345
0.815396 0.906294 0.605737
0 0.175082 0
0.10454 0.176837 0
0.695918 0.0836805 0
0.840726 0.596033 0.0114748
0.815351 0.906752 0.605463
0 0.750912 0
0 0.750301 0
0.60267 0.751247 0
0.821851 0.798932 0
0.814954 0.912871 0.601419
0.483482 0.955901 0.129992
0.483467 0.955901 0.129992
0.639796 0.94725 0.137606
0.809659 0.938537 0.26009
0.812558 0.940093 0.632868
0.782147 0.94995 0.711925
0.782147 0.94995 0.711925
0.782147 0.94995 0.711925
0.798123 0.950118 0.714656
0.810834 0.950103 0.738109
0 0 0.122896
0.131029 0 0.118257
0.690532 0 0.0870069
0.852232 0.525872 0.184176
0.815381 0.906294 0.605737
0 0.140719 0.108553
0.104845 0.140551 0.106767
0.692439 0.0241855 0.0857862
0.846662 0.589807 0.169421
0.815366 0.906737 0.605463
0 0.746212 0
0 0.745632 0
0.605585 0.747021 0
0.825101 0.800855 0.0427558
0.814954 0.912871 0.601419
0.491295 0.955444 0.129076
0.491295 0.955444 0.129076
0.641642 0.947097 0.137163
0.809735 0.938491 0.259892
0.812558 0.940093 0.632868
0.782193 0.94995 0.711925
0.782193 0.94995 0.711925
0.782193 0.94995 0.711925
0.798138 0.950118 0.714641
0.810834 0.950103 0.738109
0 0 0.6309
0 0 0.631174
0.673564 0 0.598047
0.869001 0.217945 0.647288
0.814786 0.903243 0.697322
0 0 0.629877
0 0 0.629953
0.682216 0 0.596613
0.86157 0.394232 0.648661
0.814755 0.903731 0.6972
0 0.698238 0.592355
0 0.69836 0.592401
0.578408 0.701213 0.601297
0.825803 0.774807 0.616861
0.814298 0.910201 0.695491
0.473228 0.952972 0.510338
0.473228 0.952972 0.510338
0.625956 0.943618 0.509712
0.801572 0.934371 0.550393
0.812238 0.939345 0.679927
0.782727 0.94995 0.711864
0.782712 0.94995 0.711864
0.782712 0.94995 0.711864
0.798321 0.950118 0.714565
0.810834 0.950103 0.738094
0 0 0.808728
0 0 0.808728
0 0 0.808728
0.85124 0 0.785977
0.816724 0.867018 0.800809
0 0 0.808728
0 0 0.808728
0 0 0.808728
0.85124 0 0.785977
0.816617 0.868605 0.800687
0 0 0.808728
0 0 0.808728
0 0 0.808728
0.85124 0 0.785977
0.815412 0.885145 0.79939
0 0.956847 0.807477
0 0.956847 0.807477
0 0.955779 0.807553
0.785809 0.924254 0.792752
0.811887 0.934783 0.794812
0.778408 0.949737 0.778988
0.778408 0.949737 0.778988
0.778408 0.949737 0.778988
0.793591 0.949905 0.77966
0.81059 0.949996 0.785672
0 0.213062 0.812909
0 0.213062 0.812909
0 0.213062 0.812909
0 0.213153 0.812909
0.840406 0.643153 0.824643
0 0.213062 0.812909
0 0.213062 0.812909
0 0.213062 0.812909
0 0.213153 0.812909
0.840406 0.643153 0.824643
0 0.213062 0.812909
0 0.213062 0.812909
0 0.213062 0.812909
0 0.213153 0.812909
0.840406 0.643153 0.824643
0 0.21181 0.812909
0 0.21181 0.812909
0 0.21181 0.812909
0.0326848 0.198764 0.815259
0.839872 0.647379 0.824353
0.723415 0.948898 0.81355
0.723415 0.948898 0.81355
0.723415 0.948898 0.81355
0.730755 0.948974 0.813581
0.810697 0.95024 0.814389
