BBLuts/BB_102_0100_LUT.cube
TITLE "Generated by Resolve"
LUT_3D_SIZE 33
0 0 0
0 0 0
0 0 0
0 0 0
0.0242771 0 0
0.0639506 0 0
0.0998398 0 0
0.143252 0 0
0.196796 0 0
0.259327 0 0
0.33022 0 0
0.413993 0 0
0.511452 0 0
0.596002 0 0
0.670634 0 0
0.74432 0 0
0.81146 0 0
0.865202 0 0
0.883558 0 0
0.889265 0 0
0.893599 0.0168765 0
0.887068 0.237888 0
0.880156 0.392264 0
0.874846 0.523278 0.00505074
0.870756 0.619593 0.0401617
0.86775 0.6907 0.0857404
0.864988 0.752117 0.145174
0.862684 0.802808 0.222232
0.860716 0.843702 0.312016
0.858885 0.877363 0.406882
0.857313 0.903304 0.487755
0.855955 0.924376 0.549279
0.854749 0.94107 0.606424
0 0 0
0 0 0
0 0 0
0 0 0
0.0264591 0 0
0.0642557 0 0
0.102647 0 0
0.147189 0 0
0.200061 0 0
0.261067 0 0
0.33193 0 0
0.415991 0 0
0.513161 0 0
0.596704 0 0
0.670939 0 0
0.744579 0 0
0.811368 0 0
0.86482 0 0
0.883406 0 0
0.891997 0 0
0.89279 0.0687572 0
0.885649 0.264698 0
0.87895 0.405997 0
0.874205 0.531365 0.00303655
0.870481 0.623163 0.0387427
0.867552 0.693202 0.0850233
0.864881 0.753613 0.144915
0.862623 0.803647 0.222049
0.86067 0.844175 0.311757
0.858854 0.877653 0.406714
0.857298 0.903487 0.487663
0.855955 0.924483 0.549233
0.854749 0.941115 0.606394
0 0 0
0 0 0
0 0 0
0 0 0
0.0242618 0 0
0.0609293 0 0
0.10132 0 0
0.147707 0 0
0.201862 0 0
0.263233 0 0
0.334051 0 0
0.418082 0 0
0.514687 0 0
0.59765 0 0
0.67155 0 0
0.744839 0 0
0.811276 0 0
0.864408 0 0
0.883253 0 0
0.893233 0 0
0.891249 0.125048 0
0.884504 0.286275 0
0.877958 0.417792 0
0.873625 0.538338 0.00131228
0.870222 0.626551 0.0374456
0.867384 0.695476 0.0843519
0.864775 0.755001 0.144656
0.862562 0.804471 0.221851
0.860639 0.844663 0.311498
0.858839 0.877928 0.406546
0.857298 0.903639 0.487587
0.85594 0.924575 0.549187
0.854749 0.941192 0.606363
0 0.00340276 0
0 0.00579843 0
0 0.00782788 0
0 0.00891127 0
0.0122835 0.00784314 0
0.0541238 0.00393683 0
0.0983139 0 0
0.148547 0 0
0.204639 0 0
0.266224 0 0
0.336736 0 0
0.420478 0 0
0.516396 0 0
0.598611 0 0
0.672129 0 0
0.745052 0 0
0.811139 0 0
0.863951 0 0
0.883543 0 0
0.893339 0 0
0.890043 0.160098 0
0.883528 0.305608 0
0.877241 0.429892 0
0.872999 0.545373 0
0.869932 0.630014 0.0359655
0.867216 0.697719 0.0836652
0.864668 0.756359 0.144411
0.862501 0.80528 0.221668
0.860609 0.845136 0.311238
0.858824 0.878187 0.406394
0.857282 0.903777 0.487511
0.85594 0.924666 0.549142
0.854749 0.941238 0.606332
0 0.0327764 0
0 0.0348821 0
0 0.0363622 0
0 0.0373693 0
0 0.0384527 0
0.0419471 0.0368048 0
0.090959 0.0332799 0
0.144854 0.0263371 0
0.205325 0.013077 0
0.270329 0 0
0.342184 0 0
0.424781 0 0
0.519051 0 0
0.59968 0 0
0.672633 0 0
0.745129 0 0
0.81091 0 0
0.863401 0 0
0.885771 0 0
0.892989 0.0336156 0
0.888838 0.190936 0
0.882612 0.323415 0
0.876554 0.44123 0
0.872374 0.552026 0
0.869627 0.633707 0.0343175
0.867033 0.700221 0.0828717
0.864561 0.75787 0.144152
0.86244 0.806104 0.221485
0.860563 0.845609 0.310994
0.858793 0.878477 0.406226
0.857267 0.903944 0.487419
0.855924 0.924773 0.549096
0.854734 0.941299 0.606302
0 0.0670176 0
0 0.0688182 0
0 0.0698253 0
0 0.0703899 0
0 0.0717784 0
0.0183108 0.0724498 0
0.0776226 0.0708019 0
0.136706 0.0669413 0
0.200717 0.0595865 0
0.269642 0.0472419 0
0.346105 0.0257115 0
0.432059 0 0
0.524697 0 0
0.602121 0 0
0.674235 0 0
0.745617 0 0
0.810544 0 0
0.864149 0 0
0.887633 0 0
0.891875 0.088426 0
0.887373 0.225101 0
0.881498 0.34461 0
0.875685 0.455421 0
0.871611 0.559976 0
0.869261 0.638193 0.0322728
0.866789 0.703319 0.0818799
0.864424 0.759854 0.143816
0.862348 0.807294 0.221241
0.860517 0.846265 0.310643
0.858763 0.878828 0.406027
0.857252 0.904158 0.487312
0.855924 0.92488 0.549035
0.854734 0.941375 0.606271
0 0.109133 0
0 0.110338 0
0 0.111223 0
0 0.111757 0
0 0.112779 0
0 0.114961 0
0.0507668 0.1149 0
0.120363 0.112581 0
0.190051 0.107546 0
0.264317 0.0992905 0
0.345602 0.0870375 0
0.435492 0.0675975 0
0.529137 0.0311589 0
0.605844 0 0
0.677943 0 0
0.747875 0 0
0.812284 0 0
0.866361 0 0
0.886915 0.046891 0
0.889708 0.155245 0
0.885481 0.266056 0
0.880003 0.372122 0
0.874449 0.475074 0
0.870466 0.570977 0
0.868727 0.644388 0.0291752
0.866468 0.707576 0.0805066
0.86421 0.7626 0.143374
0.862226 0.809003 0.22089
0.860441 0.847303 0.31014
0.858732 0.879377 0.405707
0.857237 0.904463 0.48716
0.855909 0.925078 0.548928
0.854719 0.941482 0.60621
0 0.160525 0
0 0.161334 0
0 0.161883 0
0 0.162264 0
0 0.162554 0
0 0.163836 0
0 0.166155 0
0.0873884 0.165331 0
0.169757 0.162188 0
0.252079 0.156603 0
0.340368 0.14786 0
0.435676 0.134951 0
0.53019 0.117174 0
0.605402 0.0932326 0
0.678325 0.0608072 0
0.750301 0.0140688 0
0.814099 0.0129397 0
0.864256 0.0687114 0
0.883864 0.141451 0
0.886824 0.224933 0
0.883085 0.31429 0
0.87808 0.406729 0
0.872786 0.500526 0
0.868879 0.585397 0
0.867948 0.653101 0.0246128
0.865995 0.713573 0.0785382
0.863935 0.7664 0.142748
0.862043 0.811353 0.220401
0.860319 0.848783 0.309407
0.858656 0.880262 0.405219
0.857191 0.904952 0.4869
0.855879 0.925353 0.548806
0.854719 0.941649 0.606119
0 0.220615 0
0 0.221164 0
0 0.221515 0
0 0.221866 0
0 0.221973 0
0 0.221958 0
0 0.223606 0
0.0182193 0.226123 0
0.130999 0.225696 0
0.229145 0.222354 0
0.326802 0.216251 0
0.430579 0.206821 0
0.529122 0.194751 0
0.604013 0.180682 0
0.67602 0.166506 0
0.746654 0.155657 0
0.809079 0.159442 0
0.858061 0.187518 0
0.87921 0.23534 0
0.883284 0.297871 0
0.880079 0.370886 0
0.875608 0.449409 0
0.870771 0.53077 0
0.866835 0.603494 0
0.866865 0.66482 0.0187228
0.865354 0.721843 0.0758831
0.863539 0.771725 0.141909
0.861799 0.814633 0.219745
0.860166 0.850813 0.308385
0.858564 0.881498 0.404517
0.85713 0.905715 0.486473
0.855848 0.925795 0.548562
0.854688 0.941909 0.605982
0 0.291661 0
0 0.292058 0
0 0.292424 0
0 0.292821 0
0 0.293156 0
0 0.293278 0
0 0.293248 0
0 0.29662 0
0.0610513 0.299397 0
0.186328 0.298939 0
0.300496 0.295644 0
0.415641 0.289601 0
0.522515 0.281437 0
0.600198 0.272297 0
0.672587 0.264668 0
0.741833 0.261189 0
0.802396 0.268101 0
0.850004 0.290913 0
0.873472 0.327214 0
0.878996 0.376272 0
0.876478 0.434638 0
0.87245 0.501823 0
0.868482 0.566354 0
0.86508 0.623102 0
0.865538 0.680003 0.013138
0.8645 0.732677 0.0726329
0.863005 0.778927 0.140871
0.861463 0.819196 0.219272
0.859953 0.853651 0.307515
0.858442 0.883192 0.403571
0.857053 0.906798 0.485878
0.855802 0.926482 0.548196
0.854658 0.942321 0.605768
0 0.37847 0
0 0.378836 0
0 0.379171 0
0 0.379446 0
0 0.379782 0
0 0.380056 0
0 0.380362 0
0 0.381415 0
0 0.386404 0
0.106477 0.389502 0
0.252262 0.389593 0
0.385565 0.386694 0
0.505852 0.381491 0
0.590631 0.37525 0
0.665919 0.370214 0
0.734874 0.369268 0
0.793729 0.376516 0
0.839887 0.394705 0
0.866606 0.421668 0
0.874067 0.459342 0
0.872145 0.506905 0
0.869093 0.556405 0
0.86598 0.605798 0
0.86334 0.649088 0
0.863813 0.699245 0.00694286
0.863401 0.746395 0.0683909
0.862318 0.788251 0.139651
0.861021 0.825345 0.219348
0.859663 0.857588 0.307256
0.858259 0.885557 0.402319
0.856947 0.908248 0.485054
0.855726 0.927413 0.547692
0.854612 0.942916 0.605417
0 0.478935 0
0 0.479255 0
0 0.47953 0
0 0.479774 0
0 0.480003 0
0 0.480278 0
0 0.480568 0
0 0.480842 0
0 0.482658 0
0 0.489158 0
0.167956 0.492638 0
0.33576 0.49247 0
0.476081 0.489586 0
0.572915 0.484932 0
0.653513 0.480659 0
0.72491 0.479347 0
0.782818 0.48484 0
0.827649 0.498772 0
0.858213 0.518441 0
0.868345 0.544701 0
0.867826 0.576181 0
0.86569 0.61033 0
0.863615 0.642695 0
0.861234 0.679896 0
0.861585 0.722148 0
0.862028 0.763149 0.0628672
0.861448 0.799878 0.138247
0.860441 0.833219 0.219867
0.859251 0.863111 0.307347
0.858 0.888792 0.400717
0.856794 0.910292 0.483925
0.855634 0.928695 0.547021
0.854551 0.943755 0.604959
0 0.576974 0
0 0.577111 0
0 0.577279 0
0 0.577401 0
0 0.577508 0
0 0.57763 0
0 0.577737 0
0 0.577798 0
0 0.57789 0
0 0.579324 0
0.0338598 0.585184 0
0.254337 0.588006 0
0.430274 0.587549 0
0.547417 0.585229 0
0.634546 0.582208 0
0.709911 0.580804 0
0.769268 0.583368 0
0.813611 0.591302 0
0.845884 0.603449 0
0.860761 0.617548 0
0.863722 0.635966 0
0.862547 0.658854 0
0.860746 0.685267 0
0.858778 0.714702 0
0.858793 0.748012 0
0.86038 0.782666 0.0563821
0.86038 0.814084 0.137118
0.859739 0.843153 0.220844
0.858763 0.869749 0.308202
0.857679 0.89308 0.399939
0.856565 0.91313 0.482414
0.855497 0.93051 0.546059
0.854475 0.944884 0.604318
0 0.653407 0
0 0.653422 0
0 0.653483 0
0 0.653529 0
0 0.653574 0
0 0.65359 0
0 0.653605 0
0 0.653544 0
0 0.653391 0
0 0.65304 0
0 0.656535 0
0.129519 0.660487 0
0.360128 0.662165 0
0.51577 0.661631 0
0.609232 0.659785 0
0.689357 0.658335 0
0.751431 0.659297 0
0.797299 0.663493 0
0.829908 0.670634 0
0.850904 0.681086 0
0.859007 0.694667 0
0.858915 0.711162 0
0.857572 0.73022 0
0.856062 0.751507 0
0.855573 0.775876 0
0.858457 0.804486 0.0484169
0.859159 0.830701 0.13698
0.858869 0.855238 0.222965
0.858167 0.878065 0.310475
0.857282 0.898573 0.401236
0.856291 0.916899 0.481285
0.855314 0.932998 0.544793
0.854353 0.946502 0.603403
0 0.724559 0
0 0.724559 0
0 0.724559 0
0 0.724544 0
0 0.724529 0
0 0.724498 0
0 0.724407 0
0 0.724239 0
0 0.723934 0
0 0.723384 0
0 0.722789 0
0.00746166 0.729152 0
0.271656 0.73254 0
0.469734 0.733013 0
0.579202 0.731594 0
0.663401 0.729839 0
0.728496 0.729305 0
0.77731 0.731014 0
0.811597 0.734783 0
0.837949 0.740917 0
0.851942 0.749386 0
0.855085 0.760067 0
0.854444 0.772747 0
0.853361 0.787182 0
0.852308 0.803388 0
0.856489 0.827359 0.0422217
0.857862 0.848768 0.139071
0.857893 0.868986 0.226993
0.857481 0.887694 0.314321
0.856794 0.905318 0.403769
0.85594 0.921538 0.481178
0.85507 0.936156 0.543496
0.8542 0.948638 0.602213
0 0.784054 0
0 0.784054 0
0 0.784054 0
0 0.784054 0
0 0.784009 0
0 0.783902 0
0 0.783719 0
0 0.783398 0
0 0.78291 0
0 0.782162 0
0 0.781003 0
0 0.785901 0
0.184329 0.790066 0
0.423728 0.791714 0
0.552895 0.790433 0
0.63946 0.788418 0
0.706264 0.786938 0
0.757595 0.786679 0
0.793942 0.787961 0
0.822156 0.790829 0
0.841642 0.795361 0
0.851057 0.801617 0
0.851621 0.809583 0
0.850919 0.819333 0
0.850797 0.831617 0
0.855055 0.850324 0.0492103
0.856596 0.867323 0.145449
0.856931 0.882994 0.233433
0.856764 0.898131 0.320027
0.856245 0.913039 0.40824
0.855543 0.927062 0.483528
0.854795 0.939895 0.542367
0.854002 0.951247 0.600855
0 0.829267 0
0 0.829267 0
0 0.829267 0
0 0.829267 0
0 0.829252 0
0 0.829206 0
0 0.828962 0
0 0.828534 0
0 0.827878 0
0 0.826932 0
0 0.82562 0
0 0.828534 0
0.123781 0.833646 0
0.391272 0.836378 0
0.535256 0.835447 0
0.621927 0.833295 0
0.68838 0.831434 0
0.740475 0.830259 0
0.778119 0.830121 0
0.807767 0.831144 0
0.830976 0.833402 0
0.845396 0.836957 0
0.848859 0.841856 0
0.848737 0.848203 0
0.850568 0.859113 0
0.854063 0.872755 0.0683299
0.855497 0.884993 0.157229
0.856001 0.897047 0.242878
0.855985 0.909224 0.327993
0.855634 0.921492 0.414359
0.855085 0.933303 0.487587
0.854459 0.94432 0.544579
0.853773 0.95436 0.600031
0 0.864698 0
0 0.864698 0
0 0.864698 0
0 0.864698 0
0 0.864698 0
0 0.864683 0
0 0.864607 0
0 0.86424 0
0 0.863432 0
0 0.862303 0
0 0.860899 0
0 0.863462 0
0.117479 0.869154 0
0.38175 0.871962 0
0.526482 0.871336 0
0.610559 0.869276 0
0.675151 0.867216 0
0.726253 0.865614 0
0.764309 0.864744 0
0.794781 0.864607 0
0.819348 0.865339 0
0.83711 0.866987 0
0.84593 0.869612 0
0.846799 0.873457 0
0.850568 0.883085 0.0116732
0.853254 0.892775 0.0907301
0.854536 0.901884 0.174151
0.8551 0.911116 0.256336
0.855207 0.920653 0.338659
0.855009 0.930495 0.422431
0.854597 0.940078 0.492515
0.854093 0.94934 0.548226
0.853498 0.958053 0.601755
0 0.889342 0
0 0.889342 0
0 0.889342 0
0 0.889342 0
0 0.889342 0
0 0.889342 0
0 0.889326 0
0 0.88922 0
0 0.888579 0
0 0.887312 0
0 0.885771 0
0 0.886473 0
0.140917 0.894942 0
0.397009 0.897597 0
0.527245 0.896864 0
0.606256 0.894911 0
0.667811 0.892912 0
0.717235 0.891112 0
0.754452 0.889906 0
0.784848 0.889204 0
0.809918 0.889067 0
0.829923 0.889632 0
0.843 0.891005 0
0.84535 0.893553 0
0.85037 0.90277 0.0356756
0.852628 0.909972 0.116442
0.853758 0.916838 0.195041
0.854322 0.923903 0.273259
0.854505 0.931273 0.352132
0.854414 0.93901 0.431937
0.854124 0.946761 0.497932
0.853727 0.954467 0.552666
0.853208 0.961898 0.604715
0 0.908919 0
0 0.908919 0
0 0.908919 0
0 0.908919 0
0 0.908919 0
0 0.908919 0
0 0.908919 0
0 0.908919 0
0 0.908675 0
0 0.907668 0
0 0.906233 0
0 0.910613 0
0.205509 0.917021 0
0.426017 0.918868 0
0.535012 0.917937 0
0.607095 0.916121 0
0.664286 0.914199 0
0.711147 0.912398 0
0.746914 0.911025 0
0.776623 0.910033 0
0.801602 0.909438 0
0.822416 0.909361 0
0.838178 0.910491 0
0.846265 0.914626 0
0.850462 0.921065 0.0747387
0.852171 0.92604 0.149538
0.853086 0.930953 0.221607
0.85362 0.936156 0.295018
0.853834 0.941695 0.369955
0.853819 0.947616 0.444053
0.853635 0.953704 0.504585
0.853315 0.95996 0.558328
0.852888 0.96611 0.608698
0 0.924697 0
0 0.924697 0
0 0.924697 0
0 0.924697 0
0 0.924697 0
0 0.924697 0
0 0.924697 0
0 0.924697 0
0 0.924697 0
0 0.924239 0
0 0.923095 0
0.0163729 0.931304 0
0.293919 0.935775 0
0.46183 0.936538 0
0.548531 0.935424 0
0.612482 0.933715 0
0.6645 0.931884 0
0.708034 0.930159 0
0.741756 0.928801 0
0.770291 0.927672 0
0.79472 0.926848 0
0.816007 0.927077 0
0.834257 0.929412 0
0.847486 0.933974 0.0539101
0.850492 0.937377 0.122515
0.851789 0.940597 0.188388
0.852537 0.943954 0.253864
0.852995 0.947646 0.321294
0.853208 0.95169 0.392218
0.853239 0.95613 0.458976
0.853132 0.9608 0.513695
0.852903 0.965682 0.565377
0.852552 0.970596 0.613779
0 0.944274 0
0 0.944274 0
0 0.944274 0
0 0.944274 0
0 0.944274 0
0 0.944274 0
0 0.944274 0
0 0.944274 0
0 0.944274 0
0 0.944274 0
0 0.943572 0
0.161639 0.948516 0
0.381155 0.951202 0
0.498894 0.95108 0
0.566445 0.949828 0
0.62182 0.948226 0
0.668238 0.946548 0
0.707927 0.9449 0
0.739574 0.944183 0
0.767102 0.943771 0
0.791135 0.943511 0
0.812879 0.94461 0
0.832258 0.947433 0.0499428
0.846769 0.94966 0.113008
0.850233 0.951537 0.17232
0.851438 0.953521 0.231281
0.852064 0.955734 0.291371
0.85243 0.958267 0.352987
0.852644 0.96112 0.417411
0.852689 0.964355 0.476768
0.852644 0.967803 0.525292
0.852476 0.97145 0.574182
0.852201 0.975219 0.62005
0.221897 0.963211 0
0.221897 0.963211 0
0.221897 0.963211 0
0.221897 0.963211 0
0.221897 0.963211 0
0.221897 0.963211 0
0.221881 0.963211 0
0.221866 0.963211 0
0.221866 0.963211 0
0.221836 0.963211 0
0.221805 0.963211 0
0.320592 0.964416 0
0.452232 0.965057 0
0.531456 0.964416 0
0.588525 0.963211 0
0.635691 0.961807 0
0.676493 0.960342 0
0.712016 0.958907 0
0.741802 0.959335 0
0.768627 0.960403 0.0246433
0.79205 0.960998 0.056611
0.812345 0.96144 0.0892805
0.829709 0.962066 0.128405
0.844312 0.96286 0.174548
0.849577 0.963775 0.224628
0.851072 0.96492 0.27776
0.851637 0.966278 0.332219
0.851942 0.96791 0.39028
0.852125 0.969818 0.445274
0.852186 0.972015 0.495979
0.852186 0.974456 0.539452
0.852064 0.977081 0.585092
0.85185 0.979828 0.627695
0.461677 0.98201 0.0843519
0.461677 0.98201 0.0843519
0.461677 0.98201 0.0843519
0.461677 0.98201 0.0843519
0.461677 0.98201 0.0843519
0.461662 0.98201 0.0843519
0.461662 0.98201 0.0843519
0.461662 0.98201 0.0843519
0.461662 0.98201 0.0843519
0.461646 0.98201 0.0843519
0.461631 0.98201 0.0843519
0.461616 0.98201 0.0843366
0.509896 0.981811 0.0878614
0.568551 0.981064 0.0935836
0.616526 0.980056 0.0996567
0.656687 0.978958 0.106294
0.692164 0.977813 0.114336
0.723171 0.976745 0.123964
0.748714 0.975875 0.134798
0.771756 0.975128 0.147997
0.792569 0.974533 0.164019
0.810987 0.974105 0.183032
0.827008 0.973861 0.206424
0.840894 0.973953 0.239353
0.848615 0.974289 0.281209
0.85069 0.974792 0.327428
0.85127 0.975525 0.377951
0.851514 0.976455 0.428428
0.851667 0.977615 0.475349
0.851759 0.979019 0.515831
0.851759 0.980606 0.556619
0.851667 0.982376 0.598108
0.851499 0.984344 0.637095
0.55964 0.988754 0.201236
0.55964 0.988754 0.201236
0.55964 0.988754 0.201236
0.55964 0.988754 0.201236
0.55964 0.988754 0.201236
0.55964 0.988754 0.201236
0.55964 0.988754 0.201236
0.559625 0.988754 0.201236
0.559625 0.988754 0.201236
0.559625 0.988754 0.201236
0.559625 0.988754 0.201236
0.559609 0.988754 0.201236
0.564248 0.988708 0.201633
0.598627 0.989227 0.204868
0.640375 0.9897 0.209644
0.67509 0.988815 0.214786
0.705196 0.987732 0.220645
0.731899 0.986709 0.227817
0.754009 0.985809 0.235889
0.774563 0.98497 0.24567
0.793378 0.984222 0.257588
0.810254 0.983597 0.272145
0.825147 0.983124 0.28983
0.838239 0.982803 0.311162
0.847761 0.982742 0.342718
0.850355 0.982864 0.382986
0.85098 0.983139 0.425132
0.851164 0.983597 0.466621
0.851301 0.984253 0.503731
0.851377 0.985107 0.539696
0.851377 0.986099 0.57673
0.851301 0.987243 0.613596
0.851179 0.988571 0.648295
0.625696 0.991958 0.308476
0.625696 0.991958 0.308476
0.625696 0.991958 0.308476
0.625696 0.991958 0.308476
0.625696 0.991958 0.308476
0.625696 0.991958 0.308476
0.625696 0.991958 0.308476
0.625681 0.991958 0.308476
0.625681 0.991958 0.308476
0.625681 0.991958 0.308476
0.625681 0.991958 0.308476
0.625681 0.991958 0.308476
0.625666 0.991958 0.308476
0.633341 0.992111 0.309148
0.66186 0.992599 0.312184
0.692622 0.992767 0.316335
0.718074 0.992798 0.320867
0.740764 0.992798 0.326238
0.760021 0.992706 0.332372
0.778164 0.992294 0.339864
0.794919 0.991669 0.34902
0.810193 0.990997 0.360327
0.823896 0.990417 0.37435
0.836103 0.98996 0.391241
0.846098 0.98967 0.411917
0.849668 0.989517 0.43946
0.85066 0.989502 0.471
0.850874 0.989624 0.501839
0.85098 0.989914 0.53254
0.851026 0.990356 0.565667
0.851026 0.990906 0.598688
0.850965 0.991577 0.6309
0.850858 0.992386 0.661082
0.676188 0.993896 0.409201
0.676188 0.993896 0.409201
0.676188 0.993896 0.409201
0.676188 0.993896 0.409201
0.676188 0.993896 0.409201
0.676188 0.993896 0.409201
0.676188 0.993896 0.409201
0.676188 0.993896 0.409201
0.676188 0.993896 0.409201
0.676173 0.993896 0.409201
0.676173 0.993896 0.409201
0.676173 0.993896 0.409201
0.676173 0.993896 0.409201
0.676173 0.993896 0.409201
0.685603 0.994049 0.410132
0.708064 0.994415 0.412909
0.730587 0.994751 0.416449
0.750103 0.995041 0.420447
0.766812 0.995239 0.424796
0.782589 0.995254 0.430091
0.797299 0.995148 0.436454
0.81088 0.994995 0.444068
0.823285 0.994873 0.453162
0.834516 0.994797 0.464073
0.844038 0.994766 0.477348
0.848753 0.994705 0.493553
0.850324 0.994598 0.512139
0.850645 0.994522 0.53608
0.850706 0.994553 0.563226
0.850736 0.994675 0.592386
0.850721 0.994888 0.621302
0.850675 0.995178 0.649119
0.850599 0.99559 0.675135
0.715007 0.995163 0.491585
0.715007 0.995163 0.491585
0.715007 0.995163 0.491585
0.715007 0.995163 0.491585
0.715007 0.995163 0.491585
0.715007 0.995163 0.491585
0.715007 0.995163 0.491585
0.715007 0.995163 0.491585
0.715007 0.995163 0.491585
