BBLuts/BB_103_0290_LUT.cube
TITLE "Generated by Resolve"
LUT_3D_SIZE 33
0 0 0
0 0 0
0 0 0
0 0 0
0.0283513 0 0
0.0758831 0 0
0.110292 0 0
0.144579 0 0
0.185016 0 0
0.23328 0 0
0.287877 0 0
0.349187 0 0
0.417914 0 0
0.494514 0 0
0.568078 0 0
0.629664 0 0
0.687236 0 0
0.738643 0 0
0.781796 0 0
0.807721 0 0
0.812634 0 0
0.806302 0.0330968 0
0.801129 0.221775 0.0180667
0.791516 0.379232 0.049485
0.782727 0.499779 0.0801099
0.775051 0.595148 0.120348
0.768444 0.664317 0.17293
0.763195 0.71725 0.242481
0.759152 0.755215 0.3243
0.755947 0.783078 0.406577
0.753201 0.803754 0.480766
0.751003 0.819394 0.540276
0.749355 0.83212 0.588281
0 0 0
0 0 0
0 0 0
0 0 0
0.0351415 0 0
0.0779278 0 0
0.112718 0 0
0.148684 0 0
0.189914 0 0
0.237736 0 0
0.291081 0 0
0.351568 0 0
0.419837 0 0
0.496025 0 0
0.56907 0 0
0.630213 0 0
0.687526 0 0
0.738705 0 0
0.781628 0 0
0.807553 0 0
0.812634 0 0
0.805646 0.0418555 0
0.79942 0.246723 0.0047303
0.790372 0.391821 0.0457008
0.782055 0.507515 0.0778973
0.774609 0.599634 0.118303
0.768185 0.666819 0.171527
0.763058 0.718685 0.241657
0.759091 0.755993 0.323857
0.755917 0.783551 0.406317
0.753185 0.804013 0.480629
0.750988 0.819562 0.540185
0.749355 0.832212 0.588251
0 0 0
0 0 0
0 0 0
0 0 0
0.0407111 0 0
0.0772564 0 0
0.112444 0 0
0.14992 0 0
0.192126 0 0
0.240452 0 0
0.293553 0 0
0.35378 0 0
0.421775 0 0
0.497566 0 0
0.570092 0 0
0.630762 0 0
0.6878 0 0
0.73875 0 0
0.781476 0 0
0.807385 0 0
0.812634 0 0
0.805203 0.0494698 0
0.798093 0.268894 0.00234989
0.789288 0.403555 0.0415503
0.781399 0.514885 0.075639
0.774151 0.603998 0.116243
0.767941 0.669291 0.170199
0.762936 0.720088 0.240833
0.75903 0.756786 0.3234
0.755886 0.783993 0.406043
0.75317 0.804273 0.480491
0.750973 0.819715 0.540108
0.74934 0.832303 0.588205
0 0.0166323 0
0 0.0189364 0
0 0.0211337 0
0 0.0220798 0
0.0274052 0.0201572 0
0.0684215 0.0180972 0
0.105165 0.013901 0
0.145251 0.00399786 0
0.191806 0 0
0.242191 0 0
0.295628 0 0
0.355947 0 0
0.423774 0 0
0.499199 0 0
0.57116 0 0
0.631327 0 0
0.688075 0 0
0.738781 0 0
0.781292 0 0
0.807202 0 0
0.811856 0 0
0.804211 0.0731518 0
0.796796 0.288838 0.00135805
0.788251 0.414603 0.0369116
0.780774 0.52195 0.0733196
0.773724 0.608255 0.114168
0.767697 0.671702 0.168887
0.762829 0.721477 0.240024
0.758968 0.757549 0.322957
0.755856 0.784451 0.405798
0.753155 0.804532 0.480339
0.750957 0.819883 0.540032
0.74934 0.83241 0.588159
0 0.0509041 0
0 0.0532082 0
0 0.0550546 0
0 0.0559548 0
0.0137026 0.0543984 0
0.0583352 0.052781 0
0.0979019 0.0500191 0
0.139254 0.0441901 0
0.185809 0.0323644 0
0.237369 0.0177005 0
0.294987 0 0
0.35816 0 0
0.425925 0 0
0.500938 0 0
0.57229 0 0
0.631922 0 0
0.68835 0 0
0.738811 0 0
0.781094 0 0
0.806989 0 0
0.807843 0.00955215 0
0.802289 0.140871 0
0.795407 0.30753 0
0.787182 0.425528 0.03122
0.780133 0.528969 0.0708476
0.773281 0.612467 0.112016
0.767452 0.674144 0.167544
0.762707 0.722881 0.2392
0.758923 0.758343 0.322499
0.75581 0.784924 0.405509
0.75314 0.804791 0.480186
0.750957 0.82005 0.539956
0.74934 0.832502 0.588098
0 0.082002 0
0 0.0838941 0
0 0.0850843 0
0 0.0857557 0
0 0.0856489 0
0.0377508 0.0835126 0
0.0882429 0.0819715 0
0.132403 0.0792554 0
0.180591 0.0740368 0
0.233127 0.0643015 0
0.289876 0.0451362 0
0.35285 0.0224613 0
0.424613 0 0
0.503136 0 0
0.573709 0 0
0.632685 0 0
0.688701 0 0
0.738842 0 0
0.78085 0 0
0.806745 0 0
0.806241 0.0309911 0
0.800793 0.193713 0
0.793606 0.328237 0
0.785824 0.438193 0.0208591
0.779355 0.537224 0.0677043
0.772778 0.617212 0.109316
0.767163 0.677058 0.165896
0.762554 0.724575 0.238178
0.758846 0.759304 0.32195
0.755779 0.785489 0.405188
0.753124 0.805112 0.480003
0.750942 0.820249 0.539849
0.749325 0.832624 0.588052
0 0.116381 0
0 0.117693 0
0 0.118578 0
0 0.119127 0
0 0.119417 0
0.00949111 0.117723 0
0.0696117 0.116365 0
0.121721 0.114778 0
0.173114 0.111574 0
0.227832 0.105394 0
0.286381 0.0957198 0
0.350393 0.0806287 0
0.420508 0.0544747 0
0.497704 0.0199741 0
0.572274 0 0
0.633707 0 0
0.689189 0 0
0.738872 0 0
0.780499 0 0
0.803082 0 0
0.803616 0.0911574 0
0.798978 0.238804 0
0.791379 0.352804 0
0.7841 0.453864 0.00796521
0.778378 0.547448 0.0635843
0.772168 0.622889 0.106508
0.766781 0.680766 0.163745
0.762371 0.726726 0.236866
0.758755 0.760525 0.321218
0.755734 0.786221 0.404761
0.753094 0.805539 0.479759
0.750927 0.820508 0.539712
0.74931 0.832792 0.587976
0 0.155932 0
0 0.156771 0
0 0.157488 0
0 0.157977 0
0 0.158297 0
0 0.158083 0
0.0358282 0.156085 0
0.101717 0.154711 0
0.159747 0.152239 0
0.21854 0.147768 0
0.281086 0.140963 0
0.34847 0.131395 0
0.419852 0.117662 0
0.495766 0.0954604 0
0.566644 0.0648051 0
0.626337 0.0343481 0
0.685191 0 0
0.738918 0 0
0.776303 0 0
0.797314 0.0746014 0
0.801343 0.176333 0
0.79646 0.284688 0
0.788891 0.381949 0
0.782376 0.473793 0.00334173
0.777142 0.560006 0.0579232
0.77142 0.629816 0.103349
0.766339 0.685435 0.160952
0.762142 0.729473 0.235142
0.758648 0.762097 0.320256
0.755657 0.787167 0.404196
0.753048 0.806073 0.479454
0.750896 0.820844 0.539544
0.749294 0.83299 0.587884
0 0.201297 0
0 0.201785 0
0 0.202228 0
0 0.202518 0
0 0.20267 0
0 0.202686 0
0 0.201785 0
0.0594339 0.199435 0
0.136599 0.197879 0
0.202823 0.194965 0
0.270954 0.190066 0
0.343587 0.182986 0
0.419089 0.173526 0
0.496162 0.161685 0
0.56527 0.147051 0
0.623117 0.128588 0
0.678889 0.102846 0
0.728588 0.087892 0
0.768902 0.114611 0
0.793698 0.177478 0
0.798291 0.25272 0
0.79292 0.332952 0
0.786145 0.415244 0
0.780407 0.498024 0.00129702
0.77557 0.575143 0.0495155
0.770459 0.638682 0.0993057
0.765774 0.691264 0.157336
0.761868 0.732921 0.232944
0.758495 0.764126 0.31902
0.755581 0.788373 0.403464
0.753017 0.806775 0.479042
0.750866 0.821286 0.539315
0.749279 0.833249 0.587747
0 0.252186 0
0 0.252567 0
0 0.252857 0
0 0.253056 0
0 0.253178 0
0 0.253178 0
0 0.253025 0
0 0.251667 0
0.0839857 0.249973 0
0.176654 0.248768 0
0.253239 0.245686 0
0.332723 0.240589 0
0.414557 0.23386 0
0.495308 0.226169 0
0.564385 0.218173 0
0.621592 0.210986 0
0.675914 0.206592 0
0.724254 0.210117 0
0.763989 0.229618 0
0.7888 0.268101 0
0.793866 0.321111 0
0.788678 0.384466 0
0.783139 0.453162 0
0.777951 0.525261 0
0.773541 0.592996 0.0345312
0.769284 0.64979 0.0939956
0.765103 0.69839 0.152636
0.761517 0.737179 0.230091
0.758312 0.766659 0.317418
0.755489 0.789914 0.402502
0.752956 0.807675 0.478508
0.750835 0.821851 0.539025
0.749264 0.8336 0.587579
0 0.311589 0
0 0.31194 0
0 0.31223 0
0 0.312459 0
0 0.312612 0
0 0.312718 0
0 0.312718 0
0 0.312535 0
0.0141909 0.310567 0
0.124865 0.310704 0
0.223285 0.309682 0
0.312734 0.306615 0
0.402991 0.302342 0
0.489632 0.297536 0
0.561044 0.292973 0
0.61883 0.29041 0
0.672206 0.291585 0
0.71902 0.299351 0
0.757092 0.317601 0
0.781598 0.347829 0
0.788327 0.388907 0
0.784283 0.438407 0
0.779828 0.496574 0
0.775067 0.555474 0
0.770993 0.613336 0.0133059
0.76788 0.663096 0.0874647
0.764309 0.70695 0.14847
0.761105 0.742367 0.226673
0.758099 0.769848 0.315343
0.755352 0.791852 0.401251
0.75288 0.808835 0.477806
0.75079 0.822583 0.538643
0.749233 0.834058 0.587366
0 0.3823 0
0 0.38262 0
0 0.382879 0
0 0.383108 0
0 0.383276 0
0 0.383429 0
0 0.383536 0
0 0.383551 0
0 0.38294 0
0.0459602 0.382589 0
0.167773 0.383963 0
0.279362 0.383062 0
0.38143 0.380591 0
0.47599 0.37763 0
0.552758 0.374777 0
0.612589 0.373907 0
0.666026 0.376684 0
0.711406 0.384909 0
0.748043 0.400595 0
0.773373 0.424308 0
0.78291 0.455985 0
0.779858 0.496269 0
0.77615 0.541405 0
0.771984 0.588525 0
0.768597 0.634134 0.00328069
0.766323 0.678416 0.0795758
0.763424 0.716945 0.145006
0.760632 0.748531 0.222477
0.757824 0.773754 0.312673
0.755199 0.794263 0.399649
0.752789 0.810285 0.47689
0.750729 0.823514 0.538125
0.749187 0.834623 0.587076
0 0.46244 0
0 0.462684 0
0 0.462928 0
0 0.463111 0
0 0.463279 0
0 0.463447 0
0 0.4636 0
0 0.463706 0
0 0.463767 0
0 0.463249 0
0.0810712 0.464134 0
0.224369 0.465309 0
0.348363 0.463615 0
0.45362 0.461311 0
0.538643 0.458839 0
0.602335 0.458045 0
0.65774 0.460655 0
0.703105 0.467918 0
0.738781 0.481056 0
0.765087 0.500313 0
0.777584 0.524346 0
0.775128 0.553185 0
0.772137 0.586969 0
0.768841 0.622522 0
0.766186 0.658503 0.000762951
0.76463 0.695613 0.069749
0.762463 0.728389 0.141787
0.760082 0.755779 0.218814
0.757504 0.778485 0.309285
0.755016 0.797223 0.397559
0.752667 0.812131 0.475685
0.750652 0.824689 0.537469
0.749142 0.83534 0.586709
0 0.545632 0
0 0.5458 0
0 0.545953 0
0 0.546059 0
0 0.546166 0
0 0.546273 0
0 0.546365 0
0 0.546426 0
0 0.546441 0
0 0.546304 0
0 0.545571 0
0.129274 0.546242 0
0.298482 0.545281 0
0.42121 0.543435 0
0.517372 0.541588 0
0.587915 0.540734 0
0.646769 0.542382 0
0.693294 0.547417 0
0.728603 0.556466 0
0.755291 0.569711 0
0.770214 0.58677 0
0.77026 0.607507 0
0.768139 0.629862 0
0.765713 0.655772 0
0.763714 0.684428 0
0.76289 0.714122 0.0575265
0.76144 0.741024 0.139193
0.759457 0.764111 0.217304
0.757137 0.784085 0.305272
0.754788 0.800763 0.394858
0.752529 0.814404 0.474128
0.750561 0.826169 0.536614
0.749081 0.836271 0.586221
0 0.618418 0
0 0.618494 0
0 0.61854 0
0 0.618585 0
0 0.618616 0
0 0.618647 0
0 0.618662 0
0 0.618647 0
0 0.618585 0
0 0.618418 0
0 0.618082 0
0.024033 0.616556 0
0.215015 0.61677 0
0.378729 0.615351 0
0.490303 0.613962 0
0.569543 0.61294 0
0.63241 0.61355 0
0.68101 0.616373 0
0.716976 0.621607 0
0.743816 0.62945 0
0.761151 0.64033 0
0.765881 0.653864 0
0.764401 0.670375 0
0.762768 0.689448 0
0.761395 0.710506 0
0.761151 0.733135 0.0419471
0.760403 0.754482 0.137697
0.758755 0.773495 0.217792
0.756695 0.790494 0.303288
0.754528 0.804929 0.391424
0.752361 0.817197 0.472114
0.750439 0.828 0.535485
0.749004 0.837415 0.58558
0 0.679469 0
0 0.679484 0
0 0.679484 0
0 0.679484 0
0 0.679469 0
0 0.679454 0
0 0.679408 0
0 0.679332 0
0 0.679194 0
0 0.678935 0
0 0.678492 0
0 0.677363 0
0.11989 0.676738 0
0.327092 0.675334 0
0.459159 0.673411 0
0.549126 0.671611 0
0.615946 0.671092 0
0.66685 0.672389 0
0.704128 0.675563 0
0.731624 0.68072 0
0.751385 0.687938 0
0.761013 0.697139 0
0.761273 0.70808 0
0.760296 0.720928 0
0.75938 0.735409 0
0.759411 0.751751 0.021149
0.75938 0.768536 0.13785
0.758007 0.783734 0.219928
0.756176 0.797559 0.304585
0.754223 0.80972 0.38851
0.752163 0.820539 0.469505
0.750301 0.830228 0.53402
0.748913 0.838849 0.584741
0 0.734478 0
0 0.734432 0
0 0.734401 0
0 0.73434 0
0 0.734295 0
0 0.734234 0
0 0.734127 0
0 0.733974 0
0 0.73373 0
0 0.733364 0
0 0.732799 0
0 0.731975 0
0.0553292 0.730343 0
0.267567 0.729076 0
0.428565 0.72607 0
0.530251 0.723171 0
0.599832 0.721279 0
0.652445 0.721035 0
0.691142 0.72221 0
0.71989 0.724681 0
0.741405 0.728618 0
0.754894 0.73402 0
0.758892 0.740688 0
0.758358 0.748821 0
0.757778 0.758373 0
0.757977 0.769955 0.0120546
0.758389 0.782895 0.140688
0.757214 0.79443 0.224109
0.755581 0.805158 0.308186
0.753826 0.815122 0.389013
0.751934 0.82443 0.466316
0.750134 0.832883 0.532128
0.748791 0.840589 0.583658
0 0.778241 0
0 0.778164 0
0 0.778088 0
0 0.777996 0
0 0.77792 0
0 0.777798 0
0 0.777646 0
0 0.777417 0
0 0.777096 0
0 0.776623 0
0 0.775952 0
0 0.775051 0
0.0213321 0.773083 0
0.22182 0.771511 0
0.408103 0.767224 0
0.517388 0.763348 0
0.587732 0.760403 0
0.640543 0.75903 0
0.679774 0.758846 0
0.709499 0.759594 0
0.731884 0.761318 0
0.747845 0.764111 0
0.756283 0.767971 0
0.756832 0.772885 0
0.756603 0.779263 0
0.757244 0.787747 0.0310826
0.757443 0.796811 0.147646
0.75642 0.805066 0.231128
0.754955 0.813077 0.313909
0.753353 0.821057 0.393286
0.751629 0.828794 0.465812
0.74995 0.83595 0.529702
0.748653 0.84268 0.582254
0 0.811627 0
0 0.811536 0
0 0.811414 0
0 0.811307 0
0 0.811185 0
0 0.811032 0
0 0.810834 0
0 0.810559 0
0 0.810178 0
0 0.809644 0
0 0.808927 0
0 0.807996 0
0.0235447 0.805798 0
0.220417 0.803525 0
0.405386 0.798352 0
0.512688 0.793881 0
0.580957 0.790387 0
0.63212 0.788357 0
0.670649 0.787396 0
0.700496 0.787167 0
0.7234 0.787625 0
0.74081 0.788861 0
0.752392 0.790906 0
0.755566 0.793729 0
0.755764 0.798001 0
0.756649 0.803998 0.0647746
0.756542 0.809857 0.160266
0.755596 0.815473 0.241886
0.754269 0.821317 0.322103
0.752789 0.82742 0.399558
0.751217 0.833524 0.469871
0.749722 0.839399 0.528817
0.748501 0.845136 0.580407
0 0.836927 0.000961318
0 0.836805 0.000946059
0 0.836667 0.0009308
0 0.836545 0.0009308
0 0.836408 0.000915541
0 0.836225 0.000900282
0 0.835996 0.000869764
0 0.835691 0.000839246
0 0.835279 0.000808728
0 0.834745 0.000747692
0 0.834028 0.000671397
0 0.833097 0.000579843
0.0686503 0.830533 0
0.27129 0.826825 0
0.422675 0.821576 0
0.517571 0.816983 0
0.579919 0.813367 0
0.627558 0.811078 0
0.66424 0.80972 0
0.693294 0.808942 0
0.716091 0.808698 0
0.733959 0.808957 0
0.747433 0.809781 0
0.754162 0.811231 0
0.755032 0.813977 0.00480659
0.755947 0.818143 0.0972305
0.755642 0.821805 0.179461
0.754742 0.825544 0.257191
0.753536 0.829602 0.333455
0.752194 0.833997 0.40798
0.750744 0.838529 0.475547
0.749401 0.843122 0.531548
0.748302 0.847929 0.57937
0 0.855589 0.00289921
0 0.855451 0.00288396
0 0.855314 0.0028687
0 0.855161 0.00285344
0 0.855024 0.00283818
0 0.854841 0.00280766
0 0.854612 0.0027924
0 0.854292 0.00274662
0 0.853895 0.00271611
0 0.853361 0.00265507
0 0.852674 0.00257877
0 0.85095 0.0016022
0.168109 0.848219 0
0.346288 0.842817 0
0.456153 0.838209 0
0.530602 0.833951 0
0.58471 0.830671 0
0.627131 0.828443 0
0.66096 0.826947 0
0.688411 0.82594 0
0.710353 0.82533 0
0.728176 0.825071 0
0.742641 0.825193 0
0.752117 0.825986 0
0.754726 0.828153 0.0340124
0.755184 0.830625 0.133562
0.754726 0.832715 0.205859
0.753841 0.834974 0.277852
0.752758 0.837552 0.34876
0.751553 0.840482 0.41912
0.75024 0.843656 0.483131
0.74902 0.847135 0.536171
0.748058 0.850965 0.581048
0 0.869581 0.00442512
0 0.869444 0.00440986
0 0.869322 0.0043946
0 0.869169 0.0043946
0 0.869032 0.00437934
0 0.868864 0.00434882
0 0.868635 0.00433356
0 0.868345 0.00430304
0 0.867353 0.00363165
0.0225071 0.865965 0.00265507
0.0474556 0.865049 0.00227359
0.179248 0.862913 0.000579843
0.33019 0.858137 0
0.424765 0.85417 0
0.497124 0.850309 0
0.550225 0.84683 0
0.59411 0.844144 0
0.630243 0.842176 0
0.660487 0.840726 0
0.685618 0.839658 0
0.706188 0.838895 0
0.72343 0.838376 0
0.737911 0.8383 0
0.749249 0.839353 0.0266423
0.754467 0.840513 0.105196
0.754314 0.841367 0.174823
0.75375 0.842298 0.239368
0.752926 0.843442 0.304295
0.751949 0.844923 0.368963
0.750851 0.846708 0.433448
0.749691 0.848814 0.492943
0.748608 0.851301 0.542168
0.747768 0.854185 0.584665
0.0355535 0.87808 0.00363165
0.0393378 0.877913 0.00357061
0.0429084 0.877745 0.00350958
0.0462654 0.877577 0.0034638
0.0495613 0.877409 0.00340276
0.0533761 0.877211 0.00334173
0.0580606 0.876966 0.00326543
0.0637675 0.876646 0.00318914
0.159503 0.875242 0.00187686
0.255573 0.872679 0
0.323552 0.870085 0
0.384741 0.86746 0
0.4421 0.864759 0
0.493156 0.861891 0
0.5355 0.859068 0
0.573343 0.85658 0
0.607034 0.854536 0
0.636622 0.852918 0
0.662684 0.851621 0
0.685069 0.850721 0
0.704295 0.85034 0.00128176
0.72079 0.849943 0.00947585
0.734966 0.849943 0.0332952
0.746471 0.850355 0.100038
0.753155 0.850401 0.162722
0.753338 0.850309 0.220493
0.752728 0.850446 0.27837
0.751965 0.850843 0.335546
0.75111 0.851575 0.394461
0.750118 0.852552 0.451316
0.749096 0.853803 0.50428
0.74818 0.855436 0.549783
0.747463 0.857481 0.589288
0.316381 0.880476 0.0284886
0.327581 0.880003 0.0280308
0.33814 0.879545 0.0276036
0.348135 0.879118 0.0272068
0.357961 0.878691 0.0268101
0.369406 0.878202 0.0263676
0.383597 0.877592 0.0258488
0.400748 0.87686 0.0252232
0.420447 0.875929 0.0244602
0.442618 0.8748 0.0235752
0.467094 0.873457 0.0225681
0.493416 0.871916 0.0215
0.519844 0.870192 0.0204318
0.545617 0.868376 0.0195163
0.572198 0.866621 0.0188907
0.59823 0.864988 0.0186923
0.623178 0.863554 0.0189822
0.646616 0.862303 0.019791
0.668147 0.861234 0.0211337
0.687419 0.860578 0.0366674
0.70457 0.860197 0.0740063
0.719661 0.859709 0.104799
0.73257 0.85922 0.135744
0.743252 0.858747 0.174929
0.750774 0.858228 0.220554
0.752285 0.857679 0.269688
0.751675 0.857343 0.320226
0.751003 0.857252 0.371542
0.750225 0.857404 0.423316
0.749355 0.857755 0.472724
0.748501 0.858381 0.517815
0.747738 0.859342 0.559197
0.747158 0.8607 0.595056
0.493553 0.879728 0.152468
0.497093 0.87953 0.152407
0.500526 0.879332 0.152361
0.503868 0.879133 0.152331
0.507225 0.878935 0.152285
0.51107 0.878706 0.152255
0.515648 0.878401 0.152224
0.521157 0.878019 0.152209
0.527901 0.877562 0.152209
0.536446 0.876982 0.152285
0.546792 0.87631 0.152468
0.558907 0.875547 0.15285
0.572793 0.874693 0.153552
0.588205 0.873777 0.154711
0.604791 0.87277 0.156512
0.622293 0.871717 0.159182
0.640299 0.870695 0.162966
0.65803 0.869718 0.168109
0.674937 0.868818 0.17496
0.690623 0.867979 0.183856
0.705211 0.86717 0.195224
0.718471 0.866407 0.209491
0.730114 0.86569 0.2271
0.740063 0.865019 0.249958
0.747753 0.864317 0.282582
0.751186 0.863584 0.321782
0.750652 0.863005 0.364904
0.750027 0.862577 0.410651
0.749325 0.862303 0.45478
0.748592 0.862242 0.497185
0.74789 0.862425 0.534646
0.747295 0.862943 0.57055
0.746838 0.863798 0.602136
0.571771 0.876997 0.261173
0.573205 0.876966 0.261204
0.574624 0.876921 0.26125
0.576013 0.876875 0.26128
0.577432 0.876829 0.261326
0.579126 0.876783 0.261372
0.581308 0.876722 0.261448
0.584085 0.876646 0.261555
0.587579 0.876554 0.261707
0.591943 0.876448 0.261921
0.59733 0.87631 0.262242
0.603861 0.876173 0.262684
0.611734 0.87602 0.26334
0.621164 0.875731 0.264546
0.631724 0.875303 0.265858
0.643397 0.874723 0.26772
0.655863 0.874098 0.270283
0.668635 0.873487 0.273716
0.681437 0.872877 0.278294
0.694102 0.872251 0.284276
0.706401 0.871565 0.292012
0.717891 0.870832 0.301808
0.728237 0.87013 0.313787
0.737392 0.869474 0.328725
0.745098 0.868818 0.34847
0.749722 0.868162 0.377508
0.749615 0.867414 0.412757
0.749065 0.866789 0.449851
0.748455 0.866285 0.487434
0.74786 0.865995 0.520912
0.747311 0.86595 0.55346
0.746868 0.866178 0.583627
0.746532 0.866667 0.610498
0.619715 0.874815 0.357244
0.620447 0.874815 0.357305
0.62118 0.8748 0.357351
0.621897 0.874784 0.357412
0.622644 0.874784 0.357473
0.623545 0.874769 0.357534
0.624704 0.874754 0.357626
0.6262 0.874739 0.357748
0.628122 0.874708 0.357916
0.630564 0.874678 0.358129
0.633631 0.874647 0.358434
0.6374 0.874617 0.358831
0.642054 0.874586 0.35938
0.647623 0.874556 0.360128
0.654154 0.874525 0.36112
0.661631 0.87451 0.362478
0.669886 0.874495 0.364294
0.678798 0.87451 0.366705
0.688396 0.874525 0.369909
0.698573 0.874372 0.374365
0.708568 0.874052 0.379812
0.718181 0.873518 0.38677
0.727153 0.872999 0.395529
0.735363 0.872465 0.406256
0.742596 0.871946 0.419486
0.747768 0.871412 0.436423
0.748577 0.87071 0.460472
0.748119 0.870069 0.489509
0.747646 0.869505 0.517494
0.747189 0.869123 0.545998
0.746807 0.868925 0.573098
0.746487 0.868955 0.597879
0.746242 0.869184 0.620005
0.652522 0.873396 0.443656
0.652918 0.873396 0.443702
0.653315 0.873396 0.443748
0.653712 0.873381 0.443793
0.654108 0.873381 0.443839
0.654597 0.873381 0.443885
0.655238 0.873381 0.443961
0.656062 0.873381 0.444053
0.657115 0.873381 0.44419
