BBLuts/BB_103_0440_LUT.cube
TITLE "Generated by Resolve"
LUT_3D_SIZE 5
0.0136416 0.0166781 0.00749218
0.222568 0.0152285 0.00517281
0.78027 0 0
0.937362 0.656718 0.0954147
0.902876 1 0.722332
0 0.256748 0.00480659
0.160067 0.259785 0.00291447
0.778332 0.120897 0
0.932067 0.706783 0.0522164
0.902846 1 0.722103
0 0.858503 0.00170901
0 0.858244 0.00167849
0.683543 0.853407 0.00256352
0.914275 0.907378 0.00920119
0.902571 1 0.718791
0.576471 1 0.206912
0.576471 1 0.206912
0.725322 1 0.212589
0.899519 1 0.368811
0.900465 1 0.746197
0.872953 1 0.822766
0.872953 1 0.822766
0.872953 1 0.822766
0.886595 1 0.825055
0.898665 1 0.84712
0.0155642 0.0191806 0.18468
0.189471 0.0183261 0.182849
0.78262 0 0.162753
0.940459 0.647532 0.266972
0.902876 1 0.722347
0 0.214054 0.168826
0.166949 0.211261 0.163424
0.780941 0.0145266 0.147814
0.935805 0.701076 0.247166
0.902861 1 0.722103
0 0.853925 0.00134279
0 0.853651 0.00132753
0.687617 0.84918 0.00239567
0.915358 0.907012 0.0472114
0.902571 1 0.718791
0.583658 1 0.205844
0.583658 1 0.205844
0.727169 1 0.211948
0.899565 1 0.368536
0.900465 1 0.746197
0.872984 1 0.822766
0.872984 1 0.822766
0.872984 1 0.822766
0.88661 1 0.825055
0.898665 1 0.84712
0.00567636 0.0102998 0.727779
0.00567636 0.0102846 0.727855
0.769482 0 0.70959
0.959854 0.350729 0.746563
0.902144 1 0.801755
0.00569161 0.0102998 0.726802
0.00569161 0.0102998 0.726864
0.777569 0 0.708247
0.947646 0.542687 0.74406
0.902113 1 0.801648
0 0.801648 0.690806
0 0.801709 0.690837
0.660502 0.79913 0.692607
0.913878 0.87924 0.710872
0.901778 1 0.800259
0.572976 1 0.595529
0.572976 1 0.595529
0.712489 1 0.593759
0.890806 1 0.637629
0.900084 1 0.785061
0.873396 1 0.822721
0.873396 1 0.822721
0.873396 1 0.822721
0.886763 1 0.824994
0.898665 1 0.847105
0.00442512 0.00955215 0.92192
0.00442512 0.00955215 0.92192
0.00442512 0.00955215 0.92192
0.966583 0.00444038 0.916075
0.903334 0.984054 0.903029
0.00442512 0.00955215 0.92192
0.00442512 0.00955215 0.92192
0.00442512 0.00955215 0.92192
0.966583 0.00444038 0.916075
0.903258 0.985153 0.902953
0.00442512 0.00955215 0.92192
0.00442512 0.00955215 0.92192
0.00442512 0.00955215 0.92192
0.966583 0.00444038 0.916075
0.902434 0.996963 0.902007
0 1 0.920714
0 1 0.920714
0 1 0.920714
0.874434 1 0.895903
0.899519 1 0.898085
0.869856 1 0.882124
0.869856 1 0.882124
0.869856 1 0.882124
0.882673 1 0.882734
0.89839 1 0.88896
0 0.350439 0.920607
0 0.350439 0.920607
0 0.350439 0.920607
0 0.35053 0.920607
0.925887 0.771862 0.926879
0 0.350439 0.920607
0 0.350439 0.920607
0 0.350439 0.920607
0 0.35053 0.920607
0.925887 0.771862 0.926879
0 0.350439 0.920607
0 0.350439 0.920607
0 0.350439 0.920607
0 0.35053 0.920607
0.925887 0.771862 0.926879
0 0.349004 0.920623
0 0.349004 0.920623
0 0.349004 0.920623
0 0.349065 0.920623
0.925383 0.775662 0.926589
0.819165 1 0.916487
0.819165 1 0.916487
0.819165 1 0.916487
0.819165 1 0.916487
0.898451 1 0.917174
