BBLuts/BB_103_0320_LUT.cube
TITLE "Generated by Resolve"
LUT_3D_SIZE 9
0 0 0
0 0 0
0.138064 0 0
0.399512 0 0
0.729549 0 0
0.906096 0 0
0.906233 0.570367 0.0130312
0.883833 0.874067 0.293904
0.872282 0.970794 0.650248
0 0 0
0 0.00242618 0
0.141085 0 0
0.407767 0 0
0.730846 0 0
0.91426 0 0
0.903716 0.594522 0.0049897
0.883696 0.875944 0.292805
0.872267 0.970947 0.650156
0 0.152575 0
0 0.15433 0
0.0760204 0.156161 0
0.416693 0.126009 0
0.74197 0.0439765 0
0.920836 0.231556 0
0.898817 0.630869 0
0.883406 0.880018 0.290578
0.872236 0.971283 0.649958
0 0.454566 0
0 0.455604 0
0 0.456626 0
0.315999 0.473228 0
0.724681 0.467567 0
0.900969 0.54609 0
0.889082 0.722667 0
0.882414 0.893538 0.289464
0.872145 0.972808 0.648981
0 0.797269 0
0 0.797238 0
0 0.796597 0
0 0.800687 0
0.638773 0.799435 0
0.851102 0.808957 0
0.878645 0.851804 0
0.880064 0.924895 0.301183
0.871794 0.978012 0.645487
0 0.96672 0
0 0.96672 0
0 0.966705 0
0 0.964569 0
0.605356 0.953613 0
0.804791 0.945129 0
0.87393 0.949798 0
0.876448 0.9691 0.350469
0.870817 0.990478 0.649836
0.511391 1 0.116136
0.511391 1 0.116136
0.511376 1 0.116136
0.511345 1 0.116136
0.68011 1 0.125231
0.798581 1 0.164752
0.866529 1 0.269734
0.87219 1 0.480095
0.869169 1 0.680217
0.766155 1 0.558083
0.766155 1 0.558083
0.766155 1 0.558083
0.766155 1 0.558083
0.76614 1 0.558083
0.811948 1 0.566659
0.854429 1 0.589197
0.868406 1 0.644022
0.867597 1 0.737133
0.836255 1 0.767575
0.836255 1 0.767575
0.836255 1 0.767575
0.836255 1 0.767575
0.836255 1 0.767575
0.836255 1 0.767575
0.853742 1 0.770611
0.867353 1 0.778149
0.867247 1 0.796551
0 0 0.000442512
0 0 0.000213626
0.137346 0 0
0.399405 0 0
0.730571 0 0
0.907744 0 0
0.90811 0.568673 0.0458228
0.883833 0.874052 0.293919
0.872267 0.970794 0.650248
0 0 0
0 0 0
0.141787 0 0
0.402274 0 0
0.730312 0 0
0.914473 0 0
0.905623 0.593378 0.0348669
0.883696 0.875944 0.292805
0.872267 0.970947 0.650156
0 0.142199 0
0 0.144045 0
0.0874647 0.145495 0
0.413169 0.114809 0
0.738399 0.0226291 0
0.921508 0.216556 0
0.901152 0.631113 0.0126345
0.883406 0.880018 0.290578
0.872236 0.971283 0.649958
0 0.448646 0
0 0.449638 0
0 0.450401 0
0.326894 0.466743 0
0.724529 0.461952 0
0.901198 0.54226 0
0.889296 0.72166 0
0.882414 0.893523 0.289448
0.872145 0.972808 0.648981
0 0.795682 0
0 0.795666 0
0 0.795056 0
0 0.799588 0
0.64094 0.798215 0
0.851301 0.808225 0
0.87863 0.851438 0
0.880064 0.924895 0.301167
0.871794 0.978012 0.645487
0 0.966339 0
0 0.966369 0
0 0.966415 0
0 0.964218 0
0.607065 0.953368 0
0.80499 0.945006 0
0.87393 0.949722 0
0.876448 0.9691 0.350469
0.870817 0.990478 0.649836
0.514275 1 0.115831
0.514275 1 0.115831
0.514275 1 0.115846
0.51426 1 0.115846
0.680888 1 0.125032
0.798779 1 0.164614
0.86656 1 0.269703
0.87219 1 0.480095
0.869169 1 0.680217
0.766323 1 0.558068
0.766323 1 0.558068
0.766323 1 0.558068
0.766323 1 0.558068
0.766308 1 0.558068
0.812009 1 0.566629
0.854459 1 0.589166
0.868406 1 0.644022
0.867597 1 0.737133
0.836271 1 0.767575
0.836271 1 0.767575
0.836271 1 0.767575
0.836271 1 0.767575
0.836271 1 0.767575
0.836271 1 0.767575
0.853742 1 0.770596
0.867353 1 0.778149
0.867247 1 0.796551
0 0 0.106447
0 0 0.106645
0.105318 0 0.100252
0.414069 0 0.0779889
0.733928 0 0.0604257
0.911681 0 0.0766766
0.912276 0.558221 0.180056
0.883543 0.872633 0.348592
0.872267 0.970794 0.650248
0 0 0.104753
0 0 0.105272
0.123857 0 0.0971695
0.411963 0 0.0754864
0.734035 0 0.057084
0.916411 0 0.0796216
0.910079 0.584726 0.17409
0.883406 0.874556 0.347601
0.872267 0.970947 0.650156
0 0.112566 0.0900587
0 0.114977 0.0900893
0.0769055 0.113619 0.0889143
0.401709 0.0834669 0.0805676
0.738643 0 0.0628519
0.929442 0.170443 0.103273
0.906325 0.626429 0.162722
0.883116 0.878676 0.345403
0.872236 0.971283 0.649958
0 0.436759 0.0139467
0 0.438117 0.0141604
0 0.439094 0.0148775
0.328984 0.455055 0.0266117
0.725643 0.451133 0.0301671
0.908339 0.535271 0.0552682
0.89633 0.723201 0.122393
0.882139 0.892454 0.337407
0.872145 0.972808 0.648981
0 0.792096 0
0 0.792096 0
0 0.79147 0
0 0.796002 0
0.641962 0.794797 0
0.851484 0.805737 0
0.882445 0.854185 0.0164492
0.879973 0.924468 0.318563
0.871809 0.978012 0.645487
0 0.965789 0
0 0.965789 0
0 0.965789 0
0 0.96463 0
0.610437 0.952911 0
0.805508 0.944717 0
0.873945 0.949523 0
0.876448 0.969024 0.350134
0.870817 0.990478 0.649836
0.518898 1 0.115053
0.518898 1 0.115053
0.518898 1 0.115053
0.519112 1 0.115328
0.682124 1 0.124697
0.799084 1 0.16434
0.866606 1 0.269505
0.87219 1 0.479973
0.869169 1 0.680217
0.766644 1 0.558022
0.766644 1 0.558022
0.766644 1 0.558022
0.766644 1 0.558022
0.766644 1 0.558022
0.812131 1 0.566583
0.85449 1 0.589136
0.868406 1 0.644007
0.867597 1 0.737133
0.836301 1 0.767575
0.836301 1 0.767575
0.836301 1 0.767575
0.836301 1 0.767575
0.836301 1 0.767575
0.836301 1 0.767575
0.853758 1 0.770596
0.867353 1 0.778149
0.867247 1 0.796551
0 0 0.366308
0 0 0.366461
0 0 0.367147
0.368414 0 0.345174
0.750072 0 0.32314
0.911543 0 0.340475
0.916945 0.50576 0.436728
0.882124 0.865492 0.519036
0.872038 0.970123 0.675258
0 0 0.364767
0 0 0.364935
0 0 0.365087
0.383062 0 0.342245
0.749065 0 0.321431
0.911467 0 0.337743
0.914534 0.539849 0.433921
0.881971 0.867567 0.518486
0.872023 0.970275 0.675181
0 0 0.362707
0 0 0.362875
0 0 0.363561
0.391836 0 0.34136
0.743999 0 0.317586
0.921813 0 0.352712
0.910353 0.591348 0.428183
0.881636 0.871946 0.517296
0.872007 0.970626 0.675013
0 0.380179 0.323751
0 0.381201 0.323812
0 0.383703 0.324529
0.305028 0.399252 0.339055
0.719326 0.393332 0.34316
0.915312 0.486213 0.368475
0.899062 0.703761 0.407599
0.880552 0.886488 0.513008
0.8719 0.972168 0.67425
0 0.790555 0.242008
0 0.790616 0.241993
0 0.790387 0.243061
0 0.792737 0.252827
0.642237 0.792447 0.269383
0.856001 0.803998 0.300435
0.88513 0.851194 0.362814
0.878202 0.920272 0.500404
0.87155 0.977386 0.671397
0 0.972229 0.0877089
0 0.972229 0.0877089
0 0.972229 0.0877089
0 0.970138 0.0930648
0.609766 0.95848 0.0990311
0.809659 0.950469 0.159548
0.87744 0.95285 0.286915
0.875288 0.967086 0.464714
0.87068 0.990173 0.663478
0.533547 1 0.113268
0.533547 1 0.113268
0.533547 1 0.113268
0.533547 1 0.113268
0.685634 1 0.123476
0.800046 1 0.163546
0.866773 1 0.270634
0.872206 1 0.479484
0.869169 1 0.680079
0.767788 1 0.55787
0.767788 1 0.55787
0.767788 1 0.55787
0.767788 1 0.55787
0.767773 1 0.55787
0.812543 1 0.566415
0.854627 1 0.588983
0.868406 1 0.6439
0.867597 1 0.737072
0.836423 1 0.767559
0.836423 1 0.767559
0.836423 1 0.767559
0.836423 1 0.767559
0.836423 1 0.767559
0.836423 1 0.767559
0.853803 1 0.770581
0.867353 1 0.778149
0.867247 1 0.796551
0 0 0.674784
0 0 0.674784
0 0 0.67509
0.0690013 0 0.671794
0.715496 0 0.637522
0.909224 0 0.642008
0.931228 0.204135 0.695659
0.881529 0.845304 0.703136
0.871565 0.967391 0.751446
0 0 0.674678
0 0 0.674678
0 0 0.674769
0.0855573 0 0.670863
0.719295 0 0.637018
0.909224 0 0.641627
0.929061 0.282948 0.697673
0.8813 0.847944 0.70277
0.87155 0.967559 0.7514
0 0 0.673671
0 0 0.673671
0 0 0.673747
0.132158 0 0.668009
0.724941 0 0.63592
0.909239 0 0.640482
0.922377 0.411215 0.697383
0.880827 0.853254 0.702052
0.871519 0.967926 0.751308
0 0.119249 0.671778
0 0.119249 0.671778
0 0.122866 0.671809
0.12398 0.119783 0.673518
0.73489 0.0386053 0.65658
0.930129 0.162432 0.676524
0.906264 0.623224 0.688167
0.879332 0.87097 0.69958
0.871412 0.969543 0.750912
0 0.740353 0.633722
0 0.740353 0.633722
0 0.74049 0.633783
0 0.740001 0.634745
0.61294 0.745434 0.645228
0.850156 0.763485 0.651835
0.88368 0.826185 0.662531
0.876249 0.910475 0.693248
0.871015 0.975021 0.749416
0 0.968582 0.614954
0 0.968582 0.614954
0 0.968627 0.614923
0 0.96495 0.615335
0.561425 0.952972 0.613367
0.794827 0.941817 0.618418
0.872236 0.944686 0.639506
0.872618 0.96144 0.680659
0.870085 0.988403 0.744823
0.501381 1 0.544488
0.501381 1 0.544488
0.501381 1 0.544488
0.501381 1 0.544488
0.664973 1 0.543877
0.788022 1 0.556268
0.857588 1 0.589151
0.869947 1 0.651926
0.868788 1 0.732219
0.771145 1 0.557076
0.771145 1 0.557076
0.771145 1 0.557076
0.771145 1 0.557076
0.771145 1 0.557076
0.813703 1 0.565759
0.855009 1 0.588525
0.868391 1 0.645289
0.867597 1 0.736873
0.836866 1 0.767514
0.836866 1 0.767514
0.836866 1 0.767514
0.836866 1 0.767514
0.836866 1 0.767514
0.836866 1 0.767514
0.853956 1 0.77052
0.867353 1 0.778103
0.867247 1 0.796521
0 0 0.830655
0 0 0.830671
0 0 0.830671
0 0 0.830701
0.499794 0 0.803845
0.905608 0 0.792813
0.909575 0 0.79321
0.891249 0.748806 0.824674
0.871595 0.960372 0.819059
0 0 0.830671
0 0 0.830671
0 0 0.830671
0 0 0.830701
0.499306 0 0.803861
0.905608 0 0.792813
0.909575 0 0.793118
0.890349 0.756313 0.82388
0.87158 0.960601 0.819028
0 0 0.830594
0 0 0.830594
0 0 0.830594
0 0 0.830625
0.51397 0 0.802869
0.905898 0 0.792706
0.909575 0 0.792889
0.888747 0.769924 0.822446
0.871534 0.961059 0.818982
0 0 0.830182
0 0 0.830182
0 0 0.830182
0 0 0.830213
0.582208 0 0.798291
0.906691 0 0.792325
0.922423 0 0.812192
0.884276 0.809979 0.81825
0.871397 0.962997 0.818753
0 0.432761 0.820539
0 0.432761 0.820539
0 0.432761 0.820539
0 0.437186 0.820371
0.557473 0.448402 0.82887
0.90341 0.495613 0.835645
0.897642 0.696895 0.823819
0.877653 0.881163 0.811399
0.870939 0.969573 0.817945
0 0.952071 0.808331
0 0.952071 0.808331
0 0.952071 0.808331
0 0.95169 0.808286
0.336751 0.943511 0.809018
0.779492 0.923659 0.798642
0.867765 0.929763 0.800061
0.872267 0.952392 0.804227
0.869856 0.98497 0.815732
0.284169 1 0.79794
0.284215 1 0.79794
0.284855 1 0.797909
0.284855 1 0.797909
0.586069 1 0.787564
0.76704 1 0.785779
0.846403 0.997436 0.789075
0.868986 0.998627 0.796368
0.868391 1 0.811246
0.75584 1 0.760006
0.75584 1 0.760006
0.75584 1 0.760006
0.75584 1 0.760006
0.75584 1 0.760006
0.800092 1 0.761822
0.844984 1 0.766979
0.866972 1 0.77911
0.867216 1 0.80116
0.838209 1 0.767346
0.838209 1 0.767346
0.838209 1 0.767346
0.838209 1 0.767346
0.838209 1 0.767346
0.838209 1 0.767346
0.854429 1 0.770321
0.867353 1 0.777951
0.867247 1 0.797421
0 0 0.871183
0 0 0.871183
0 0 0.871183
0 0 0.871183
0 0 0.871183
0.826841 0 0.842374
0.909606 0 0.844862
0.914397 0 0.852064
0.873625 0.927199 0.866285
0 0 0.871183
0 0 0.871183
0 0 0.871183
0 0 0.871183
0 0 0.871183
0.826825 0 0.842374
0.909606 0 0.844862
0.915022 0 0.85304
0.873594 0.927749 0.866239
0 0 0.871183
0 0 0.871183
0 0 0.871183
0 0 0.871183
0 0 0.871183
0.826825 0 0.842374
0.909606 0 0.844862
0.915877 0 0.853941
0.873503 0.928923 0.866148
0 0 0.871183
0 0 0.871183
0 0 0.871183
0 0 0.871183
0 0 0.871183
0.833249 0 0.842557
0.909606 0 0.844862
0.91751 0 0.856413
0.873152 0.933791 0.865797
0 0 0.871183
0 0 0.871183
0 0 0.871183
0 0 0.871183
0 0 0.871183
0.864515 0 0.843519
0.909606 0 0.844862
0.924147 0.403693 0.89427
0.87216 0.947463 0.864698
0 0.746029 0.866545
0 0.746029 0.866545
0 0.746029 0.866545
0 0.746029 0.866545
0 0.749065 0.866529
0.78088 0.75346 0.874723
0.88336 0.806119 0.871672
0.875212 0.906386 0.86508
0.870329 0.973526 0.862501
0 1 0.872618
0 1 0.872618
0 1 0.872618
0 1 0.872618
0 1 0.87277
0.723217 0.99498 0.857176
0.840162 0.990356 0.857359
0.868666 0.99295 0.857923
0.868315 1 0.859648
0.725277 1 0.851469
0.725277 1 0.851469
0.725277 1 0.851469
0.725277 1 0.851469
0.725277 1 0.851469
0.776104 1 0.851499
0.836286 1 0.852125
0.865736 1 0.853468
0.866896 1 0.856428
0.832105 1 0.84213
0.832105 1 0.84213
0.832105 1 0.84213
0.832105 1 0.84213
0.832105 1 0.84213
0.832105 1 0.84213
0.848737 1 0.842878
0.864988 1 0.844892
0.866941 1 0.849531
0 0 0.875761
0 0 0.875761
0 0 0.875761
0 0 0.875761
0 0 0.875761
0 0 0.875776
0.908293 0 0.844938
0.919432 0 0.860395
0.904067 0.645075 0.894545
0 0 0.875761
0 0 0.875761
0 0 0.875761
0 0 0.875761
0 0 0.875761
0 0 0.875776
0.908293 0 0.844938
0.919432 0 0.860395
0.904082 0.64506 0.894545
0 0 0.875761
0 0 0.875761
0 0 0.875761
0 0 0.875761
0 0 0.875761
0 0 0.875776
0.908293 0 0.844938
0.919432 0 0.860395
0.904082 0.645014 0.894545
0 0 0.875761
0 0 0.875761
0 0 0.875761
0 0 0.875761
0 0 0.875761
0 0 0.875776
0.908293 0 0.844938
0.919432 0 0.860395
0.904097 0.644892 0.89456
0 0 0.875761
0 0 0.875761
0 0 0.875761
0 0 0.875761
0 0 0.875761
0 0 0.875761
0.908385 0 0.844938
0.919738 0 0.860929
0.904158 0.644419 0.894591
0 0 0.875715
0 0 0.875715
0 0 0.875715
0 0 0.875715
0 0 0.875715
0 0 0.876417
0.909606 0 0.844862
0.923491 0 0.867887
0.883726 0.810849 0.884169
0 0.930282 0.888563
0 0.930282 0.888563
0 0.930282 0.888563
0 0.930282 0.888563
0 0.930282 0.888563
0 0.933379 0.891447
0.843366 0.902495 0.881621
0.872129 0.945541 0.881193
0.869398 0.984085 0.88098
0.373541 1 0.889418
0.373541 1 0.889418
0.373541 1 0.889418
0.373541 1 0.889418
0.373541 1 0.889418
0.458625 1 0.886549
0.819898 1 0.879393
0.864088 1 0.879652
0.867079 1 0.879713
0.820905 1 0.877729
0.820905 1 0.877729
0.820905 1 0.877729
0.820905 1 0.877729
0.820905 1 0.877729
0.820905 1 0.877729
0.839887 1 0.877852
0.861875 1 0.878035
0.866743 1 0.878279
0 0.197024 0.878355
0 0.197024 0.878355
0 0.197024 0.878355
0 0.197024 0.878355
0 0.197024 0.878355
0 0.197024 0.878355
0 0.197131 0.878355
0.927733 0.0403906 0.876692
0.899474 0.681743 0.892134
0 0.197024 0.878355
0 0.197024 0.878355
0 0.197024 0.878355
0 0.197024 0.878355
0 0.197024 0.878355
0 0.197024 0.878355
0 0.197131 0.878355
0.927733 0.0403906 0.876692
0.899474 0.681743 0.892134
0 0.197024 0.878355
0 0.197024 0.878355
0 0.197024 0.878355
0 0.197024 0.878355
0 0.197024 0.878355
0 0.197024 0.878355
0 0.197131 0.878355
0.927733 0.0403906 0.876692
0.899474 0.681743 0.892134
0 0.197024 0.878355
0 0.197024 0.878355
0 0.197024 0.878355
0 0.197024 0.878355
0 0.197024 0.878355
0 0.197024 0.878355
0 0.197131 0.878355
0.927733 0.0403906 0.876692
0.899474 0.681743 0.892134
0 0.197024 0.878355
0 0.197024 0.878355
0 0.197024 0.878355
0 0.197024 0.878355
0 0.197024 0.878355
0 0.197024 0.878355
0 0.197131 0.878355
0.927733 0.0403296 0.876677
0.899474 0.681743 0.892134
0 0.196857 0.878355
0 0.196857 0.878355
0 0.196857 0.878355
0 0.196857 0.878355
0 0.196857 0.878355
0 0.196857 0.878355
0 0.196948 0.878355
0.929015 0.0611582 0.879606
0.899229 0.683635 0.891997
0 0.195529 0.87837
0 0.195529 0.87837
0 0.195529 0.87837
0 0.195529 0.87837
0 0.195529 0.87837
0 0.195529 0.87837
0 0.182315 0.882612
0.932265 0.171405 0.891218
0.898878 0.686366 0.891814
0 1 0.89308
0 1 0.89308
0 1 0.89308
0 1 0.89308
0 1 0.89308
0 1 0.89308
0.0240024 1 0.896696
0.86244 1 0.880934
0.867796 1 0.880842
0.771511 1 0.879896
0.771511 1 0.879896
0.771511 1 0.879896
0.771511 1 0.879896
0.771511 1 0.879896
0.771511 1 0.879896
0.779538 1 0.879942
0.857053 1 0.880507
0.867048 1 0.880873
