BBLuts/BB_102_0288_LUT.cube
TITLE "Generated by Resolve"
LUT_3D_SIZE 33
0 0 0
0 0 0
0 0 0
0 0 0
0 0 0
0.0624552 0 0
0.149111 0 0
0.216373 0 0
0.285893 0 0
0.36669 0 0
0.458 0 0
0.557076 0 0
0.645624 0 0
0.709392 0 0
0.779217 0 0
0.85568 0 0
0.935592 0 0
1 0 0
1 0 0
1 0 0
1 0 0
1 0 0
0.869627 0.406943 0
1 0.55317 0
1 0.625971 0.00393683
1 0.697826 0.0979782
1 0.763134 0.204486
1 0.81387 0.33254
1 0.851453 0.472724
0.995834 0.880796 0.553765
0.991073 0.902617 0.62536
0.987015 0.919768 0.696269
0.983825 0.933059 0.760113
0 0 0
0 0 0
0 0 0
0 0 0
0 0 0
0.0782635 0 0
0.154589 0 0
0.221317 0 0
0.293431 0 0
0.375784 0 0
0.467002 0 0
0.563302 0 0
0.647196 0 0
0.710628 0 0
0.780362 0 0
0.856458 0 0
0.936263 0 0
1 0 0
1 0 0
1 0 0
1 0 0
1 0 0
0.85333 0.447379 0
1 0.555505 0
1 0.63035 0
1 0.700999 0.0938582
1 0.764843 0.203586
1 0.814755 0.332265
1 0.851926 0.472328
0.995819 0.881041 0.553613
0.991058 0.902739 0.625284
0.986999 0.919829 0.696223
0.983825 0.933089 0.760082
0 0 0
0 0 0
0 0 0
0 0 0
0 0 0
0.0867933 0 0
0.155322 0 0
0.225208 0 0
0.300893 0 0
0.381506 0 0
0.470649 0 0
0.564813 0 0
0.649256 0 0
0.71223 0 0
0.781506 0 0
0.857527 0 0
0.936629 0 0
1 0 0
1 0 0
1 0 0
1 0 0
1 0.0522316 0
0.856031 0.478508 0
1 0.562249 0
1 0.634638 0
1 0.703853 0.090837
1 0.766323 0.201968
1 0.815595 0.332021
1 0.852354 0.471962
0.995789 0.88127 0.55346
0.991043 0.902876 0.625193
0.986999 0.919905 0.696162
0.983825 0.933135 0.760067
0 0 0
0 0 0
0 0 0
0 0 0
0.0122835 0 0
0.0885939 0 0
0.151522 0 0
0.221363 0 0
0.298543 0 0
0.383246 0 0
0.474067 0 0
0.567544 0 0
0.651606 0 0
0.71371 0 0
0.782773 0 0
0.85832 0 0
0.937224 0 0
1 0 0
1 0 0
1 0 0
1 0 0
1 0.16585 0
0.876097 0.496666 0
1 0.568811 0
1 0.638682 0
1 0.706462 0.0881971
1 0.767865 0.2009
1 0.816388 0.331762
1 0.852796 0.47158
0.995758 0.881514 0.553307
0.991028 0.902983 0.625101
0.986984 0.919951 0.696117
0.98381 0.933181 0.760037
0 0.0583047 0
0 0.0632486 0
0 0.0675975 0
0 0.0721599 0
0 0.0741131 0
0.0519875 0.0755779 0
0.121538 0.0716411 0
0.149996 0.0796063 0
0.272557 0.0436408 0
0.382422 0 0
0.475807 0 0
0.570794 0 0
0.654017 0 0
0.715297 0 0
0.784375 0 0
0.859449 0 0
0.937789 0 0
1 0 0
1 0 0
1 0 0
1 0 0
1 0.254673 0
0.911635 0.506966 0
1 0.574685 0
1 0.642802 0
1 0.708949 0.0846571
1 0.769284 0.200107
1 0.817182 0.331533
1 0.853193 0.471122
0.995727 0.881727 0.553201
0.991028 0.903105 0.625025
0.986984 0.920043 0.696071
0.98381 0.933211 0.760006
0 0.112062 0
0 0.115877 0
0 0.119966 0
0 0.123156 0
0 0.124773 0
0.0139773 0.126955 0
0.0974899 0.125826 0
0.176349 0.12105 0
0.209079 0.132021 0
0.293309 0.12015 0
0.449119 0.0667582 0
0.568948 0 0
0.655024 0 0
0.717372 0 0
0.78587 0 0
0.86041 0 0
0.938537 0 0
1 0 0
1 0 0
1 0 0
1 0 0
0.930816 0.336553 0
0.950149 0.512688 0
1 0.579705 0
1 0.646815 0
1 0.711757 0.0808423
1 0.770886 0.199084
1 0.817914 0.331304
1 0.853544 0.470665
0.995697 0.881956 0.553079
0.990997 0.903227 0.624933
0.986969 0.920104 0.69601
0.983795 0.933242 0.759976
0 0.168551 0
0 0.171405 0
0 0.174502 0
0 0.176486 0
0 0.177905 0
0 0.178363 0
0.0565957 0.180621 0
0.151247 0.17792 0
0.24213 0.171984 0
0.296681 0.177905 0
0.342641 0.18175 0
0.490364 0.139696 0
0.631968 0.0740063 0
0.714687 0 0
0.785916 0 0
0.862043 0 0
0.939101 0 0
1 0 0
1 0 0
1 0 0
1 0.0593576 0
0.872816 0.401816 0
0.989609 0.51783 0
1 0.586313 0
1 0.651133 0
1 0.71487 0.0768902
1 0.772839 0.197696
1 0.818921 0.33135
1 0.853971 0.470146
0.995666 0.8822 0.552941
0.990982 0.90338 0.624826
0.986969 0.920165 0.695964
0.983795 0.933288 0.759945
0 0.232059 0
0 0.234546 0
0 0.236652 0
0 0.23827 0
0 0.239261 0
0 0.240131 0
0 0.241062 0
0.105684 0.242084 0
0.213916 0.237278 0
0.317327 0.229603 0
0.398489 0.225223 0
0.412146 0.243122 0
0.50013 0.221866 0
0.633448 0.161074 0
0.763912 0.0681163 0
0.85684 0 0
0.935958 0 0
1 0 0
1 0 0
1 0 0
1 0.197421 0
0.851987 0.458869 0
1 0.527977 0
1 0.595438 0
1 0.657526 0
1 0.718883 0.0711528
1 0.775219 0.195758
1 0.82034 0.331014
1 0.85481 0.469474
0.995621 0.882582 0.552743
0.990967 0.903578 0.624689
0.986954 0.920287 0.695872
0.983795 0.933333 0.759899
0 0.304036 0
0 0.306096 0
0 0.307515 0
0 0.308614 0
0 0.309422 0
0 0.310292 0
0 0.310674 0
0.0323186 0.312779 0
0.165393 0.309056 0
0.283833 0.302068 0
0.396429 0.291722 0
0.502342 0.281163 0
0.503929 0.299886 0
0.523537 0.2963 0
0.599695 0.267231 0
0.753124 0.198779 0
0.902098 0.11371 0
1 0 0
1 0.0065919 0
1 0.153613 0
0.892073 0.374243 0
0.883818 0.499962 0
1 0.545846 0
1 0.607126 0
1 0.666056 0
1 0.724666 0.0624247
1 0.778668 0.193317
1 0.822217 0.330327
1 0.855955 0.468544
0.995529 0.883223 0.552407
0.990936 0.903868 0.624475
0.986923 0.920455 0.69575
0.98378 0.93344 0.759823
0 0.382589 0
0 0.383505 0
0 0.384085 0
0 0.384558 0
0 0.385245 0
0 0.385351 0
0 0.38526 0
0 0.384802 0
0.075227 0.38587 0
0.231144 0.380011 0
0.361471 0.372045 0
0.485176 0.360876 0
0.588678 0.347662 0
0.629664 0.341711 0
0.613046 0.357061 0
0.630869 0.357824 0
0.696941 0.341894 0
0.790021 0.319173 0
0.85713 0.325917 0
0.857114 0.39173 0
0.854292 0.476921 0
0.99266 0.518212 0
1 0.570092 0
1 0.622065 0
1 0.677287 0
1 0.732372 0.0512703
1 0.783291 0.190249
1 0.824689 0.329824
1 0.85745 0.467536
0.99559 0.884016 0.55201
0.990875 0.904372 0.624109
0.986908 0.920684 0.695567
0.983764 0.933562 0.759716
0 0.461845 0
0 0.462577 0
0 0.46302 0
0 0.463386 0
0 0.463645 0
0 0.463798 0
0 0.46392 0
0 0.464195 0
0 0.463737 0
0.126955 0.463905 0
0.305455 0.456886 0
0.446891 0.447623 0
0.566094 0.436332 0
0.641611 0.424201 0
0.715694 0.411917 0
0.76614 0.40795 0
0.767407 0.424002 0
0.77229 0.443397 0
0.809247 0.462577 0
0.869474 0.49189 0
0.979995 0.515587 0
1 0.549523 0
1 0.593683 0
1 0.641001 0
1 0.691752 0
1 0.742504 0.0374609
1 0.789502 0.185748
1 0.828305 0.329076
1 0.859495 0.465873
0.995392 0.885145 0.551232
0.990814 0.905043 0.623636
0.986862 0.921096 0.695247
0.983749 0.933745 0.759579
0 0.547829 0
0 0.548135 0
0 0.548516 0
0 0.549157 0
0 0.549432 0
0 0.549645 0
0 0.549844 0
0 0.549935 0
0 0.549844 0
0 0.549874 0
0.196109 0.548424 0
0.386099 0.540108 0
0.532662 0.530968 0
0.62063 0.522484 0
0.698772 0.51313 0
0.775341 0.504021 0
0.849912 0.497719 0
0.918273 0.496422 0
0.96997 0.508415 0
1 0.529809 0
1 0.557809 0
1 0.586938 0
1 0.622843 0
1 0.664057 0
1 0.709697 0
1 0.755261 0.0220645
1 0.79765 0.180362
1 0.832914 0.328145
1 0.862181 0.464942
0.995087 0.886595 0.550164
0.990845 0.905913 0.623072
0.986923 0.921599 0.694896
0.983719 0.934066 0.759335
0 0.617609 0
0 0.617716 0
0 0.617899 0
0 0.618051 0
0 0.618173 0
0 0.618479 0
0 0.618601 0
0 0.618708 0
0 0.618784 0
0 0.618845 0
0.0268406 0.620813 0
0.279332 0.615427 0
0.481849 0.606455 0
0.594583 0.599771 0
0.678233 0.593851 0
0.758999 0.587777 0
0.836515 0.582559 0
0.908873 0.579477 0
0.970077 0.580499 0
1 0.587991 0
1 0.603052 0
1 0.626307 0
1 0.656046 0
1 0.69131 0
1 0.731197 0
1 0.770794 0
1 0.807355 0.173236
1 0.838865 0.327245
1 0.865965 0.465431
0.994812 0.888777 0.548928
0.990692 0.907164 0.622171
0.986862 0.922316 0.694316
0.983642 0.934478 0.758938
0 0.672206 0
0 0.672236 0
0 0.672404 0
0 0.672557 0
0 0.672679 0
0 0.672801 0
0 0.672908 0
0 0.67306 0
0 0.673381 0
0 0.673442 0
0 0.673365 0
0.100328 0.674617 0
0.385946 0.665187 0
0.562356 0.656031 0
0.653086 0.649851 0
0.740154 0.643503 0
0.822812 0.637598 0
0.897383 0.633692 0
0.9579 0.633967 0
1 0.639643 0
1 0.65066 0
1 0.66923 0
1 0.693309 0
1 0.722652 0
1 0.756146 0
1 0.788754 0
1 0.819333 0.165393
1 0.846296 0.326543
0.999298 0.870573 0.466117
0.994629 0.891585 0.547524
0.990494 0.908888 0.621012
0.98677 0.923308 0.693523
0.983474 0.934981 0.758373
0 0.729641 0
0 0.729641 0
0 0.729717 0
0 0.729809 0
0 0.729885 0
0 0.729961 0
0 0.730022 0
0 0.730098 0
0 0.730144 0
0 0.730114 0
0 0.73022 0
0 0.729885 0
0.209354 0.728054 0
0.504402 0.715679 0
0.620066 0.708553 0
0.713695 0.701976 0
0.802411 0.695552 0
0.880476 0.690745 0
0.942748 0.689448 0
0.988983 0.692821 0
1 0.700816 0
1 0.714748 0
1 0.733837 0
1 0.757259 0
1 0.783276 0
1 0.808881 0
1 0.832853 0.157687
1 0.855436 0.32665
0.998627 0.876448 0.467521
0.993973 0.895064 0.546899
0.990158 0.910994 0.619471
0.986603 0.924697 0.692409
0.983322 0.935699 0.757671
0 0.78793 0
0 0.78793 0
0 0.78793 0
0 0.787991 0
0 0.788006 0
0 0.788037 0
0 0.788052 0
0 0.788067 0
0 0.788052 0
0 0.787961 0
0 0.787762 0
0 0.787579 0
0 0.786648 0
0.362692 0.779156 0
0.577874 0.768399 0
0.680369 0.761425 0
0.775158 0.754589 0
0.857618 0.748791 0
0.922332 0.746227 0
0.970199 0.747372 0
1 0.752331 0
1 0.76202 0
1 0.775525 0
1 0.792004 0
1 0.81091 0
1 0.830289 0
1 0.847868 0.150744
1 0.866026 0.329091
0.997589 0.883421 0.469429
0.9935 0.899458 0.548226
0.989822 0.913939 0.618387
0.986282 0.926467 0.690944
0.9832 0.936797 0.756741
0 0.845106 0
0 0.845106 0
0 0.845106 0
0 0.845106 0
0 0.845106 0
0 0.84509 0
0 0.84506 0
0 0.845014 0
0 0.844907 0
0 0.844709 0
0 0.844388 0
0 0.843854 0
0 0.843198 0
0.192966 0.841184 0
0.525673 0.826719 0
0.642832 0.819272 0
0.743496 0.811917 0
0.830076 0.805432 0
0.898146 0.801114 0
0.948714 0.799786 0
0.987182 0.801358 0
1 0.805966 0
1 0.814359 0
1 0.824994 0
1 0.837858 0
1 0.852094 0
1 0.864027 0.148989
1 0.877592 0.33373
0.996536 0.891325 0.473152
0.992691 0.904784 0.549889
0.989441 0.917464 0.618189
0.986068 0.928664 0.689448
0.983185 0.938186 0.755779
0 0.893324 0
0 0.893324 0
0 0.893324 0
0 0.893324 0
0 0.893324 0
0 0.893294 0
0 0.893233 0
0 0.893126 0
0 0.892943 0
0 0.892638 0
0 0.89218 0
0 0.891463 0
0 0.89044 0
0.0493477 0.890608 0
0.441749 0.877546 0
0.610056 0.867475 0
0.716152 0.859556 0
0.804898 0.852674 0
0.874418 0.847349 0
0.928008 0.8439 0
0.96849 0.842939 0
0.997833 0.844266 0
1 0.847959 0
1 0.854643 0
1 0.862928 0
1 0.872419 0
1 0.880308 0.160159
0.999756 0.889952 0.343725
0.995056 0.899992 0.478676
0.991745 0.91104 0.552605
0.988693 0.921813 0.619883
0.985733 0.931548 0.687785
0.982971 0.940063 0.754223
0 0.930388 0
0 0.930388 0
0 0.930388 0
0 0.930388 0
0 0.930388 0
0 0.930388 0
0 0.930388 0
0 0.930251 0
0 0.929992 0
0 0.929549 0
0 0.928939 0
0 0.9281 0
0 0.927016 0
0 0.925078 0
0.363195 0.91696 0
0.589242 0.904738 0
0.697673 0.896681 0
0.786328 0.889448 0
0.855192 0.883757 0
0.909483 0.879438 0
0.951568 0.87689 0
0.982605 0.87628 0
1 0.877302 0
1 0.880827 0
1 0.886107 0
1 0.890959 0
1 0.89601 0.188266
0.997665 0.902022 0.35993
0.993637 0.909392 0.487068
0.990738 0.918029 0.556741
0.9879 0.926726 0.623255
0.985199 0.934783 0.68983
0.982712 0.942397 0.752331
0 0.959304 0
0 0.959304 0
0 0.959304 0
0 0.959304 0
0 0.959304 0
0 0.959304 0
0 0.959304 0
0 0.959304 0
0 0.959182 0
0 0.958694 0
0 0.9579 0
0 0.957046 0
0 0.955947 0
0 0.953735 0
0.371344 0.945373 0
0.583459 0.9337 0
0.688991 0.925917 0
0.774182 0.918868 0
0.840803 0.913069 0
0.894133 0.908385 0
0.936492 0.905058 0
0.968872 0.903059 0
0.994064 0.902403 0
1 0.903395 0
1 0.906142 0
1 0.907897 0.0205539
0.99968 0.910353 0.22678
0.995529 0.914137 0.385687
0.992157 0.919173 0.498177
0.989624 0.925612 0.562783
0.987198 0.932357 0.628
0.98468 0.938781 0.693385
0.982269 0.944976 0.753643
0 0.980774 0
0 0.980774 0
0 0.980774 0
0 0.980774 0
0 0.980774 0
0 0.980774 0
0 0.980774 0
0 0.980774 0
0 0.980774 0
0 0.980743 0
0 0.979919 0
0 0.978805 0
0 0.9776 0
0 0.975448 0
0.444083 0.963989 0
0.594339 0.954879 0
0.691615 0.947417 0
0.770092 0.940932 0
0.832639 0.935286 0
0.883955 0.930632 0
0.924941 0.927031 0
0.957488 0.924407 0
0.98349 0.922744 0
1 0.922164 0
1 0.923384 0
1 0.922606 0.0990616
0.996811 0.923476 0.278737
0.993225 0.925597 0.416968
0.990433 0.928954 0.509606
0.988342 0.933349 0.571069
0.986221 0.938231 0.634516
0.983856 0.943114 0.697993
0.981796 0.948211 0.756359
0 0.996994 0
0 0.996994 0
0 0.996994 0
0 0.996994 0
0 0.996994 0
0 0.996994 0
0 0.996994 0
0 0.996994 0
0 0.996994 0
0 0.996994 0
0 0.996994 0
0 0.995895 0
0 0.99443 0
0.133135 0.993332 0
0.516472 0.977646 0
0.619089 0.970642 0
0.702983 0.963943 0
0.772549 0.957992 0
0.82945 0.952972 0
0.877516 0.948562 0
0.91635 0.944915 0
0.947982 0.942077 0
0.973861 0.939971 0
0.994263 0.938582 0
0.999588 0.93637 0.01944
0.997024 0.93521 0.202792
0.993774 0.93518 0.340017
0.99089 0.936019 0.453483
0.988907 0.938094 0.524376
0.987167 0.940932 0.582986
0.985168 0.944289 0.643046
0.98323 0.947921 0.704601
0.981201 0.951553 0.760479
0 1 0
0 1 0
0 1 0
0 1 0
0 1 0
0 1 0
0 1 0
0 1 0
0 1 0
0 1 0
0 1 0
0 1 0
0 1 0
0.428916 0.996429 0
0.568109 0.988159 0
0.652277 0.982116 0
0.721935 0.976486 0
0.781109 0.971283 0
0.831662 0.966674 0
0.874846 0.962646 0
0.910796 0.959182 0
0.941024 0.956176 0
0.966232 0.953872 0
0.983108 0.950103 0
0.994247 0.947356 0.166949
0.993118 0.945815 0.298497
0.990768 0.945022 0.40972
0.9888 0.945373 0.492485
0.987366 0.946532 0.544366
0.985794 0.948241 0.598352
0.984085 0.950317 0.655314
0.982345 0.952651 0.713207
0.980728 0.955276 0.766033
0.375784 1 0
0.375784 1 0
0.375784 1 0
0.375784 1 0
0.375769 1 0
0.375769 1 0
0.375769 1 0
0.375769 1 0
0.375753 1 0
0.375723 1 0
0.375723 1 0
0.375677 1 0
0.375647 1 0
0.533639 1 0
0.621805 0.995407 0
0.688655 0.990219 0
0.745724 0.98555 0
0.794553 0.981201 0
0.837934 0.977035 0
0.876112 0.973373 0
0.906493 0.969009 0
0.932662 0.965316 0.0199588
0.955169 0.962051 0.102998
0.973022 0.95903 0.196704
0.986984 0.956344 0.295293
0.989395 0.954513 0.392004
0.988312 0.953658 0.470634
0.986954 0.953536 0.522454
0.985763 0.954055 0.569085
0.984421 0.954894 0.618326
0.983032 0.955947 0.670878
0.981414 0.957305 0.72433
0.979889 0.958953 0.772595
0.605692 1 0.175036
0.605692 1 0.175036
0.605692 1 0.175036
0.605692 1 0.175036
0.605692 1 0.175036
0.605692 1 0.175036
0.605692 1 0.175036
0.605692 1 0.175036
0.605692 1 0.175036
0.605676 1 0.175051
0.605676 1 0.175051
0.605676 1 0.175051
0.605661 1 0.175051
0.605646 1 0.175051
0.660975 0.996857 0.178439
0.718563 0.992142 0.184466
0.763775 0.987961 0.192508
0.803662 0.984237 0.202228
0.840391 0.980499 0.216037
0.872374 0.977066 0.233707
0.900526 0.973861 0.255818
0.925322 0.971084 0.282887
0.946685 0.968338 0.316106
0.964446 0.965835 0.355886
0.978882 0.96347 0.412528
0.985946 0.961868 0.470512
0.986099 0.960876 0.51487
0.985214 0.960571 0.555566
0.9841 0.960388 0.597955
0.983047 0.960678 0.642832
0.981704 0.961013 0.69041
0.980484 0.961547 0.73817
0.979355 0.962631 0.78175
0.707881 0.993729 0.403021
0.707881 0.993729 0.403021
0.707881 0.993729 0.403021
0.707881 0.993729 0.403021
0.707881 0.993729 0.403021
0.707881 0.993729 0.403021
0.707881 0.993729 0.403021
0.707881 0.993729 0.403021
0.707881 0.993729 0.403021
0.707881 0.993729 0.403021
0.707881 0.993729 0.403021
0.707881 0.993729 0.403021
0.707866 0.993729 0.403021
0.707866 0.993729 0.403021
0.707851 0.993729 0.403021
0.744228 0.991821 0.404761
0.78439 0.98941 0.408927
0.818082 0.986328 0.413077
0.848173 0.983291 0.418982
0.87509 0.980438 0.426917
0.899351 0.977768 0.436973
0.92195 0.975311 0.449912
0.94139 0.972992 0.464912
0.958312 0.971008 0.483452
0.972656 0.969177 0.502113
0.983185 0.967727 0.524804
0.98436 0.966735 0.555856
0.983642 0.966155 0.591684
0.98262 0.965621 0.630411
0.981704 0.965454 0.671534
0.98056 0.965331 0.713695
0.979583 0.965591 0.754711
0.978622 0.965896 0.792523
0.77789 0.988052 0.524819
0.77789 0.988052 0.524819
0.77789 0.988052 0.524819
0.77789 0.988052 0.524819
0.77789 0.988052 0.524819
0.77789 0.988052 0.524819
0.77789 0.988052 0.524819
0.77789 0.988052 0.524819
0.777859 0.988052 0.524819
0.777859 0.988052 0.524819
0.777859 0.988052 0.524819
0.777859 0.988052 0.524819
0.777859 0.988052 0.524819
0.777859 0.988052 0.524819
0.777859 0.988052 0.524819
0.777859 0.988052 0.524819
0.804242 0.986587 0.525078
0.83418 0.984909 0.525933
0.858747 0.983459 0.527565
0.88098 0.982208 0.529809
0.902281 0.980789 0.533547
0.921843 0.978866 0.538231
0.939193 0.977066 0.544686
0.954711 0.975174 0.553246
0.968277 0.973648 0.56466
0.979232 0.972152 0.578759
0.982193 0.971267 0.601572
0.982101 0.970489 0.631586
0.981216 0.969741 0.665751
0.980423 0.969329 0.702617
0.979446 0.968902 0.738949
0.978668 0.968826 0.773526
0.97792 0.968948 0.805325
0.829313 0.983902 0.600046
0.829313 0.983902 0.600046
0.829313 0.983902 0.600046
0.829313 0.983902 0.600046
0.829313 0.983902 0.600046
0.829313 0.983902 0.600046
0.829313 0.983902 0.600046
0.829313 0.983902 0.600046
0.829313 0.983902 0.600046
