BBLuts/BB_106_0440_LUT.cube
TITLE "Generated by Resolve"
LUT_3D_SIZE 33
0 0 0
0 0 0
0 0 0
0 0 0
0 0 0
0.00317388 0 0
0.0673838 0 0
0.110155 0 0
0.154757 0 0
0.208698 0 0
0.269886 0 0
0.33785 0 0
0.414603 0 0
0.498741 0 0
0.588098 0 0
0.668681 0 0
0.738659 0 0
0.800824 0 0
0.852811 0 0
0.893111 0 0
0.900847 0 0
0.900847 0 0
0.889464 0.15256 0.022385
0.895644 0.344411 0.0712291
0.895537 0.475502 0.101869
0.895521 0.578973 0.137865
0.893553 0.654551 0.183108
0.891691 0.708965 0.25536
0.890181 0.745586 0.341772
0.889021 0.771389 0.42446
0.887922 0.789914 0.499046
0.887022 0.803693 0.55584
0.886671 0.814969 0.59707
0 0 0
0 0 0
0 0 0
0 0 0
0 0 0
0.0175784 0 0
0.0715343 0 0
0.113542 0 0
0.160555 0 0
0.215076 0 0
0.276402 0 0
0.343542 0 0
0.418021 0 0
0.500923 0 0
0.589746 0 0
0.669627 0 0
0.739178 0 0
0.801038 0 0
0.85275 0 0
0.892851 0 0
0.900847 0 0
0.900847 0 0
0.891859 0.189471 0.00668345
0.895521 0.359426 0.0657359
0.895598 0.484443 0.0992142
0.89543 0.584024 0.136156
0.893477 0.657359 0.181292
0.891691 0.710491 0.254383
0.890181 0.74638 0.341253
0.889036 0.771832 0.42417
0.887922 0.790158 0.498909
0.887022 0.803845 0.555764
0.886671 0.815061 0.597025
0 0 0
0 0 0
0 0 0
0 0 0
0 0 0
0.0255283 0 0
0.0729534 0 0
0.116762 0 0
0.16672 0 0
0.221012 0 0
0.281361 0 0
0.346578 0 0
0.420859 0 0
0.503273 0 0
0.591409 0 0
0.670542 0 0
0.739681 0 0
0.801236 0 0
0.852674 0 0
0.892561 0 0
0.900847 0 0
0.900847 0 0
0.893507 0.219684 0
0.895399 0.373602 0.0596323
0.895644 0.493065 0.096437
0.895338 0.588922 0.134447
0.8934 0.66009 0.179553
0.891691 0.711955 0.253391
0.890196 0.747158 0.340764
0.889052 0.772274 0.423896
0.887938 0.790402 0.498772
0.887037 0.803983 0.555688
0.886671 0.815137 0.596994
0 0 0
0 0 0
0 0 0
0 0 0
0 0 0
0.0314336 0 0
0.0736095 0 0
0.117052 0 0
0.167788 0 0
0.223407 0 0
0.284581 0 0
0.34934 0 0
0.42359 0 0
0.505653 0 0
0.593088 0 0
0.671489 0 0
0.740185 0 0
0.801434 0 0
0.852567 0 0
0.892256 0 0
0.900847 0 0
0.900847 0 0
0.894606 0.245838 0
0.895293 0.38703 0.0526894
0.895659 0.501366 0.0935683
0.895247 0.593698 0.132723
0.893339 0.66273 0.178622
0.891676 0.713405 0.252415
0.890211 0.747921 0.340246
0.889052 0.772702 0.423621
0.887938 0.790631 0.498634
0.887037 0.804135 0.555627
0.886671 0.815229 0.596963
0 0.00993362 0
0 0.0148775 0
0 0.01944 0
0 0.0238499 0
0 0.0254063 0
0.0270542 0.0250248 0
0.0734264 0.0233921 0
0.117662 0.0186465 0
0.167422 0.0055848 0
0.224475 0 0
0.286427 0 0
0.351827 0 0
0.42623 0 0
0.508064 0 0
0.594812 0 0
0.672435 0 0
0.740688 0 0
0.801587 0 0
0.852461 0 0
0.891951 0 0
0.900847 0 0
0.895277 0.0285039 0
0.895384 0.269154 0
0.895186 0.399802 0.0445106
0.895674 0.5093 0.0905623
0.895155 0.598337 0.130999
0.893278 0.665309 0.177707
0.891676 0.714839 0.251469
0.890227 0.748669 0.339742
0.889067 0.773144 0.423331
0.887938 0.79086 0.498482
0.887037 0.804273 0.55555
0.886671 0.81532 0.596933
0 0.053727 0
0 0.0563973 0
0 0.0589914 0
0 0.0610208 0
0 0.0619974 0
0.00515755 0.0603494 0
0.0664225 0.0585946 0
0.112856 0.0568246 0
0.161501 0.0526131 0
0.216922 0.0433814 0
0.2795 0.0240177 0
0.354055 0 0
0.428916 0 0
0.510628 0 0
0.596643 0 0
0.673457 0 0
0.741192 0 0
0.80177 0 0
0.852354 0 0
0.891615 0 0
0.900847 0 0
0.888731 0.120806 0
0.895933 0.290898 0
0.895125 0.412497 0.0336156
0.895674 0.517205 0.0873121
0.895048 0.603021 0.129183
0.893202 0.667933 0.176776
0.891676 0.716289 0.250462
0.890242 0.749447 0.339223
0.889082 0.773587 0.423056
0.887953 0.791119 0.498329
0.887037 0.804425 0.555474
0.886671 0.815412 0.596887
0 0.0906081 0
0 0.0926223 0
0 0.0946212 0
0 0.0957351 0
0 0.0964523 0
0 0.0967117 0
0.0515145 0.0925765 0
0.10576 0.0914778 0
0.157244 0.0892653 0
0.214328 0.0843519 0
0.276173 0.0746471 0
0.343832 0.0585641 0
0.421836 0.0278477 0
0.513893 0 0
0.599008 0 0
0.674769 0 0
0.741863 0 0
0.801999 0 0
0.852186 0 0
0.891157 0 0
0.900847 0 0
0.891447 0.177096 0
0.896254 0.315984 0
0.895308 0.427848 0.00726329
0.895644 0.526833 0.0829175
0.894926 0.60882 0.126864
0.893126 0.671229 0.175616
0.891676 0.71812 0.249195
0.890257 0.750439 0.338567
0.889097 0.774151 0.422675
0.887968 0.791424 0.498146
0.887053 0.804623 0.555367
0.886671 0.815518 0.596841
0 0.129595 0
0 0.131289 0
0 0.13254 0
0 0.133364 0
0 0.133959 0
0 0.134279 0
0 0.133211 0
0.0910048 0.129015 0
0.149294 0.127764 0
0.209094 0.124376 0
0.273365 0.117586 0
0.343847 0.107378 0
0.420722 0.0925307 0
0.503014 0.0686503 0
0.596017 0.0162814 0
0.676524 0 0
0.742763 0 0
0.802289 0 0
0.851942 0 0
0.890532 0 0
0.888792 0.076112 0
0.893965 0.229831 0
0.896254 0.345312 0
0.895796 0.44715 0
0.895582 0.538842 0.0766613
0.894743 0.616053 0.123766
0.89305 0.67541 0.174136
0.891691 0.72047 0.247517
0.890272 0.751705 0.337682
0.889113 0.774899 0.422187
0.887968 0.791836 0.497902
0.887053 0.804868 0.555245
0.886687 0.815671 0.59678
0 0.173846 0
0 0.175113 0
0 0.175814 0
0 0.176532 0
0 0.177035 0
0 0.177371 0
0 0.177584 0
0.0522621 0.172641 0
0.132036 0.170703 0
0.197848 0.168063 0
0.266941 0.163378 0
0.342245 0.156024 0
0.423362 0.145754 0
0.507195 0.131807 0
0.590951 0.113069 0
0.664759 0.0874342 0
0.732662 0.0480659 0
0.80267 0 0
0.851575 0 0
0.877287 0.0814527 0
0.891875 0.185809 0
0.895781 0.28394 0
0.89604 0.37937 0
0.895918 0.470085 0
0.895476 0.553552 0.0674449
0.89453 0.624567 0.119646
0.892943 0.68069 0.172274
0.891707 0.723461 0.24535
0.890318 0.753368 0.336522
0.889143 0.775845 0.421546
0.887999 0.79237 0.497566
0.887068 0.805203 0.555077
0.886687 0.815869 0.596689
0 0.223911 0
0 0.224308 0
0 0.224689 0
0 0.22501 0
0 0.225208 0
0 0.225254 0
0 0.225162 0
0 0.224811 0
0.0950179 0.218921 0
0.177676 0.217624 0
0.254108 0.21471 0
0.335836 0.209415 0
0.423316 0.201724 0
0.512261 0.191897 0
0.596979 0.18117 0
0.668971 0.169741 0
0.73315 0.159487 0
0.791196 0.153613 0
0.840131 0.164828 0
0.87982 0.205051 0
0.895293 0.265949 0
0.896284 0.339513 0
0.895811 0.418448 0
0.896208 0.497719 0
0.895293 0.571328 0.0526741
0.894224 0.634928 0.114168
0.892851 0.687266 0.16997
0.891722 0.727199 0.242527
0.890364 0.755474 0.334997
0.889174 0.777081 0.420691
0.888014 0.793072 0.497108
0.887083 0.805631 0.554849
0.886687 0.816129 0.596582
0 0.27924 0
0 0.279622 0
0 0.280034 0
0 0.280324 0
0 0.280552 0
0 0.28069 0
0 0.280735 0
0 0.280644 0
0 0.280201 0
0.139528 0.275166 0
0.230808 0.274113 0
0.321477 0.270817 0
0.417365 0.265354 0
0.514122 0.258885 0
0.602457 0.252201 0
0.674632 0.24686 0
0.738262 0.244877 0
0.795544 0.248341 0
0.843397 0.263401 0
0.881086 0.295537 0
0.896284 0.341238 0
0.895918 0.397436 0
0.895857 0.461402 0
0.896361 0.529244 0
0.895201 0.592523 0.0208438
0.893889 0.64799 0.106828
0.892744 0.695262 0.167178
0.891783 0.731823 0.23888
0.890425 0.758144 0.333028
0.88922 0.778653 0.419593
0.888045 0.793988 0.496544
0.887098 0.806195 0.554559
0.886702 0.816464 0.596445
0 0.34583 0
0 0.346227 0
0 0.346593 0
0 0.346899 0
0 0.347127 0
0 0.347295 0
0 0.347433 0
0 0.347494 0
0 0.347356 0
0.00430304 0.345602 0
0.187732 0.343679 0
0.294636 0.342596 0
0.402106 0.339513 0
0.508339 0.335805 0
0.602762 0.331777 0
0.677867 0.329412 0
0.741619 0.33109 0
0.797467 0.338247 0
0.843046 0.353735 0
0.878416 0.379583 0
0.895842 0.414588 0
0.895827 0.457389 0
0.896284 0.50927 0
0.896284 0.563699 0
0.895796 0.617548 0
0.893553 0.663462 0.0972305
0.892683 0.704814 0.163897
0.891798 0.737331 0.238132
0.890517 0.761501 0.330449
0.889281 0.780636 0.418128
0.888075 0.795132 0.495766
0.887114 0.806928 0.554162
0.886702 0.816907 0.596246
0 0.425727 0
0 0.426093 0
0 0.426429 0
0 0.426688 0
0 0.426886 0
0 0.42707 0
0 0.427253 0
0 0.42739 0
0 0.427527 0
0 0.427604 0
0.0799115 0.424186 0
0.246876 0.425834 0
0.373938 0.42446 0
0.49192 0.421988 0
0.594995 0.419272 0
0.675532 0.417762 0
0.741512 0.419532 0
0.796643 0.426169 0
0.840497 0.439063 0
0.874754 0.459373 0
0.896101 0.486458 0
0.89633 0.519493 0
0.896315 0.558267 0
0.895994 0.600748 0
0.895445 0.642435 0
0.893324 0.68101 0.0849165
0.892668 0.715846 0.160296
0.891844 0.743816 0.237583
0.890623 0.765606 0.327108
0.889357 0.783123 0.416236
0.888121 0.796628 0.494774
0.887144 0.807858 0.553643
0.886717 0.817472 0.595987
0 0.513619 0
0 0.513909 0
0 0.514153 0
0 0.514351 0
0 0.514534 0
0 0.514702 0
0 0.51487 0
0 0.515023 0
0 0.515145 0
0 0.515175 0
0 0.515023 0
0.153628 0.512062 0
0.32813 0.511559 0
0.464973 0.508492 0
0.578912 0.505699 0
0.667826 0.503883 0
0.738643 0.505196 0
0.795453 0.510643 0
0.838285 0.520851 0
0.870954 0.536004 0
0.89633 0.555764 0
0.896193 0.578744 0
0.895918 0.60708 0
0.895521 0.637293 0
0.89514 0.670115 0
0.893309 0.700191 0.0690166
0.892744 0.728191 0.156664
0.891936 0.751339 0.237354
0.890776 0.770535 0.323354
0.889464 0.78613 0.413779
0.888182 0.798474 0.493446
0.887175 0.809033 0.552972
0.886732 0.818189 0.595651
0 0.596338 0
0 0.596475 0
0 0.596597 0
0 0.596689 0
0 0.59678 0
0 0.596857 0
0 0.596918 0
0 0.596979 0
0 0.596994 0
0 0.596933 0
0 0.596735 0
0 0.596231 0
0.251331 0.591257 0
0.424918 0.588144 0
0.554208 0.585626 0
0.654154 0.583658 0
0.730877 0.583902 0
0.790616 0.587289 0
0.833738 0.594049 0
0.865232 0.604318 0
0.890608 0.617853 0
0.895582 0.632746 0
0.895323 0.651667 0
0.895109 0.674067 0
0.895125 0.698131 0
0.893629 0.720302 0.0479438
0.892897 0.741375 0.153643
0.892073 0.759945 0.237675
0.890867 0.776165 0.324636
0.889586 0.789746 0.41062
0.888258 0.800778 0.491707
0.887221 0.810529 0.552087
0.886763 0.819104 0.595209
0 0.665782 0
0 0.665843 0
0 0.665873 0
0 0.665919 0
0 0.665919 0
0 0.665934 0
0 0.665949 0
0 0.665919 0
0 0.665873 0
0 0.665751 0
0 0.665492 0
0 0.664988 0
0.0687419 0.659983 0
0.367498 0.656916 0
0.521737 0.653758 0
0.63563 0.651209 0
0.718486 0.650217 0
0.781674 0.651698 0
0.826093 0.655528 0
0.857725 0.661692 0
0.881956 0.670298 0
0.895094 0.68098 0
0.895109 0.693629 0
0.895216 0.708492 0
0.895476 0.724971 0
0.894484 0.74052 0.0170596
0.893156 0.754955 0.152163
0.892241 0.769467 0.239063
0.890974 0.782544 0.326726
0.889738 0.793912 0.407446
0.888365 0.803601 0.489448
0.887282 0.81236 0.550912
0.886793 0.820249 0.594614
0 0.728206 0
0 0.728206 0
0 0.728191 0
0 0.728161 0
0 0.728145 0
0 0.728115 0
0 0.728054 0
0 0.727977 0
0 0.727825 0
0 0.727611 0
0 0.727245 0
0 0.726665 0
0 0.725734 0
0.289036 0.718883 0
0.483955 0.713909 0
0.613642 0.709957 0
0.704234 0.707134 0
0.770459 0.70663 0
0.816571 0.708095 0
0.849378 0.711116 0
0.874022 0.715694 0
0.892393 0.722026 0
0.895567 0.729564 0
0.895796 0.738705 0
0.896101 0.749157 0
0.896498 0.760555 0
0.893492 0.768856 0.153094
0.892439 0.779568 0.242222
0.891066 0.789487 0.330053
0.889784 0.79855 0.410254
0.888502 0.806958 0.486473
0.887343 0.814588 0.549371
0.886824 0.821668 0.593835
0.00434882 0.777737 0
0.0043183 0.777691 0
0.00428778 0.77763 0
0.00427253 0.777569 0
0.00422675 0.777493 0
0.00418097 0.777417 0
0.00411994 0.77731 0
0.00404364 0.777173 0
0.00393683 0.776959 0
0.00376898 0.776638 0
0.00350958 0.776165 0
0.00314336 0.775464 0
0.00262455 0.774472 0
0.203159 0.767987 0
0.453941 0.761349 0
0.596628 0.755688 0
0.692958 0.75111 0
0.760449 0.748928 0
0.807477 0.748623 0
0.84152 0.749493 0
0.866957 0.751369 0
0.885466 0.754406 0
0.896422 0.758465 0
0.89662 0.763745 0
0.896864 0.770336 0
0.896803 0.777661 0
0.893828 0.782498 0.158099
0.892607 0.789746 0.248112
0.891142 0.796704 0.335149
0.88983 0.803784 0.414176
0.888579 0.810758 0.486397
0.887434 0.817212 0.547356
0.88687 0.823392 0.592813
0.025452 0.813016 0
0.0254063 0.81294 0
0.0253605 0.812848 0
0.0252995 0.812757 0
0.0252537 0.81265 0
0.0251774 0.812543 0
0.0251011 0.812406 0
0.0249943 0.812222 0
0.0248417 0.811948 0
0.0246128 0.811566 0
0.0242924 0.811017 0
0.0238651 0.810285 0
0.0232853 0.809277 0
0.163088 0.80354 0
0.446067 0.795468 0
0.591409 0.788602 0
0.687785 0.783032 0
0.75404 0.779843 0
0.80029 0.778515 0
0.834653 0.778195 0
0.860594 0.778622 0
0.879698 0.779889 0
0.895003 0.78204 0
0.897475 0.785031 0
0.897642 0.789044 0
0.895689 0.791623 0.0463874
0.894072 0.795117 0.1691
0.892699 0.799451 0.257877
0.891188 0.804181 0.342565
0.88986 0.809476 0.419669
0.888594 0.814908 0.490013
0.887526 0.820218 0.545556
0.886915 0.825467 0.591455
0.0399329 0.839658 0.0041352
0.0398871 0.839536 0.00408942
0.039826 0.839429 0.00402838
0.0397498 0.839323 0.0039826
0.0396887 0.8392 0.00392157
0.0396124 0.839078 0.00386053
0.0395209 0.838911 0.00378424
0.0393988 0.838682 0.00367742
0.0392157 0.838376 0.00352483
0.0389868 0.837949 0.00334173
0.0386816 0.837415 0.00308232
0.0382696 0.836667 0.00274662
0.0377203 0.835691 0.00228885
0.236774 0.828946 0.00225834
0.465888 0.820111 0
0.600092 0.812909 0
0.689143 0.80705 0
0.751278 0.803433 0
0.795377 0.801541 0
0.828901 0.800565 0
0.854704 0.800198 0
0.874296 0.800412 0
0.88983 0.80119 0
0.898222 0.802579 0
0.898299 0.80473 0
0.895506 0.804395 0.0899672
0.894133 0.806241 0.187655
0.892683 0.808728 0.272312
0.891173 0.81178 0.352697
0.889845 0.815427 0.427222
0.888579 0.819348 0.494896
0.887541 0.823438 0.54844
0.886976 0.827878 0.589624
0.0507057 0.858381 0.0142061
0.0506294 0.858259 0.0141299
0.0505379 0.858137 0.0140536
0.0504768 0.858015 0.0139925
0.0504005 0.857877 0.0139162
0.050309 0.857755 0.0138399
0.0501869 0.857588 0.0137179
0.0500191 0.857359 0.01355
0.0498207 0.857069 0.0133516
0.0495613 0.856687 0.0130922
0.0492409 0.856153 0.0127718
0.0488136 0.855451 0.0123293
0.0482948 0.854551 0.0117037
0.355291 0.844358 0.00500496
0.514015 0.836332 0
0.62356 0.829587 0
0.698192 0.824201 0
0.753201 0.820706 0
0.793683 0.818647 0
0.825467 0.817365 0
0.850156 0.816602 0
0.869688 0.816236 0
0.885557 0.816281 0
0.8981 0.816815 0
0.898833 0.817853 0
0.895293 0.815564 0.132479
0.893996 0.816297 0.214206
0.892531 0.817426 0.292256
0.891081 0.819104 0.366674
0.889784 0.821347 0.437339
0.888533 0.823926 0.501411
0.887526 0.826963 0.552193
0.887007 0.830518 0.591272
0.057908 0.872419 0.0206149
0.057847 0.872282 0.0205539
0.0577859 0.87216 0.0205081
0.0577249 0.872023 0.0204623
0.0576638 0.871885 0.0204013
0.0576028 0.871763 0.0203555
0.0575113 0.871595 0.0202792
0.0574197 0.871351 0.0201877
0.0572671 0.871061 0.0200656
0.057084 0.870665 0.019913
0.0568399 0.870146 0.0196994
0.0565194 0.869474 0.0194247
0.336904 0.860182 0.0117494
0.473304 0.853117 0
0.576684 0.847044 0
0.65481 0.841443 0
0.713207 0.837049 0
0.759045 0.834058 0
0.794903 0.832105 0
0.824033 0.830747 0
0.847044 0.829831 0
0.865873 0.829221 0
0.881575 0.82887 0
0.894316 0.82887 0
0.896178 0.825833 0.0938582
0.894865 0.825132 0.177676
0.893584 0.824964 0.248844
0.892195 0.825147 0.318379
0.890867 0.825818 0.385138
0.889632 0.826978 0.45066
0.888441 0.82858 0.509926
0.887495 0.830671 0.557107
0.887022 0.833371 0.593942
0.0624552 0.883146 0.0244144
0.0624094 0.88304 0.0243687
0.0623484 0.882918 0.0243229
0.0623026 0.882795 0.0242924
0.0622568 0.882658 0.0242466
0.0621958 0.882536 0.0242008
0.0621347 0.882383 0.024155
0.0620432 0.88217 0.0240787
0.0619364 0.88188 0.0239872
0.249165 0.875776 0.0198825
0.346792 0.871885 0.0141756
0.430915 0.867414 0.00553903
0.507378 0.862943 0
0.577569 0.858564 0
0.638758 0.853834 0
0.688869 0.849851 0
0.732326 0.846662 0
0.768383 0.844327 0
0.799023 0.842588 0
0.82472 0.841306 0
0.845563 0.840345 0
0.863325 0.839612 0
0.878355 0.839048 0
0.887678 0.835538 0.083238
0.895354 0.833951 0.161807
0.894194 0.832883 0.226932
0.892927 0.832105 0.289525
0.891676 0.831739 0.349996
0.890532 0.83183 0.408804
0.889387 0.832273 0.467613
0.888289 0.833097 0.520668
0.887449 0.834409 0.563348
0.887037 0.836332 0.597314
0.369863 0.879927 0.0141146
0.385885 0.879057 0.0125277
0.40087 0.878218 0.0109407
0.414939 0.877409 0.00936904
0.428199 0.876646 0.00781262
0.441245 0.875883 0.00616464
0.456596 0.874968 0.00393683
0.475502 0.873823 0.00143435
0.498268 0.872435 0
0.525109 0.870802 0
0.555184 0.868894 0
0.5879 0.866682 0
0.622538 0.864118 0
0.657084 0.861402 0
0.690562 0.858686 0
0.72314 0.855894 0
0.75317 0.853819 0
0.780789 0.852079 0
0.805707 0.850675 0
0.827375 0.849546 0
0.843503 0.846235 0.0453193
0.859007 0.844526 0.0917372
0.87248 0.843229 0.127886
0.883391 0.841871 0.174014
0.892531 0.840467 0.225635
0.893278 0.839139 0.279194
0.892149 0.838087 0.333333
0.891081 0.8374 0.38526
0.890074 0.837064 0.437446
0.889036 0.837018 0.488045
0.888075 0.837278 0.533028
0.887388 0.837995 0.57113
0.887053 0.839261 0.601495
0.598489 0.868986 0.164218
0.603159 0.86862 0.163928
0.607675 0.868238 0.163668
0.612039 0.867887 0.163409
0.616281 0.867536 0.16318
0.620569 0.867185 0.162936
0.625925 0.866743 0.162661
0.6327 0.866194 0.16231
0.641154 0.865476 0.161913
0.650935 0.864607 0.161486
0.662425 0.863554 0.161044
0.676417 0.862333 0.160678
0.692607 0.860929 0.160555
0.710628 0.859434 0.160845
0.729885 0.857893 0.161822
0.749889 0.856382 0.16379
0.770428 0.854917 0.167025
0.790646 0.853559 0.171893
0.809735 0.852308 0.178729
0.826917 0.850858 0.187884
0.842603 0.849775 0.199786
0.85684 0.848692 0.214878
0.869245 0.847623 0.233509
0.879744 0.846571 0.256214
0.888655 0.845335 0.291478
0.892226 0.844022 0.333867
0.89131 0.842924 0.377905
0.89041 0.842069 0.423728
0.889494 0.841413 0.468956
0.888609 0.841031 0.511162
0.887831 0.84094 0.548012
0.887312 0.841276 0.580484
0.887053 0.842084 0.606531
0.698054 0.861158 0.277409
0.69987 0.861051 0.277378
0.70164 0.860945 0.277363
0.703365 0.860853 0.277333
0.705074 0.860761 0.277317
0.706828 0.86067 0.277302
0.709026 0.860548 0.277302
0.711849 0.860395 0.277287
0.71545 0.860212 0.277302
0.719982 0.859998 0.277363
0.725597 0.859724 0.277455
0.732509 0.859403 0.277653
0.740887 0.859052 0.278004
0.75082 0.858656 0.278584
0.762417 0.858061 0.279759
0.775158 0.857176 0.281254
0.78883 0.85626 0.283436
0.80296 0.855344 0.286564
0.816907 0.854429 0.290883
0.830411 0.853544 0.296666
0.843595 0.852628 0.30425
0.855924 0.851698 0.314
0.866926 0.850782 0.326406
0.876631 0.849577 0.341833
0.885008 0.848692 0.360174
0.891157 0.847623 0.389013
0.89044 0.846616 0.425055
0.889662 0.84567 0.463233
0.888884 0.844892 0.500801
0.888151 0.844358 0.534524
0.887572 0.844114 0.564675
0.887221 0.844251 0.591241
0.887068 0.844709 0.612451
0.753567 0.85626 0.375143
0.754437 0.856229 0.375174
0.755276 0.856199 0.375219
0.75613 0.856168 0.375265
0.75697 0.856138 0.375296
0.757839 0.856107 0.375341
0.758938 0.856077 0.375387
0.760372 0.856031 0.375463
0.762219 0.85597 0.375555
0.764599 0.855909 0.375692
0.76762 0.855817 0.375891
0.771405 0.855711 0.37615
0.776089 0.855589 0.376547
0.781796 0.855451 0.377096
0.788556 0.855314 0.377844
0.796368 0.855177 0.378912
0.805097 0.855024 0.380392
0.814466 0.854902 0.382437
0.824537 0.85478 0.385168
0.835096 0.854673 0.38883
0.845945 0.854215 0.393927
0.856229 0.853483 0.400336
0.865736 0.85275 0.408652
0.874479 0.852003 0.419272
0.882185 0.85124 0.432456
0.888899 0.850507 0.448417
0.889494 0.849302 0.473259
0.888884 0.848417 0.502205
0.888273 0.847654 0.530785
0.887739 0.847105 0.557534
0.887358 0.84683 0.581735
0.88716 0.846815 0.602457
0.886763 0.847059 0.619226
0.789853 0.853407 0.460563
0.790295 0.853407 0.460609
0.790738 0.853391 0.460655
0.79118 0.853391 0.460685
0.791608 0.853376 0.460716
0.792065 0.853376 0.460761
0.79263 0.853361 0.460822
0.793378 0.853346 0.460899
0.794354 0.85333 0.461006
