BBLuts/BB_103_0695_LUT.cube
TITLE "Generated by Resolve"
LUT_3D_SIZE 5
0.000701915 0 0
0.103838 0 0
0.672877 0 0
0.801068 0.540276 0.206867
0.713741 1 1
0 0.154284 0
0.0434577 0.168978 0
0.662348 0.0274052 0
0.787793 0.640314 0.159747
0.713619 1 1
0 0.827207 0
0 0.826627 0
0.518074 0.857893 0
0.74992 0.920256 0.0256504
0.712886 1 1
0.357122 1 0.316747
0.408804 1 0.312001
0.575006 1 0.316518
0.718334 1 0.517037
0.709606 1 1
0.68098 1 1
0.681361 1 1
0.684077 1 1
0.699031 1 1
0.70782 1 1
0 0 0.240223
0.0815595 0 0.249454
0.663417 0 0.192218
0.803235 0.518318 0.42356
0.713542 1 1
0 0.117769 0.194553
0.047364 0.126696 0.202258
0.664942 0 0.170275
0.789151 0.626108 0.397574
0.71342 1 1
0 0.822385 0
0 0.821744 0
0.523812 0.853651 0
0.747036 0.916304 0.152117
0.712657 1 1
0.36585 1 0.314855
0.415198 1 0.31043
0.576623 1 0.315908
0.718425 1 0.516976
0.709606 1 1
0.681025 1 1
0.681422 1 1
0.684123 1 1
0.699062 1 1
0.70782 1 1
0 0 0.99176
0 0 0.991989
0.653971 0 0.975662
0.83241 0.166232 1
0.713237 1 1
0 0 0.989807
0 0 0.990066
0.662516 0 0.973571
0.812345 0.435416 1
0.713115 1 1
0 0.754513 0.902571
0 0.755032 0.903014
0.493004 0.789258 0.950729
0.731426 0.878355 0.98529
0.712261 1 1
0.356268 1 0.800259
0.404028 1 0.796521
0.560998 1 0.793805
0.70454 1 0.875044
0.709255 1 1
0.681468 1 1
0.681849 1 1
0.684504 1 1
0.699214 1 1
0.70782 1 1
0 0 1
0 0 1
0 0 1
0.84567 0 1
0.716365 0.978424 1
0 0 1
0 0 1
0 0 1
0.84567 0 1
0.71603 0.981338 1
0 0 1
0 0 1
0.203235 0 1
0.84567 0 1
0.714168 0.999222 1
0 1 1
0 1 1
0.412848 1 1
0.688106 1 1
0.70959 1 1
0.679118 1 1
0.679469 1 1
0.682063 1 1
0.696513 1 1
0.707897 1 1
0 0.21973 1
0 0.21973 1
0 0.21976 1
0 0.219501 1
0.756146 0.776043 1
0 0.219715 1
0 0.219715 1
0 0.21973 1
0 0.219486 1
0.756115 0.776165 1
0 0.219577 1
0 0.219577 1
0 0.219593 1
0.206027 0.235294 1
0.755856 0.777188 1
0 0.218173 1
0 0.218173 1
0 0.218204 1
0.844724 0 1
0.755001 0.780453 1
0.628626 1 1
0.630335 1 1
0.641382 1 1
0.683024 1 1
0.708217 1 1
