BBLuts/BB_106_0440_LUT.cube
TITLE "Generated by Resolve"
LUT_3D_SIZE 5
0 0 0
0.154757 0 0
0.738659 0 0
0.895537 0.475502 0.101869
0.886671 0.814969 0.59707
0 0.173846 0
0.132036 0.170703 0
0.732662 0.0480659 0
0.895476 0.553552 0.0674449
0.886687 0.815869 0.596689
0 0.728206 0
0 0.727825 0
0.704234 0.707134 0
0.896101 0.749157 0
0.886824 0.821668 0.593835
0.598489 0.868986 0.164218
0.641154 0.865476 0.161913
0.770428 0.854917 0.167025
0.888655 0.845335 0.291478
0.887053 0.842084 0.606531
0.865125 0.849439 0.64976
0.865431 0.849439 0.64979
0.867643 0.849439 0.649958
0.879698 0.849454 0.651576
0.886793 0.849424 0.663859
0 0 0.131579
0.139147 0 0.139193
0.737881 0 0.143832
0.896452 0.457511 0.242298
0.88658 0.814633 0.60589
0 0.140826 0.12108
0.136858 0.132097 0.112215
0.738598 0 0.130068
0.896361 0.542062 0.223697
0.886595 0.815534 0.60557
0 0.725048 0
0 0.72462 0
0.708309 0.704219 0
0.89395 0.745571 0.0595865
0.886732 0.821363 0.60325
0.605722 0.868391 0.163088
0.646235 0.865019 0.160998
0.771695 0.85481 0.166644
0.888716 0.845304 0.291432
0.887053 0.842069 0.606485
0.865156 0.849439 0.64976
0.865476 0.849439 0.64979
0.867674 0.849439 0.649958
0.879713 0.849454 0.65156
0.886793 0.849424 0.663859
0 0 0.603845
0 0 0.603967
0.745846 0 0.606592
0.897032 0.178393 0.614221
0.886183 0.812711 0.642832
0 0 0.602823
0 0 0.602975
0.752972 0 0.605798
0.900023 0.391623 0.609155
0.886198 0.813672 0.642664
0 0.680354 0.57229
0 0.680705 0.572503
0.686351 0.660258 0.560327
0.887037 0.719829 0.576135
0.886305 0.819867 0.641505
0.601572 0.861173 0.46894
0.641032 0.857801 0.466667
0.763577 0.847257 0.465202
0.880796 0.839521 0.51368
0.886687 0.841581 0.633082
0.865522 0.849439 0.649729
0.865827 0.849439 0.64976
0.867979 0.849439 0.649927
0.879835 0.849454 0.651545
0.886793 0.849424 0.663859
0 0 0.729854
0 0 0.729854
0 0 0.729854
0.910704 0 0.742107
0.886229 0.791012 0.694408
0 0 0.729854
0 0 0.729854
0 0 0.729854
0.910704 0 0.742107
0.886244 0.793133 0.694255
0 0 0.729854
0 0 0.729854
0.329488 0 0.729198
0.910704 0 0.742107
0.886412 0.805768 0.693355
0.0598917 0.889677 0.723293
0.0596628 0.888472 0.723171
0.649592 0.84712 0.695033
0.868864 0.832349 0.689235
0.887037 0.839231 0.6907
0.863813 0.849531 0.680034
0.864103 0.849531 0.680049
0.866209 0.849531 0.680095
0.877867 0.849546 0.680598
0.886992 0.849515 0.68484
0 0.255573 0.718318
0 0.255573 0.718318
0 0.255589 0.718318
0 0.255756 0.718318
0.894194 0.647837 0.711986
0 0.255558 0.718318
0 0.255558 0.718318
0 0.255573 0.718318
0 0.255741 0.718318
0.894194 0.647929 0.711971
0 0.255436 0.718318
0 0.255436 0.718318
0 0.255451 0.718318
0.362097 0.234852 0.715206
0.894118 0.648615 0.71191
0 0.254215 0.718318
0 0.254215 0.718318
0 0.254231 0.718318
0.910704 0 0.742107
0.893904 0.650828 0.711696
0.822843 0.849561 0.702052
0.824231 0.849561 0.702037
0.833219 0.849546 0.702007
0.86714 0.849607 0.701976
0.887388 0.849821 0.702098
