BBLuts/BB_103_0100_LUT.cube
TITLE "Generated by Resolve"
LUT_3D_SIZE 33
0 0 0
0 0 0
0 0 0
0 0 0
0.0398871 0 0
0.0818494 0 0
0.113954 0 0
0.146624 0 0
0.185595 0 0
0.232624 0 0
0.287266 0 0
0.349523 0 0
0.422995 0 0
0.507454 0 0
0.592065 0 0
0.670817 0 0
0.746288 0 0
0.814466 0 0
0.872557 0 0
0.909346 0 0
0.918349 0 0
0.921004 0.0599985 0
0.92253 0.295766 0.000671397
0.91284 0.455833 0.0199741
0.904921 0.58761 0.0591135
0.896864 0.688853 0.0986648
0.889738 0.771817 0.148547
0.88455 0.833707 0.218631
0.880385 0.877867 0.312566
0.876768 0.910674 0.412802
0.873518 0.934768 0.505959
0.870665 0.954086 0.586908
0.868528 0.969085 0.656229
0 0 0
0 0 0
0 0 0
0.00161746 0 0
0.0447395 0 0
0.0830854 0 0
0.115541 0 0
0.149783 0 0
0.189059 0 0
0.235492 0 0
0.28896 0 0
0.351034 0 0
0.42475 0 0
0.509056 0 0
0.593057 0 0
0.671321 0 0
0.746548 0 0
0.814557 0 0
0.872343 0 0
0.909117 0 0
0.918456 0 0
0.922484 0.105226 0
0.921111 0.318791 0
0.91162 0.46772 0.0131533
0.904295 0.594003 0.0568551
0.896513 0.692317 0.0975052
0.88957 0.773693 0.148119
0.884474 0.834607 0.218509
0.880354 0.878325 0.312306
0.876753 0.910933 0.41265
0.873503 0.934905 0.505882
0.870665 0.954162 0.586847
0.868513 0.969116 0.656214
0 0 0
0 0 0
0 0 0
0.0121614 0 0
0.0472725 0 0
0.0807507 0 0
0.113756 0 0
0.149462 0 0
0.190188 0 0
0.237232 0 0
0.290776 0 0
0.352834 0 0
0.426596 0 0
0.510613 0 0
0.594095 0 0
0.672053 0 0
0.746929 0 0
0.814618 0 0
0.872129 0 0
0.908858 0 0
0.918898 0.0119783 0
0.923964 0.159976 0
0.919722 0.337926 0
0.910582 0.47808 0.00817884
0.903746 0.599664 0.0548714
0.896178 0.695476 0.096437
0.889403 0.775418 0.147738
0.884398 0.835477 0.218387
0.880323 0.878798 0.312062
0.876738 0.911162 0.412497
0.873503 0.935042 0.505791
0.870665 0.954223 0.586816
0.868513 0.969162 0.656199
0 0.0303197 0
0 0.0323491 0
0 0.0344396 0
0 0.0355383 0
0.0338293 0.0341955 0
0.0719921 0.0323491 0
0.107149 0.0286107 0
0.145296 0.0201419 0
0.189364 0.00117494 0
0.238437 0 0
0.29279 0 0
0.35494 0 0
0.428611 0 0
0.512245 0 0
0.595224 0 0
0.672862 0 0
0.747326 0 0
0.814694 0 0
0.8719 0 0
0.908583 0 0
0.919173 0.0257572 0
0.924361 0.19678 0
0.918517 0.354955 0
0.909804 0.488518 0.00695811
0.903166 0.605371 0.0525216
0.895842 0.698558 0.0953384
0.889265 0.77705 0.147372
0.884337 0.836332 0.21828
0.880293 0.879255 0.311803
0.876722 0.911406 0.412345
0.873487 0.935164 0.50573
0.870649 0.954299 0.58677
0.868513 0.969207 0.656168
0 0.061326 0
0 0.0634318 0
0 0.0652323 0
0 0.0661021 0
0.0198825 0.065568 0
0.0609445 0.0643931 0
0.0994888 0.0619974 0
0.139651 0.0568856 0
0.185046 0.0462806 0
0.23592 0.0328069 0
0.292912 0.00588998 0
0.356786 0 0
0.430976 0 0
0.514366 0 0
0.596445 0 0
0.673518 0 0
0.74757 0 0
0.814649 0 0
0.871641 0 0
0.908522 0 0
0.919768 0.0488594 0
0.924239 0.225528 0
0.917433 0.370062 0
0.909133 0.497902 0.00642405
0.902602 0.610849 0.0501259
0.895506 0.701778 0.0941024
0.889097 0.778805 0.14696
0.884276 0.83714 0.218173
0.880262 0.879667 0.311574
0.876707 0.91165 0.412192
0.873487 0.935286 0.505653
0.870649 0.954376 0.586725
0.868513 0.969238 0.656138
0 0.0901503 0
0 0.0919966 0
0 0.0932021 0
0 0.0938582 0
0 0.0942092 0
0.0393988 0.0931716 0
0.0880293 0.0919966 0
0.132265 0.0895857 0
0.179736 0.0847944 0
0.232258 0.0758068 0
0.290425 0.0585031 0
0.356054 0.0373999 0
0.432425 0.00518807 0
0.516396 0 0
0.598047 0 0
0.674662 0 0
0.748012 0 0
0.814603 0 0
0.871153 0 0
0.908232 0 0
0.921096 0.0915084 0
0.923735 0.253971 0
0.916274 0.386206 0
0.9084 0.508049 0.00585946
0.901991 0.616648 0.0475624
0.895125 0.705379 0.0926986
0.888914 0.780835 0.146502
0.884184 0.838193 0.218051
0.880232 0.880186 0.311284
0.876677 0.91191 0.412024
0.873472 0.935439 0.505562
0.870649 0.954452 0.586664
0.868513 0.969284 0.656107
0 0.122667 0
0 0.124025 0
0 0.124987 0
0 0.125536 0
0 0.125948 0
0.0133822 0.125551 0
0.0674296 0.124926 0
0.119768 0.123613 0
0.171313 0.120729 0
0.226413 0.114885 0
0.28719 0.105547 0
0.355123 0.0912032 0
0.43267 0.0672313 0
0.517082 0.0356603 0
0.598795 0.000503548 0
0.675456 0 0
0.748699 0 0
0.814923 0 0
0.870817 0 0
0.908644 0.0369879 0
0.922805 0.151965 0
0.922591 0.287053 0
0.914778 0.406424 0
0.907408 0.521065 0.00480659
0.901167 0.624002 0.0431373
0.894636 0.709972 0.0909133
0.88867 0.783536 0.145892
0.884062 0.839628 0.217899
0.880171 0.880964 0.310887
0.876661 0.912276 0.411795
0.873457 0.935637 0.50544
0.870634 0.954574 0.586587
0.868498 0.969345 0.656077
0 0.160861 0
0 0.161791 0
0 0.162509 0
0 0.162997 0
0 0.163455 0
0 0.163775 0
0.0334173 0.163272 0
0.0963149 0.162539 0
0.155871 0.160494 0
0.215747 0.156313 0
0.280964 0.14966 0
0.353185 0.140154 0
0.433631 0.12668 0
0.518593 0.105882 0
0.599222 0.0779278 0
0.675685 0.0502785 0
0.748837 0.0165255 0
0.814649 0 0
0.870756 0.0275273 0
0.910201 0.112245 0
0.923262 0.217014 0
0.920531 0.325185 0
0.912917 0.431907 0
0.90605 0.53782 0.0031281
0.900023 0.633417 0.0361639
0.893965 0.716274 0.0883497
0.88835 0.787106 0.145098
0.883909 0.841581 0.217685
0.880095 0.882078 0.310323
0.876616 0.912856 0.41146
0.873442 0.935927 0.505272
0.870634 0.954726 0.586496
0.868498 0.969421 0.656016
0 0.20531 0
0 0.205921 0
0 0.206348 0
0 0.206653 0
0 0.206867 0
0 0.206943 0
0 0.207095 0
0.0514076 0.206409 0
0.127504 0.205676 0
0.197345 0.203235 0
0.268849 0.198566 0
0.347005 0.191409 0
0.432746 0.181842 0
0.520378 0.16997 0
0.601007 0.155657 0
0.677287 0.138827 0
0.750179 0.118059 0
0.815961 0.109377 0
0.872724 0.138674 0
0.910765 0.202564 0
0.921675 0.281605 0
0.917494 0.369268 0
0.910628 0.463676 0
0.90428 0.558572 0.000823987
0.898466 0.645777 0.0265049
0.893065 0.724773 0.0847944
0.887907 0.791989 0.144015
0.883711 0.844175 0.217411
0.879988 0.883574 0.309545
0.87657 0.913695 0.410956
0.873411 0.936385 0.504982
0.870604 0.954955 0.586343
0.868498 0.969558 0.65594
0 0.256062 0
0 0.256489 0
0 0.256794 0
0 0.25713 0
0 0.257298 0
0 0.257343 0
0 0.257313 0
0 0.257481 0
0.0705882 0.257649 0
0.163836 0.257527 0
0.247501 0.254826 0
0.333394 0.249775 0
0.426642 0.242847 0
0.519509 0.234836 0
0.601846 0.226551 0
0.678416 0.219654 0
0.750942 0.216419 0
0.81619 0.22211 0
0.87126 0.244663 0
0.907408 0.287678 0
0.917784 0.347433 0
0.913787 0.419959 0
0.907988 0.502373 0
0.90193 0.584192 0
0.896391 0.661631 0.014313
0.89192 0.735775 0.0804456
0.887343 0.798489 0.14258
0.883436 0.8477 0.21709
0.87985 0.885557 0.308522
0.876493 0.914839 0.410285
0.873381 0.937041 0.50457
0.870588 0.955322 0.586099
0.868482 0.969741 0.655833
0 0.317128 0
0 0.317479 0
0 0.3178 0
0 0.31812 0
0 0.318456 0
0 0.318639 0
0 0.3187 0
0 0.318624 0
0.00627146 0.319463 0
0.105989 0.321431 0
0.209384 0.321584 0
0.3084 0.318898 0
0.411399 0.314458 0
0.512078 0.309331 0
0.598505 0.304341 0
0.6766 0.301656 0
0.748638 0.303471 0
0.812192 0.312825 0
0.865019 0.333928 0
0.900328 0.368872 0
0.912535 0.417121 0
0.909667 0.477424 0
0.90486 0.545617 0
0.899168 0.615167 0
0.894163 0.682094 0.00823987
0.890547 0.749432 0.0754559
0.886625 0.806836 0.14081
0.88307 0.852415 0.216815
0.879667 0.888273 0.307836
0.876387 0.916335 0.4094
0.87332 0.937942 0.504021
0.870558 0.955856 0.585733
0.868467 0.970016 0.65565
0 0.392309 0
0 0.392615 0
0 0.392935 0
0 0.393194 0
0 0.393515 0
0 0.393744 0
0 0.394034 0
0 0.394171 0
0 0.394781 0
0.0294041 0.397116 0
0.144106 0.400793 0
0.265126 0.401205 0
0.383108 0.398901 0
0.494362 0.395834 0
0.587686 0.392645 0
0.669322 0.391562 0
0.742092 0.39472 0
0.804273 0.404349 0
0.85539 0.423056 0
0.891524 0.452064 0
0.907027 0.491493 0
0.905364 0.538888 0
0.901076 0.592798 0
0.896193 0.648371 0
0.891737 0.707103 0.00614939
0.888899 0.766033 0.0688945
0.885756 0.817075 0.138705
0.882597 0.858457 0.216739
0.879393 0.89189 0.307927
0.876265 0.918364 0.40827
0.873259 0.939116 0.503273
0.870512 0.956558 0.585229
0.868437 0.970443 0.655375
0 0.482765 0
0 0.48304 0
0 0.483314 0
0 0.483558 0
0 0.483772 0
0 0.483986 0
0 0.484321 0
0 0.484535 0
0 0.484794 0
0 0.486305 0
0.0549935 0.490333 0
0.19498 0.494438 0
0.337865 0.493782 0
0.464881 0.491508 0
0.568185 0.488716 0
0.655543 0.487709 0
0.731731 0.490639 0
0.794568 0.499123 0
0.844739 0.514427 0
0.881971 0.536873 0
0.900984 0.565927 0
0.900023 0.601526 0
0.896803 0.641642 0
0.892668 0.686641 0
0.889006 0.735882 0.00402838
0.887022 0.785519 0.0604257
0.884749 0.82945 0.136187
0.882033 0.865995 0.216861
0.879042 0.896529 0.308537
0.876081 0.921096 0.406867
0.873152 0.940734 0.502266
0.870451 0.957504 0.584588
0.868391 0.971008 0.654994
0 0.576654 0
0 0.576822 0
0 0.577005 0
0 0.577157 0
0 0.577295 0
0 0.577447 0
0 0.577585 0
0 0.577722 0
0 0.577874 0
0 0.577951 0
0 0.579736 0
0.092134 0.583932 0
0.266392 0.585641 0
0.421057 0.5841 0
0.540749 0.582147 0
0.635493 0.581109 0
0.717067 0.583017 0
0.782162 0.589014 0
0.831891 0.599985 0
0.86981 0.616358 0
0.892042 0.636316 0
0.894438 0.661524 0
0.892134 0.692561 0
0.888869 0.728237 0
0.886183 0.767178 0.0016022
0.884993 0.807141 0.0498207
0.883619 0.843793 0.133715
0.881346 0.875212 0.217288
0.878614 0.902266 0.309606
0.875853 0.924575 0.406058
0.873014 0.942916 0.500938
0.870375 0.958801 0.583703
0.868345 0.971756 0.654505
0 0.661814 0
0 0.66186 0
0 0.661952 0
0 0.662028 0
0 0.662089 0
0 0.66215 0
0 0.662211 0
0 0.662226 0
0 0.662181 0
0 0.662104 0
0 0.661784 0
0 0.66424 0
0.165927 0.667964 0
0.357687 0.667628 0
0.50367 0.666194 0
0.609232 0.664866 0
0.697017 0.665568 0
0.765591 0.669306 0
0.816678 0.676539 0
0.854948 0.687633 0
0.880003 0.702708 0
0.888289 0.721599 0
0.88716 0.744427 0
0.885267 0.77055 0
0.883406 0.799359 0
0.882856 0.830045 0.0359655
0.882429 0.859739 0.131746
0.880552 0.886061 0.218555
0.878096 0.909224 0.311406
0.875517 0.928878 0.406973
0.872831 0.945739 0.499748
0.870268 0.96054 0.582513
0.868284 0.972763 0.653819
0 0.742855 0
0 0.742855 0
0 0.74287 0
0 0.742885 0
0 0.742916 0
0 0.742916 0
0 0.742885 0
0 0.742809 0
0 0.742657 0
0 0.742367 0
0 0.741848 0
0 0.742168 0
0.0687114 0.745586 0
0.27808 0.747387 0
0.457664 0.745586 0
0.578454 0.743343 0
0.672877 0.742535 0
0.745357 0.744183 0
0.798749 0.748425 0
0.838346 0.755383 0
0.866545 0.765225 0
0.881376 0.777935 0
0.88304 0.793194 0
0.882155 0.810895 0
0.880888 0.830823 0
0.880735 0.853254 0.0210727
0.881193 0.877012 0.131121
0.879683 0.898238 0.221317
0.877485 0.917342 0.314473
0.875105 0.934157 0.409323
0.872587 0.949233 0.499306
0.87013 0.962783 0.581109
0.868193 0.974151 0.652857
0 0.816342 0
0 0.816342 0
0 0.816342 0
0 0.816327 0
0 0.816312 0
0 0.816251 0
0 0.816159 0
0 0.815976 0
0 0.815686 0
0 0.815244 0
0 0.814527 0
0 0.813458 0
0.00636301 0.815473 0
0.199207 0.818311 0
0.407156 0.815793 0
0.548379 0.812192 0
0.648829 0.809522 0
0.724651 0.809033 0
0.780423 0.810544 0
0.822003 0.813901 0
0.852689 0.819226 0
0.872526 0.826627 0
0.879423 0.835966 0
0.879347 0.847303 0
0.878874 0.860578 0
0.879103 0.876661 0.0183413
0.879957 0.894987 0.13402
0.878721 0.911345 0.226169
0.876783 0.926421 0.319234
0.874601 0.940459 0.41294
0.872221 0.953902 0.500542
0.869947 0.965576 0.57969
0.868086 0.975937 0.651621
0 0.875181 0
0 0.875181 0
0 0.875181 0
0 0.875181 0
0 0.875166 0
0 0.87512 0
0 0.874983 0
0 0.874723 0
0 0.874296 0
0 0.873671 0
0 0.872786 0
0 0.87155 0
0 0.872099 0
0.140673 0.874189 0
0.363378 0.871275 0
0.52575 0.866361 0
0.62977 0.862119 0
0.707195 0.860044 0
0.764233 0.859693 0
0.806989 0.86067 0
0.83946 0.863005 0
0.862501 0.866819 0
0.875395 0.87216 0
0.877211 0.879088 0
0.877379 0.888029 0
0.878172 0.899825 0.0363317
0.878782 0.912825 0.142702
0.877745 0.924758 0.23389
0.876005 0.936278 0.326131
0.874006 0.947631 0.418265
0.871794 0.958923 0.503868
0.869688 0.968917 0.579965
0.867933 0.978164 0.650126
0 0.920211 0
0 0.920211 0
0 0.920211 0
0 0.920211 0
0 0.920211 0
0 0.920211 0
0 0.920134 0
0 0.919921 0
0 0.919432 0
0 0.918654 0
0 0.917617 0
0 0.916289 0
0 0.916014 0
0.116915 0.917342 0
0.343954 0.913787 0
0.513985 0.907897 0
0.617685 0.902739 0
0.694301 0.899641 0
0.751003 0.898177 0
0.794171 0.897795 0
0.827527 0.898405 0
0.852522 0.900084 0
0.86949 0.902907 0
0.87509 0.906889 0
0.876173 0.912779 0.00367742
0.877409 0.921248 0.0646982
0.877653 0.929915 0.157656
0.876707 0.938201 0.245624
0.875151 0.946761 0.335775
0.873304 0.955947 0.425589
0.87129 0.964614 0.508751
0.869352 0.972885 0.583215
0.867735 0.980896 0.649805
0 0.954787 0.000854505
0 0.954787 0.000854505
0 0.954787 0.000854505
0 0.954787 0.000854505
0 0.954787 0.000854505
0 0.954787 0.000854505
0 0.954787 0.000854505
0 0.954711 0.000854505
0 0.954406 0.000823987
0 0.953597 0.00077821
0 0.952422 0.000701915
0 0.951003 0.000610361
0 0.950256 0.000747692
0.121309 0.951156 0.000518807
0.358648 0.946319 0
0.514916 0.939498 0
0.613413 0.93402 0
0.686503 0.930449 0
0.74139 0.928374 0
0.783795 0.92726 0
0.817151 0.926863 0
0.842878 0.927199 0
0.862287 0.928328 0
0.872801 0.930358 0
0.874784 0.934249 0.0099031
0.876585 0.94023 0.0932326
0.876554 0.94583 0.178561
0.875593 0.951873 0.262577
0.874189 0.957855 0.349096
0.872541 0.964279 0.435401
0.87071 0.97081 0.515251
0.86894 0.977401 0.588037
0.86746 0.984115 0.652094
0 0.980011 0.00230411
0 0.980011 0.00230411
0 0.980011 0.00230411
0 0.980011 0.00230411
0 0.980011 0.00230411
0 0.980011 0.00230411
0 0.980011 0.00230411
0 0.980011 0.00230411
0 0.979995 0.00230411
0 0.979522 0.00227359
0 0.978408 0.00221256
0 0.977005 0.00216678
0 0.976242 0.00230411
0.16051 0.976364 0.00187686
0.400183 0.969787 0
0.528756 0.963363 0
0.617411 0.958038 0
0.684306 0.954498 0
0.735836 0.952209 0
0.776425 0.950713 0
0.808911 0.949813 0
0.834592 0.949432 0
0.855329 0.949615 0
0.869474 0.950835 0
0.874113 0.953811 0.0364538
0.875685 0.957595 0.128191
0.875395 0.960906 0.206851
0.874464 0.964416 0.285481
0.873198 0.968338 0.367391
0.871717 0.972686 0.448417
0.870069 0.977371 0.523964
0.868452 0.982376 0.594369
0.86714 0.987762 0.655833
0 0.999069 0.00354009
0 0.999069 0.00354009
0 0.999069 0.00354009
0 0.999069 0.00354009
0 0.999069 0.00354009
0 0.999069 0.00354009
0 0.999069 0.00354009
0 0.999069 0.00354009
0 0.999069 0.00354009
0 0.999069 0.00354009
0 0.998489 0.00350958
0 0.997162 0.00343328
0.0558022 0.997086 0.00320439
0.273854 0.994049 0.00129702
0.451667 0.987152 0
0.552728 0.98117 0
0.628382 0.976486 0
0.687175 0.97322 0
0.734005 0.970977 0
0.771862 0.96939 0
0.802411 0.968277 0
0.827802 0.967544 0
0.848692 0.967498 0
0.865034 0.968811 0.0284276
0.873472 0.97084 0.100542
0.874403 0.972427 0.173098
0.874189 0.973922 0.242847
0.873289 0.975799 0.31516
0.872175 0.978149 0.391043
0.870832 0.980911 0.465553
0.869352 0.984054 0.535531
0.867933 0.987655 0.602518
0.866789 0.99176 0.660883
0.0223239 1 0.00444038
0.0223239 1 0.00445563
0.0223239 1 0.00445563
0.0223239 1 0.00445563
0.0223239 1 0.00445563
0.0223239 1 0.00445563
0.0223239 1 0.00445563
0.0223239 1 0.00445563
0.0223239 1 0.00445563
0.0223239 1 0.00445563
0.0223087 1 0.00445563
0.0231785 1 0.00440986
0.179004 1 0.00375372
0.391852 1 0
0.505455 0.99971 0
0.58265 0.994644 0
0.644633 0.990784 0
0.694575 0.987991 0
0.735958 0.985916 0
0.770413 0.984512 0
0.799176 0.983825 0.00486763
0.823728 0.983291 0.014435
0.844297 0.983307 0.0358892
0.861189 0.984085 0.0948501
0.871717 0.984512 0.159655
0.873198 0.984771 0.221942
0.872938 0.985122 0.285496
0.872099 0.985901 0.351507
0.871092 0.987106 0.419837
0.869886 0.988678 0.487068
0.868589 0.990616 0.550713
0.867369 0.992996 0.612848
0.866392 0.995926 0.667292
0.312154 1 0.0323186
0.312154 1 0.0323186
0.312154 1 0.0323186
0.312154 1 0.0323186
0.312154 1 0.0323186
0.312154 1 0.0323186
0.312139 1 0.0323186
0.312139 1 0.0323186
0.312123 1 0.0323186
0.312123 1 0.0323186
0.312108 1 0.0323186
0.312078 1 0.0323186
0.373068 1 0.0306096
0.474235 1 0.0278935
0.554284 1 0.0257877
0.615671 1 0.0247959
0.665217 1 0.0247501
0.706691 1 0.0254673
0.742336 0.999146 0.0268711
0.7729 0.997986 0.037995
0.799115 0.997467 0.0682994
0.822049 0.996979 0.102358
0.841169 0.996445 0.134676
0.856931 0.995956 0.174151
0.86833 0.995468 0.221988
0.871672 0.994995 0.275624
0.871656 0.994629 0.33312
0.870893 0.99469 0.393439
0.869963 0.995041 0.4533
0.86891 0.995697 0.512108
0.867796 0.996704 0.569574
0.866773 0.998154 0.62591
0.86598 1 0.675227
0.523491 1 0.156191
0.523491 1 0.156191
0.523491 1 0.156191
0.523491 1 0.156191
0.523491 1 0.156191
0.523491 1 0.156191
0.523491 1 0.156191
0.523491 1 0.156191
0.523476 1 0.156191
0.523476 1 0.156191
0.523476 1 0.156191
0.523461 1 0.156191
0.523445 1 0.156191
0.548669 1 0.156207
0.598947 1 0.157
0.647471 1 0.15938
0.687312 1 0.163241
0.72137 1 0.168704
0.751232 1 0.176059
0.777157 1 0.18555
0.799939 1 0.197574
0.820493 1 0.212787
0.837903 1 0.231754
0.852628 1 0.256138
0.864195 1 0.290883
0.869902 1 0.335088
0.87039 1 0.385519
0.869657 1 0.43801
0.868818 1 0.490806
0.867903 1 0.540825
0.866987 1 0.59234
0.866194 1 0.64152
0.865553 1 0.685191
0.627237 1 0.272251
0.627237 1 0.272251
0.627237 1 0.272251
0.627237 1 0.272251
0.627237 1 0.272251
0.627237 1 0.272251
0.627237 1 0.272251
0.627237 1 0.272251
0.627222 1 0.272251
0.627222 1 0.272251
0.627222 1 0.272251
0.627222 1 0.272251
0.627222 1 0.272251
0.627207 1 0.272251
0.642084 1 0.272755
0.67425 1 0.2748
0.707088 1 0.277821
0.735149 1 0.281895
0.759625 1 0.287205
0.781399 1 0.294133
0.801236 1 0.302907
0.819547 1 0.313985
0.83534 1 0.328023
0.849012 1 0.345541
0.860487 1 0.368353
0.867933 1 0.400793
0.868788 1 0.440589
0.868437 1 0.48455
0.867704 1 0.528527
0.866941 1 0.573358
0.866224 1 0.617914
0.865614 1 0.659556
0.865141 1 0.696818
0.692424 1 0.382544
0.692424 1 0.382544
0.692424 1 0.382544
0.692424 1 0.382544
0.692424 1 0.382544
0.692424 1 0.382544
0.692424 1 0.382544
0.692409 1 0.382544
0.692409 1 0.382544
0.692409 1 0.382544
0.692409 1 0.382544
0.692409 1 0.382544
0.692409 1 0.382544
0.692393 1 0.382544
0.692393 1 0.382544
0.702296 1 0.383291
0.724727 1 0.385489
0.747997 1 0.388769
0.768154 1 0.392813
0.786679 1 0.398169
0.803723 1 0.404562
0.819715 1 0.412558
0.833753 1 0.422538
0.846204 1 0.434989
0.857023 1 0.450507
0.865049 1 0.470222
0.867247 1 0.498299
0.867247 1 0.531014
0.866651 1 0.568475
0.866041 1 0.607401
0.865522 1 0.6448
0.865095 1 0.679225
0.864759 1 0.710109
0.737072 1 0.482292
0.737072 1 0.482292
0.737072 1 0.482292
0.737072 1 0.482292
0.737072 1 0.482292
0.737072 1 0.482292
0.737072 1 0.482292
0.737072 1 0.482292
0.737072 1 0.482292
