BBLuts/BB_103_0780_LUT.cube
TITLE "Generated by Resolve"
LUT_3D_SIZE 33
0 0 0
0 0 0
0 0 0
0 0 0
0 0 0
0 0 0
0.0623636 0 0
0.11075 0 0
0.15848 0 0
0.215503 0 0
0.279347 0 0
0.347433 0 0
0.417563 0 0
0.495857 0 0
0.586404 0 0
0.684703 0 0
0.786053 0 0
0.887587 0 0
0.977218 0 0
1 0 0
1 0 0
1 0 0
1 0.248814 0.0195926
1 0.429313 0.0711833
1 0.558846 0.128923
0.991989 0.677455 0.197925
0.982605 0.785992 0.287083
0.97496 0.872663 0.394629
0.969162 0.937423 0.495415
0.964569 0.987518 0.597208
0.961074 1 0.698482
0.958267 1 0.792325
0.956069 1 0.866743
0 0 0
0 0 0
0 0 0
0 0 0
0 0 0
0.0118715 0 0
0.0675822 0 0
0.11458 0 0
0.164645 0 0
0.222522 0 0
0.286183 0 0
0.353216 0 0
0.420859 0 0
0.497932 0 0
0.588235 0 0
0.685985 0 0
0.786816 0 0
0.887907 0 0
0.97705 0 0
1 0 0
1 0 0
1 0 0
1 0.278889 0.00640879
1 0.441993 0.0653544
1 0.567163 0.12578
0.991516 0.683207 0.196246
0.9823 0.789715 0.285405
0.974792 0.874739 0.393881
0.969055 0.938613 0.494987
0.964508 0.988205 0.596948
0.961044 1 0.698314
0.958236 1 0.792233
0.956069 1 0.866682
0 0 0
0 0 0
0 0 0
0 0 0
0 0 0
0.0204776 0 0
0.0698405 0 0
0.118257 0 0
0.171069 0 0
0.229252 0 0
0.291615 0 0
0.356405 0 0
0.423407 0 0
0.500221 0 0
0.590082 0 0
0.687221 0 0
0.787549 0 0
0.888182 0 0
0.976837 0 0
1 0 0
1 0 0
1 0 0
1 0.305104 0
1 0.454108 0.0591135
1 0.57528 0.122591
0.991043 0.688869 0.194568
0.981994 0.793332 0.283711
0.974624 0.876799 0.393149
0.968963 0.939803 0.49456
0.964462 0.988876 0.596689
0.961013 1 0.698131
0.958221 1 0.792142
0.956054 1 0.866636
0 0 0
0 0 0
0 0 0
0 0 0
0 0 0
0.0268559 0 0
0.0709697 0 0
0.118807 0 0
0.172274 0 0
0.231785 0 0
0.294957 0 0
0.359167 0 0
0.425879 0 0
0.50251 0 0
0.591943 0 0
0.688487 0 0
0.788281 0 0
0.888426 0 0
0.976608 0 0
1 0 0
1 0 0
1 0.0755322 0
1 0.328389 0
1 0.465766 0.0524147
1 0.5832 0.119371
0.990585 0.694423 0.192859
0.981704 0.796872 0.282032
0.974456 0.878843 0.392416
0.968856 0.940978 0.494133
0.964401 0.989532 0.596414
0.960983 1 0.697978
0.958206 1 0.792035
0.956039 1 0.866575
0 0.0116274 0
0 0.0155337 0
0 0.0193332 0
0 0.0229801 0
0 0.0243992 0
0.0099794 0.0240177 0
0.0586709 0.0216526 0
0.109178 0.0158083 0
0.16585 0.00239567 0
0.232746 0 0
0.296956 0 0
0.361593 0 0
0.428275 0 0
0.504845 0 0
0.593835 0 0
0.689754 0 0
0.788998 0 0
0.888655 0 0
0.976349 0 0
1 0 0
1 0 0
1 0.148394 0
1 0.349447 0
1 0.476967 0.0450904
1 0.590921 0.116075
0.990127 0.699901 0.19118
0.981414 0.800381 0.280354
0.974289 0.880842 0.391684
0.968765 0.942153 0.493721
0.964355 0.990204 0.59617
0.960952 1 0.69781
0.95819 1 0.791928
0.956024 1 0.866514
0 0.0536049 0
0 0.0567483 0
0 0.0598306 0
0 0.0622873 0
0 0.063447 0
0 0.0637522 0
0.0461738 0.0631113 0
0.100206 0.0608225 0
0.158526 0.0556191 0
0.223987 0.0450294 0
0.291386 0.0239719 0
0.363638 0 0
0.430579 0 0
0.507225 0 0
0.595789 0 0
0.691081 0 0
0.789731 0 0
0.888884 0 0
0.976059 0 0
1 0 0
1 0 0
1 0.197192 0
1 0.36878 0
1 0.487861 0.0369573
0.998886 0.598489 0.112673
0.98967 0.705303 0.189487
0.981125 0.803815 0.27866
0.974121 0.882811 0.390951
0.968658 0.943313 0.493294
0.964294 0.99086 0.595911
0.960922 1 0.697643
0.95816 1 0.791821
0.956024 1 0.866484
0 0.0959335 0
0 0.0985885 0
0 0.101244 0
0 0.10277 0
0 0.103746 0
0 0.104051 0
0.0246586 0.104234 0
0.0874495 0.103304 0
0.149493 0.100649 0
0.21767 0.0950332 0
0.286152 0.0840925 0
0.356344 0.0657054 0
0.427619 0.0294194 0
0.510109 0 0
0.598199 0 0
0.692683 0 0
0.790631 0 0
0.889128 0 0
0.975677 0 0
1 0 0
1 0 0
1 0.242634 0
1 0.389593 0
1 0.500679 0.0254673
0.998138 0.607553 0.108431
0.989136 0.711803 0.187396
0.980789 0.80795 0.276585
0.973922 0.885176 0.390066
0.968551 0.944717 0.49279
0.964218 0.991669 0.595605
0.960876 1 0.697459
0.958144 1 0.791714
0.956008 1 0.866392
0 0.144747 0
0 0.147082 0
0 0.148943 0
0 0.150072 0
0 0.150881 0
0 0.151293 0
0 0.151553 0
0.0647593 0.151553 0
0.134966 0.150332 0
0.207111 0.146731 0
0.278721 0.139361 0
0.352285 0.128389 0
0.42504 0.111421 0
0.50486 0.0812848 0
0.597253 0.00828565 0
0.694865 0 0
0.791867 0 0
0.889494 0 0
0.975143 0 0
1 0 0
1 0.123842 0
1 0.290745 0
1 0.413245 0
1 0.517021 0.00544747
0.997162 0.619303 0.102571
0.988434 0.720302 0.184604
0.980346 0.813321 0.275044
0.973678 0.888289 0.388907
0.968399 0.946563 0.492103
0.964141 0.992706 0.595178
0.96083 1 0.697169
0.958114 1 0.791547
0.955993 1 0.866316
0 0.20267 0
0 0.204578 0
0 0.205554 0
0 0.206546 0
0 0.207218 0
0 0.20766 0
0 0.207935 0
0.0141146 0.208301 0
0.108782 0.206958 0
0.188434 0.204044 0
0.266423 0.199237 0
0.345129 0.191852 0
0.422324 0.180728 0
0.503578 0.163638 0
0.592828 0.1393 0
0.687587 0.102846 0
0.787533 0.0386053 0
0.889937 0 0
0.974365 0 0
1 0.0961929 0
1 0.225467 0
1 0.341939 0
1 0.442023 0
1 0.537575 0
0.995911 0.634348 0.0943618
0.987518 0.731304 0.18088
0.979751 0.820203 0.273869
0.973342 0.892302 0.387396
0.968185 0.948989 0.491188
0.964019 0.994095 0.594629
0.960754 1 0.696818
0.958068 1 0.791333
0.955962 1 0.866194
0 0.266346 0
0 0.26685 0
0 0.267323 0
0 0.26775 0
0 0.267979 0
0 0.26804 0
0 0.267918 0
0 0.267506 0
0.0584878 0.267109 0
0.158526 0.265599 0
0.246738 0.26273 0
0.332601 0.257939 0
0.41648 0.250431 0
0.501793 0.239185 0
0.591852 0.225803 0
0.684474 0.209277 0
0.77998 0.190204 0
0.875715 0.17409 0
0.957809 0.183749 0
1 0.233494 0
1 0.308934 0
1 0.394491 0
1 0.476478 0
1 0.563195 0
0.994339 0.653452 0.0825513
0.986343 0.745235 0.175998
0.979034 0.829007 0.272404
0.972915 0.897444 0.385382
0.967926 0.952132 0.489982
0.963867 0.995895 0.593881
0.960678 1 0.696345
0.958022 1 0.791043
0.955932 1 0.866041
0 0.331792 0
0 0.33228 0
0 0.332753 0
0 0.33312 0
0 0.333364 0
0 0.333501 0
0 0.333562 0
0 0.33344 0
0 0.332982 0
0.106813 0.332723 0
0.215015 0.331228 0
0.31165 0.328298 0
0.405005 0.323247 0
0.49659 0.315923 0
0.589822 0.307485 0
0.682445 0.298772 0
0.77586 0.291035 0
0.868589 0.28751 0
0.94815 0.299031 0
1 0.333669 0
1 0.386892 0
1 0.447059 0
1 0.517143 0
1 0.594537 0
0.992386 0.677333 0.0647746
0.984909 0.762554 0.169711
0.978103 0.840055 0.270649
0.972366 0.90399 0.382513
0.96759 0.956207 0.48838
0.963684 0.99826 0.592905
0.960555 1 0.695705
0.957946 1 0.790646
0.955886 1 0.865797
0 0.403143 0
0 0.40354 0
0 0.403906 0
0 0.404211 0
0 0.404425 0
0 0.404593 0
0 0.404715 0
0 0.404776 0
0 0.404654 0
0 0.404227 0
0.157565 0.404196 0
0.276661 0.402853 0
0.385107 0.400397 0
0.483986 0.396551 0
0.582483 0.39173 0
0.678279 0.387335 0
0.77142 0.384771 0
0.861387 0.386145 0
0.937865 0.396689 0
0.996506 0.420218 0
1 0.456428 0
1 0.50518 0
1 0.564385 0
0.996521 0.632136 0
0.98999 0.706706 0.0346075
0.983154 0.783642 0.161746
0.976959 0.853666 0.268605
0.971695 0.912261 0.378454
0.967163 0.961379 0.486259
0.963424 1 0.591608
0.960403 1 0.69485
0.957855 1 0.790143
0.955825 1 0.865522
0 0.480903 0
0 0.48127 0
0 0.48159 0
0 0.481849 0
0 0.482078 0
0 0.482261 0
0 0.482414 0
0 0.482551 0
0 0.482658 0
0 0.482765 0
0.0113375 0.48304 0
0.214603 0.483146 0
0.347768 0.482124 0
0.460319 0.479713 0
0.56582 0.476402 0
0.667414 0.473152 0
0.764004 0.471427 0
0.852735 0.473381 0
0.926345 0.482444 0
0.983185 0.501045 0
1 0.529656 0
1 0.569039 0
0.997681 0.618296 0
0.992798 0.676432 0
0.987274 0.742 0
0.981079 0.808637 0.15201
0.975601 0.869963 0.266468
0.97084 0.922515 0.376486
0.966628 0.96788 0.483497
0.963119 1 0.589883
0.960189 1 0.693706
0.957732 1 0.789456
0.955764 1 0.865141
0 0.570245 0
0 0.570535 0
0 0.570779 0
0 0.571023 0
0 0.571191 0
0 0.571374 0
0 0.571527 0
0 0.571694 0
0 0.571801 0
0 0.571832 0
0 0.57171 0
0.0844434 0.571862 0
0.287678 0.571344 0
0.424872 0.569604 0
0.53904 0.566979 0
0.648035 0.564004 0
0.75079 0.561822 0
0.841413 0.562722 0
0.913024 0.569757 0
0.967834 0.584375 0
0.998642 0.606912 0
0.995987 0.638346 0
0.992599 0.678614 0
0.988495 0.727428 0
0.983902 0.782025 0
0.978714 0.837217 0.140749
0.973999 0.888914 0.264607
0.969787 0.934905 0.377188
0.965972 0.97586 0.479866
0.962722 1 0.58764
0.959945 1 0.69221
0.95758 1 0.78854
0.955673 1 0.864622
0 0.664164 0
0 0.664332 0
0 0.664485 0
0 0.664622 0
0 0.664714 0
0 0.664805 0
0 0.664881 0
0 0.664927 0
0 0.664958 0
0 0.664897 0
0 0.664652 0
0 0.664088 0
0.187533 0.663966 0
0.375937 0.662669 0
0.502541 0.660533 0
0.619425 0.657816 0
0.729427 0.655238 0
0.824079 0.654871 0
0.896361 0.659449 0
0.950027 0.670375 0
0.991821 0.687831 0
0.989746 0.712535 0
0.987045 0.744701 0
0.983825 0.78294 0
0.980285 0.825055 0
0.976104 0.868544 0.129046
0.972229 0.91014 0.26363
0.968551 0.949554 0.378592
0.965179 0.985412 0.476097
0.962234 1 0.584649
0.959625 1 0.690211
0.957382 1 0.787335
0.955535 1 0.863951
0 0.759869 0
0 0.759945 0
0 0.760006 0
0 0.760052 0
0 0.760067 0
0 0.760082 0
0 0.760082 0
0 0.760052 0
0 0.75996 0
0 0.759808 0
0 0.759426 0
0 0.75874 0
0 0.757473 0
0.299458 0.757153 0
0.456733 0.755306 0
0.58262 0.75285 0
0.699474 0.750118 0
0.798856 0.748791 0
0.873762 0.751186 0
0.928725 0.758495 0
0.970108 0.771008 0
0.983337 0.788769 0
0.98143 0.811383 0
0.979141 0.838468 0
0.976577 0.868955 0
0.973388 0.901045 0.119905
0.97023 0.933776 0.26424
0.967132 0.966262 0.381186
0.964248 0.996445 0.478614
0.961639 1 0.580743
0.959228 1 0.687587
0.957137 1 0.785718
0.955383 1 0.863035
0 0.853086 0
0 0.853071 0
0 0.853025 0
0 0.852995 0
0 0.852949 0
0 0.852872 0
0 0.852796 0
0 0.852659 0
0 0.852461 0
0 0.85211 0
0 0.851545 0
0 0.850645 0
0 0.849195 0
0.187991 0.848386 0
0.404044 0.846586 0
0.541955 0.843961 0
0.664805 0.840818 0
0.767987 0.838361 0
0.846326 0.838178 0
0.904707 0.841184 0
0.947814 0.847898 0
0.977447 0.858671 0
0.976242 0.872923 0
0.974762 0.890517 0
0.973053 0.910872 0
0.970626 0.934005 0.117311
0.968093 0.959045 0.267811
0.965576 0.984543 0.385489
0.963195 1 0.482429
0.960922 1 0.578775
0.958755 1 0.684108
0.956832 1 0.783581
0.955184 1 0.86183
0 0.930785 0
0 0.930663 0
0 0.930571 0
0 0.930449 0
0 0.930327 0
0 0.93019 0
0 0.930022 0
0 0.929778 0
0 0.929427 0
0 0.928908 0
0 0.92813 0
0 0.926955 0
0 0.925307 0
0.0597238 0.923842 0
0.358511 0.922042 0
0.509712 0.919127 0
0.63621 0.915511 0
0.73991 0.912215 0
0.819821 0.910277 0
0.881315 0.910185 0
0.926925 0.912551 0
0.959854 0.9178 0
0.971786 0.925872 0
0.970871 0.936797 0
0.969726 0.950484 0
0.967834 0.96669 0.126055
0.965896 0.984726 0.27628
0.963958 1 0.391974
0.96202 1 0.487953
0.960067 1 0.583215
0.95819 1 0.679561
0.956466 1 0.780758
0.95494 1 0.860227
0 0.989807 0
0 0.989654 0
0 0.989487 0
0 0.989303 0
0 0.989136 0
0 0.988952 0
0 0.988724 0
0 0.988388 0
0 0.987915 0
0 0.987259 0
0 0.986313 0
0 0.985031 0
0 0.983291 0
0.00910964 0.981582 0
0.340124 0.979797 0
0.495079 0.976761 0
0.619471 0.973053 0
0.720058 0.969497 0
0.798245 0.966842 0
0.860563 0.965301 0
0.907759 0.965454 0
0.942809 0.967575 0
0.967926 0.971801 0
0.967376 0.97821 0
0.966674 0.986694 0
0.965209 0.997192 0.150744
0.96379 1 0.29192
0.962325 1 0.402228
0.960739 1 0.495933
0.959121 1 0.589426
0.957534 1 0.683055
0.956024 1 0.777005
0.95465 1 0.858106
0 1 0
0 1 0
0 1 0
0 1 0
0 1 0
0 1 0
0 1 0
0 1 0
0 1 0
0 1 0
0 1 0
0 1 0
0 1 0
0.105135 1 0
0.358175 1 0
0.500084 1 0
0.615061 1 0
0.708766 1 0
0.782956 1 0
0.843626 1 0
0.890837 1 0
0.92752 1 0
0.955886 1 0
0.964462 1 0
0.964065 1 0
0.962829 1 0.19173
0.961791 1 0.316106
0.960647 1 0.41706
0.959411 1 0.507195
0.958099 1 0.598062
0.956786 1 0.689616
0.955505 1 0.777401
0.954299 1 0.855299
0 1 0
0 1 0
0 1 0
0 1 0
0 1 0
0 1 0
0 1 0
0 1 0
0 1 0
0 1 0
0 1 0
0 1 0
0 1 0
0.245243 1 0
0.408301 1 0
0.525246 1 0
0.624414 1 0
0.707393 1 0
0.775494 1 0
0.83267 1 0
0.877913 1 0
0.914717 1 0
0.943999 1 0
0.96199 1 0
0.961349 1 0.097734
0.960616 1 0.243305
0.959854 1 0.349203
0.959014 1 0.437705
0.958068 1 0.52282
0.957061 1 0.609949
0.955993 1 0.698558
0.95491 1 0.78323
0.953887 1 0.854032
0 1 0
0 1 0
0 1 0
0 1 0
0 1 0
0 1 0
0 1 0
0 1 0
0 1 0
0 1 0
0 1 0
0.0382544 1 0
0.242924 1 0
0.37467 1 0
0.474296 1 0
0.563729 1 0
0.644099 1 0
0.71371 1 0
0.774426 1 0
0.82649 1 0
0.868666 1 0
0.904189 1 0
0.933333 1 0
0.955901 1 0.000457771
0.959106 1 0.198062
0.958633 1 0.302037
0.958099 1 0.38938
0.957504 1 0.465187
0.956802 1 0.543893
0.956008 1 0.625956
0.955154 1 0.710582
0.954269 1 0.790967
0.953429 1 0.858534
0 1 0
0 1 0
0 1 0
0 1 0
0 1 0
0 1 0
0 1 0
0.0548867 1 0
0.134295 1 0
0.208713 1 0
0.280003 1 0
0.350576 1 0
0.416968 1 0
0.481315 1 0
0.546426 1 0
0.610742 1 0
0.671717 1 0
0.727825 1 0
0.779767 1 0
0.825315 1 0
0.8636 1 0
0.896971 1 0
0.924544 1 0.0495155
0.946761 1 0.188815
0.957229 1 0.282338
0.956909 1 0.363516
0.956542 1 0.432319
0.9561 1 0.499901
0.955566 1 0.571298
0.954955 1 0.647074
0.954284 1 0.72636
0.953597 1 0.801053
0.952941 1 0.864454
0.335897 1 0
0.347662 1 0
0.358831 1 0
0.369451 1 0
0.379568 1 0
0.388602 1 0
0.398764 1 0
0.41178 1 0
0.428138 1 0
0.448417 1 0
0.473045 1 0
0.502342 1 0
0.536324 1 0
0.574655 1 0
0.616373 1 0
0.659678 1 0.0111391
0.703532 1 0.0424506
0.747631 1 0.0709392
0.789822 1 0.0998398
0.827756 1 0.130571
0.861616 1 0.164096
0.891966 1 0.201404
0.917815 1 0.241856
0.939284 1 0.298741
0.955596 1 0.361959
0.955398 1 0.421027
0.955139 1 0.480018
0.954818 1 0.541222
0.954421 1 0.605478
0.953979 1 0.674205
0.953475 1 0.746365
0.952956 1 0.813993
0.952438 1 0.872068
0.531899 1 0.274525
0.536171 1 0.274754
0.540368 1 0.274952
0.544457 1 0.275166
0.548486 1 0.27538
0.552453 1 0.275608
0.557198 1 0.275868
0.563409 1 0.276204
0.57142 1 0.276677
0.581643 1 0.277317
0.594461 1 0.278157
0.6103 1 0.279286
0.629419 1 0.280797
0.651774 1 0.282856
0.677424 1 0.285573
0.706447 1 0.289235
0.738064 1 0.294087
0.770977 1 0.300496
0.803433 1 0.308904
0.833982 1 0.319799
0.863218 1 0.333745
0.890074 1 0.351247
0.913466 1 0.372854
0.933715 1 0.39733
0.950515 1 0.434226
0.954131 1 0.480415
0.953948 1 0.531899
0.953719 1 0.587381
0.953429 1 0.645899
0.953094 1 0.707774
0.952728 1 0.770825
0.952331 1 0.830076
0.951934 1 0.881849
0.649958 1 0.418753
0.652049 1 0.41886
0.654108 1 0.418967
0.656153 1 0.419074
0.658167 1 0.419181
0.660166 1 0.419303
0.662593 1 0.419425
0.665782 1 0.419608
0.669947 1 0.419837
0.67538 1 0.420172
0.682353 1 0.4206
0.691234 1 0.421195
0.702358 1 0.421973
0.716014 1 0.422995
0.732403 1 0.424384
0.751461 1 0.426261
0.772824 1 0.428763
0.795789 1 0.43212
0.819409 1 0.436576
0.843793 1 0.442466
0.868009 1 0.450217
0.890837 1 0.460365
0.911437 1 0.473442
0.92987 1 0.490181
0.945632 1 0.511284
0.953063 1 0.545235
0.952941 1 0.588617
0.952758 1 0.637659
0.952544 1 0.690852
0.9523 1 0.745983
0.952026 1 0.799222
0.951751 1 0.849256
0.951461 1 0.894118
0.731289 1 0.531212
0.732448 1 0.531289
0.733593 1 0.531365
0.734722 1 0.531456
0.735851 1 0.531518
0.736965 1 0.531594
0.738338 1 0.531701
0.740139 1 0.531823
0.742489 1 0.531991
0.745571 1 0.532219
0.749569 1 0.532509
0.754711 1 0.532937
0.761227 1 0.533486
0.76936 1 0.534234
0.779263 1 0.53521
0.791028 1 0.536522
0.804593 1 0.538293
0.820172 1 0.540642
0.837552 1 0.543786
0.856153 1 0.547967
0.875212 1 0.553506
0.893706 1 0.560784
0.911284 1 0.570321
0.927581 1 0.582666
0.941802 1 0.598505
0.952148 1 0.618555
0.952071 1 0.65095
0.951949 1 0.692515
0.951797 1 0.738781
0.951614 1 0.785428
0.951431 1 0.829969
0.951232 1 0.870832
0.951034 1 0.908965
0.789303 1 0.637736
0.789914 1 0.637797
0.790524 1 0.637842
0.791119 1 0.637903
0.791714 1 0.637964
0.792325 1 0.638025
0.793042 1 0.638086
0.794003 1 0.638178
0.795285 1 0.6383
