BBLuts/BB_102_0110_LUT.cube
TITLE "Generated by Resolve"
LUT_3D_SIZE 33
0 0 0
0 0 0
0 0 0
0 0 0
0.037995 0 0
0.0924849 0 0
0.138506 0 0
0.191394 0 0
0.253132 0 0
0.320684 0 0
0.393011 0 0
0.474235 0 0
0.568521 0 0
0.670192 0 0
0.7729 0 0
0.871305 0 0
0.958877 0 0
1 0 0
1 0 0
1 0 0
1 0.0925307 0
1 0.317586 0
1 0.45716 0
1 0.572961 0.0248722
1 0.675212 0.0700389
0.998917 0.767605 0.12369
0.993729 0.845273 0.189181
0.989456 0.908156 0.267979
0.985901 0.958129 0.352758
0.982864 0.998535 0.44004
0.980316 1 0.525048
0.978134 1 0.608194
0.976287 1 0.683436
0 0 0
0 0 0
0 0 0
0 0 0
0.0411231 0 0
0.0928817 0 0
0.141985 0 0
0.196078 0 0
0.256733 0 0
0.322515 0 0
0.394659 0 0
0.476173 0 0
0.570321 0 0
0.671183 0 0
0.773312 0 0
0.871641 0 0
0.958755 0 0
1 0 0
1 0 0
1 0 0
1 0.148119 0
1 0.343191 0
1 0.469871 0
1 0.580835 0.021622
1 0.680323 0.0681468
0.998672 0.770871 0.122805
0.993591 0.847196 0.188891
0.98938 0.909209 0.267781
0.985855 0.958724 0.352514
0.982834 0.998886 0.439872
0.980301 1 0.524956
0.978119 1 0.608118
0.976287 1 0.683406
0 0 0
0 0 0
0 0 0
0 0 0
0.0365454 0 0
0.0868849 0 0
0.138872 0 0
0.19585 0 0
0.258549 0 0
0.324742 0 0
0.396704 0 0
0.478187 0 0
0.571939 0 0
0.672496 0 0
0.774136 0 0
0.871977 0 0
0.958618 0 0
1 0 0
1 0 0
1 0.0408331 0
1 0.206821 0
1 0.363577 0
1 0.480827 0
1 0.587732 0.0187533
1 0.684962 0.0664225
0.998444 0.773831 0.121996
0.993454 0.848981 0.188602
0.989303 0.910262 0.267582
0.985809 0.959335 0.352255
0.982818 0.999222 0.439719
0.980285 1 0.524849
0.978119 1 0.608072
0.976272 1 0.68336
0 0.00543221 0
0 0.00910964 0
0 0.0122225 0
0 0.0130159 0
0.0171664 0.0104829 0
0.0738842 0.00593576 0
0.129946 0 0
0.191821 0 0
0.258137 0 0
0.326085 0 0
0.398795 0 0
0.480354 0 0
0.573754 0 0
0.673854 0 0
0.774914 0 0
0.872267 0 0
0.958465 0 0
1 0 0
1 0 0
1 0.0703593 0
1 0.242451 0
1 0.381582 0
1 0.491768 0
1 0.594842 0.0152438
1 0.689632 0.0644694
0.99823 0.776761 0.121172
0.993332 0.850721 0.188342
0.989227 0.911269 0.267399
0.985779 0.95993 0.352026
0.982788 0.999557 0.439567
0.98027 1 0.524773
0.978103 1 0.608011
0.976272 1 0.68333
0 0.0487068 0
0 0.051667 0
0 0.0537423 0
0 0.05449 0
0 0.0538643 0
0.0577249 0.0513771 0
0.119417 0.0476997 0
0.18349 0.0404974 0
0.251835 0.0259556 0
0.323522 0 0
0.398795 0 0
0.482124 0 0
0.575845 0 0
0.675212 0 0
0.775586 0 0
0.872358 0 0
0.95816 0 0
1 0 0
1 0 0
1 0.110613 0
1 0.272877 0
1 0.398001 0
1 0.501945 0
1 0.601694 0.0118257
1 0.694575 0.0622873
0.997971 0.780041 0.120195
0.993194 0.852644 0.188052
0.989151 0.912306 0.267201
0.985733 0.960525 0.351781
0.982773 0.999908 0.439399
0.980255 1 0.524666
0.978103 1 0.607935
0.976272 1 0.683284
0 0.0952621 0
0 0.0976272 0
0 0.09897 0
0 0.0996872 0
0 0.0999008 0
0.0273594 0.0980087 0
0.102983 0.0959182 0
0.17293 0.0922255 0
0.244419 0.0850996 0
0.317281 0.0727092 0
0.394263 0.0500343 0
0.480735 0.00341802 0
0.575921 0 0
0.676326 0 0
0.776287 0 0
0.872755 0 0
0.957656 0 0
1 0 0
1 0.0326238 0
1 0.16875 0
1 0.305745 0
1 0.416495 0
1 0.514565 0
1 0.609979 0.007187
1 0.700587 0.0595712
0.997665 0.78407 0.11902
0.992996 0.855177 0.187686
0.989044 0.913817 0.266957
0.985672 0.961349 0.351461
0.982742 1 0.4392
0.98024 1 0.524544
0.978088 1 0.607858
0.976257 1 0.683238
0 0.148989 0
0 0.150469 0
0 0.151568 0
0 0.152239 0
0 0.152728 0
0 0.152255 0
0.0707866 0.150057 0
0.153948 0.147402 0
0.231876 0.142641 0
0.309697 0.135027 0
0.389975 0.12372 0
0.476387 0.105272 0
0.571969 0.0684367 0
0.672999 0.0207065 0
0.773495 0 0
0.871656 0 0
0.955566 0 0
1 0.0229496 0
1 0.124224 0
1 0.237552 0
1 0.34461 0
1 0.440589 0
1 0.531609 0
1 0.621653 0
1 0.708873 0.0554513
0.997238 0.789639 0.117357
0.992737 0.858686 0.187198
0.988876 0.915969 0.266606
0.98558 0.962646 0.350973
0.982681 1 0.438895
0.980209 1 0.524361
0.978073 1 0.607736
0.976257 1 0.683162
0 0.211078 0
0 0.212024 0
0 0.212665 0
0 0.213123 0
0 0.213458 0
0 0.213443 0
0.00601205 0.211719 0
0.116503 0.208835 0
0.209857 0.205447 0
0.296056 0.200412 0
0.382864 0.192844 0
0.473152 0.181765 0
0.56878 0.166644 0
0.666865 0.146136 0
0.766186 0.117281 0
0.86331 0.0728618 0
0.945357 0.078996 0
1 0.145113 0
1 0.223011 0
1 0.305531 0
1 0.389609 0
1 0.471305 0
1 0.553811 0
1 0.637171 0
1 0.720562 0.0493172
0.996643 0.797452 0.114977
0.992386 0.863554 0.186496
0.988663 0.918944 0.266102
0.985443 0.964492 0.350271
0.982605 1 0.438437
0.980179 1 0.524056
0.978042 1 0.607553
0.976242 1 0.68304
0 0.278965 0
0 0.279561 0
0 0.279942 0
0 0.280324 0
0 0.28043 0
0 0.280415 0
0 0.279973 0
0.0354772 0.277333 0
0.168078 0.274754 0
0.27248 0.271473 0
0.368933 0.266468 0
0.466331 0.259113 0
0.565713 0.250172 0
0.663706 0.240269 0
0.76022 0.230976 0
0.852598 0.225513 0
0.932342 0.23473 0
0.993225 0.266957 0
1 0.314885 0
1 0.37435 0
1 0.439506 0
1 0.509651 0
1 0.582376 0
1 0.657496 0
1 0.736217 0.0412909
0.995819 0.808194 0.111788
0.991882 0.870344 0.18558
0.988357 0.923064 0.265446
0.98526 0.967041 0.349325
0.982498 1 0.437751
0.980102 1 0.523568
0.978012 1 0.607233
0.976211 1 0.682857
0 0.354757 0
0 0.355184 0
0 0.35555 0
0 0.355962 0
0 0.356313 0
0 0.356435 0
0 0.356405 0
0 0.355642 0
0.0911727 0.352728 0
0.229435 0.350515 0
0.344137 0.347524 0
0.451591 0.342992 0
0.557794 0.337514 0
0.658976 0.332158 0
0.755322 0.328893 0
0.845243 0.329961 0
0.922377 0.340688 0
0.981857 0.365576 0
1 0.400763 0
1 0.444175 0
1 0.496498 0
1 0.555215 0
1 0.618372 0
1 0.684657 0
0.998383 0.756344 0.0334936
0.994751 0.822232 0.107866
0.991211 0.879515 0.184421
0.987945 0.928817 0.264942
0.985 0.970581 0.348486
0.982345 1 0.436851
0.980011 1 0.522896
0.977951 1 0.60676
0.976181 1 0.682582
0 0.440726 0
0 0.441077 0
0 0.441398 0
0 0.441672 0
0 0.441978 0
0 0.442252 0
0 0.442542 0
0 0.442481 0
0 0.441413 0
0.147112 0.439094 0
0.298238 0.437583 0
0.423835 0.435248 0
0.540063 0.432044 0
0.64802 0.429007 0
0.747707 0.427665 0
0.836866 0.430152 0
0.91165 0.439643 0
0.969451 0.458228 0
1 0.48426 0
1 0.518349 0
1 0.559869 0
1 0.608057 0
1 0.660975 0
0.998428 0.719066 0
0.996292 0.781704 0.0245212
0.993393 0.839963 0.102724
0.990326 0.891356 0.183078
0.987381 0.936538 0.265019
0.984634 0.975494 0.348226
0.982132 1 0.435645
0.979889 1 0.521996
0.977874 1 0.606073
0.976135 1 0.682124
0 0.537346 0
0 0.537636 0
0 0.537896 0
0 0.538125 0
0 0.538338 0
0 0.538582 0
0 0.538857 0
0 0.539117 0
0 0.539147 0
0.0233768 0.537072 0
0.2168 0.535256 0
0.378408 0.533623 0
0.509926 0.531365 0
0.627375 0.528878 0
0.733837 0.52752 0
0.825803 0.529015 0
0.899184 0.536187 0
0.955245 0.550454 0
0.993088 0.570077 0
1 0.596124 0
1 0.628702 0
1 0.666911 0
0.998978 0.710765 0
0.995453 0.759457 0
0.993744 0.811856 0.0130159
0.991745 0.86154 0.0960555
0.989242 0.906096 0.181537
0.986664 0.946395 0.265522
0.984161 0.981964 0.348318
0.981842 1 0.434104
0.979706 1 0.520729
0.977768 1 0.605188
0.976059 1 0.681529
0 0.638346 0
0 0.638498 0
0 0.638666 0
0 0.638804 0
0 0.638941 0
0 0.639063 0
0 0.639185 0
0 0.639261 0
0 0.639353 0
0 0.639017 0
0.0776532 0.635737 0
0.304982 0.633921 0
0.465629 0.63209 0
0.596017 0.629969 0
0.711238 0.628153 0
0.808225 0.628473 0
0.882765 0.632959 0
0.938384 0.642924 0
0.978088 0.657435 0
0.995972 0.676997 0
0.999222 0.701869 0
0.997421 0.732036 0
0.994888 0.766583 0
0.992126 0.804669 0
0.9906 0.845685 0
0.989807 0.886564 0.0881666
0.98793 0.924025 0.180301
0.985748 0.958801 0.266468
0.983566 0.990188 0.349111
0.98146 1 0.433356
0.979461 1 0.519051
0.977615 1 0.603906
0.975967 1 0.680705
0 0.740001 0
0 0.740017 0
0 0.740108 0
0 0.740185 0
0 0.74023 0
0 0.740261 0
0 0.740276 0
0 0.740185 0
0 0.739986 0
0 0.739498 0
0 0.738231 0
0.183856 0.734218 0
0.40238 0.73228 0
0.554162 0.730388 0
0.678798 0.728374 0
0.782025 0.72752 0
0.859968 0.729961 0
0.917372 0.736507 0
0.957412 0.746685 0
0.98294 0.760876 0
0.992676 0.778775 0
0.992386 0.800198 0
0.990616 0.824781 0
0.988647 0.852033 0
0.987091 0.881956 0
0.98764 0.914473 0.0784466
0.986404 0.944884 0.180148
0.984665 0.973816 0.268574
0.982818 1 0.351247
0.980926 1 0.434592
0.979126 1 0.517815
0.977386 1 0.602228
0.97583 1 0.6795
0 0.837476 0
0 0.837476 0
0 0.837461 0
0 0.837446 0
0 0.83743 0
0 0.837385 0
0 0.837263 0
0 0.837034 0
0 0.836622 0
0 0.835874 0
0 0.834669 0
0.0581064 0.830686 0
0.32285 0.827848 0
0.504845 0.825528 0
0.640528 0.823102 0
0.74934 0.821256 0
0.831571 0.821302 0
0.892378 0.824277 0
0.934554 0.829755 0
0.96672 0.838132 0
0.983688 0.849271 0
0.987457 0.86302 0
0.986633 0.879179 0
0.98529 0.897505 0
0.983886 0.917845 0
0.985412 0.943481 0.0708171
0.984771 0.967422 0.182391
0.983459 0.990478 0.272572
0.981949 1 0.354879
0.980316 1 0.437018
0.978714 1 0.517693
0.977127 1 0.600504
0.975647 1 0.677958
0 0.917113 0
0 0.917113 0
0 0.917113 0
0 0.917098 0
0 0.917052 0
0 0.916899 0
0 0.916655 0
0 0.916243 0
0 0.915602 0
0 0.914595 0
0 0.913069 0
0 0.910124 0
0.242374 0.90544 0
0.459663 0.902678 0
0.607324 0.899519 0
0.719554 0.896834 0
0.804135 0.895308 0
0.86772 0.895476 0
0.912932 0.897566 0
0.947417 0.901625 0
0.971115 0.907698 0
0.982513 0.91577 0
0.9832 0.925826 0
0.982345 0.938094 0
0.981628 0.952758 0
0.983459 0.971969 0.0795605
0.983169 0.990005 0.189212
0.982223 1 0.278965
0.980987 1 0.36025
0.979629 1 0.441321
0.97821 1 0.520302
0.976791 1 0.599023
0.975418 1 0.676188
0 0.976623 0
0 0.976623 0
0 0.976623 0
0 0.976623 0
0 0.976608 0
0 0.976532 0
0 0.976242 0
0 0.975677 0
0 0.974807 0
0 0.973571 0
0 0.971847 0
0 0.969223 0
0.185306 0.963684 0
0.430793 0.960678 0
0.585351 0.95729 0
0.697978 0.95404 0
0.782254 0.951782 0
0.846891 0.950607 0
0.893767 0.950774 0
0.930037 0.952407 0
0.958267 0.955535 0
0.975723 0.960189 0
0.979919 0.966369 0
0.979721 0.974212 0
0.980529 0.985519 0.00123598
0.981796 0.99884 0.102693
0.981659 1 0.201633
0.980941 1 0.288273
0.979995 1 0.367727
0.978866 1 0.447303
0.977646 1 0.524895
0.976394 1 0.601984
0.975158 1 0.67512
0 1 0
0 1 0
0 1 0
0 1 0
0 1 0
0 1 0
0 1 0
0 1 0
0 1 0
0 1 0
0 1 0
0 1 0
0.180697 1 0
0.42295 1 0
0.574945 1 0
0.684245 0.999161 0
0.766247 0.996445 0
0.83006 0.994598 0
0.877134 0.993744 0
0.914473 0.993835 0
0.944366 0.99498 0
0.965881 0.997238 0
0.976532 1 0
0.977493 1 0
0.979507 1 0.0314031
0.980285 1 0.128939
0.980209 1 0.219272
0.979721 1 0.301381
0.978973 1 0.377722
0.978042 1 0.455314
0.97702 1 0.531106
0.975921 1 0.606851
0.974823 1 0.677378
0 1 0
0 1 0
0 1 0
0 1 0
0 1 0
0 1 0
0 1 0
0 1 0
0 1 0
0 1 0
0 1 0
0 1 0
0.204578 1 0
0.436347 1 0
0.576791 1 0
0.679362 1 0
0.757488 1 0
0.819242 1 0
0.865293 1 0
0.902556 1 0
0.933074 1 0
0.957321 1 0
0.973068 1 0
0.975647 1 0
0.978408 1 0.0631113
0.979034 1 0.158145
0.978988 1 0.240711
0.978607 1 0.316915
0.978027 1 0.390219
0.977279 1 0.464942
0.97641 1 0.538735
0.975448 1 0.612757
0.974456 1 0.681239
0 1 0
0 1 0
0 1 0
0 1 0
0 1 0
0 1 0
0 1 0
0 1 0
0 1 0
0 1 0
0 1 0
0 1 0
0.266712 1 0
0.463508 1 0
0.587732 1 0
0.68101 1 0
0.753506 1 0
0.812039 1 0
0.855894 1 0
0.89276 1 0
0.923186 1 0
0.948379 1 0
0.96698 1 0
0.975296 1 0.0105898
0.977447 1 0.110643
0.97789 1 0.19382
0.977844 1 0.267445
0.977554 1 0.336873
0.977096 1 0.406256
0.976486 1 0.477501
0.975753 1 0.548348
0.974929 1 0.620279
0.97406 1 0.686458
0 1 0
0 1 0
0 1 0
0 1 0
0 1 0
0 1 0
0 1 0
0 1 0
0 1 0
0 1 0
0 1 0
0.0814221 1 0
0.345922 1 0
0.499763 1 0
0.605997 1 0
0.68838 1 0
0.754162 1 0
0.808499 1 0
0.849821 1 0
0.885222 1 0
0.914961 1 0
0.940276 1 0
0.961212 1 0.00354009
0.974533 1 0.0859846
0.976471 1 0.165057
0.976837 1 0.234119
0.976776 1 0.299168
0.976562 1 0.361578
0.976196 1 0.426215
0.975692 1 0.493416
0.975082 1 0.560708
0.97438 1 0.629633
0.973617 1 0.69308
0 1 0
0 1 0
0 1 0
0 1 0
0 1 0
0 1 0
0 1 0
0 1 0
0 1 0
0 1 0
0 1 0
0.22652 1 0
0.42327 1 0
0.540444 1 0
0.629694 1 0
0.700603 1 0
0.759152 1 0
0.808606 1 0
0.846922 1 0
0.880613 1 0
0.909529 1 0
0.935088 1 0.0139773
0.95642 1 0.0811933
0.972274 1 0.154696
0.975296 1 0.217716
0.97583 1 0.27715
0.975814 1 0.333639
0.975631 1 0.391104
0.975341 1 0.450431
0.974914 1 0.512932
0.974411 1 0.576318
0.973816 1 0.641276
0.973175 1 0.701244
0.281987 1 0
0.281987 1 0
0.281987 1 0
0.281987 1 0
0.281987 1 0
0.281971 1 0
0.281971 1 0
0.281956 1 0
0.281956 1 0
0.281926 1 0
0.281895 1 0
0.369207 1 0
0.489219 1 0
0.583429 1 0
0.657282 1 0
0.717296 1 0
0.768536 1 0
0.81265 1 0
0.848325 1 0.0102083
0.880201 1 0.0493477
0.907683 1 0.0892653
0.931395 1 0.127703
0.951507 1 0.171557
0.968215 1 0.220081
0.973739 1 0.270665
0.974853 1 0.321233
0.974914 1 0.371893
0.974762 1 0.424506
0.974517 1 0.478859
0.974182 1 0.536065
0.973754 1 0.59527
0.973251 1 0.655634
0.972717 1 0.711162
0.495003 1 0.127031
0.495003 1 0.127031
0.495003 1 0.127031
0.495003 1 0.127031
0.494987 1 0.127031
0.494987 1 0.127031
0.494987 1 0.127031
0.494972 1 0.127031
0.494972 1 0.127031
0.494972 1 0.127031
0.494957 1 0.127031
0.494942 1 0.127031
0.550515 1 0.129686
0.627161 1 0.134737
0.688548 1 0.140764
0.739193 1 0.147738
0.783413 1 0.15639
0.821653 1 0.166781
0.852522 1 0.178378
0.880919 1 0.192325
0.905959 1 0.209064
0.927962 1 0.228733
0.946944 1 0.252491
0.96318 1 0.285176
0.971908 1 0.324453
0.973877 1 0.367468
0.974105 1 0.413458
0.973968 1 0.461509
0.973754 1 0.511452
0.973465 1 0.563684
0.973114 1 0.618097
0.972702 1 0.672694
0.972244 1 0.723339
0.61355 1 0.249348
0.61355 1 0.249348
0.61355 1 0.249348
0.61355 1 0.249348
0.61355 1 0.249348
0.61355 1 0.249348
0.61355 1 0.249348
0.61355 1 0.249348
0.613535 1 0.249348
0.613535 1 0.249348
0.613535 1 0.249348
0.613519 1 0.249348
0.619516 1 0.249653
0.663767 1 0.252262
0.716808 1 0.256474
0.760388 1 0.261234
0.797787 1 0.266835
0.83035 1 0.273808
0.85742 1 0.281697
0.882841 1 0.291249
0.905577 1 0.302663
0.925856 1 0.31603
0.943618 1 0.332265
0.959136 1 0.352193
0.970245 1 0.381735
0.972992 1 0.417975
0.973373 1 0.458213
0.973251 1 0.501884
0.973068 1 0.547326
0.972808 1 0.595651
0.972503 1 0.644678
0.972168 1 0.692897
0.971786 1 0.737774
0.69691 1 0.350439
0.69691 1 0.350439
0.69691 1 0.350439
0.69691 1 0.350439
0.69691 1 0.350439
0.69691 1 0.350439
0.69691 1 0.350439
0.696895 1 0.350439
0.696895 1 0.350439
0.696895 1 0.350439
0.696895 1 0.350439
0.696895 1 0.350439
0.69688 1 0.350439
0.706615 1 0.350988
0.742565 1 0.353552
0.780987 1 0.357198
0.812558 1 0.361334
0.840116 1 0.366278
0.864118 1 0.371984
0.886198 1 0.378943
0.906493 1 0.387427
0.924865 1 0.397757
0.941283 1 0.410239
0.95584 1 0.425422
0.967681 1 0.445151
0.971725 1 0.472877
0.972641 1 0.506737
0.972595 1 0.544671
0.972427 1 0.58613
0.972198 1 0.630121
0.971939 1 0.673472
0.971649 1 0.715358
0.971359 1 0.754223
0.759625 1 0.442771
0.759625 1 0.442771
0.759625 1 0.442771
0.759625 1 0.442771
0.759625 1 0.442771
0.759625 1 0.442771
0.759625 1 0.442771
0.759625 1 0.442771
0.759625 1 0.442771
0.759625 1 0.442771
0.759609 1 0.442771
0.759609 1 0.442771
0.759609 1 0.442771
0.759609 1 0.442771
0.771374 1 0.443595
0.799298 1 0.446174
0.826795 1 0.449561
0.850752 1 0.453468
0.871611 1 0.457801
0.890822 1 0.463142
0.908629 1 0.469673
0.925017 1 0.477607
0.93991 1 0.487251
0.953338 1 0.499107
0.96466 1 0.51371
0.970184 1 0.532815
0.971862 1 0.558816
0.972 1 0.590875
0.971847 1 0.626932
0.971649 1 0.665278
0.971435 1 0.702937
0.971206 1 0.738872
0.970962 1 0.772213
0.807248 1 0.530388
0.807248 1 0.530388
0.807248 1 0.530388
0.807248 1 0.530388
0.807248 1 0.530388
0.807248 1 0.530388
0.807248 1 0.530388
0.807248 1 0.530388
0.807248 1 0.530388
