BBLuts/BB_103_0510_LUT.cube
TITLE "Generated by Resolve"
LUT_3D_SIZE 9
0 0 0
0.0238804 0 0
0.158694 0 0
0.383337 0 0
0.686809 0 0
0.848188 0 0
0.847242 0.537804 0.0397345
0.825803 0.818341 0.280842
0.815396 0.906294 0.605737
0 0.0419013 0
0.00564584 0.0459144 0
0.159243 0.0273442 0
0.390555 0 0
0.687999 0 0
0.853193 0.0120241 0
0.845014 0.560296 0.0318456
0.825681 0.820066 0.279911
0.815381 0.906447 0.605661
0 0.175082 0
0 0.176562 0
0.10454 0.176837 0
0.395468 0.151873 0
0.695918 0.0836805 0
0.860121 0.241062 0
0.840726 0.596033 0.0114748
0.825422 0.823758 0.277989
0.815351 0.906752 0.605463
0 0.43476 0
0 0.43566 0
0 0.436561 0
0.306981 0.449195 0
0.681529 0.444358 0
0.842664 0.515633 0
0.831479 0.681193 0
0.824506 0.836103 0.277028
0.815259 0.908141 0.604593
0 0.750912 0
0 0.750881 0
0 0.750301 0
0 0.752712 0
0.60267 0.751247 0
0.796323 0.759869 0
0.821851 0.798932 0
0.82237 0.864698 0.287129
0.814954 0.912871 0.601419
0 0.904646 0
0 0.904646 0
0 0.904631 0
0 0.902251 0
0.572183 0.891539 0
0.754055 0.883726 0
0.817761 0.888121 0.0200198
0.819089 0.904646 0.330892
0.814054 0.924239 0.605356
0.483482 0.955901 0.129992
0.483482 0.955901 0.129992
0.483467 0.955901 0.129992
0.483436 0.955901 0.129992
0.639796 0.94725 0.137606
0.747662 0.941558 0.170901
0.809659 0.938537 0.26009
0.815244 0.93724 0.448081
0.812558 0.940093 0.632868
0.718349 0.95079 0.522286
0.718349 0.95079 0.522286
0.718349 0.95079 0.522286
0.718349 0.95079 0.522286
0.718334 0.95079 0.522286
0.759869 0.951095 0.530037
0.798672 0.951232 0.550439
0.81181 0.950744 0.600092
0.811124 0.95024 0.684367
0.782147 0.94995 0.711925
0.782147 0.94995 0.711925
0.782147 0.94995 0.711925
0.782147 0.94995 0.711925
0.782147 0.94995 0.711925
0.782147 0.94995 0.711925
0.798123 0.950118 0.714656
0.810925 0.950134 0.721477
0.810834 0.950103 0.738109
0 0 0.0257267
0.00941482 0 0.0251774
0.158404 0 0.0215152
0.383612 0 0.0110781
0.68806 0 0
0.850065 0 0.00177005
0.848722 0.535958 0.0695048
0.825803 0.818326 0.280858
0.815381 0.906294 0.605737
0 0.0247959 0.0218662
0.0134432 0.0277409 0.0205844
0.160494 0.00521859 0.018204
0.386114 0 0.00601205
0.687633 0 0
0.853773 0 0
0.846464 0.558923 0.0597543
0.825681 0.82005 0.279911
0.815381 0.906447 0.605661
0 0.166278 0
0 0.167849 0
0.114168 0.16791 0
0.39234 0.142397 0
0.692622 0.0656901 0
0.8607 0.22855 0
0.842405 0.595621 0.039292
0.825422 0.823758 0.277989
0.815366 0.906737 0.605463
0 0.429541 0
0 0.430411 0
0 0.431083 0
0.316381 0.443565 0
0.681376 0.439475 0
0.842863 0.512078 0
0.831708 0.680293 0
0.824506 0.836088 0.277028
0.815259 0.908141 0.604593
0 0.749477 0
0 0.749447 0
0 0.748898 0
0 0.751659 0
0.604654 0.750134 0
0.796506 0.759182 0
0.821836 0.798611 0
0.82237 0.864683 0.287114
0.814954 0.912871 0.601419
0 0.904311 0
0 0.904326 0
0 0.904372 0
0 0.901946 0
0.573754 0.89131 0
0.754238 0.883604 0
0.817777 0.888045 0.0199588
0.819089 0.904646 0.330892
0.814054 0.924239 0.605356
0.486488 0.955734 0.129732
0.486488 0.955734 0.129732
0.486488 0.955734 0.129747
0.486473 0.955734 0.129747
0.640513 0.947188 0.137453
0.747845 0.941527 0.170794
0.809689 0.938521 0.26006
0.815244 0.93724 0.448081
0.812558 0.940093 0.632868
0.718517 0.95079 0.522271
0.718517 0.95079 0.522271
0.718517 0.95079 0.522271
0.718517 0.95079 0.522271
0.718502 0.95079 0.522271
0.75993 0.951095 0.530007
0.798688 0.951232 0.550408
0.81181 0.950744 0.600092
0.811124 0.95024 0.684367
0.782162 0.94995 0.711925
0.782162 0.94995 0.711925
0.782162 0.94995 0.711925
0.782162 0.94995 0.711925
0.782162 0.94995 0.711925
0.782162 0.94995 0.711925
0.798123 0.950103 0.714641
0.810925 0.950134 0.721477
0.810834 0.950103 0.738109
0 0 0.122896
0 0 0.123064
0.131029 0 0.118257
0.395895 0 0.101198
0.690532 0 0.0870069
0.852903 0 0.101717
0.852232 0.525872 0.184176
0.825559 0.817044 0.329259
0.815381 0.906294 0.605737
0 0 0.12134
0 0 0.121538
0.146715 0 0.115755
0.394034 0 0.0990158
0.690639 0 0.0840772
0.855665 0 0.102174
0.850202 0.550454 0.179095
0.825437 0.818799 0.328405
0.815381 0.906447 0.605661
0 0.140719 0.108553
0 0.142763 0.108598
0.104845 0.140551 0.106767
0.38172 0.115572 0.0999771
0.692439 0.0241855 0.0857862
0.867155 0.189593 0.119829
0.846662 0.589807 0.169421
0.825162 0.822553 0.326467
0.815366 0.906737 0.605463
0 0.41883 0.041886
0 0.42002 0.0420996
0 0.420874 0.0427863
0.317861 0.433005 0.0524147
0.682017 0.429633 0.0556039
0.848936 0.504982 0.0778363
0.837369 0.680858 0.135317
0.824277 0.835111 0.319493
0.815259 0.908141 0.604593
0 0.746212 0
0 0.746197 0
0 0.745632 0
0 0.748394 0
0.605585 0.747021 0
0.796689 0.756939 0
0.825101 0.800855 0.0427558
0.822278 0.864302 0.30309
0.814954 0.912871 0.601419
0 0.903792 0
0 0.903792 0
0 0.903792 0
0 0.90219 0
0.576837 0.890913 0
0.754711 0.883345 0
0.817792 0.887877 0.019791
0.819089 0.90457 0.330587
0.814054 0.924239 0.605356
0.491295 0.955444 0.129076
0.491295 0.955444 0.129076
0.491295 0.955444 0.129076
0.491524 0.955428 0.12929
0.641642 0.947097 0.137163
0.748119 0.941482 0.17055
0.809735 0.938491 0.259892
0.815244 0.937224 0.447974
0.812558 0.940093 0.632868
0.718807 0.95079 0.522225
0.718807 0.95079 0.522225
0.718807 0.95079 0.522225
0.718807 0.95079 0.522225
0.718807 0.95079 0.522225
0.760037 0.951095 0.529961
0.798718 0.951232 0.550393
0.81181 0.950744 0.600076
0.811124 0.95024 0.684367
0.782193 0.94995 0.711925
0.782193 0.94995 0.711925
0.782193 0.94995 0.711925
0.782193 0.94995 0.711925
0.782193 0.94995 0.711925
0.782193 0.94995 0.711925
0.798138 0.950118 0.714641
0.810925 0.950134 0.721477
0.810834 0.950103 0.738109
0 0 0.347311
0 0 0.347448
0 0 0.347494
0.355505 0 0.330205
0.705058 0 0.311879
0.852598 0 0.327489
0.856611 0.477302 0.408301
0.824308 0.81059 0.48603
0.815183 0.905699 0.628382
0 0 0.345953
0 0 0.346105
0.0182956 0 0.345251
0.36817 0 0.327688
0.704128 0 0.310384
0.852537 0 0.325109
0.854353 0.508827 0.405692
0.82417 0.812482 0.485496
0.815167 0.905837 0.628305
0 0.0327764 0.342489
0 0.0344091 0.342641
0.0170443 0.0341192 0.342092
0.374609 0 0.325429
0.699519 0 0.306996
0.85948 0.0198215 0.334676
0.850446 0.556527 0.400397
0.823865 0.816464 0.484276
0.815152 0.906157 0.628153
0 0.368032 0.309316
0 0.368917 0.309361
0 0.371084 0.309987
0.297078 0.382834 0.321218
0.675792 0.377752 0.324819
0.85507 0.459937 0.346838
0.839796 0.662974 0.381323
0.822873 0.829725 0.479881
0.815061 0.907561 0.627466
0 0.743832 0.238529
0 0.743877 0.238514
0 0.743664 0.239429
0 0.744839 0.246616
0.605051 0.743984 0.259892
0.800031 0.754437 0.286488
0.827008 0.797482 0.34165
0.820722 0.860517 0.467002
0.81474 0.912322 0.624872
0 0.909056 0.10724
0 0.909056 0.10724
0 0.909056 0.10724
0 0.906737 0.111391
0.575601 0.895293 0.115358
0.757794 0.88777 0.166522
0.819989 0.889815 0.27483
0.818067 0.902831 0.433936
0.813931 0.92398 0.617716
0.50602 0.954543 0.127535
0.50602 0.954543 0.127535
0.50602 0.954543 0.127535
0.50602 0.954543 0.127535
0.644846 0.946822 0.136126
0.749004 0.941344 0.169894
0.809873 0.938369 0.260868
0.815259 0.937148 0.447532
0.812558 0.940063 0.632746
0.719844 0.950805 0.522087
0.719844 0.950805 0.522087
0.719844 0.950805 0.522087
0.719844 0.950805 0.522087
0.719844 0.950805 0.522087
0.760403 0.951095 0.529809
0.79884 0.951232 0.55024
0.81181 0.950759 0.59997
0.811124 0.95024 0.684306
0.782315 0.94995 0.71191
0.782315 0.94995 0.71191
0.782315 0.94995 0.71191
0.782315 0.94995 0.71191
0.782315 0.94995 0.71191
0.782315 0.94995 0.71191
0.798184 0.950118 0.714626
0.810925 0.950134 0.721462
0.810834 0.950103 0.738109
0 0 0.6309
0 0 0.6309
0 0 0.631174
0.102831 0 0.627817
0.673564 0 0.598047
0.850675 0 0.602564
0.869001 0.217945 0.647288
0.823865 0.792248 0.653605
0.814786 0.903243 0.697322
0 0 0.630793
0 0 0.630793
0 0 0.630869
0.116732 0 0.627039
0.677043 0 0.597589
0.850675 0 0.602228
0.867323 0.284016 0.649027
0.823636 0.794659 0.653284
0.814771 0.903395 0.697276
0 0 0.629877
0 0 0.629877
0 0 0.629953
0.155917 0 0.624659
0.682216 0 0.596613
0.85069 0 0.60119
0.86157 0.394232 0.648661
0.823209 0.799512 0.652644
0.814755 0.903731 0.6972
0 0.147402 0.6262
0 0.147402 0.6262
0 0.150454 0.62623
0.144762 0.14638 0.627008
0.689021 0.0789502 0.612207
0.867826 0.183093 0.63003
0.846754 0.586526 0.640162
0.821851 0.815656 0.650401
0.814649 0.905196 0.696834
0 0.698238 0.592355
0 0.698238 0.592355
0 0.69836 0.592401
0 0.697704 0.593088
0.578408 0.701213 0.601297
0.794842 0.717601 0.607217
0.825803 0.774807 0.616861
0.819028 0.851682 0.644663
0.814298 0.910201 0.695491
0 0.905608 0.574945
0 0.905608 0.574945
0 0.905653 0.574914
0 0.902296 0.575296
0.531426 0.890181 0.572473
0.74461 0.879896 0.576944
0.815351 0.88249 0.596017
0.815717 0.89778 0.633265
0.813428 0.922393 0.691325
0.473228 0.952972 0.510338
0.473228 0.952972 0.510338
0.473228 0.952972 0.510338
0.473228 0.952972 0.510338
0.625956 0.943618 0.509712
0.738354 0.937652 0.520638
0.801572 0.934371 0.550393
0.81326 0.934325 0.607248
0.812238 0.939345 0.679927
0.722911 0.950835 0.52137
0.722911 0.950835 0.52137
0.722911 0.950835 0.52137
0.722911 0.950835 0.52137
0.722911 0.950835 0.52137
0.761456 0.951125 0.529213
0.799191 0.951247 0.549828
0.811795 0.950744 0.601236
0.811124 0.95024 0.684138
0.782727 0.94995 0.711864
0.782727 0.94995 0.711864
0.782712 0.94995 0.711864
0.782712 0.94995 0.711864
0.782712 0.94995 0.711864
0.782712 0.94995 0.711849
0.798321 0.950118 0.714565
0.810925 0.950134 0.721431
0.810834 0.950103 0.738094
0 0 0.772
0 0 0.772
0 0 0.772
0 0 0.77203
0.472908 0 0.748562
0.847517 0 0.739208
0.851148 0 0.739574
0.832837 0.704295 0.763226
0.814862 0.89688 0.758129
0 0 0.772
0 0 0.772
0 0 0.772
0 0 0.77203
0.472465 0 0.748592
0.847517 0 0.739208
0.851148 0 0.739498
0.832013 0.711147 0.762524
0.814847 0.897093 0.758099
0 0 0.771939
0 0 0.771939
0 0 0.771939
0 0 0.771954
0.485985 0 0.747692
0.847776 0 0.739101
0.851148 0 0.739284
0.830533 0.723568 0.761212
0.814817 0.897505 0.758053
0 0 0.771572
0 0 0.771572
0 0 0.771572
0 0 0.771588
0.548974 0 0.743603
0.848508 0 0.738766
0.860304 0.0248264 0.753216
0.826444 0.760113 0.757412
0.814679 0.899275 0.757855
0 0.415076 0.760906
0 0.415076 0.760906
0 0.415076 0.760906
0 0.418967 0.760754
0.526528 0.42707 0.767239
0.844465 0.468437 0.773327
0.838697 0.656931 0.762478
0.820371 0.82501 0.751202
0.814267 0.905272 0.757107
0 0.890669 0.74963
0 0.890669 0.74963
0 0.890669 0.74963
0 0.890318 0.749584
0.323735 0.881819 0.749355
0.730678 0.863798 0.739696
0.810956 0.869322 0.740948
0.815473 0.889601 0.744717
0.81326 0.91931 0.755108
0.276768 0.956222 0.739391
0.276799 0.956222 0.739391
0.277348 0.956207 0.739361
0.277348 0.956207 0.739361
0.553979 0.942641 0.730129
0.71931 0.933639 0.728405
0.79147 0.930663 0.73135
0.812451 0.931746 0.737957
0.811917 0.937942 0.751064
0.709041 0.949172 0.705104
0.709041 0.949172 0.705104
0.709041 0.949172 0.705104
0.709041 0.949172 0.705104
0.709041 0.949172 0.705104
0.749126 0.949569 0.706722
0.790127 0.950042 0.711376
0.810575 0.95021 0.722332
0.810819 0.950088 0.741939
0.783948 0.949966 0.711711
0.783948 0.949966 0.711711
0.783948 0.949966 0.711711
0.783948 0.949966 0.711711
0.783948 0.949966 0.711711
0.783948 0.949966 0.711711
0.798749 0.950118 0.714397
0.810925 0.950134 0.721279
0.810834 0.950103 0.738552
0 0 0.808728
0 0 0.808728
0 0 0.808728
0 0 0.808728
0 0 0.808728
0.77583 0 0.783597
0.85124 0 0.785977
0.854368 0 0.791028
0.816724 0.867018 0.800809
0 0 0.808728
0 0 0.808728
0 0 0.808728
0 0 0.808728
0 0 0.808728
0.775814 0 0.783597
0.85124 0 0.785977
0.854765 0 0.791699
0.816693 0.867536 0.800763
0 0 0.808728
0 0 0.808728
0 0 0.808728
0 0 0.808728
0 0 0.808728
0.775814 0 0.783597
0.85124 0 0.785977
0.855344 0 0.792279
0.816617 0.868605 0.800687
0 0 0.808728
0 0 0.808728
0 0 0.808728
0 0 0.808728
0 0 0.808728
0.781704 0 0.78378
0.85124 0 0.785977
0.856519 0 0.79411
0.816312 0.872679 0.800366
0 0 0.808728
0 0 0.808728
0 0 0.808728
0 0 0.808728
0 0 0.808728
0.810315 0 0.78471
0.85124 0 0.785977
0.86334 0.38735 0.826795
0.815412 0.885145 0.79939
0 0.70341 0.802563
0 0.70341 0.802563
0 0.70341 0.802563
0 0.70341 0.802563
0 0.706188 0.802533
0.732006 0.708598 0.808499
0.82565 0.756603 0.805707
0.818173 0.848051 0.799725
0.813733 0.908904 0.797391
0 0.956847 0.807477
0 0.956847 0.807477
0 0.956847 0.807477
0 0.956847 0.807477
0 0.955779 0.807553
0.679332 0.928512 0.792645
0.785809 0.924254 0.792752
0.812207 0.926604 0.793256
0.811887 0.934783 0.794812
0.681178 0.948745 0.787472
0.681178 0.948745 0.787472
0.681178 0.948745 0.787472
0.681178 0.948745 0.787472
0.681178 0.948745 0.787472
0.727596 0.949081 0.787472
0.782238 0.949752 0.788022
0.809506 0.950042 0.789227
0.810544 0.949966 0.791897
0.778408 0.949737 0.778988
0.778408 0.949737 0.778988
0.778408 0.949737 0.778988
0.778408 0.949737 0.778988
0.778408 0.949737 0.778988
0.778408 0.949737 0.778988
0.793591 0.949905 0.77966
0.808804 0.950057 0.781476
0.81059 0.949996 0.785672
0 0.0290227 0.810651
0 0.0290227 0.810651
0 0.0290227 0.810651
0 0.0290227 0.810651
0 0.0290227 0.810651
0 0.0291142 0.810651
0.850034 0 0.786038
0.857939 0 0.797314
0.844678 0.609186 0.826841
0 0.0290227 0.810651
0 0.0290227 0.810651
0 0.0290227 0.810651
0 0.0290227 0.810651
0 0.0290227 0.810651
0 0.0291142 0.810651
0.850034 0 0.786038
0.857939 0 0.797314
0.844678 0.609171 0.826841
0 0.0290227 0.810651
0 0.0290227 0.810651
0 0.0290227 0.810651
0 0.0290227 0.810651
0 0.0290227 0.810651
0 0.0291142 0.810651
0.850034 0 0.786038
0.857939 0 0.797314
0.844678 0.60914 0.826841
0 0.0290227 0.810651
0 0.0290227 0.810651
0 0.0290227 0.810651
0 0.0290227 0.810651
0 0.0290227 0.810651
0 0.0291142 0.810651
0.850034 0 0.786038
0.857939 0 0.797314
0.844694 0.609003 0.826841
0 0.0288701 0.810651
0 0.0288701 0.810651
0 0.0288701 0.810651
0 0.0288701 0.810651
0 0.0288701 0.810651
0 0.0289464 0.810651
0.850111 0 0.786053
0.858167 0.000579843 0.797726
0.844755 0.60853 0.826871
0 0.0276646 0.81062
0 0.0276646 0.81062
0 0.0276646 0.81062
0 0.0276646 0.81062
0 0.0276646 0.81062
0 0.0228733 0.81059
0.85124 0 0.785977
0.861265 0.0335699 0.803479
0.825971 0.760937 0.817395
0 0.871214 0.822568
0 0.871214 0.822568
0 0.871214 0.822568
0 0.871214 0.822568
0 0.871214 0.822568
0 0.873121 0.824628
0.788739 0.844526 0.815091
0.815396 0.883391 0.814679
0.812879 0.918547 0.814481
0.355734 0.956497 0.822416
0.355734 0.956497 0.822416
0.355734 0.956497 0.822416
0.355734 0.956497 0.822416
0.355734 0.956497 0.822416
0.433722 0.954253 0.819745
0.767285 0.949248 0.813062
0.80763 0.94847 0.813291
0.810727 0.948913 0.813336
0.7682 0.949477 0.81117
0.7682 0.949477 0.81117
0.7682 0.949477 0.81117
0.7682 0.949477 0.81117
0.7682 0.949477 0.81117
0.7682 0.949477 0.81117
0.785534 0.949706 0.811276
0.805631 0.949935 0.811429
0.810422 0.949889 0.812039
0 0.213062 0.812909
0 0.213062 0.812909
0 0.213062 0.812909
0 0.213062 0.812909
0 0.213062 0.812909
0 0.213062 0.812909
0 0.213153 0.812909
0.865171 0.0810712 0.811139
0.840406 0.643153 0.824643
0 0.213062 0.812909
0 0.213062 0.812909
0 0.213062 0.812909
0 0.213062 0.812909
0 0.213062 0.812909
0 0.213062 0.812909
0 0.213153 0.812909
0.865171 0.0810712 0.811139
0.840406 0.643153 0.824643
0 0.213062 0.812909
0 0.213062 0.812909
0 0.213062 0.812909
0 0.213062 0.812909
0 0.213062 0.812909
0 0.213062 0.812909
0 0.213153 0.812909
0.865171 0.0810712 0.811139
0.840406 0.643153 0.824643
0 0.213062 0.812909
0 0.213062 0.812909
0 0.213062 0.812909
0 0.213062 0.812909
0 0.213062 0.812909
0 0.213062 0.812909
0 0.213153 0.812909
0.865171 0.0810712 0.811139
0.840406 0.643153 0.824643
0 0.213062 0.812909
0 0.213062 0.812909
0 0.213062 0.812909
0 0.213062 0.812909
0 0.213062 0.812909
0 0.213062 0.812909
0 0.213153 0.812909
0.865171 0.0810254 0.811139
0.840406 0.643153 0.824643
0 0.212924 0.812909
0 0.212924 0.812909
0 0.212924 0.812909
0 0.212924 0.812909
0 0.212924 0.812909
0 0.212909 0.812909
0 0.212985 0.812909
0.866361 0.0984817 0.813703
0.840192 0.644877 0.824521
0 0.21181 0.812909
0 0.21181 0.812909
0 0.21181 0.812909
0 0.21181 0.812909
0 0.21181 0.812909
0 0.21181 0.812909
0.0326848 0.198764 0.815259
0.869978 0.190738 0.824292
0.839872 0.647379 0.824353
0 0.955184 0.826627
0 0.955184 0.826627
0 0.955184 0.826627
0 0.955184 0.826627
0 0.955184 0.826627
0 0.955184 0.826627
0.0579995 0.957549 0.828946
0.806165 0.9346 0.81445
0.811429 0.938964 0.814359
0.723415 0.948898 0.81355
0.723415 0.948898 0.81355
0.723415 0.948898 0.81355
0.723415 0.948898 0.81355
0.723415 0.948898 0.81355
0.723415 0.948898 0.81355
0.730755 0.948974 0.813581
0.801221 0.949844 0.814054
0.810697 0.95024 0.814389
