BBLuts/BB_103_0100_LUT.cube
TITLE "Generated by Resolve"
LUT_3D_SIZE 9
0 0 0
0.0398871 0 0
0.185595 0 0
0.422995 0 0
0.746288 0 0
0.918349 0 0
0.904921 0.58761 0.0591135
0.880385 0.877867 0.312566
0.868528 0.969085 0.656229
0 0.061326 0
0.0198825 0.065568 0
0.185046 0.0462806 0
0.430976 0 0
0.74757 0 0
0.919768 0.0488594 0
0.902602 0.610849 0.0501259
0.880262 0.879667 0.311574
0.868513 0.969238 0.656138
0 0.20531 0
0 0.206867 0
0.127504 0.205676 0
0.432746 0.181842 0
0.750179 0.118059 0
0.921675 0.281605 0
0.898466 0.645777 0.0265049
0.879988 0.883574 0.309545
0.868498 0.969558 0.65594
0 0.482765 0
0 0.483772 0
0 0.484794 0
0.337865 0.493782 0
0.731731 0.490639 0
0.900984 0.565927 0
0.889006 0.735882 0.00402838
0.879042 0.896529 0.308537
0.868391 0.971008 0.654994
0 0.816342 0
0 0.816312 0
0 0.815686 0
0.00636301 0.815473 0
0.648829 0.809522 0
0.852689 0.819226 0
0.878874 0.860578 0
0.876783 0.926421 0.319234
0.868086 0.975937 0.651621
0 0.980011 0.00230411
0 0.980011 0.00230411
0 0.979995 0.00230411
0 0.976242 0.00230411
0.617411 0.958038 0
0.808911 0.949813 0
0.874113 0.953811 0.0364538
0.873198 0.968338 0.367391
0.86714 0.987762 0.655833
0.523491 1 0.156191
0.523491 1 0.156191
0.523476 1 0.156191
0.523445 1 0.156191
0.687312 1 0.163241
0.799939 1 0.197574
0.864195 1 0.290883
0.868818 1 0.490806
0.865553 1 0.685191
0.76791 1 0.56669
0.76791 1 0.56669
0.76791 1 0.56669
0.76791 1 0.56669
0.76791 1 0.56669
0.811521 1 0.575021
0.851774 1 0.597009
0.864881 1 0.650248
0.864012 1 0.739864
0.834318 1 0.768978
0.834318 1 0.768978
0.834318 1 0.768978
0.834318 1 0.768978
0.834318 1 0.768978
0.834318 1 0.768978
0.850874 1 0.771862
0.863752 1 0.779065
0.863645 1 0.796597
0 0 0.038468
0.0237125 0 0.0379187
0.185229 0 0.0354772
0.423056 0 0.0274205
0.747631 0 0.0186465
0.920562 0 0.0278935
0.906188 0.585382 0.091783
0.880385 0.877852 0.312581
0.868528 0.969085 0.656229
0 0.0419318 0.0340887
0.0281682 0.0451362 0.0325933
0.186725 0.0215152 0.0312047
0.425925 0 0.0212711
0.747326 0 0.00611887
0.921187 0.0323339 0.0148775
0.903838 0.609064 0.0810407
0.880262 0.879667 0.311574
0.868513 0.969238 0.656138
0 0.196063 0.00315862
0 0.197711 0.00321965
0.13756 0.196368 0.00187686
0.429282 0.171984 0
0.747051 0.0993057 0
0.922484 0.269078 0.000335698
0.89984 0.644999 0.05832
0.879988 0.883574 0.309545
0.868498 0.969558 0.65594
0 0.47689 0
0 0.477882 0
0 0.47863 0
0.347646 0.487602 0
0.731594 0.485298 0
0.901213 0.562325 0
0.88922 0.734874 0.00584421
0.879042 0.896513 0.308537
0.868391 0.971008 0.654994
0 0.814801 0
0 0.814786 0
0 0.814191 0
0.0116884 0.814206 0
0.650935 0.808347 0
0.852888 0.818509 0
0.878859 0.860227 0
0.876783 0.926421 0.319234
0.868086 0.975937 0.651621
0 0.979644 0.00228885
0 0.979675 0.00228885
0 0.979721 0.00228885
0 0.975967 0.00228885
0.619058 0.957809 0
0.809094 0.949706 0
0.874113 0.95375 0.0363775
0.873198 0.968338 0.367391
0.86714 0.987762 0.655833
0.526375 1 0.155901
0.526375 1 0.155901
0.526375 1 0.155901
0.52636 1 0.155917
0.688075 1 0.163073
0.800137 1 0.197452
0.864225 1 0.290852
0.868818 1 0.490806
0.865553 1 0.685191
0.768078 1 0.566674
0.768078 1 0.566674
0.768078 1 0.566674
0.768078 1 0.566674
0.768063 1 0.566674
0.811582 1 0.57499
0.851789 1 0.596979
0.864881 1 0.650248
0.864012 1 0.739864
0.834333 1 0.768978
0.834333 1 0.768978
0.834333 1 0.768978
0.834333 1 0.768978
0.834333 1 0.768978
0.834333 1 0.768978
0.850889 1 0.771862
0.863752 1 0.779065
0.863645 1 0.796597
0 0 0.145388
0 0 0.145571
0.156527 0 0.141573
0.436637 0 0.128344
0.749538 0 0.121767
0.922698 0 0.142046
0.909194 0.574166 0.21239
0.879927 0.876265 0.365454
0.868528 0.969085 0.656229
0 0 0.143725
0 0 0.143954
0.173114 0 0.139132
0.434531 0 0.125963
0.749645 0 0.118593
0.923476 0.00738537 0.13994
0.906981 0.599359 0.206882
0.879805 0.878111 0.364477
0.868513 0.969238 0.656138
0 0.168322 0.130663
0 0.170504 0.130724
0.126925 0.166964 0.127886
0.416632 0.142947 0.122515
0.747356 0.0547036 0.115328
0.928573 0.228702 0.150332
0.903273 0.638437 0.196536
0.879515 0.882063 0.362341
0.868498 0.969558 0.65594
0 0.463493 0.0618601
0 0.464851 0.0621195
0 0.465797 0.0628977
0.348196 0.474601 0.0700999
0.731472 0.472984 0.0754711
0.906462 0.553704 0.100969
0.893462 0.733486 0.160708
0.878614 0.895277 0.354559
0.868391 0.971008 0.654994
0 0.811307 0
0 0.811307 0
0 0.810697 0
0.0116579 0.810697 0
0.651911 0.805035 0
0.853071 0.816114 0
0.881315 0.861479 0.0618296
0.876616 0.925933 0.336278
0.868086 0.975937 0.651621
0 0.97911 0.00224308
0 0.97911 0.00224308
0 0.97911 0.00224308
0 0.975753 0.00227359
0.622324 0.957366 0
0.809583 0.949432 0
0.874144 0.953552 0.0361944
0.873213 0.968261 0.367056
0.86714 0.987762 0.655833
0.53106 1 0.155169
0.53106 1 0.155169
0.53106 1 0.155169
0.531273 1 0.155413
0.68925 1 0.162783
0.800427 1 0.197208
0.864271 1 0.290684
0.868818 1 0.4907
0.865553 1 0.685191
0.768383 1 0.566629
0.768383 1 0.566629
0.768383 1 0.566629
0.768383 1 0.566629
0.768383 1 0.566629
0.811704 1 0.574945
0.85182 1 0.596948
0.864881 1 0.650217
0.864012 1 0.739864
0.834363 1 0.768978
0.834363 1 0.768978
0.834363 1 0.768978
0.834363 1 0.768978
0.834363 1 0.768978
0.834363 1 0.768978
0.850889 1 0.771847
0.863752 1 0.779065
0.863645 1 0.796597
0 0 0.386084
0 0 0.386236
0.0112764 0 0.386038
0.393637 0 0.371725
0.765362 0 0.360967
0.922362 0 0.382452
0.913375 0.524285 0.451316
0.878157 0.86891 0.528222
0.868269 0.968414 0.680385
0 0 0.384558
0 0 0.384726
0.036286 0 0.383749
0.407141 0 0.369162
0.764355 0 0.359243
0.922286 0 0.379751
0.910857 0.556039 0.44828
0.878004 0.870893 0.527672
0.868254 0.968566 0.680308
0 0.0528878 0.380087
0 0.0546883 0.38024
0.0337835 0.0539406 0.379339
0.412802 0.000213626 0.365606
0.759304 0 0.35523
0.925124 0.0554513 0.384787
0.906508 0.604746 0.442329
0.877684 0.87509 0.526467
0.868238 0.968902 0.68014
0 0.407111 0.345037
0 0.408057 0.345113
0 0.410346 0.345846
0.325597 0.418402 0.355016
0.724208 0.415473 0.361151
0.912016 0.506416 0.387106
0.895048 0.713191 0.421942
0.876661 0.889006 0.522118
0.868147 0.970352 0.679408
0 0.806027 0.275608
0 0.806088 0.275593
0 0.805859 0.276539
0 0.805203 0.281971
0.648859 0.798962 0.289784
0.854032 0.810391 0.318425
0.881407 0.85565 0.379278
0.874434 0.921294 0.509728
0.867811 0.975311 0.676661
0 0.982635 0.140673
0 0.982635 0.140673
0 0.982635 0.140673
0 0.979049 0.143771
0.619257 0.960021 0.13991
0.810346 0.951614 0.192798
0.874357 0.953155 0.306279
0.871763 0.966003 0.475944
0.867002 0.987457 0.669032
0.545464 1 0.153475
0.545464 1 0.153475
0.545464 1 0.153475
0.545464 1 0.153475
0.692638 1 0.1617
0.801358 1 0.196521
0.864424 1 0.291691
0.868833 1 0.490227
0.865553 1 0.685039
0.769467 1 0.566476
0.769467 1 0.566476
0.769467 1 0.566476
0.769467 1 0.566476
0.769467 1 0.566476
0.812085 1 0.574777
0.851957 1 0.596796
0.864881 1 0.650111
0.864012 1 0.739803
0.834485 1 0.768963
0.834485 1 0.768963
0.834485 1 0.768963
0.834485 1 0.768963
0.834485 1 0.768963
0.834485 1 0.768963
0.850935 1 0.771832
0.863752 1 0.779049
0.863645 1 0.796597
0 0 0.687434
0 0 0.687434
0 0 0.687739
0.13193 0 0.684291
0.73283 0 0.66212
0.921157 0 0.670283
0.929824 0.256962 0.706996
0.877424 0.849317 0.707362
0.86775 0.965743 0.753552
0 0 0.687327
0 0 0.687327
0 0 0.687419
0.14667 0 0.683558
0.736568 0 0.661723
0.921172 0 0.669917
0.927031 0.323003 0.707546
0.877195 0.85185 0.707012
0.867735 0.965911 0.753506
0 0 0.686336
0 0 0.686336
0 0 0.686427
0.187869 0 0.681315
0.742123 0 0.660777
0.921172 0 0.668803
0.919585 0.435355 0.705379
0.876738 0.856931 0.70631
0.86772 0.966262 0.753414
0 0.17882 0.680644
0 0.17882 0.680644
0 0.18201 0.680659
0.17084 0.175692 0.680247
0.742489 0.112795 0.670222
0.929198 0.222324 0.689311
0.902327 0.634287 0.694209
0.875273 0.873884 0.703883
0.867613 0.967788 0.753033
0 0.756573 0.648234
0 0.756573 0.648234
0 0.75671 0.64828
0 0.755825 0.648829
0.619684 0.752636 0.65124
0.847959 0.77052 0.657984
0.879545 0.831006 0.668254
0.872297 0.911604 0.697734
0.867247 0.972992 0.751614
0 0.977188 0.631617
0 0.977188 0.631617
0 0.977234 0.631601
0 0.973693 0.631952
0.57023 0.952697 0.620981
0.795026 0.941115 0.625315
0.868528 0.943877 0.645823
0.868818 0.960159 0.685588
0.866346 0.985672 0.747219
0.512184 1 0.554467
0.512184 1 0.554467
0.512184 1 0.554467
0.512184 1 0.554467
0.67097 1 0.552956
0.788724 1 0.564843
0.854734 0.998428 0.596933
0.866331 0.998245 0.657862
0.865141 1 0.735149
0.772671 1 0.565698
0.772671 1 0.565698
0.772671 1 0.565698
0.772671 1 0.565698
0.772671 1 0.565698
0.813199 1 0.574136
0.852323 1 0.596353
0.864866 1 0.651469
0.864012 1 0.73962
0.834913 1 0.768902
0.834913 1 0.768902
0.834897 1 0.768917
0.834897 1 0.768917
0.834897 1 0.768917
0.834897 1 0.768902
0.851087 1 0.771786
0.863752 1 0.779019
0.863645 1 0.796567
0 0 0.838956
0 0 0.838972
0 0 0.838972
0 0 0.838987
0.524224 0 0.818708
0.918227 0 0.816098
0.922057 0 0.816541
0.887098 0.756558 0.824018
0.867765 0.95906 0.818051
0 0 0.838972
0 0 0.838972
0 0 0.838972
0 0 0.838987
0.523766 0 0.818708
0.918227 0 0.816098
0.922057 0 0.816464
0.886198 0.763806 0.82324
0.86775 0.959274 0.818021
0 0 0.838895
0 0 0.838895
0 0 0.838895
0 0 0.838926
0.537606 0 0.818021
0.918502 0 0.815991
0.922057 0 0.816236
0.884611 0.776928 0.82179
0.86772 0.959716 0.81796
0 0 0.838514
0 0 0.838514
0 0 0.838514
0 0 0.838529
0.601373 0 0.814984
0.919264 0 0.815625
0.926711 0.0629129 0.826123
0.880156 0.815457 0.817609
0.867582 0.961563 0.817746
0 0.459709 0.825452
0 0.459709 0.825452
0 0.459709 0.825452
0 0.464042 0.825315
0.565805 0.467887 0.828534
0.900816 0.515282 0.836713
0.893553 0.70634 0.82356
0.87364 0.883604 0.810468
0.86714 0.967788 0.816968
0 0.96141 0.817273
0 0.96141 0.817273
0 0.96141 0.817273
0 0.961044 0.817212
0.356512 0.944793 0.810239
0.78027 0.924071 0.798199
0.864179 0.929931 0.799588
0.868421 0.951492 0.80354
0.866102 0.982391 0.814878
0.307744 1 0.800732
0.30779 1 0.800732
0.308354 1 0.800702
0.308354 1 0.800702
0.594461 1 0.788693
0.768444 0.99733 0.786374
0.843915 0.994217 0.789456
0.865278 0.995346 0.796414
0.864713 1 0.810208
0.757809 1 0.761822
0.757809 1 0.761822
0.757809 1 0.761822
0.757809 1 0.761822
0.757809 1 0.761822
0.799634 1 0.7635
0.842588 1 0.768399
0.863386 1 0.779965
0.863615 1 0.800626
0.836179 1 0.768765
0.836179 1 0.768765
0.836179 1 0.768765
0.836179 1 0.768765
0.836179 1 0.768765
0.836179 1 0.768765
0.85153 1 0.771588
0.863752 1 0.778866
0.863645 1 0.797055
0 0 0.877943
0 0 0.877943
0 0 0.877943
0 0 0.877943
0 0 0.877943
0.842527 0 0.862257
0.922271 0 0.866011
0.923735 0.00108339 0.869413
0.869749 0.927504 0.862867
0 0 0.877943
0 0 0.877943
0 0 0.877943
0 0 0.877943
0 0 0.877943
0.842512 0 0.862257
0.922271 0 0.866011
0.923964 0.00424201 0.869902
0.869703 0.928038 0.862821
0 0 0.877943
0 0 0.877943
0 0 0.877943
0 0 0.877943
0 0 0.877943
0.842512 0 0.862257
0.922271 0 0.866011
0.924254 0.00949111 0.870176
0.869627 0.929152 0.86273
0 0 0.877943
0 0 0.877943
0 0 0.877943
0 0 0.877943
0 0 0.877943
0.848722 0 0.862547
0.922271 0 0.866011
0.924834 0.0209506 0.871427
0.869307 0.933394 0.862394
0 0 0.877943
0 0 0.877943
0 0 0.877943
0 0 0.877943
0 0 0.877943
0.878904 0 0.863981
0.922271 0 0.866011
0.921782 0.42884 0.893751
0.86836 0.94641 0.861341
0 0.762356 0.871656
0 0.762356 0.871656
0 0.762356 0.871656
0 0.762356 0.871656
0 0.765316 0.871656
0.781949 0.760769 0.871138
0.879347 0.81178 0.868315
0.87129 0.907698 0.861769
0.86656 0.971542 0.859236
0 1 0.878416
0 1 0.878416
0 1 0.878416
0 1 0.878416
0 1 0.878248
0.726574 0.991989 0.854307
0.837995 0.987488 0.854353
0.864973 0.989944 0.854887
0.864637 0.998444 0.856519
0.728588 1 0.848936
0.728588 1 0.848936
0.728588 1 0.848936
0.728588 1 0.848936
0.728588 1 0.848936
0.777111 1 0.848859
0.834318 1 0.849409
0.862211 1 0.850675
0.863294 1 0.853483
0.830365 1 0.839948
0.830365 1 0.839948
0.830365 1 0.839948
0.830365 1 0.839948
0.830365 1 0.839948
0.830365 1 0.839948
0.846113 1 0.840635
0.861494 1 0.842557
0.86334 1 0.846937
0 0.055436 0.878477
0 0.055436 0.878477
0 0.055436 0.878477
0 0.055436 0.878477
0 0.055436 0.878477
0 0.0555276 0.878477
0.921004 0 0.866041
0.925597 0.0357671 0.873991
0.900221 0.656107 0.891096
0 0.055436 0.878477
0 0.055436 0.878477
0 0.055436 0.878477
0 0.055436 0.878477
0 0.055436 0.878477
0 0.0555276 0.878477
0.921004 0 0.866041
0.925597 0.0357671 0.873991
0.900221 0.656092 0.891112
0 0.055436 0.878477
0 0.055436 0.878477
0 0.055436 0.878477
0 0.055436 0.878477
0 0.055436 0.878477
0 0.0555276 0.878477
0.921004 0 0.866041
0.925597 0.0357671 0.873991
0.900221 0.656062 0.891096
0 0.055436 0.878477
0 0.055436 0.878477
0 0.055436 0.878477
0 0.055436 0.878477
0 0.055436 0.878477
0 0.0555276 0.878477
0.921004 0 0.866041
0.925597 0.0357671 0.873991
0.900236 0.65594 0.891112
0 0.0552529 0.878477
0 0.0552529 0.878477
0 0.0552529 0.878477
0 0.0552529 0.878477
0 0.0552529 0.878477
0 0.0553292 0.878477
0.921096 0 0.866041
0.925719 0.0382544 0.874311
0.900298 0.655467 0.891142
0 0.0539559 0.878462
0 0.0539559 0.878462
0 0.0539559 0.878462
0 0.0539559 0.878462
0 0.0539559 0.878462
0.00668345 0.0479744 0.877913
0.922271 0 0.866011
0.927535 0.072343 0.878782
0.879683 0.816342 0.880125
0 0.940566 0.89366
0 0.940566 0.89366
0 0.940566 0.89366
0 0.940566 0.89366
0 0.940566 0.89366
0 0.941039 0.894301
0.841108 0.90396 0.877379
0.86833 0.944564 0.876936
0.865675 0.981567 0.876692
0.392309 1 0.887037
0.392309 1 0.887037
0.392309 1 0.887037
0.392309 1 0.887037
0.392309 1 0.887037
0.471763 1 0.883589
0.818784 1 0.875212
0.860639 1 0.875441
0.863462 1 0.875502
0.81973 1 0.87364
0.81973 1 0.87364
0.81973 1 0.87364
0.81973 1 0.87364
0.81973 1 0.87364
0.81973 1 0.87364
0.837736 1 0.873747
0.858549 1 0.873915
0.863142 1 0.874144
0 0.248478 0.879652
0 0.248478 0.879652
0 0.248478 0.879652
0 0.248478 0.879652
0 0.248478 0.879652
0 0.248478 0.879652
0 0.248554 0.879652
0.9299 0.120867 0.884916
0.895491 0.691752 0.888487
0 0.248478 0.879652
0 0.248478 0.879652
0 0.248478 0.879652
0 0.248478 0.879652
0 0.248478 0.879652
0 0.248478 0.879652
0 0.248554 0.879652
0.9299 0.120867 0.884916
0.895491 0.691752 0.888487
0 0.248478 0.879652
0 0.248478 0.879652
0 0.248478 0.879652
0 0.248478 0.879652
0 0.248478 0.879652
0 0.248478 0.879652
0 0.248554 0.879652
0.9299 0.120867 0.884916
0.895491 0.691752 0.888487
0 0.248478 0.879652
0 0.248478 0.879652
0 0.248478 0.879652
0 0.248478 0.879652
0 0.248478 0.879652
0 0.248478 0.879652
0 0.248554 0.879652
0.9299 0.120867 0.884916
0.895491 0.691752 0.888487
0 0.248478 0.879652
0 0.248478 0.879652
0 0.248478 0.879652
0 0.248478 0.879652
0 0.248478 0.879652
0 0.248478 0.879652
0 0.248554 0.879652
0.929885 0.120821 0.884916
0.895491 0.691752 0.888487
0 0.248341 0.879652
0 0.248341 0.879652
0 0.248341 0.879652
0 0.248341 0.879652
0 0.248341 0.879652
0 0.248325 0.879652
0 0.248402 0.879667
0.930602 0.138521 0.886992
0.895247 0.693584 0.888334
0 0.247196 0.879667
0 0.247196 0.879667
0 0.247196 0.879667
0 0.247196 0.879667
0 0.247196 0.879667
0 0.247196 0.879667
0.05449 0.232074 0.880903
0.931777 0.230945 0.894987
0.894881 0.696254 0.888136
0 1 0.898756
0 1 0.898756
0 1 0.898756
0 1 0.898756
0 1 0.898756
0 1 0.898756
0.0866102 1 0.897581
0.859083 0.99823 0.876661
0.864149 1 0.87657
0.772732 1 0.875746
0.772732 1 0.875746
0.772732 1 0.875746
0.772732 1 0.875746
0.772732 1 0.875746
0.772732 1 0.875746
0.780392 1 0.875776
0.853986 1 0.876234
0.863432 1 0.8766
