BBLuts/BB_103_0950_LUT.cube
TITLE "Generated by Resolve"
LUT_3D_SIZE 9
0.0699626 0.0676738 0.0522469
0.0699626 0.0676738 0.0522469
0.309194 0.0696422 0.0527657
0.577264 0.0759289 0.0569314
0.843366 0.0879072 0.0652323
1 0.09691 0.0716564
0.977295 0.685374 0.234836
0.94934 0.95671 0.616205
0.937194 1 0.904753
0.06215 0.146807 0.0523995
0.0607919 0.160891 0.0524758
0.314839 0.136034 0.0516365
0.585275 0.0762646 0.0571603
0.845441 0.088014 0.0653086
1 0.09691 0.0716564
0.975113 0.708766 0.221729
0.94905 0.960082 0.614969
0.937163 1 0.904585
0.0425269 0.352102 0.0542
0.0420539 0.356924 0.0542458
0.252079 0.35314 0.0509346
0.573877 0.327321 0.0521553
0.840024 0.186297 0.0607767
1 0.383978 0.060441
0.972198 0.740368 0.199893
0.948623 0.964965 0.613138
0.937118 1 0.904341
0.0109102 0.628351 0.0583352
0.0107576 0.629236 0.0583505
0.0106966 0.629679 0.0583658
0.501076 0.623941 0.0509346
0.812894 0.618189 0.0531319
0.979324 0.663432 0.0550851
0.964904 0.817945 0.0529793
0.947463 0.978424 0.607645
0.936965 1 0.903502
0 0.905852 0.0654154
0 0.90576 0.0654154
0 0.905409 0.0654002
0 0.903014 0.0653544
0.740444 0.887282 0.0509651
0.937072 0.893797 0.0521248
0.953948 0.93901 0.0520333
0.944854 1 0.606897
0.936553 1 0.900938
0 1 0.0688792
0 1 0.068864
0 1 0.0688334
0 1 0.0687572
0.711269 1 0.0510872
0.887953 1 0.0512856
0.945464 1 0.201129
0.940764 1 0.637476
0.935622 1 0.894881
0.645228 1 0.381613
0.657023 1 0.382406
0.673289 1 0.383642
0.714229 1 0.387778
0.790417 1 0.401938
0.876768 1 0.446387
0.935912 1 0.561059
0.936568 1 0.732906
0.933974 1 0.916579
0.851835 1 0.805005
0.852827 1 0.805127
0.854307 1 0.805325
0.858701 1 0.805905
0.870588 1 0.807782
0.894713 1 0.813672
0.925093 1 0.831174
0.933654 1 0.879469
0.932631 1 0.965393
0.910445 1 0.992844
0.910552 1 0.992859
0.910719 1 0.992874
0.911238 1 0.99295
0.912795 1 0.993149
0.917021 1 0.99382
0.925551 1 0.995926
0.932189 1 1
0.931975 1 1
0.0705882 0.0686961 0.115328
0.0706035 0.0686961 0.115648
0.309346 0.0704814 0.117021
0.578378 0.0766461 0.123003
0.843565 0.0884413 0.136736
1 0.0975052 0.188525
0.977371 0.680919 0.316579
0.949157 0.955795 0.64004
0.937148 1 0.90927
0.0657816 0.114748 0.104448
0.123003 0.130312 0.101946
0.332082 0.0707561 0.106905
0.582422 0.0766766 0.108751
0.844343 0.0882429 0.100053
1 0.0973831 0.156252
0.975143 0.704921 0.303105
0.948852 0.959213 0.638849
0.937118 1 0.909102
0.0436713 0.340108 0.0540627
0.0432746 0.344244 0.0541085
0.275715 0.340902 0.0508125
0.573175 0.314733 0.0522316
0.846204 0.0880446 0.0653239
1 0.365148 0.0608682
0.972198 0.73724 0.2813
0.948425 0.964141 0.637049
0.937072 1 0.908858
0.0114595 0.624949 0.0582589
0.0113222 0.625788 0.0582742
0.0112764 0.626123 0.0582895
0.512734 0.620188 0.0509499
0.812589 0.615076 0.0531624
0.979553 0.660929 0.0551308
0.965148 0.816785 0.191592
0.947265 0.977707 0.631617
0.936919 1 0.90808
0 0.904738 0.0653849
0 0.904616 0.0653849
0 0.904234 0.0653697
0 0.901823 0.0653239
0.742855 0.886183 0.0509651
0.937194 0.893034 0.0521401
0.953994 0.938582 0.0520333
0.944778 1 0.616007
0.936507 1 0.905638
0 1 0.0688792
0 1 0.0688487
0 1 0.0688334
0 1 0.0687572
0.71281 1 0.0510719
0.888212 1 0.0512856
0.94548 1 0.200366
0.94078 1 0.637354
0.935592 1 0.898009
0.647044 1 0.38143
0.658671 1 0.382223
0.674769 1 0.383459
0.715282 1 0.387594
0.790936 1 0.401785
0.876921 1 0.44625
0.935943 1 0.561044
0.936568 1 0.732845
0.933974 1 0.916548
0.851987 1 0.80499
0.852979 1 0.805112
0.854444 1 0.805295
0.858839 1 0.805875
0.870695 1 0.807767
0.894774 1 0.813657
0.925109 1 0.831159
0.933654 1 0.879469
0.932631 1 0.965393
0.91046 1 0.992844
0.910567 1 0.992859
0.910735 1 0.992874
0.911238 1 0.992935
0.91281 1 0.993149
0.917037 1 0.99382
0.925551 1 0.995911
0.932189 1 1
0.931975 1 1
0.0715038 0.0705272 0.280156
0.0715038 0.0705272 0.2804
0.283619 0.071519 0.280079
0.586236 0.0779736 0.281071
0.843366 0.0890669 0.297292
1 0.0978103 0.343786
0.977417 0.672694 0.434546
0.948913 0.954452 0.672618
0.937087 1 0.915724
0.0714885 0.0704814 0.274937
0.0714885 0.0704814 0.27541
0.317327 0.0719768 0.275029
0.58529 0.0779126 0.275944
0.84538 0.0891432 0.291646
1 0.0977951 0.33434
0.975097 0.697536 0.425696
0.948608 0.957916 0.67155
0.937057 1 0.915572
0.0471199 0.308888 0.260685
0.0468147 0.311955 0.260273
0.265736 0.301961 0.25211
0.563714 0.282139 0.257221
0.844144 0.0890516 0.276982
1 0.310033 0.305745
0.97203 0.730816 0.412207
0.94818 0.96289 0.669932
0.936996 1 0.915343
0.0128786 0.616205 0.15903
0.012726 0.617166 0.160418
0.0126497 0.617609 0.162203
0.513802 0.611444 0.158267
0.80943 0.606958 0.167346
0.980438 0.653376 0.213321
0.964721 0.81207 0.368719
0.946975 0.976654 0.665095
0.936858 1 0.914595
0 0.902617 0.0653391
0 0.90248 0.0653391
0 0.902098 0.0653239
0 0.899672 0.0652781
0.745083 0.884108 0.0509804
0.937224 0.891386 0.0521401
0.954025 0.938033 0.220676
0.944442 1 0.651255
0.936431 1 0.912291
0 1 0.068864
0 1 0.0688487
0 1 0.0688182
0.117525 1 0.0592813
0.715129 1 0.0510719
0.888609 1 0.0512856
0.945495 1 0.199115
0.94078 1 0.63714
0.935515 1 0.905211
0.64976 1 0.381125
0.661189 1 0.381918
0.677012 1 0.383154
0.716884 1 0.387335
0.791714 1 0.401556
0.87715 1 0.446036
0.935988 1 0.561013
0.936568 1 0.732738
0.933974 1 0.916533
0.852216 1 0.804959
0.853193 1 0.805081
0.854658 1 0.805264
0.859022 1 0.805859
0.870848 1 0.807721
0.89485 1 0.813626
0.925124 1 0.831144
0.933654 1 0.879469
0.932631 1 0.965377
0.910475 1 0.992844
0.910597 1 0.992859
0.91075 1 0.992859
0.911269 1 0.992935
0.912825 1 0.993149
0.917037 1 0.99382
0.925566 1 0.995911
0.932189 1 1
0.931975 1 1
0.0719463 0.0725109 0.564294
0.0719463 0.0725261 0.564446
0.0719463 0.0725261 0.564553
0.567346 0.0782635 0.56585
0.857099 0.0900282 0.576745
1 0.0977798 0.600458
0.978454 0.644419 0.636179
0.948379 0.950195 0.754406
0.936919 1 0.933623
0.0719463 0.0724956 0.562051
0.0719463 0.0724956 0.562264
0.17055 0.0721141 0.561395
0.580209 0.078645 0.563729
0.855329 0.0899519 0.574243
1 0.0977646 0.598306
0.975753 0.672312 0.633204
0.948058 0.953796 0.753567
0.936873 1 0.933501
0.0614633 0.164584 0.557427
0.0605783 0.172793 0.55761
0.202808 0.164446 0.55584
0.584344 0.0787976 0.560052
0.85037 0.0897231 0.570382
1 0.0977646 0.594293
0.972229 0.709087 0.62884
0.947601 0.959014 0.752331
0.936828 1 0.933303
0.0165103 0.582589 0.535897
0.0162814 0.584085 0.536263
0.0161288 0.585031 0.53698
0.504524 0.578317 0.531807
0.797116 0.573022 0.538262
0.981231 0.623499 0.55996
0.96405 0.796811 0.61593
0.946334 0.973342 0.748608
0.936675 1 0.932662
0 0.893019 0.435172
0 0.892958 0.436088
0 0.892668 0.43743
0 0.89041 0.441367
0.741268 0.874968 0.436713
0.934386 0.883558 0.480034
0.951934 0.932189 0.581277
0.943648 1 0.738216
0.936248 1 0.930694
0 1 0.0688487
0 1 0.0688182
0 1 0.0688029
0.153552 1 0.0581826
0.715877 1 0.0510719
0.88809 1 0.236255
0.943755 1 0.488624
0.940032 1 0.711116
0.935302 1 0.924697
0.658045 1 0.380163
0.668864 1 0.380972
0.683848 1 0.382239
0.721813 1 0.386465
0.794171 1 0.400778
0.877852 1 0.445396
0.936141 1 0.560906
0.936584 1 0.732418
0.933974 1 0.916396
0.852934 1 0.804852
0.853895 1 0.80499
0.855329 1 0.805173
0.859663 1 0.805753
0.871336 1 0.807645
0.895125 1 0.813535
0.925216 1 0.831067
0.933654 1 0.879438
0.932631 1 0.965331
0.910567 1 0.992828
0.910674 1 0.992844
0.910842 1 0.992859
0.911345 1 0.99292
0.912902 1 0.993133
0.917098 1 0.993805
0.925597 1 0.995895
0.932189 1 1
0.931975 1 1
0.0730144 0.0756085 0.85153
0.0730144 0.0756085 0.851606
0.0730144 0.0756085 0.851728
0.387594 0.0766003 0.850324
0.845212 0.0904402 0.854612
1 0.0982223 0.863569
0.9897 0.493111 0.86894
0.947951 0.936294 0.899413
0.936568 1 0.973114
0.0730144 0.0755932 0.850889
0.0730144 0.0756085 0.850965
0.0730144 0.0756085 0.851087
0.423239 0.0771191 0.84979
0.849943 0.0906386 0.854063
1 0.0982223 0.862898
0.98407 0.563699 0.866606
0.94757 0.940475 0.898894
0.936538 1 0.973007
0.0730144 0.0755932 0.849912
0.0730144 0.0755932 0.850004
0.0730144 0.0755932 0.850126
0.469444 0.0778515 0.848997
0.852674 0.0907454 0.853071
1 0.0982223 0.861799
0.978256 0.623545 0.863493
0.947021 0.946487 0.898131
0.936492 1 0.972869
0.0390021 0.372625 0.843915
0.0385901 0.376516 0.843961
0.038056 0.381338 0.843992
0.446571 0.366583 0.839521
0.841749 0.205081 0.844251
0.996246 0.4056 0.846555
0.966751 0.741588 0.855222
0.945541 0.962921 0.895888
0.936324 1 0.972442
0 0.853864 0.821317
0 0.854139 0.821454
0 0.854185 0.821607
0 0.852689 0.821897
0.727092 0.837842 0.812329
0.927123 0.852537 0.818463
0.950759 0.913802 0.837766
0.942428 0.997818 0.890135
0.935866 1 0.971115
0 1 0.782696
0 1 0.782849
0 1 0.783093
0 1 0.783795
0.687922 1 0.772824
0.875761 1 0.783627
0.940658 1 0.813443
0.938338 1 0.877333
0.934859 1 0.967254
0.651545 1 0.680552
0.662364 1 0.680827
0.677348 1 0.681239
0.715267 1 0.682673
0.787732 1 0.687602
0.871626 1 0.703563
0.930419 1 0.749294
0.935347 1 0.844984
0.933532 1 0.956436
0.855146 1 0.804562
0.856062 1 0.804685
0.85745 1 0.804868
0.861601 1 0.805463
0.872862 1 0.80734
0.895949 1 0.81326
0.925475 1 0.830808
0.933654 1 0.879393
0.932631 1 0.965194
0.910826 1 0.992782
0.910933 1 0.992798
0.911086 1 0.992828
0.911589 1 0.992889
0.913115 1 0.993103
0.917281 1 0.993774
0.925689 1 0.99588
0.932189 1 1
0.931975 1 1
0.073518 0.0774395 1
0.073518 0.0774395 1
0.073518 0.0774395 1
0.073518 0.0774395 1
0.745892 0.0871748 1
1 0.0985275 1
1 0.0985275 1
0.952056 0.8766 1
0.936355 1 1
0.073518 0.0774395 1
0.073518 0.0774395 1
0.073518 0.0774395 1
0.073518 0.0774395 1
0.752728 0.0874342 1
1 0.0985275 1
1 0.0985122 1
0.951339 0.884428 1
0.936309 1 1
0.073518 0.0774395 1
0.073518 0.0774395 1
0.073518 0.0774395 1
0.073518 0.0774395 1
0.762798 0.0878157 1
1 0.0985122 1
1 0.0985275 1
0.950317 0.895338 1
0.936248 1 1
0.073518 0.0774243 1
0.073518 0.0774243 1
0.073518 0.0774243 1
0.073518 0.0774243 1
0.787411 0.0887617 1
1 0.0985122 1
1 0.0985122 1
0.947768 0.923018 1
0.936049 1 1
0 0.664591 1
0 0.665736 1
0 0.667491 1
0 0.670726 1
0.725704 0.657526 1
0.970764 0.68162 1
0.957107 0.823743 1
0.942901 0.976333 1
0.935531 1 1
0 1 1
0 1 1
0 1 1
0 1 1
0.62034 1 0.9953
0.863859 1 0.995178
0.93933 1 0.997436
0.937407 1 1
0.934371 1 1
0.560357 1 0.981094
0.577905 1 0.980941
0.601724 1 0.980743
0.658396 1 0.980423
0.753658 1 0.980316
0.85333 1 0.98143
0.918517 1 0.985641
0.9337 1 0.996292
0.932845 1 1
0.847837 1 0.94313
0.848768 1 0.943191
0.850156 1 0.943252
0.854337 1 0.943496
0.86566 1 0.944289
0.888991 1 0.946761
0.919081 1 0.954253
0.932525 1 0.973663
0.932113 1 1
0.911604 1 0.992676
0.911696 1 0.992706
0.911864 1 0.992721
0.912352 1 0.992782
0.913817 1 0.992996
0.91783 1 0.993667
0.925978 1 0.995773
0.932189 1 1
0.931975 1 1
0.0736095 0.0778668 1
0.0736095 0.0778668 1
0.0736095 0.0778668 1
0.0736095 0.0778668 1
0.0736095 0.0778668 1
1 0.0982376 1
1 0.0986038 1
1 0.0986038 1
0.937667 1 1
0.0736095 0.0778668 1
0.0736095 0.0778668 1
0.0736095 0.0778668 1
0.0736095 0.0778668 1
0.0736095 0.0778668 1
1 0.0982834 1
1 0.0986038 1
1 0.0986038 1
0.937591 1 1
0.0736095 0.0778668 1
0.0736095 0.0778668 1
0.0736095 0.0778668 1
0.0736095 0.0778668 1
0.0736095 0.0778668 1
1 0.0983597 1
1 0.0986038 1
1 0.0986038 1
0.937484 1 1
0.0736095 0.0778668 1
0.0736095 0.0778668 1
0.0736095 0.0778668 1
0.0736095 0.0778668 1
0.0736095 0.0778668 1
1 0.0985885 1
1 0.0986038 1
1 0.0986038 1
0.937133 1 1
0.0736095 0.0778668 1
0.0736095 0.0778668 1
0.0736095 0.0778668 1
0.0736095 0.0778668 1
0.359411 0.0779278 1
1 0.0986038 1
1 0.0986038 1
0.963241 0.750607 1
0.936248 1 1
0 0.938399 1
0 0.938674 1
0 0.939116 1
0 0.940459 1
0 0.936446 1
0.877134 0.918334 1
0.94493 0.9458 1
0.939406 1 1
0.934524 1 1
0 1 1
0 1 1
0 1 1
0 1 1
0.665965 1 1
0.833783 1 1
0.913542 1 1
0.933242 1 1
0.932479 1 1
0.824308 1 1
0.825559 1 1
0.827405 1 1
0.832898 1 1
0.847578 1 1
0.876371 1 1
0.911147 1 1
0.931487 1 1
0.931426 1 1
0.908522 1 1
0.908629 1 1
0.908797 1 1
0.90927 1 1
0.91075 1 1
0.914763 1 1
0.922942 1 1
0.931624 1 1
0.931548 1 1
0.0564889 0.21236 1
0.0564889 0.212375 1
0.0564889 0.212375 1
0.0564889 0.212375 1
0.0564889 0.212421 1
0.0564736 0.212558 1
1 0.0986038 1
0.99292 0.418708 1
0.957031 0.815045 1
0.0564889 0.212329 1
0.0564889 0.212329 1
0.0564889 0.21236 1
0.0564889 0.21236 1
0.0564889 0.212406 1
0.0564736 0.212558 1
1 0.0986038 1
0.992889 0.41912 1
0.957046 0.81503 1
0.0565042 0.212314 1
0.0565042 0.212314 1
0.0565042 0.212314 1
0.0564889 0.212329 1
0.0564889 0.212375 1
0.0564736 0.212512 1
1 0.0986038 1
0.992844 0.419745 1
0.957046 0.815 1
0.0565042 0.212192 1
0.0565042 0.212192 1
0.0565042 0.212192 1
0.0565042 0.212207 1
0.0565042 0.212268 1
0.0564889 0.212406 1
1 0.0986038 1
0.992691 0.421759 1
0.957046 0.814908 1
0.0565499 0.211841 1
0.0565499 0.211841 1
0.0565499 0.211872 1
0.0565499 0.211872 1
0.0565499 0.211917 1
0.0565194 0.212055 1
1 0.0986038 1
0.992432 0.425391 1
0.957076 0.814588 1
0.0566873 0.210727 1
0.0566873 0.210727 1
0.0566873 0.210727 1
0.056672 0.210758 1
0.056672 0.210773 1
0.807584 0.0897231 1
1 0.0986038 1
0.991989 0.431327 1
0.941466 0.981369 1
0 1 1
0 1 1
0 1 1
0 1 1
0 1 1
0.725261 1 1
0.918975 1 1
0.935302 1 1
0.933257 1 1
0.706447 1 1
0.711681 1 1
0.719219 1 1
0.739986 1 1
0.785779 1 1
0.849439 1 1
0.903822 1 1
0.931136 1 1
0.931136 1 1
0.900313 1 1
0.90045 1 1
0.900664 1 1
0.901305 1 1
0.903227 1 1
0.908339 1 1
0.918441 1 1
0.929976 1 1
0.931151 1 1
0.0222019 0.515648 1
0.0222019 0.515648 1
0.0222019 0.515648 1
0.0222019 0.515648 1
0.0222019 0.515663 1
0.0222019 0.515709 1
0.0221866 0.515846 1
0.982071 0.559945 1
0.953246 0.854994 1
0.0222019 0.515633 1
0.0222019 0.515633 1
0.0222019 0.515633 1
0.0222019 0.515648 1
0.0222019 0.515648 1
0.0222019 0.515694 1
0.0221866 0.515831 1
0.982055 0.560113 1
0.953246 0.855039 1
0.0222019 0.515633 1
0.0222019 0.515633 1
0.0222019 0.515633 1
0.0222019 0.515633 1
0.0222019 0.515648 1
0.0222019 0.515694 1
0.0221866 0.515831 1
0.98204 0.560372 1
0.953246 0.855085 1
0.0222171 0.515602 1
0.0222171 0.515602 1
0.0222171 0.515602 1
0.0222171 0.515618 1
0.0222171 0.515618 1
0.0222019 0.515648 1
0.0221866 0.515785 1
0.981964 0.561212 1
0.953231 0.855222 1
0.0222171 0.515511 1
0.0222171 0.515511 1
0.0222171 0.515511 1
0.0222171 0.515511 1
0.0222171 0.515526 1
0.0222171 0.515557 1
0.0222019 0.515694 1
0.981735 0.563836 1
0.953185 0.855695 1
0.0222629 0.515175 1
0.0222629 0.515175 1
0.0222629 0.51519 1
0.0222629 0.51519 1
0.0222629 0.51519 1
0.0222629 0.515251 1
0.0225681 0.512779 1
0.981033 0.571969 1
0.953109 0.856519 1
0.022385 0.514168 1
0.022385 0.514168 1
0.022385 0.514168 1
0.022385 0.514199 1
0.022385 0.514199 1
0.022385 0.514229 1
1 0.0986038 1
0.979446 0.58851 1
0.952972 0.857939 1
0 1 1
0 1 1
0 1 1
0 1 1
0 1 1
0 1 1
0.865492 1 1
0.932158 1 1
0.931838 1 1
0.861982 1 1
0.86247 1 1
0.863203 1 1
0.865446 1 1
0.871839 1 1
0.886824 1 1
0.9093 1 1
0.927581 1 1
0.931136 1 1
