BBLuts/BB_102_0630_LUT.cube
TITLE "Generated by Resolve"
LUT_3D_SIZE 9
0 0 0
0 0 0
0.164401 0 0
0.432197 0 0
0.748745 0 0
0.932876 0 0
0.917556 0.553597 0.0783093
0.890486 0.875151 0.37586
0.877943 0.976272 0.695674
0 0.0237125 0
0 0.0340124 0
0.17232 0.00920119 0
0.444694 0 0
0.750912 0 0
0.932876 0 0
0.914641 0.590875 0.0675822
0.890166 0.879316 0.37322
0.877913 0.976761 0.695445
0 0.188388 0
0 0.192096 0
0.121111 0.190661 0
0.446738 0.159289 0
0.751461 0.0355077 0
0.932815 0.184268 0
0.91046 0.635233 0.046479
0.889677 0.886061 0.369024
0.877867 0.977554 0.695064
0 0.485954 0
0 0.487358 0
0 0.488136 0
0.360861 0.49749 0
0.73698 0.487388 0
0.912703 0.560006 0
0.89868 0.728771 0
0.888502 0.902815 0.356832
0.877714 0.979843 0.693919
0 0.815122 0
0 0.815045 0
0 0.814649 0
0 0.812085 0
0.664179 0.811566 0
0.86479 0.821668 0
0.88751 0.865858 0
0.88603 0.936294 0.3608
0.877317 0.985855 0.690486
0 0.986572 0
0 0.985855 0
0 0.98468 0
0 0.981094 0
0.639063 0.967224 0
0.821027 0.959258 0
0.881453 0.961349 0
0.882445 0.979126 0.409339
0.876432 0.998566 0.686488
0.534798 1 0.147066
0.55201 1 0.146868
0.576822 1 0.146792
0.634272 1 0.148043
0.725231 1 0.158633
0.815579 1 0.198672
0.875166 1 0.312184
0.878141 1 0.524117
0.874861 1 0.712077
0.782605 1 0.594339
0.78381 1 0.594491
0.785718 1 0.594736
0.79118 1 0.595468
0.805112 1 0.597742
0.831632 1 0.604639
0.863432 1 0.624353
0.87422 1 0.675792
0.87335 1 0.762722
0.846052 1 0.789685
0.846189 1 0.7897
0.846433 1 0.789731
0.84715 1 0.789822
0.84921 1 0.790066
0.854383 1 0.790845
0.864332 1 0.793149
0.873091 1 0.79939
0.872984 1 0.815961
0 0 0.013138
0 0 0.0133211
0.166064 0 0.0102693
0.434318 0 0.00306706
0.74992 0 0
0.935454 0 0.0173037
0.91931 0.54818 0.13814
0.890196 0.87393 0.415579
0.877882 0.976089 0.701686
0 0.000671397 0.00735485
0.0106508 0.0119326 0.00526436
0.184146 0 0.00445563
0.440284 0 0
0.750134 0 0
0.9346 0 0.000106813
0.916411 0.586984 0.127321
0.889876 0.878141 0.413443
0.877852 0.976577 0.701473
0 0.179019 0
0 0.182116 0
0.140963 0.18088 0
0.444923 0.148791 0
0.749874 9.15541e-05 0
0.932937 0.164065 0
0.912352 0.633417 0.107805
0.889357 0.884916 0.409995
0.877791 0.977371 0.701106
0 0.480552 0
0 0.48188 0
0 0.482429 0
0.374243 0.491371 0
0.736965 0.482109 0
0.912947 0.556451 0
0.900725 0.728939 0.0139773
0.888151 0.901823 0.399863
0.877638 0.97966 0.700023
0 0.813855 0
0 0.813748 0
0 0.813352 0
0 0.810742 0
0.666789 0.810376 0
0.864942 0.820844 0
0.887541 0.865415 0
0.885954 0.936019 0.370687
0.877241 0.985702 0.696773
0 0.986328 0
0 0.985611 0
0 0.984436 0
0 0.98085 0
0.640818 0.96701 0
0.821302 0.959136 0
0.881468 0.961257 0
0.882445 0.979065 0.40911
0.876417 0.998535 0.687037
0.537453 1 0.146715
0.554421 1 0.146548
0.578897 1 0.146502
0.635645 1 0.147799
0.725826 1 0.158465
0.815732 1 0.19855
0.875196 1 0.312169
0.878141 1 0.524056
0.874861 1 0.712047
0.782788 1 0.594324
0.783993 1 0.594476
0.785885 1 0.594705
0.791333 1 0.595453
0.805234 1 0.597711
0.831693 1 0.604623
0.863462 1 0.624338
0.87422 1 0.675776
0.87335 1 0.762707
0.846067 1 0.789685
0.846204 1 0.7897
0.846448 1 0.789731
0.847166 1 0.789807
0.849226 1 0.790066
0.854398 1 0.790845
0.864347 1 0.793149
0.873091 1 0.79939
0.872984 1 0.815961
0 0 0.122942
0 0 0.123156
0.145006 0 0.11957
0.449439 0 0.105165
0.752392 0 0.0950179
0.937636 0 0.125109
0.921447 0.53518 0.239765
0.889769 0.871916 0.466209
0.877791 0.975784 0.710704
0 0 0.119356
0 0 0.119692
0.172457 0 0.115297
0.447623 0 0.101778
0.754391 0 0.0911879
0.937575 0 0.118486
0.918502 0.576883 0.232532
0.889433 0.876204 0.464515
0.87776 0.976287 0.710491
0 0.155428 0.106401
0 0.157794 0.10605
0.135256 0.150546 0.100679
0.432059 0.124819 0.0961624
0.753063 0 0.0809491
0.938018 0.104265 0.12221
0.914488 0.627451 0.219974
0.888899 0.883085 0.461784
0.877699 0.977096 0.71017
0 0.468315 0.0248112
0 0.469917 0.0255283
0 0.47071 0.026566
0.3794 0.47924 0.0347143
0.737011 0.470848 0.0417029
0.917891 0.54902 0.0790417
0.904677 0.727932 0.178668
0.887633 0.900206 0.45391
0.877546 0.979385 0.709163
0 0.811246 0
0 0.811124 0
0 0.810712 0
0 0.808072 0
0.669123 0.807904 0
0.864973 0.818921 0
0.890196 0.867109 0.0444648
0.885328 0.934813 0.43241
0.87715 0.985443 0.706172
0 0.985931 0
0 0.985199 0
0 0.984024 0
0 0.980453 0
0.643641 0.966628 0
0.821729 0.958923 0
0.881468 0.96112 0
0.88246 0.978988 0.408743
0.87631 0.998306 0.697307
0.541726 1 0.146166
0.558297 1 0.146014
0.582238 1 0.146014
0.637888 1 0.147417
0.726772 1 0.158206
0.815991 1 0.198352
0.875257 1 0.312123
0.878141 1 0.523934
0.874861 1 0.712001
0.783078 1 0.594278
0.784268 1 0.59443
0.78616 1 0.594675
0.791592 1 0.595407
0.805432 1 0.597681
0.8318 1 0.604578
0.863493 1 0.624308
0.87422 1 0.675776
0.87335 1 0.762707
0.846098 1 0.789685
0.84625 1 0.789685
0.846494 1 0.789731
0.847196 1 0.789807
0.849256 1 0.790066
0.854414 1 0.790845
0.864363 1 0.793133
0.873091 1 0.79939
0.872984 1 0.815961
0 0 0.366979
0 0 0.367147
0 0 0.367254
0.420447 0 0.351843
0.768688 0 0.338933
0.93785 0 0.366598
0.925597 0.481086 0.461799
0.888762 0.865812 0.56379
0.877592 0.97499 0.733211
0 0 0.364492
0 0 0.364721
0.0527352 0 0.362783
0.438178 0 0.348333
0.766964 0 0.336187
0.937865 0 0.363394
0.921675 0.535332 0.458076
0.888365 0.870314 0.562692
0.877562 0.975494 0.733043
0 0.042237 0.359503
0 0.0479438 0.359655
0.0798962 0.041413 0.357382
0.445533 0 0.343572
0.761654 0 0.331746
0.937881 0 0.357412
0.917021 0.59968 0.45211
0.8878 0.877165 0.560937
0.877501 0.976303 0.732784
0 0.418097 0.320607
0 0.420188 0.320882
0 0.421653 0.321584
0.374624 0.428855 0.330617
0.729488 0.421271 0.337224
0.923873 0.506279 0.370657
0.906432 0.711559 0.431083
0.886366 0.895384 0.556023
0.877348 0.978637 0.731991
0 0.808164 0.226139
0 0.808148 0.226886
0 0.807858 0.228
0 0.805447 0.231006
0.67158 0.804486 0.246815
0.86836 0.816342 0.285344
0.891432 0.863737 0.376761
0.883787 0.931304 0.543496
0.876921 0.984771 0.729641
0 0.984802 0
0 0.98407 0
0 0.982879 0
0 0.979309 0
0.643549 0.965606 0
0.824475 0.961746 0.106432
0.884764 0.964385 0.280217
0.88101 0.976883 0.513893
0.876036 0.997757 0.72282
0.554131 1 0.144503
0.569604 1 0.144442
0.59202 1 0.144564
0.64445 1 0.146273
0.729595 1 0.157412
0.81677 1 0.197742
0.875425 1 0.312016
0.878157 1 0.523583
0.874861 1 0.711833
0.783978 1 0.594171
0.785153 1 0.594308
0.787015 1 0.594553
0.792355 1 0.595285
0.806012 1 0.597559
0.83209 1 0.604471
0.863584 1 0.624216
0.87422 1 0.675746
0.87335 1 0.762646
0.846204 1 0.78967
0.846357 1 0.789685
0.846586 1 0.7897
0.847318 1 0.789792
0.849348 1 0.790051
0.854505 1 0.790829
0.864408 1 0.793133
0.873091 1 0.799374
0.872984 1 0.815961
0 0 0.675212
0 0 0.675288
0 0 0.67541
0.235569 0 0.669444
0.75433 0 0.651453
0.935897 0 0.660258
0.938888 0.178363 0.694026
0.888411 0.847715 0.716655
0.877348 0.972885 0.776867
0 0 0.674601
0 0 0.674678
0 0 0.674815
0.266316 0 0.667933
0.759167 0 0.650843
0.935897 0 0.659617
0.93547 0.315114 0.698665
0.887861 0.853208 0.715862
0.877317 0.973419 0.776761
0 0 0.673609
0 0 0.673701
0 0 0.673838
0.308049 0 0.665553
0.762127 0 0.64976
0.935912 0 0.658503
0.927352 0.449546 0.697246
0.887053 0.861372 0.714687
0.877256 0.974273 0.776577
0 0.211109 0.666728
0 0.214343 0.666712
0 0.218494 0.666667
0.307347 0.212512 0.665187
0.760464 0.0879377 0.655146
0.938186 0.237354 0.675471
0.911711 0.647486 0.687922
0.885145 0.882368 0.711589
0.877073 0.97673 0.776059
0 0.767361 0.632853
0 0.767681 0.633005
0 0.767773 0.633158
0 0.76611 0.633417
0.657221 0.765332 0.637354
0.861418 0.783062 0.645991
0.88954 0.842542 0.661387
0.881834 0.922957 0.704707
0.876616 0.983139 0.774548
0 0.98616 0.609277
0 0.985489 0.6094
0 0.984344 0.609567
0 0.98085 0.610101
0.617517 0.963821 0.600793
0.813214 0.954131 0.608103
0.880293 0.956512 0.635264
0.878325 0.971817 0.691463
0.875685 0.996536 0.770413
0.54136 1 0.517433
0.557305 1 0.517037
0.580407 1 0.516533
0.634272 1 0.515999
0.721202 1 0.51873
0.809216 1 0.533227
0.868009 1 0.574807
0.875944 1 0.660517
0.874449 1 0.759548
0.786633 1 0.59379
0.787747 1 0.593942
0.789532 1 0.594171
0.794659 1 0.594919
0.807782 1 0.597192
0.833021 1 0.60412
0.86389 1 0.623911
0.87422 1 0.675685
0.87335 1 0.762509
0.846555 1 0.789624
0.846693 1 0.789639
0.846922 1 0.78967
0.847623 1 0.789761
0.849638 1 0.790005
0.854719 1 0.790799
0.864515 1 0.793103
0.873091 1 0.799344
0.872984 1 0.815961
0 0 0.843198
0 0 0.843214
0 0 0.843229
0 0 0.843275
0.654475 0 0.821027
0.936202 0 0.822171
0.936202 0 0.822995
0.897124 0.768856 0.83238
0.877394 0.966827 0.829816
0 0 0.843137
0 0 0.843137
0 0 0.843153
0 0 0.843198
0.66186 0 0.820676
0.936202 0 0.82211
0.936202 0 0.822919
0.895674 0.78024 0.831067
0.877348 0.967453 0.829755
0 0 0.843015
0 0 0.84303
0 0 0.843046
0 0 0.843076
0.673457 0 0.820142
0.936202 0 0.821973
0.936202 0 0.822812
0.893614 0.796826 0.829175
0.877272 0.96846 0.829633
0 0 0.84268
0 0 0.84268
0 0 0.842695
0 0 0.842405
0.698497 0 0.819013
0.936202 0 0.821591
0.936202 0 0.821057
0.889021 0.835843 0.82475
0.877058 0.971374 0.829297
0 0.5673 0.828382
0 0.568841 0.828351
0 0.571313 0.82826
0 0.575128 0.82771
0.654551 0.574853 0.83093
0.913008 0.611322 0.83859
0.899611 0.749615 0.827176
0.882734 0.899809 0.818143
0.876524 0.978851 0.828382
0 0.973053 0.821012
0 0.972625 0.820951
0 0.971786 0.820829
0 0.968505 0.82034
0.542687 0.952667 0.809613
0.801678 0.939345 0.803815
0.875959 0.944686 0.805676
0.877699 0.964385 0.81117
0.875456 0.993866 0.826215
0.384695 1 0.80264
0.426688 1 0.801251
0.476829 1 0.79942
0.563882 1 0.795392
0.685313 1 0.791074
0.791409 1 0.791058
0.856596 1 0.794781
0.874662 1 0.803555
0.874083 1 0.821851
0.776638 1 0.759228
0.777798 1 0.759274
0.779644 1 0.759335
0.784924 1 0.759564
0.798444 1 0.76025
0.824414 1 0.762402
0.856352 1 0.768582
0.873182 1 0.78407
0.873014 1 0.811749
0.847562 1 0.789502
0.8477 1 0.789517
0.847913 1 0.789548
0.848585 1 0.789624
0.850507 1 0.789899
0.855375 1 0.790661
0.864866 1 0.792981
0.873091 1 0.799252
0.872984 1 0.81593
0 0 0.890913
0 0 0.890913
0 0 0.890913
0 0 0.890913
0 0 0.890913
0.921111 0 0.878767
0.936446 0 0.879438
0.936446 0 0.879438
0.878965 0.941253 0.872541
0 0 0.890913
0 0 0.890913
0 0 0.890913
0 0 0.890913
0 0 0.890913
0.922271 0 0.878813
0.936446 0 0.879438
0.936446 0 0.879438
0.878874 0.942412 0.872435
0 0 0.890913
0 0 0.890913
0 0 0.890913
0 0 0.890913
0 0 0.890913
0.924102 0 0.87892
0.936446 0 0.879438
0.936446 0 0.879438
0.878737 0.944259 0.872282
0 0 0.890913
0 0 0.890913
0 0 0.890913
0 0 0.890913
0 0 0.890913
0.929488 0 0.879179
0.936446 0 0.879438
0.936446 0 0.879438
0.87834 0.949477 0.871855
0 0 0.890913
0 0 0.890913
0 0 0.890913
0 0 0.890913
0.323293 0 0.883833
0.936446 0 0.879438
0.936446 0 0.879438
0.912062 0.652445 0.89897
0.877394 0.962341 0.870771
0 0.872068 0.886534
0 0.872343 0.886549
0 0.872831 0.88658
0 0.874296 0.88661
0 0.868986 0.884993
0.811795 0.856962 0.876112
0.884108 0.88043 0.873854
0.879515 0.934386 0.869963
0.875761 0.985183 0.868772
0 1 0.885313
0 1 0.885237
0 1 0.88513
0 1 0.884779
0.5888 1 0.867643
0.773022 1 0.862852
0.852064 1 0.863111
0.874556 1 0.863767
0.873976 1 0.866133
0.75169 1 0.857298
0.753262 1 0.857298
0.755734 1 0.857282
0.762768 1 0.857252
0.780331 1 0.857237
0.812558 1 0.857389
0.849149 1 0.857954
0.872709 1 0.859373
0.872694 1 0.862974
0.843732 1 0.845945
0.84387 1 0.84596
0.844099 1 0.84596
0.84477 1 0.845991
0.846738 1 0.846082
0.851698 1 0.846357
0.861372 1 0.847135
0.872465 1 0.849424
0.87274 1 0.855222
0 0.0184176 0.891035
0 0.0184176 0.891035
0 0.0184176 0.891035
0 0.0184329 0.891035
0 0.0185092 0.891035
0 0.0186923 0.891035
0.936446 0 0.879438
0.936446 0 0.879438
0.906203 0.699763 0.900877
0 0.0183719 0.891035
0 0.0183719 0.891035
0 0.0184024 0.891035
0 0.0184176 0.891035
0 0.0184939 0.891051
0 0.018677 0.891035
0.936446 0 0.879438
0.936446 0 0.879438
0.906218 0.699733 0.900877
0 0.0183261 0.891051
0 0.0183261 0.891051
0 0.0183413 0.891051
0 0.0183719 0.891051
0 0.0184176 0.891035
0 0.018616 0.891051
0.936446 0 0.879438
0.936446 0 0.879438
0.906218 0.699687 0.900877
0 0.0181735 0.891035
0 0.0181582 0.891035
0 0.0181735 0.891035
0 0.018204 0.891051
0 0.018265 0.891035
0 0 0.891157
0.936446 0 0.879438
0.936446 0 0.879438
0.906233 0.69955 0.900893
0 0.0176699 0.891051
0 0.0176699 0.891051
0 0.0176852 0.891051
0 0.0177005 0.891051
0 0.0177615 0.891035
0.36437 0 0.882612
0.936446 0 0.879438
0.936446 0 0.879438
0.906294 0.699123 0.900923
0 0.0160983 0.891051
0 0.0160983 0.891051
0 0.0160983 0.891051
0 0.0161135 0.891051
0 0.0161898 0.891035
0.769635 0 0.872999
0.936446 0 0.879438
0.937942 0.0162051 0.886168
0.881926 0.902876 0.888869
0 1 0.907225
0 1 0.907225
0 1 0.907225
0 1 0.90724
0 1 0.907256
0.677958 0.975509 0.888838
0.855985 0.969406 0.887984
0.876097 0.978058 0.887892
0.874632 0.998459 0.887785
0.606882 1 0.889906
0.614755 1 0.889555
0.62652 1 0.889067
0.656565 1 0.887953
0.715206 1 0.886412
0.785885 1 0.885817
0.84181 1 0.885893
0.871611 1 0.886305
0.872801 1 0.886427
0.834653 1 0.883894
0.834852 1 0.883894
0.835157 1 0.883894
0.836072 1 0.883909
0.838651 1 0.883909
0.84509 1 0.88394
0.856886 1 0.884016
0.869627 1 0.884184
0.872541 1 0.884565
0 0.280125 0.891539
0 0.280125 0.891539
0 0.280125 0.891539
0 0.28014 0.891539
0 0.28014 0.891539
0 0.280201 0.891539
0 0.280339 0.891539
0.937789 0.294301 0.906249
0.900099 0.745617 0.897475
0 0.280125 0.891539
0 0.280125 0.891539
0 0.280125 0.891539
0 0.280125 0.891539
0 0.28014 0.891539
0 0.280186 0.891539
0 0.280339 0.891539
0.937774 0.294667 0.906264
0.900099 0.745663 0.897459
0 0.280095 0.891539
0 0.280095 0.891539
0 0.280095 0.891539
0 0.280125 0.891539
0 0.280125 0.891539
0 0.280186 0.891539
0 0.280308 0.891539
0.937743 0.295216 0.906279
0.900084 0.745724 0.897459
0 0.280079 0.891539
0 0.280079 0.891539
0 0.280079 0.891539
0 0.280079 0.891539
0 0.280095 0.891539
0 0.28014 0.891539
0 0.280262 0.891539
0.937682 0.296941 0.906325
0.900053 0.745968 0.897444
0 0.279942 0.891539
0 0.279942 0.891539
0 0.279942 0.891539
0 0.279942 0.891539
0 0.279973 0.891539
0 0.280018 0.891554
0.361746 0.263554 0.893889
0.937469 0.302205 0.906477
0.899962 0.746624 0.897398
0 0.279591 0.891554
0 0.279591 0.891554
0 0.279591 0.891554
0 0.279606 0.891554
0 0.279606 0.891554
0 0.279652 0.891554
0.79173 0.0383917 0.881605
0.936828 0.317769 0.906889
0.899825 0.747616 0.897322
0 0.278477 0.891554
0 0.278477 0.891554
0 0.278477 0.891554
0 0.278508 0.891554
0 0.278508 0.891554
0 0.278538 0.891554
0.936446 0 0.879438
0.935363 0.348089 0.907485
0.89958 0.749477 0.897185
0 1 0.908293
0 1 0.908293
0 1 0.908293
0 1 0.908293
0 1 0.908293
0 1 0.908293
0.809262 1 0.887388
0.87335 1 0.88777
0.873411 1 0.887678
0.791791 1 0.886915
0.792447 1 0.886915
0.793515 1 0.886931
0.796597 1 0.886946
0.804761 1 0.886976
0.822309 1 0.887098
0.847364 1 0.887266
0.867338 1 0.887388
0.872786 1 0.887694
