BBLuts/BB_103_0900_LUT.cube
TITLE "Generated by Resolve"
LUT_3D_SIZE 9
0.0157626 0.00544747 0.00973526
0.0157626 0.00544747 0.00973526
0.196368 0.0075227 0.0114748
0.420279 0.0103914 0.0139162
0.788022 0.0152438 0.0180209
1 0.0190585 0.0212253
1 0.506828 0.0986343
0.973388 0.914687 0.325383
0.955703 1 0.657252
0.0116579 0.0603799 0.00656138
0.0112306 0.0705577 0.00585946
0.202426 0.0512856 0.00862135
0.430793 0.0105287 0.014023
0.791226 0.0152895 0.0180514
1 0.0190585 0.0212253
1 0.544106 0.082887
0.972625 0.920974 0.322698
0.955612 1 0.656886
0 0.218875 0
0 0.222293 0
0.153277 0.221912 0
0.421637 0.202716 0
0.787243 0.107774 0.0103914
1 0.216648 0.00375372
1 0.596887 0.0532998
0.971466 0.930617 0.318441
0.955459 1 0.65626
0 0.472236 0
0 0.473411 0
0 0.474037 0
0.342443 0.473274 0
0.756359 0.46389 0
1 0.517174 0
0.995285 0.718227 0
0.968414 0.955657 0.306737
0.955016 1 0.654475
0 0.846403 0
0 0.846326 0
0 0.845869 0
0 0.842695 0
0.644572 0.834852 0
0.941497 0.842512 0
0.973205 0.90576 0
0.96228 1 0.304463
0.953857 1 0.64918
0 1 0
0 1 0
0 1 0
0 1 0
0.589364 1 0
0.860945 1 0
0.955825 1 0
0.954238 1 0.336843
0.951415 1 0.64239
0.442023 1 0.0955062
0.465003 1 0.0964675
0.497948 1 0.0980392
0.574228 1 0.102678
0.703044 1 0.116228
0.843061 1 0.155367
0.938598 1 0.25301
0.94815 1 0.447318
0.948425 1 0.67274
0.799268 1 0.526085
0.80116 1 0.526284
0.804181 1 0.526574
0.812741 1 0.527489
0.834638 1 0.530221
0.877485 1 0.538537
0.928038 1 0.562142
0.946151 1 0.625376
0.946807 1 0.738231
0.90483 1 0.774594
0.905058 1 0.774624
0.90544 1 0.774655
0.906584 1 0.774792
0.909804 1 0.775143
0.918044 1 0.776226
0.933684 1 0.779431
0.947112 1 0.78819
0.94725 1 0.811078
0.0159762 0.00567636 0.0590066
0.0159762 0.00567636 0.059266
0.196597 0.00766003 0.0616464
0.421103 0.0105135 0.0651865
0.787961 0.0153201 0.072282
1 0.0192111 0.106081
1 0.500191 0.160143
0.973709 0.913512 0.358297
0.955764 1 0.665019
0.0136721 0.0370489 0.0489967
0.0531624 0.0490272 0.0471046
0.213031 0.00784314 0.0539559
0.426413 0.010544 0.0543374
0.789334 0.0152743 0.0439612
1 0.0191348 0.0801709
1 0.538445 0.145907
0.972946 0.919844 0.35584
0.955673 1 0.664668
0 0.210239 0
0 0.213138 0
0.171099 0.213245 0
0.420966 0.193484 0
0.786603 0.0784466 0.0128634
1 0.198627 0.00540169
1 0.592432 0.121508
0.971771 0.929564 0.351934
0.95552 1 0.664088
0 0.467765 0
0 0.468879 0
0 0.469306 0
0.35346 0.468223 0
0.756298 0.459632 0
1 0.51368 0
0.995575 0.715663 0.00679026
0.968704 0.954849 0.340917
0.955077 1 0.662348
0 0.844785 0
0 0.844663 0
0 0.84419 0
0 0.840925 0
0.648264 0.833219 0
0.941772 0.841352 0
0.973281 0.905104 0
0.962356 1 0.312459
0.953918 1 0.657267
0 1 0
0 1 0
0 1 0
0 1 0
0.591806 1 0
0.861387 1 0
0.955856 1 0
0.954238 1 0.336645
0.951431 1 0.643259
0.445594 1 0.0953689
0.468208 1 0.0963302
0.500725 1 0.0979019
0.57612 1 0.102541
0.703929 1 0.116106
0.843305 1 0.155245
0.938643 1 0.252995
0.94815 1 0.447242
0.948425 1 0.672694
0.799558 1 0.52607
0.80145 1 0.526253
0.804456 1 0.526558
0.812985 1 0.527459
0.834821 1 0.53019
0.877577 1 0.538506
0.928069 1 0.562112
0.946151 1 0.625376
0.946807 1 0.738216
0.90486 1 0.774594
0.905089 1 0.774624
0.905486 1 0.774655
0.906615 1 0.774777
0.909834 1 0.775143
0.918059 1 0.776226
0.9337 1 0.779431
0.947112 1 0.78819
0.94725 1 0.811063
0.0168002 0.00662242 0.186648
0.0168002 0.00662242 0.186862
0.176806 0.00817884 0.187854
0.43241 0.0112612 0.187503
0.788312 0.0158694 0.196094
1 0.0197604 0.224933
1 0.486915 0.251408
0.974212 0.911498 0.405219
0.955871 1 0.676768
0.0167697 0.0065919 0.183032
0.0167697 0.0065919 0.183383
0.201617 0.00843824 0.184344
0.431312 0.0112306 0.183948
0.791135 0.0158999 0.192233
1 0.0197147 0.218555
1 0.526787 0.24152
0.973434 0.917952 0.402991
0.955779 1 0.676417
0.000732433 0.185367 0.159014
0.000518807 0.18761 0.158556
0.163928 0.182437 0.156085
0.409323 0.167514 0.161746
0.78941 0.017319 0.181399
1 0.146792 0.194812
1 0.582712 0.226001
0.972229 0.927825 0.399466
0.955627 1 0.675868
0 0.454551 0.0599069
0 0.455833 0.0607309
0 0.456428 0.0619516
0.354986 0.454887 0.0663462
0.751537 0.447044 0.0749828
1 0.50164 0.0995346
0.996841 0.709316 0.180926
0.969131 0.95349 0.389578
0.955184 1 0.674235
0 0.841382 0
0 0.84126 0
0 0.840772 0
0 0.837476 0
0.651682 0.829862 0
0.941924 0.83859 0
0.973526 0.903288 0.0278935
0.962707 1 0.364462
0.954025 1 0.669459
0 1 0
0 1 0
0 1 0
0 1 0
0.595743 1 0
0.862074 1 0
0.955886 1 0
0.954253 1 0.336431
0.951522 1 0.656016
0.451301 1 0.09514
0.473365 1 0.0961166
0.50515 1 0.097673
0.579202 1 0.102312
0.705348 1 0.115892
0.843717 1 0.155062
0.93875 1 0.252964
0.94815 1 0.447105
0.948425 1 0.672633
0.8 1 0.526024
0.801907 1 0.526207
0.804898 1 0.526513
0.813382 1 0.527413
0.835142 1 0.530144
0.877745 1 0.53846
0.928115 1 0.562081
0.946151 1 0.625376
0.946807 1 0.738201
0.904921 1 0.774594
0.90515 1 0.774609
0.905547 1 0.774655
0.906661 1 0.774777
0.909895 1 0.775128
0.91809 1 0.776211
0.933715 1 0.779431
0.947112 1 0.78819
0.94725 1 0.811063
0.0184176 0.0084535 0.393637
0.0184176 0.0084535 0.393774
0.02327 0.00846876 0.393835
0.410834 0.0124514 0.395697
0.812711 0.0174868 0.402411
1 0.0209812 0.422873
1 0.441505 0.435508
0.975616 0.905074 0.514244
0.956161 1 0.706203
0.0184024 0.00843824 0.391653
0.0184024 0.00843824 0.391836
0.0972763 0.0089723 0.392172
0.425788 0.0126192 0.393729
0.810346 0.0174411 0.400183
1 0.0209659 0.420356
1 0.487694 0.427848
0.974807 0.911864 0.512383
0.956069 1 0.705913
0.0120546 0.0817884 0.382834
0.0115663 0.087129 0.382589
0.119249 0.0831006 0.38323
0.431785 0.0129091 0.390219
0.802915 0.017319 0.39649
1 0.0209354 0.415595
1 0.55053 0.416526
0.973556 0.922225 0.509453
0.955917 1 0.705425
0 0.410071 0.333333
0 0.411841 0.333471
0 0.413062 0.333974
0.350027 0.411337 0.336965
0.737301 0.404242 0.343923
1 0.461006 0.356451
1 0.688426 0.387518
0.970306 0.949096 0.501381
0.955459 1 0.704021
0 0.827512 0.215808
0 0.827497 0.216434
0 0.827146 0.217441
0 0.82414 0.220386
0.648936 0.816571 0.232425
0.941085 0.827543 0.259861
0.975494 0.897017 0.326879
0.963653 1 0.481666
0.954284 1 0.699992
0 1 0
0 1 0
0 1 0
0 1 0
0.59588 1 0
0.861601 1 0.0750744
0.95671 1 0.232074
0.954894 1 0.439826
0.951782 1 0.688945
0.467658 1 0.0944686
0.488212 1 0.0954452
0.518044 1 0.0970169
0.588159 1 0.101671
0.70956 1 0.115297
0.844923 1 0.154498
0.939025 1 0.252888
0.948165 1 0.446708
0.94844 1 0.672679
0.801389 1 0.525887
0.80325 1 0.52607
0.806226 1 0.526375
0.814572 1 0.527276
0.836057 1 0.530022
0.878218 1 0.538338
0.928267 1 0.561959
0.946151 1 0.62533
0.946807 1 0.738125
0.905089 1 0.774578
0.905333 1 0.774609
0.905699 1 0.774639
0.906828 1 0.774762
0.910033 1 0.775113
0.918227 1 0.776196
0.933776 1 0.779416
0.947112 1 0.788174
0.94725 1 0.811063
0.02121 0.0116121 0.717952
0.02121 0.0116121 0.718044
0.02121 0.0116121 0.718196
0.26099 0.0135195 0.718624
0.798428 0.0197452 0.719905
1 0.02327 0.727245
1 0.212848 0.727977
0.979599 0.881849 0.700694
0.956863 1 0.76463
0.02121 0.0116121 0.717189
0.02121 0.0116121 0.717281
0.02121 0.0116121 0.717433
0.288411 0.0137942 0.717906
0.80531 0.0198215 0.719188
1 0.02327 0.726436
1 0.312459 0.717037
0.978607 0.890105 0.699092
0.956756 1 0.764385
0.0211948 0.0115969 0.715938
0.0211948 0.0115969 0.71603
0.0211948 0.0115969 0.716197
0.325505 0.0141756 0.716701
0.809689 0.0198825 0.717861
1 0.0232547 0.725032
1 0.418082 0.704295
0.977127 0.902434 0.696681
0.956588 1 0.764019
0 0.241062 0.69073
0 0.244114 0.690501
0 0.247898 0.690196
0.307958 0.238056 0.691295
0.794354 0.152514 0.700648
1 0.248478 0.697536
1 0.609659 0.677638
0.973388 0.933562 0.690288
0.95613 1 0.762936
0 0.776989 0.606744
0 0.777417 0.606851
0 0.777554 0.607019
0 0.775586 0.60763
0.637034 0.768063 0.612436
0.93785 0.786709 0.618311
0.98027 0.872236 0.631144
0.965881 0.995727 0.67599
0.95491 1 0.759899
0 1 0.527428
0 1 0.527718
0 1 0.528206
0 1 0.529656
0.56376 1 0.53608
0.853025 1 0.550851
0.958801 1 0.583673
0.956481 1 0.651469
0.952316 1 0.752178
0.455756 1 0.42298
0.477241 1 0.423499
0.50811 1 0.424338
0.580011 1 0.42678
0.703395 1 0.433677
0.839994 1 0.452888
0.934371 1 0.502968
0.949157 1 0.606516
0.948882 1 0.734707
0.805539 1 0.52546
0.807324 1 0.525658
0.810147 1 0.525948
0.818173 1 0.526864
0.838819 1 0.529595
0.879652 1 0.537926
0.92874 1 0.561608
0.946151 1 0.625254
0.946807 1 0.737942
0.905638 1 0.774533
0.905852 1 0.774548
0.906233 1 0.774594
0.907332 1 0.774701
0.910491 1 0.775051
0.918563 1 0.776165
0.933959 1 0.77937
0.947112 1 0.788144
0.94725 1 0.811063
0.0232853 0.0139467 0.945006
0.0232853 0.0139467 0.945022
0.0232853 0.0139467 0.945052
0.0232853 0.0139467 0.945113
0.662531 0.0200504 0.943816
1 0.0250706 0.942412
1 0.0250858 0.943572
0.994217 0.767758 0.863355
0.958434 1 0.8392
0.0232853 0.0139467 0.944915
0.0232853 0.0139467 0.94493
0.0232853 0.0139467 0.944945
0.0232853 0.0139467 0.945006
0.672404 0.0201724 0.943694
1 0.0250706 0.942321
1 0.0250858 0.943465
0.992309 0.783948 0.860975
0.958312 1 0.839002
0.0232853 0.0139467 0.944762
0.0232853 0.0139467 0.944778
0.0232853 0.0139467 0.944793
0.0232853 0.0139467 0.944839
0.687999 0.0203555 0.943465
1 0.0250706 0.942153
1 0.0250858 0.943297
0.989471 0.807767 0.856962
0.958114 1 0.838682
0.02327 0.0139315 0.944289
0.0232853 0.0139315 0.944305
0.0232853 0.0139315 0.94432
0.02327 0.0139315 0.943954
0.721981 0.0207523 0.94284
1 0.0250706 0.941634
1 0.033402 0.940261
0.982681 0.864652 0.848219
0.957565 1 0.837781
0 0.531289 0.88542
0 0.532845 0.885222
0 0.535332 0.884901
0 0.539147 0.883848
0.64123 0.527886 0.884489
1 0.552865 0.880156
0.997497 0.739483 0.856886
0.971054 0.961471 0.832364
0.956146 1 0.835386
0 1 0.800946
0 1 0.800961
0 1 0.801007
0 1 0.801205
0.468864 1 0.803143
0.840803 1 0.806531
0.957351 1 0.808728
0.958709 1 0.813428
0.953262 1 0.830091
0.291722 1 0.772564
0.327581 1 0.772778
0.376242 1 0.773083
0.492241 1 0.773907
0.658244 1 0.775555
0.819455 1 0.778546
0.92253 1 0.784405
0.950607 1 0.796521
0.949599 1 0.820722
0.794446 1 0.732937
0.796262 1 0.733013
0.799176 1 0.73312
0.807431 1 0.733455
0.828595 1 0.734462
0.87039 1 0.737499
0.920668 1 0.745998
0.94699 1 0.767346
0.947219 1 0.805386
0.907225 1 0.77435
0.907439 1 0.77438
0.90779 1 0.774426
0.908843 1 0.774533
0.911864 1 0.774899
0.9196 1 0.775982
0.934508 1 0.779202
0.947112 1 0.787991
0.94725 1 0.811032
0.0238956 0.0146334 1
0.0238956 0.0146334 1
0.0238956 0.0146334 1
0.0238956 0.0146334 1
0.0271 0.0146181 1
1 0.0254368 1
1 0.025742 1
1 0.025742 1
0.96376 1 0.901457
0.0238956 0.0146334 1
0.0238956 0.0146334 1
0.0238956 0.0146334 1
0.0238956 0.0146334 1
0.0291142 0.0146181 1
1 0.025452 1
1 0.025742 1
1 0.025742 1
0.963531 1 0.901137
0.0238956 0.0146334 1
0.0238956 0.0146334 1
0.0238956 0.0146334 1
0.0238956 0.0146334 1
0.0311131 0.0146181 1
1 0.0254826 1
1 0.025742 1
1 0.025742 1
0.963165 1 0.900649
0.0238956 0.0146334 1
0.0238956 0.0146334 1
0.0238956 0.0146334 1
0.0238956 0.0146334 1
0.0349889 0.0146334 1
1 0.0255894 1
1 0.025742 1
1 0.038941 1
0.962173 1 0.899275
0.0238956 0.0146334 1
0.0238956 0.0146334 1
0.0238956 0.0146334 1
0.0238956 0.0146334 1
0.329046 0.0169833 1
1 0.0257115 1
1 0.025742 1
1 0.593912 0.959808
0.95964 1 0.895796
0 0.910445 0.916396
0 0.910842 0.91635
0 0.911513 0.916259
0 0.913481 0.915938
0 0.906737 0.915084
0.863081 0.896239 0.917006
0.975067 0.932555 0.911192
0.964935 1 0.898802
0.95523 1 0.889525
0 1 0.873899
0 1 0.873915
0 1 0.87396
0 1 0.874006
0.524605 1 0.87599
0.792508 1 0.877989
0.917159 1 0.879286
0.951934 1 0.880064
0.950454 1 0.882094
0.757382 1 0.867536
0.759838 1 0.867552
0.763729 1 0.867567
0.774639 1 0.867613
0.802029 1 0.86775
0.853056 1 0.868086
0.911086 1 0.868894
0.947463 1 0.871
0.947677 1 0.875914
0.902235 1 0.852338
0.902464 1 0.852354
0.902815 1 0.852354
0.903883 1 0.852399
0.906966 1 0.852522
0.914855 1 0.852903
0.930068 1 0.854017
0.947326 1 0.857221
0.947601 1 0.865309
0.0186007 0.0717784 1
0.0186007 0.0717784 1
0.0186007 0.0717784 1
0.0186007 0.0717937 1
0.0186007 0.0718547 1
0.0426947 0.0720226 1
1 0.025742 1
1 0.025742 1
1 0.677195 0.957732
0.0186007 0.0717327 1
0.0186007 0.0717327 1
0.0186007 0.0717479 1
0.0186007 0.0717784 1
0.0186007 0.0718395 1
0.0430152 0.0720073 1
1 0.025742 1
1 0.025742 1
1 0.677165 0.957732
0.018616 0.0716869 1
0.018616 0.0716869 1
0.018616 0.0717021 1
0.0186007 0.0717174 1
0.0186007 0.0717784 1
0.0435035 0.0719615 1
1 0.025742 1
1 0.025742 1
1 0.677119 0.957748
0.0186313 0.0715496 1
0.0186313 0.0715343 1
0.0186313 0.0715496 1
0.0186313 0.0715648 1
0.018616 0.0716411 1
0.047425 0.0452125 1
1 0.025742 1
1 0.025742 1
1 0.678233 0.957626
0.018677 0.0710765 1
0.018677 0.0710765 1
0.0186618 0.071107 1
0.0186618 0.0711223 1
0.0186618 0.0711681 1
0.378744 0.0190433 1
1 0.025742 1
1 0.025742 1
1 0.68452 0.957
0.0188144 0.0696269 1
0.0188144 0.0696269 1
0.0188144 0.0696269 1
0.0188144 0.0696574 1
0.0187991 0.0697185 1
0.817029 0.0225834 1
1 0.025742 1
1 0.0786908 1
0.971817 0.961059 0.929015
0 1 0.909743
0 1 0.909743
0 1 0.909728
0 1 0.909697
0 1 0.909636
0.652384 1 0.914778
0.92665 1 0.917388
0.956802 1 0.916091
0.95288 1 0.912703
0.537881 1 0.90576
0.547738 1 0.905791
0.56257 1 0.905821
0.606897 1 0.905959
0.70106 1 0.906218
0.811627 1 0.906508
0.900145 1 0.906752
0.946395 1 0.907164
0.947982 1 0.907362
0.888609 1 0.904021
0.888914 1 0.904021
0.889403 1 0.904036
0.890837 1 0.904036
0.894926 1 0.904051
0.90518 1 0.904097
0.923735 1 0.904204
0.943648 1 0.904463
0.947845 1 0.905104
0 0.303914 0.986481
0 0.303914 0.986481
0 0.303914 0.986481
0 0.303929 0.986481
0 0.303929 0.986481
0 0.303975 0.986481
0.0327306 0.296101 0.987121
1 0.288914 0.995453
0.998306 0.738567 0.951598
0 0.303914 0.986481
0 0.303914 0.986481
0 0.303914 0.986481
0 0.303914 0.986481
0 0.303929 0.986481
0 0.30396 0.986481
0.0327916 0.296101 0.987121
1 0.289189 0.995422
0.998306 0.738643 0.951583
0 0.303883 0.986481
0 0.303899 0.986481
0 0.303899 0.986481
0 0.303914 0.986481
0 0.303914 0.986481
0 0.30396 0.986481
0.0328679 0.296086 0.987121
1 0.289601 0.995377
0.998291 0.73872 0.951583
0 0.303868 0.986481
0 0.303868 0.986481
0 0.303868 0.986481
0 0.303868 0.986481
0 0.303883 0.986481
0 0.303929 0.986481
0.0330205 0.296056 0.987121
1 0.290883 0.99527
0.99826 0.739025 0.951553
0 0.303761 0.986496
0 0.303761 0.986496
0 0.303761 0.986496
0 0.303761 0.986496
0 0.303777 0.986496
0 0.303822 0.986496
0.357519 0.27895 0.99028
1 0.295781 0.994797
0.998154 0.739895 0.951461
0 0.303471 0.986526
0 0.303471 0.986526
0 0.303471 0.986526
0 0.303487 0.986511
0 0.303487 0.986511
0 0.303517 0.986511
0.830549 0.114214 1
1 0.310079 0.993454
0.997986 0.741329 0.951308
0 0.302571 0.986603
0 0.302571 0.986603
0 0.302571 0.986603
0 0.302586 0.986603
0 0.302586 0.986603
0 0.302617 0.986603
1 0.03093 1
1 0.334813 0.991104
0.997681 0.743877 0.951064
0 1 0.904555
0 1 0.904555
0 1 0.904555
0 1 0.904555
0 1 0.904555
0 1 0.904448
0.848371 1 0.909621
0.949844 1 0.910674
0.949691 1 0.910094
0.817121 1 0.907713
0.818311 1 0.907713
0.820188 1 0.907729
0.825528 1 0.907759
0.839399 1 0.907851
0.868864 1 0.908034
0.908827 1 0.908293
0.940169 1 0.908492
0.947875 1 0.908537
