BBLuts/BB_103_0110_LUT.cube
TITLE "Generated by Resolve"
LUT_3D_SIZE 33
0 0 0
0 0 0
0 0 0
0 0 0
0.0384222 0 0
0.113878 0 0
0.171328 0 0
0.229664 0 0
0.297124 0 0
0.375891 0 0
0.460517 0 0
0.551034 0 0
0.645579 0 0
0.753689 0 0
0.874678 0 0
0.998825 0 0
1 0 0
1 0 0
1 0 0
1 0 0
1 0 0
1 0.0745098 0
1 0.479683 0
1 0.701381 0.0200046
1 0.877104 0.0928511
1 1 0.168078
1 1 0.259831
1 1 0.379019
1 1 0.519783
1 1 0.654261
1 1 0.792859
1 1 0.928298
1 1 1
0 0 0
0 0 0
0 0 0
0 0 0
0.0471656 0 0
0.116075 0 0
0.174151 0 0
0.235203 0 0
0.303014 0 0
0.380468 0 0
0.463157 0 0
0.553109 0 0
0.647776 0 0
0.755856 0 0
0.876295 0 0
0.999619 0 0
1 0 0
1 0 0
1 0 0
1 0 0
1 0 0
1 0.156085 0
1 0.515496 0
1 0.716228 0.00833143
1 0.886259 0.0886091
1 1 0.165911
1 1 0.259083
1 1 0.37882
1 1 0.519463
1 1 0.654047
1 1 0.792721
1 1 0.928222
1 1 1
0 0 0
0 0 0
0 0 0
0 0 0
0.0516823 0 0
0.111894 0 0
0.170932 0 0
0.234623 0 0
0.304921 0 0
0.383124 0 0
0.46595 0 0
0.555611 0 0
0.650095 0 0
0.757961 0 0
0.877974 0 0
1 0 0
1 0 0
1 0 0
1 0 0
1 0 0
1 0 0
1 0.254582 0
1 0.543938 0
1 0.729 0.00108339
1 0.894392 0.0849012
1 1 0.163928
1 1 0.258366
1 1 0.378607
1 1 0.519112
1 1 0.653819
1 1 0.792584
1 1 0.928145
1 1 1
0 0.0176089 0
0 0.0212863 0
0 0.0250553 0
0 0.0270695 0
0.0271916 0.0248264 0
0.0959487 0.021561 0
0.158862 0.0149691 0
0.227008 0 0
0.303243 0 0
0.384863 0 0
0.469093 0 0
0.558495 0 0
0.652628 0 0
0.760189 0 0
0.879774 0 0
1 0 0
1 0 0
1 0 0
1 0 0
1 0 0
1 0.0126955 0
1 0.318761 0
1 0.56846 0
1 0.742077 0
1 0.902632 0.0804913
1 1 0.161852
1 1 0.25771
1 1 0.378424
1 1 0.518791
1 1 0.65362
1 1 0.792477
1 1 0.928084
1 1 1
0 0.07364 0
0 0.0774548 0
0 0.080705 0
0 0.0822614 0
0.0015259 0.0816663 0
0.0761273 0.0794537 0
0.145174 0.075288 0
0.216938 0.0662852 0
0.295476 0.0474403 0
0.379873 0.0234073 0
0.468681 0 0
0.560998 0 0
0.655543 0 0
0.763058 0 0
0.881758 0 0
1 0 0
1 0 0
1 0 0
1 0 0
1 0 0
1 0.0543832 0
1 0.367742 0
1 0.589761 0
1 0.754009 0
1 0.910567 0.0760052
1 1 0.159518
1 1 0.256992
1 1 0.378241
1 1 0.518486
1 1 0.653407
1 1 0.79234
1 1 0.927993
1 1 1
0 0.125719 0
0 0.12903 0
0 0.131212 0
0 0.132403 0
0 0.133089 0
0.0373541 0.131426 0
0.124697 0.129442 0
0.203845 0.125322 0
0.286183 0.116976 0
0.373388 0.101091 0
0.463676 0.0701457 0
0.558083 0.0323339 0
0.656321 0 0
0.765667 0 0
0.884306 0 0
1 0 0
1 0 0
1 0 0
1 0 0
1 0 0
1 0.131334 0
1 0.414389 0
1 0.612131 0
1 0.767132 0
1 0.919036 0.0712139
1 1 0.156863
1 1 0.256153
1 1 0.378042
1 1 0.51812
1 1 0.653178
1 1 0.792187
1 1 0.927901
1 1 1
0 0.184436 0
0 0.186877 0
0 0.188617 0
0 0.189609 0
0 0.190372 0
0 0.19028 0
0.0878309 0.188876 0
0.181567 0.186755 0
0.271611 0.181842 0
0.363714 0.171618 0
0.457786 0.155093 0
0.555016 0.129503 0
0.653834 0.0864118 0
0.764721 0.0295415 0
0.885573 0 0
1 0 0
1 0 0
1 0 0
1 0 0
1 0.0329442 0
1 0.240406 0
1 0.466087 0
1 0.638437 0
1 0.784298 0
1 0.930358 0.062974
1 1 0.15349
1 1 0.25507
1 1 0.377798
1 1 0.517586
1 1 0.652842
1 1 0.792004
1 1 0.927794
1 1 1
0 0.252979 0
0 0.254612 0
0 0.255879 0
0 0.256718 0
0 0.257527 0
0 0.258152 0
0.026688 0.257542 0
0.139666 0.256382 0
0.244968 0.253117 0
0.346029 0.246098 0
0.44744 0.234668 0
0.55079 0.21799 0
0.652567 0.193759 0
0.764569 0.156313 0
0.884749 0.106065 0
1 0.0564126 0
1 0 0
1 0 0
1 0.0158083 0
1 0.168719 0
1 0.353323 0
1 0.525139 0
1 0.670558 0
1 0.806836 0
1 0.94551 0.0500191
1 1 0.148638
1 1 0.253635
1 1 0.377447
1 1 0.516838
1 1 0.652369
1 1 0.791714
1 1 0.927626
1 1 1
0 0.330114 0
0 0.331167 0
0 0.331884 0
0 0.332418 0
0 0.332784 0
0 0.332891 0
0 0.333288 0
0.0595102 0.33228 0
0.195727 0.331304 0
0.315328 0.327535 0
0.428107 0.319936 0
0.540932 0.307988 0
0.649332 0.291646 0
0.765194 0.271107 0
0.886244 0.246143 0
1 0.216327 0
1 0.178897 0
1 0.163378 0
1 0.216464 0
1 0.328664 0
1 0.457557 0
1 0.588647 0
1 0.710796 0
1 0.835416 0
1 0.965774 0.0322881
1 1 0.141863
1 1 0.251682
1 1 0.376989
1 1 0.515831
1 1 0.651682
1 1 0.791241
1 1 0.927382
1 1 1
0 0.413947 0
0 0.414618 0
0 0.415091 0
0 0.415625 0
0 0.415885 0
0 0.415961 0
0 0.4159 0
0 0.416358 0
0.0947127 0.416632 0
0.259159 0.416815 0
0.394644 0.413062 0
0.521096 0.405585 0
0.63978 0.395117 0
0.762585 0.382071 0
0.886839 0.36846 0
1 0.357092 0
1 0.351873 0
1 0.361685 0
1 0.399649 0
1 0.467018 0
1 0.557687 0
1 0.655421 0
1 0.759747 0
1 0.871641 0
1 0.990738 0.0107424
1 1 0.133562
1 1 0.249119
1 1 0.376455
1 1 0.514504
1 1 0.650721
1 1 0.790555
1 1 0.92697
1 1 1
0 0.509163 0
0 0.509667 0
0 0.51017 0
0 0.510643 0
0 0.511147 0
0 0.511421 0
0 0.511513 0
0 0.511391 0
0 0.513313 0
0.159518 0.515877 0
0.336004 0.516594 0
0.485603 0.513115 0
0.619242 0.506798 0
0.751354 0.499275 0
0.881621 0.49192 0
1 0.48809 0
1 0.491249 0
1 0.506004 0
1 0.537804 0
1 0.587991 0
1 0.651789 0
1 0.728069 0
1 0.817594 0
1 0.916442 0
1 1 0.00163272
1 1 0.124086
1 1 0.245899
1 1 0.376013
1 1 0.513603
1 1 0.649485
1 1 0.789639
1 1 0.92636
1 1 1
0 0.615991 0
0 0.616403 0
0 0.616831 0
0 0.617151 0
0 0.617563 0
0 0.617868 0
0 0.61825 0
0 0.618402 0
0 0.619333 0
0.0246281 0.622126 0
0.228595 0.626719 0
0.423209 0.627878 0
0.583001 0.625574 0
0.726696 0.622217 0
0.865751 0.618692 0
0.99353 0.617838 0
1 0.622431 0
1 0.634989 0
1 0.6589 0
1 0.695964 0
1 0.7458 0
1 0.808377 0
1 0.884001 0
1 0.969711 0
1 1 0
1 1 0.111696
1 1 0.242115
1 1 0.375875
1 1 0.51371
1 1 0.647913
1 1 0.788403
1 1 0.925536
1 1 1
0 0.730068 0
0 0.730434 0
0 0.73077 0
0 0.731075 0
0 0.731365 0
0 0.731624 0
0 0.732036 0
0 0.732326 0
0 0.732647 0
0 0.734676 0
0.074815 0.739574 0
0.317128 0.745312 0
0.526711 0.74522 0
0.687419 0.742809 0
0.837583 0.739803 0
0.974319 0.739116 0
1 0.743389 0
1 0.754726 0
1 0.775113 0
1 0.805478 0
1 0.845792 0
1 0.896574 0
1 0.95906 0
1 1 0
1 1 0
1 1 0.0957351
1 1 0.237568
1 1 0.376074
1 1 0.514488
1 1 0.645945
1 1 0.786755
1 1 0.924468
1 1 1
0 0.856657 0
0 0.856886 0
0 0.85716 0
0 0.857374 0
0 0.857572 0
0 0.857771 0
0 0.857984 0
0 0.858167 0
0 0.858396 0
0 0.858503 0
0 0.86125 0
0.144625 0.867323 0
0.427848 0.87068 0
0.629877 0.869032 0
0.795331 0.866697 0
0.944564 0.865751 0
1 0.86894 0
1 0.877913 0
1 0.893996 0
1 0.918105 0
1 0.950072 0
1 0.990509 0
1 1 0
1 1 0
1 1 0
1 1 0.0758068
1 1 0.233097
1 1 0.376791
1 1 0.515862
1 1 0.644831
1 1 0.784604
1 1 0.922988
1 1 1
0 0.987045 0
0 0.987121 0
0 0.987274 0
0 0.987396 0
0 0.987503 0
0 0.987594 0
0 0.987686 0
0 0.987716 0
0 0.98764 0
0 0.987533 0
0 0.986999 0
0 0.991485 0
0.272251 0.997818 0
0.548974 0.998169 0
0.740658 0.996277 0
0.903777 0.994614 0
1 0.996094 0
1 1 0
1 1 0
1 1 0
1 1 0
1 1 0
1 1 0
1 1 0
1 1 0
1 1 0.0500038
1 1 0.229511
1 1 0.378912
1 1 0.518212
1 1 0.646097
1 1 0.782681
1 1 0.921004
1 1 1
0 1 0
0 1 0
0 1 0
0 1 0
0 1 0
0 1 0
0 1 0
0 1 0
0 1 0
0 1 0
0 1 0
0 1 0
0.105974 1 0
0.44329 1 0
0.675547 1 0
0.85568 1 0
1 1 0
1 1 0
1 1 0
1 1 0
1 1 0
1 1 0
1 1 0
1 1 0
1 1 0
1 1 0.022858
1 1 0.228397
1 1 0.38349
1 1 0.522225
1 1 0.649363
1 1 0.781994
1 1 0.9187
1 1 1
0 1 0
0 1 0
0 1 0
0 1 0
0 1 0
0 1 0
0 1 0
0 1 0
0 1 0
0 1 0
0 1 0
0 1 0
0 1 0
0.325002 1 0
0.607507 1 0
0.808606 1 0
0.965896 1 0
1 1 0
1 1 0
1 1 0
1 1 0
1 1 0
1 1 0
1 1 0
1 1 0
1 1 0.0180514
1 1 0.233707
1 1 0.391501
1 1 0.528588
1 1 0.654414
1 1 0.783978
1 1 0.916304
1 1 1
0 1 0
0 1 0
0 1 0
0 1 0
0 1 0
0 1 0
0 1 0
0 1 0
0 1 0
0 1 0
0 1 0
0 1 0
0 1 0
0.23183 1 0
0.551537 1 0
0.772473 1 0
0.936095 1 0
1 1 0
1 1 0
1 1 0
1 1 0
1 1 0
1 1 0
1 1 0
1 1 0
1 1 0.0508125
1 1 0.249485
1 1 0.403937
1 1 0.537774
1 1 0.661906
1 1 0.78941
1 1 0.916793
1 1 1
0 1 0
0 1 0
0 1 0
0 1 0
0 1 0
0 1 0
0 1 0
0 1 0
0 1 0
0 1 0
0 1 0
0 1 0
0 1 0
0.192126 1 0
0.526192 1 0
0.753826 1 0
0.917189 1 0
1 1 0
1 1 0
1 1 0
1 1 0
1 1 0
1 1 0
1 1 0
1 1 0
1 1 0.104051
1 1 0.276341
1 1 0.4224
1 1 0.550652
1 1 0.672328
1 1 0.797589
1 1 0.922194
1 1 1
0 1 0
0 1 0
0 1 0
0 1 0
0 1 0
0 1 0
0 1 0
0 1 0
0 1 0
0 1 0
0 1 0
0 1 0
0 1 0
0.199924 1 0
0.543908 1 0
0.755322 1 0
0.910506 1 0
1 1 0
1 1 0
1 1 0
1 1 0
1 1 0
1 1 0
1 1 0
1 1 0.00418097
1 1 0.158312
1 1 0.31252
1 1 0.448325
1 1 0.568429
1 1 0.686412
1 1 0.808682
1 1 0.93019
1 1 1
0 1 0
0 1 0
0 1 0
0 1 0
0 1 0
0 1 0
0 1 0
0 1 0
0 1 0
0 1 0
0 1 0
0 1 0
0 1 0
0.265141 1 0
0.595392 1 0
0.777951 1 0
0.916823 1 0
1 1 0
1 1 0
1 1 0
1 1 0
1 1 0
1 1 0
1 1 0
1 1 0.051133
1 1 0.223194
1 1 0.359396
1 1 0.482277
1 1 0.592691
1 1 0.705364
1 1 0.823758
1 1 0.940703
1 1 1
0 1 0
0 1 0
0 1 0
0 1 0
0 1 0
0 1 0
0 1 0
0 1 0
0 1 0
0 1 0
0 1 0
0 1 0
0.0871138 1 0
0.434348 1 0
0.663996 1 0
0.815518 1 0
0.93402 1 0
1 1 0
1 1 0
1 1 0
1 1 0
1 1 0
1 1 0
1 1 0.0363317
1 1 0.172076
1 1 0.303517
1 1 0.418067
1 1 0.523033
1 1 0.62414
1 1 0.730755
1 1 0.842985
1 1 0.954269
1 1 1
0.0274357 1 0
0.0274357 1 0
0.0274357 1 0
0.0274357 1 0
0.0274357 1 0
0.0274357 1 0
0.0274357 1 0
0.0274205 1 0
0.0274205 1 0
0.0274052 1 0
0.0274052 1 0
0.0289311 1 0
0.293568 1 0
0.584009 1 0
0.740536 1 0
0.862409 1 0
0.959472 1 0
1 1 0
1 1 0
1 1 0
1 1 0
1 1 0.0112764
1 1 0.0500496
1 1 0.16141
1 1 0.279973
1 1 0.384573
1 1 0.482292
1 1 0.571603
1 1 0.664088
1 1 0.763149
1 1 0.868208
1 1 0.971435
1 1 1
0.484642 1 0.0415351
0.484627 1 0.0415351
0.484627 1 0.0415351
0.484627 1 0.0415351
0.484627 1 0.0415351
0.484627 1 0.0415351
0.484611 1 0.0415351
0.484611 1 0.0415351
0.484596 1 0.0415351
0.484596 1 0.0415351
0.484565 1 0.0415351
0.484535 1 0.0415351
0.560861 1 0.0386511
0.69575 1 0.0340276
0.818189 1 0.0304875
0.91429 1 0.0289158
0.991867 1 0.0290227
1 1 0.0304723
1 1 0.0331426
1 1 0.0537728
1 1 0.110796
1 1 0.175372
1 1 0.234958
1 1 0.30518
1 1 0.384649
1 1 0.467765
1 1 0.547021
1 1 0.627344
1 1 0.71252
1 1 0.803326
1 1 0.899535
1 1 0.993133
1 1 1
0.768994 1 0.272541
0.768994 1 0.272541
0.768994 1 0.272541
0.768994 1 0.272541
0.768994 1 0.272541
0.768994 1 0.272557
0.768994 1 0.272557
0.768994 1 0.272557
0.768978 1 0.272541
0.768978 1 0.272541
0.768963 1 0.272557
0.768948 1 0.272541
0.768933 1 0.272557
0.808865 1 0.272679
0.887587 1 0.274296
0.963531 1 0.278721
1 1 0.285725
1 1 0.295491
1 1 0.307897
1 1 0.32372
1 1 0.34374
1 1 0.369146
1 1 0.400381
1 1 0.438453
1 1 0.490089
1 1 0.54963
1 1 0.616663
1 1 0.690135
1 1 0.768841
1 1 0.851774
1 1 0.937346
1 1 1
1 1 1
0.93106 1 0.46157
0.93106 1 0.46157
0.93106 1 0.46157
0.93106 1 0.46157
0.93106 1 0.46157
0.93106 1 0.46157
0.93106 1 0.46157
0.93106 1 0.46157
0.931044 1 0.46157
0.931044 1 0.46157
0.931044 1 0.46157
0.931044 1 0.46157
0.931029 1 0.46157
0.931014 1 0.46157
0.954299 1 0.462379
1 1 0.465553
1 1 0.470192
1 1 0.476295
1 1 0.484199
1 1 0.494362
1 1 0.506477
1 1 0.521111
1 1 0.539971
1 1 0.563455
1 1 0.593835
1 1 0.637385
1 1 0.693889
1 1 0.759319
1 1 0.831388
1 1 0.905821
1 1 0.979858
1 1 1
1 1 1
1 1 0.611673
1 1 0.611673
1 1 0.611673
1 1 0.611673
1 1 0.611673
1 1 0.611673
1 1 0.611673
1 1 0.611688
1 1 0.611688
1 1 0.611688
1 1 0.611688
1 1 0.611673
1 1 0.611673
1 1 0.611688
1 1 0.611688
1 1 0.612726
1 1 0.615793
1 1 0.620325
1 1 0.62591
1 1 0.633326
1 1 0.642252
1 1 0.653513
1 1 0.667704
1 1 0.685634
1 1 0.708339
1 1 0.737697
1 1 0.780377
1 1 0.835492
1 1 0.897734
1 1 0.962402
1 1 1
1 1 1
1 1 1
1 1 0.755261
1 1 0.755261
1 1 0.755261
1 1 0.755261
1 1 0.755261
1 1 0.755261
1 1 0.755261
1 1 0.755261
1 1 0.755261
