BBLuts/BB_102_0220_LUT.cube
TITLE "Generated by Resolve"
LUT_3D_SIZE 9
0 0 0
0 0 0
0.151583 0 0
0.441688 0 0
0.778485 0 0
0.982681 0 0
1 0.520272 0.0927443
1 0.836149 0.430686
1 0.93666 0.757626
0 0.000427253 0
0 0.0111086 0
0.165805 0 0
0.454414 0 0
0.780804 0 0
0.982681 0 0
1 0.5561 0.0789807
1 0.840208 0.428077
1 0.937133 0.757397
0 0.169726 0
0 0.173281 0
0.130663 0.173999 0
0.478645 0.140063 0
0.793011 0.00860609 0
1 0.159884 0
1 0.602029 0.0509346
1 0.846632 0.42417
1 0.937911 0.757015
0 0.462684 0
0 0.463981 0
0 0.464698 0
0.426474 0.475624 0
0.823728 0.463096 0
1 0.529015 0
1 0.696406 0
1 0.863096 0.412436
1 0.940154 0.755871
0 0.784222 0
0 0.784146 0
0 0.783749 0
0 0.781186 0
0.778363 0.780865 0
1 0.788495 0
1 0.831647 0
1 0.896819 0.416342
1 0.946059 0.752605
0.00148013 0.953185 0
0.0012665 0.952468 0
0.0009308 0.951293 0
0.000137331 0.94786 0
0.7673 0.934173 0
0.96849 0.924666 0
1 0.926101 0
1 0.938949 0.463584
1 0.958572 0.748684
0.656596 0.999313 0.181201
0.675471 0.998016 0.180911
0.702617 0.996155 0.180697
0.765667 0.991791 0.181643
0.865507 0.984619 0.193805
0.965286 0.978805 0.240803
1 0.974411 0.366781
1 0.972152 0.587762
1 0.975036 0.773648
0.931365 0.987213 0.658717
0.932692 0.987198 0.658869
0.934813 0.987182 0.659098
0.940871 0.987152 0.659831
0.956344 0.987091 0.661891
0.985824 0.986969 0.66862
1 0.986664 0.687999
1 0.98613 0.738537
1 0.985397 0.822629
1 0.985458 0.848508
1 0.985458 0.848524
1 0.985458 0.848539
1 0.985458 0.84863
1 0.985443 0.848875
1 0.985443 0.849607
1 0.985428 0.851804
1 0.985428 0.857786
1 0.985428 0.874235
0 0 0
0 0 0
0.152285 0 0
0.442924 0 0
0.778912 0 0
0.983902 0 0.00199893
1 0.514519 0.1673
1 0.834974 0.469993
1 0.936492 0.76347
0 0 0
0 0 0
0.172335 0 0
0.449332 0 0
0.779675 0 0
0.983566 0 0
1 0.551659 0.15436
1 0.839017 0.467643
1 0.93698 0.763272
0 0.159854 0
0 0.163073 0
0.151492 0.163836 0
0.476005 0.129213 0
0.787335 0 0
1 0.139086 0
1 0.599451 0.130556
1 0.845335 0.46389
1 0.937758 0.762905
0 0.458015 0
0 0.459174 0
0 0.459586 0
0.43946 0.469932 0
0.82327 0.458518 0
1 0.525521 0
1 0.695262 0.00468452
1 0.861906 0.453681
1 0.940002 0.761807
0 0.78294 0
0 0.782834 0
0 0.782422 0
0 0.779995 0
0.781201 0.779629 0
1 0.787686 0
1 0.83122 0
1 0.896529 0.42594
1 0.945937 0.75874
0.00140383 0.952956 0
0.00120546 0.952224 0
0.000854505 0.951034 0
7.62951e-05 0.947601 0
0.769284 0.933944 0
0.96878 0.924544 0
1 0.926009 0
1 0.938888 0.463386
1 0.958541 0.749187
0.659556 0.999069 0.180819
0.678111 0.997818 0.180514
0.704952 0.995956 0.18027
0.767178 0.991669 0.181399
0.866178 0.984558 0.193591
0.965454 0.97879 0.240665
1 0.97438 0.366766
1 0.972152 0.587701
1 0.975036 0.773617
0.931563 0.987213 0.658701
0.932891 0.987198 0.658854
0.934997 0.987182 0.659068
0.941039 0.987152 0.6598
0.956481 0.987091 0.66186
0.985901 0.986969 0.668589
1 0.986664 0.687984
1 0.98613 0.738521
1 0.985397 0.822614
1 0.985458 0.848508
1 0.985458 0.848524
1 0.985443 0.848539
1 0.985458 0.848615
1 0.985443 0.848875
1 0.985443 0.849607
1 0.985428 0.851804
1 0.985428 0.857786
1 0.985428 0.874235
0 0 0.144411
0 0 0.14464
0.127169 0 0.143618
0.456641 0 0.124605
0.779385 0 0.108461
0.984878 0 0.144015
1 0.501793 0.287221
1 0.832914 0.522316
1 0.936248 0.772168
0 0 0.140093
0 0 0.14052
0.15761 0 0.138354
0.454871 0 0.120668
0.781567 0 0.103517
0.984833 0 0.135775
1 0.541253 0.279133
1 0.837125 0.520577
1 0.936736 0.772
0 0.132326 0.125032
0 0.134783 0.124743
0.138628 0.129412 0.121843
0.457847 0.101335 0.115984
0.780163 0 0.090547
1 0.0733196 0.143938
1 0.592325 0.265019
1 0.843534 0.517632
1 0.937514 0.77174
0 0.444877 0.0165255
0 0.446326 0.0177615
0 0.447059 0.0193179
0.441627 0.456886 0.0375372
0.81976 0.44596 0.0453346
1 0.516075 0.0937819
1 0.691737 0.216663
1 0.860349 0.509529
1 0.939773 0.770809
0 0.780438 0
0 0.780346 0
0 0.77998 0
0 0.777279 0
0.783444 0.777127 0
1 0.785718 0
1 0.830777 0.0482795
1 0.895277 0.487617
1 0.945739 0.767834
0.00129702 0.952544 0
0.00106813 0.951812 0
0.000732433 0.950637 0
0 0.947204 0
0.772305 0.933577 0
0.969223 0.924346 0
1 0.925872 0
1 0.938811 0.463096
1 0.958358 0.759319
0.66421 0.998734 0.180117
0.682368 0.997497 0.179828
0.708553 0.995697 0.17966
0.76968 0.991455 0.180957
0.867231 0.984466 0.193256
0.965743 0.978744 0.240421
1 0.974365 0.36672
1 0.972137 0.587564
1 0.975021 0.773556
0.931884 0.987213 0.658656
0.933211 0.987198 0.658808
0.935302 0.987182 0.659037
0.941329 0.987152 0.659754
0.956695 0.987091 0.66183
0.986007 0.986969 0.668544
1 0.986664 0.687953
1 0.98613 0.738521
1 0.985397 0.822599
1 0.985458 0.848508
1 0.985458 0.848508
1 0.985458 0.848539
1 0.985458 0.848615
1 0.985443 0.848859
1 0.985443 0.849592
1 0.985428 0.851789
1 0.985428 0.857786
1 0.985428 0.874235
0 0 0.418021
0 0 0.418204
0 0 0.418296
0.426566 0 0.405112
0.796582 0 0.389456
0.984771 0 0.415305
1 0.451438 0.516716
1 0.827039 0.62681
1 0.935546 0.79411
0 0 0.415503
0 0 0.415747
0.0259098 0 0.415656
0.444633 0 0.401785
0.79472 0 0.386664
0.984771 0 0.4121
1 0.501595 0.513405
1 0.831449 0.625895
1 0.936034 0.793942
0 0.014374 0.411536
0 0.0200961 0.411475
0.0645304 0.015259 0.411704
0.452308 0 0.396887
0.7888 0 0.382223
0.984787 0 0.406241
1 0.56257 0.507378
1 0.838239 0.624125
1 0.936843 0.793683
0 0.395697 0.372427
0 0.397681 0.372793
0 0.399054 0.373617
0.430655 0.40798 0.38822
0.805081 0.397833 0.393194
1 0.474434 0.425422
1 0.674723 0.48603
1 0.856092 0.619577
1 0.939132 0.792889
0 0.773053 0.269032
0 0.773037 0.269902
0 0.772732 0.271199
0 0.770291 0.274403
0.781903 0.76936 0.296544
1 0.778759 0.337728
1 0.824872 0.431373
1 0.89192 0.606958
1 0.945174 0.79057
0.000961318 0.951415 0
0.000747692 0.950683 0
0.000411994 0.949493 0
0 0.946059 0
0.772076 0.93254 0
0.969497 0.92398 0.129091
1 0.924712 0.332052
1 0.936767 0.575982
1 0.957931 0.784009
0.677852 0.997711 0.177935
0.694789 0.996567 0.177768
0.71928 0.994888 0.177798
0.776852 0.990906 0.179522
0.870268 0.984237 0.192264
0.966583 0.978622 0.239689
1 0.974273 0.366583
1 0.972091 0.587167
1 0.975006 0.773404
0.932876 0.987213 0.658534
0.934173 0.987198 0.658671
0.936248 0.987182 0.658915
0.942168 0.987152 0.659632
0.957351 0.987091 0.661707
0.986343 0.986969 0.668437
1 0.986679 0.687846
1 0.98613 0.738491
1 0.985397 0.822538
1 0.985458 0.848493
1 0.985458 0.848508
1 0.985458 0.848524
1 0.985458 0.848615
1 0.985443 0.848844
1 0.985443 0.849577
1 0.985428 0.851774
1 0.985428 0.857786
1 0.985428 0.874235
0 0 0.729915
0 0 0.729992
0 0 0.730114
0.228687 0 0.727596
0.782055 0 0.707393
0.98436 0 0.714717
1 0.149752 0.751781
1 0.809644 0.777356
1 0.933684 0.835813
0 0 0.729305
0 0 0.729381
0 0 0.729519
0.263203 0 0.726207
0.787442 0 0.706767
0.98436 0 0.714168
1 0.291569 0.757733
1 0.815152 0.776852
1 0.934203 0.835737
0 0 0.728481
0 0 0.728573
0 0 0.728679
0.309056 0 0.723796
0.790661 0 0.705684
0.984344 0 0.713115
1 0.422919 0.757397
1 0.823194 0.775647
1 0.935042 0.835599
0 0.188067 0.723964
0 0.19144 0.724102
0 0.19588 0.724056
0.339239 0.191806 0.726543
0.806394 0.0577096 0.713756
1 0.211337 0.734478
1 0.611963 0.749126
1 0.843778 0.772976
1 0.937469 0.835081
0 0.73257 0.692424
0 0.732845 0.692531
0 0.732921 0.692668
0 0.731304 0.693004
0.763775 0.730892 0.701152
0.992157 0.746029 0.708324
1 0.804471 0.723644
1 0.884169 0.766247
1 0.943771 0.8336
0.00378424 0.948577 0.669932
0.00360113 0.94789 0.670024
0.0034638 0.946838 0.670283
0.00271611 0.943404 0.670802
0.741161 0.926635 0.66537
0.957214 0.915267 0.671855
1 0.916976 0.698299
1 0.932235 0.753552
1 0.956954 0.82974
0.664057 0.994202 0.582238
0.681514 0.992981 0.581689
0.706889 0.99118 0.580972
0.765927 0.986603 0.580072
0.861357 0.979965 0.582803
0.958709 0.974182 0.597665
1 0.970153 0.638361
1 0.969573 0.723339
1 0.974472 0.819196
0.935821 0.987198 0.658122
0.937072 0.987198 0.658274
0.93904 0.987182 0.658503
0.944732 0.987152 0.659236
0.959304 0.987091 0.661387
0.987381 0.986969 0.66807
1 0.986679 0.687541
1 0.98613 0.73843
1 0.985397 0.8224
1 0.985443 0.848447
1 0.985458 0.848463
1 0.985458 0.848493
1 0.985458 0.848569
1 0.985443 0.848798
1 0.985443 0.849546
1 0.985428 0.851743
1 0.985428 0.857755
1 0.985428 0.874235
0 0 0.892058
0 0 0.892058
0 0 0.892088
0 0 0.892119
0.673899 0 0.872038
0.986801 0 0.87129
0.986816 0 0.872084
1 0.732464 0.888899
1 0.927962 0.887098
0 0 0.891981
0 0 0.891997
0 0 0.892012
0 0 0.892058
0.681865 0 0.871595
0.986801 0 0.871229
0.986816 0 0.872007
1 0.743755 0.887724
1 0.928588 0.887037
0 0 0.89189
0 0 0.891905
0 0 0.891905
0 0 0.891936
0.694667 0 0.871
0.986786 0 0.871092
0.986816 0 0.8719
1 0.760113 0.885863
1 0.92958 0.886931
0 0 0.891554
0 0 0.891554
0 0 0.891569
0 0 0.89131
0.72221 0 0.869718
0.986786 0 0.870741
0.98677 0 0.870222
1 0.798444 0.881621
1 0.932448 0.88661
0 0.535485 0.881758
0 0.536965 0.881773
0 0.539132 0.881605
0 0.54287 0.881086
0.742199 0.542901 0.888395
1 0.575219 0.894575
1 0.713603 0.883955
1 0.861448 0.875975
1 0.939818 0.885756
0.00320439 0.936538 0.876097
0.00311284 0.93611 0.876036
0.00291447 0.935271 0.875898
0.00239567 0.932143 0.875517
0.659648 0.917357 0.868635
0.944869 0.901625 0.861906
1 0.90602 0.863279
1 0.925505 0.868605
1 0.954589 0.883726
0.511254 0.997681 0.862791
0.550484 0.995727 0.861341
0.598459 0.993072 0.859464
0.690684 0.985809 0.855299
0.823865 0.976593 0.850599
0.940932 0.969848 0.849912
1 0.966415 0.853178
1 0.967376 0.861418
1 0.97351 0.879606
0.926207 0.985534 0.819684
0.927474 0.985534 0.819715
0.929519 0.985519 0.819776
0.935393 0.985504 0.819974
0.950378 0.985458 0.820569
0.979232 0.985443 0.822538
1 0.985428 0.828275
1 0.985412 0.843046
1 0.985443 0.869612
1 0.985458 0.84831
1 0.985458 0.848341
1 0.985458 0.848356
1 0.985458 0.848432
1 0.985458 0.848692
1 0.985443 0.849424
1 0.985428 0.851621
1 0.985428 0.857649
1 0.985443 0.87422
0 0 0.937026
0 0 0.937026
0 0 0.937026
0 0 0.937026
0 0 0.937026
0.971054 0 0.925353
0.9879 0 0.925917
0.9879 0 0.925917
1 0.903014 0.927749
0 0 0.937026
0 0 0.937026
0 0 0.937026
0 0 0.937026
0 0 0.937026
0.972351 0 0.925414
0.9879 0 0.925917
0.9879 0 0.925917
1 0.904173 0.927657
0 0 0.937026
0 0 0.937026
0 0 0.937026
0 0 0.937026
0 0 0.937026
0.974426 0 0.92549
0.9879 0 0.925917
0.9879 0 0.925917
1 0.905989 0.927504
0 0 0.937026
0 0 0.937026
0 0 0.937026
0 0 0.937026
0 0 0.937026
0.980331 0 0.925582
0.9879 0 0.925917
0.9879 0 0.925917
1 0.911116 0.927108
0 0 0.937026
0 0 0.937026
0 0 0.937026
0 0 0.937026
0.328206 0 0.933654
0.9879 0 0.925917
0.9879 0 0.925917
1 0.617853 0.95288
1 0.923781 0.926131
0 0.837201 0.938674
0 0.837491 0.938689
0 0.83798 0.93872
0 0.839475 0.938766
0 0.834119 0.936782
0.947768 0.820386 0.931136
1 0.843 0.929046
1 0.896239 0.925277
1 0.946273 0.924285
0.0148013 1 0.937957
0.014725 1 0.937865
0.0145571 1 0.937728
0.0143893 0.998276 0.937499
0.718196 0.978103 0.924819
0.920821 0.96524 0.919249
1 0.961303 0.91902
1 0.963302 0.91957
1 0.971069 0.921843
0.899641 0.985748 0.914366
0.901381 0.985733 0.914351
0.904128 0.985718 0.914321
0.911925 0.985656 0.91426
0.931395 0.985565 0.914137
0.967132 0.985519 0.914107
1 0.985534 0.914412
1 0.985519 0.915694
1 0.985534 0.919112
1 0.985519 0.903014
1 0.985519 0.903029
1 0.985519 0.903029
1 0.985519 0.903059
1 0.985519 0.90312
1 0.985519 0.903349
1 0.985519 0.904036
1 0.985504 0.906157
1 0.985519 0.911742
0 0 0.938354
0 0 0.938354
0 0 0.938354
0 0 0.938369
0 0 0.938354
0 0 0.938369
0.9879 0 0.925917
0.9879 0 0.925917
1 0.664775 0.954528
0 0 0.938354
0 0 0.938354
0 0 0.938354
0 0 0.938354
0 0 0.938354
0 0 0.938369
0.9879 0 0.925917
0.9879 0 0.925917
1 0.664744 0.954528
0 0 0.938354
0 0 0.938354
0 0 0.938354
0 0 0.938354
0 0 0.938354
0 0 0.938354
0.9879 0 0.925917
0.9879 0 0.925917
1 0.664714 0.954543
0 0 0.938354
0 0 0.938354
0 0 0.938354
0 0 0.938354
0 0 0.938354
0 0 0.937926
0.9879 0 0.925917
0.9879 0 0.925917
1 0.664561 0.954543
0 0 0.938308
0 0 0.938308
0 0 0.938308
0 0 0.938308
0 0 0.938323
0.372412 0 0.932387
0.9879 0 0.925917
0.9879 0 0.925917
1 0.664118 0.954574
0 0 0.938201
0 0 0.938201
0 0 0.938201
0 0 0.938201
0 0 0.938216
0.80177 0 0.920806
0.9879 0 0.925917
0.998047 0 0.934005
1 0.864897 0.94345
0.0110781 0.971267 0.958831
0.0110781 0.971298 0.958831
0.0110781 0.971344 0.958846
0.0111086 0.971511 0.958846
0.0112001 0.972 0.958892
0.812696 0.939116 0.9449
1 0.931029 0.942626
1 0.939376 0.942504
1 0.959487 0.942458
0.740032 0.99086 0.946914
0.748653 0.990509 0.946563
0.761593 0.989578 0.946029
0.794766 0.988357 0.944793
0.859327 0.986755 0.942702
0.937896 0.98558 0.941665
0.999969 0.985565 0.941421
1 0.984527 0.941375
1 0.985016 0.941558
0.991989 0.985565 0.939559
0.992203 0.985565 0.939559
0.992538 0.985565 0.939559
0.993561 0.985565 0.939559
0.996445 0.985565 0.939544
1 0.98558 0.939544
1 0.98558 0.939529
1 0.985565 0.93962
1 0.985565 0.940047
0 0.2607 0.940993
0 0.2607 0.940993
0 0.2607 0.940993
0 0.260731 0.940993
0 0.260731 0.940993
0 0.260792 0.940993
0 0.260929 0.940993
1 0.271687 0.957382
1 0.709957 0.951278
0 0.2607 0.940993
0 0.2607 0.940993
0 0.2607 0.940993
0 0.2607 0.940993
0 0.260731 0.940993
0 0.260777 0.940993
0 0.260929 0.940993
1 0.272068 0.957397
1 0.710002 0.951263
0 0.26067 0.940993
0 0.26067 0.940993
0 0.26067 0.940993
0 0.2607 0.940993
0 0.2607 0.940993
0 0.260777 0.940993
0 0.260914 0.940993
1 0.272633 0.957458
1 0.710063 0.951263
0 0.260655 0.940993
0 0.260655 0.940993
0 0.260655 0.940993
0 0.260655 0.940993
0 0.26067 0.940993
0 0.260731 0.940993
0 0.260868 0.940993
1 0.274403 0.95761
1 0.710292 0.951247
0 0.260517 0.940993
0 0.260517 0.940993
0 0.260517 0.940993
0 0.260517 0.940993
0 0.260548 0.940993
0 0.260594 0.940993
0.405112 0.24567 0.947524
1 0.279652 0.957626
1 0.710964 0.951202
0 0.260136 0.940993
0 0.260136 0.940993
0 0.260136 0.940993
0 0.260166 0.940993
0 0.260166 0.940993
0 0.260212 0.940993
0.8383 0.00729381 0.931044
1 0.295506 0.958251
1 0.711971 0.951125
0 0.258976 0.940993
0 0.258976 0.940993
0 0.258976 0.940993
0 0.259007 0.940993
0 0.259007 0.940993
0 0.259037 0.940993
0.9879 0 0.925917
1 0.325856 0.958923
1 0.713832 0.95108
0.0153811 1 0.960113
0.0153811 1 0.960113
0.0153811 1 0.960113
0.0153811 1 0.960113
0.0153811 1 0.960113
0.0153811 1 0.960113
0.962509 0.975784 0.942443
1 0.973144 0.942412
1 0.976364 0.942397
0.944472 0.985565 0.942367
0.945205 0.985565 0.942367
0.94638 0.985565 0.942367
0.949798 0.98555 0.942351
0.958862 0.98555 0.942351
0.978347 0.98555 0.942351
1 0.98558 0.942367
1 0.98558 0.942367
1 0.985565 0.942351
