BBLuts/BB_103_0060_LUT.cube
TITLE "Generated by Resolve"
LUT_3D_SIZE 9
0.00297551 0.00399786 0.00125124
0.0607614 0.0027924 0
0.241794 0.00151064 0
0.502571 0 0
0.779904 0 0
0.924834 0 0
0.902251 0.60061 0.118944
0.87718 0.874434 0.413779
0.865675 0.964858 0.694087
0 0.0893873 0.000915541
0.0449683 0.0941634 0
0.24509 0.0682994 0
0.510796 0 0
0.78117 0 0
0.923125 0.0290684 0
0.899886 0.627451 0.107576
0.876905 0.878096 0.41178
0.865644 0.965316 0.693874
0 0.266239 0
0 0.267826 0
0.187472 0.264942 0
0.50779 0.234974 0
0.777081 0.144427 0
0.917739 0.324544 0.00560006
0.895537 0.670329 0.081239
0.876417 0.884855 0.407858
0.865583 0.966186 0.693462
0 0.559045 0
0 0.559884 0
0 0.560357 0
0.431678 0.565332 0
0.755779 0.56202 0
0.896971 0.622782 0.00555428
0.885283 0.761532 0.019791
0.875257 0.902007 0.396674
0.865415 0.968643 0.69221
0 0.843595 0
0 0.843397 0
0 0.842725 0
0.0900282 0.841672 0
0.690974 0.834501 0
0.856367 0.843107 0.00106813
0.875578 0.877836 0.0021973
0.873014 0.933257 0.395377
0.865019 0.974807 0.688609
0 0.985519 0.0160525
0 0.984848 0.0159609
0 0.98352 0.0157931
0.22356 0.980621 0.0152743
0.673182 0.962692 0.00221256
0.819928 0.956588 0.0018616
0.87187 0.95993 0.0621195
0.869673 0.971298 0.440223
0.864149 0.98703 0.685512
0.569467 1 0.208942
0.583261 1 0.208804
0.607202 1 0.20885
0.659266 1 0.210727
0.737774 1 0.222461
0.813931 1 0.262028
0.863798 1 0.364904
0.86566 1 0.542504
0.862699 1 0.710536
0.77879 1 0.604685
0.779843 1 0.604807
0.781872 1 0.605081
0.787488 1 0.605844
0.801022 1 0.608179
0.825315 1 0.614969
0.853361 1 0.63357
0.862135 1 0.6804
0.861341 1 0.757321
0.835737 1 0.781521
0.835889 1 0.781521
0.836149 1 0.781552
0.836927 1 0.781643
0.839063 1 0.781918
0.84419 1 0.782712
0.853513 1 0.784985
0.861112 1 0.790921
0.861006 1 0.806195
0.00393683 0.00515755 0.053727
0.0480507 0.00460822 0.0530709
0.243992 0.00314336 0.051545
0.504021 0 0.0437171
0.781857 0 0.0390631
0.92755 0 0.0719921
0.903761 0.595865 0.192432
0.876875 0.873289 0.445197
0.865614 0.964691 0.699596
0 0.0698863 0.0468299
0.0619364 0.0727398 0.0445106
0.248417 0.0446632 0.0443275
0.507713 0 0.0349889
0.781811 0 0.0218662
0.926146 0.0167544 0.0571298
0.901396 0.624506 0.182666
0.8766 0.876982 0.443488
0.865583 0.965133 0.699397
0 0.257069 0.0028687
0 0.258762 0.00299077
0.202365 0.255451 0.0012665
0.505684 0.224811 0
0.775525 0.12343 0
0.919051 0.30988 0.0203555
0.897231 0.668498 0.16144
0.876097 0.883787 0.440162
0.865522 0.966018 0.698985
0 0.555047 0
0 0.55584 0
0 0.556161 0
0.441535 0.560983 0
0.755825 0.558267 0
0.897169 0.620295 0.0055848
0.88658 0.761151 0.0627909
0.874876 0.901076 0.430732
0.865354 0.96849 0.69781
0 0.842618 0
0 0.842405 0
0 0.841718 0
0.101946 0.840879 0
0.692912 0.833616 0
0.856504 0.842512 0.00106813
0.875547 0.877455 0.00163272
0.872892 0.932967 0.405875
0.864958 0.97467 0.694392
0 0.985306 0.016022
0 0.984634 0.0159304
0 0.983307 0.0157778
0.231113 0.980392 0.015198
0.674434 0.962524 0.00218204
0.820142 0.956481 0.0018616
0.87187 0.959854 0.0619974
0.869688 0.971252 0.44004
0.864149 0.986984 0.686702
0.571588 1 0.208637
0.585199 1 0.20853
0.60885 1 0.208591
0.660319 1 0.210529
0.738216 1 0.222309
0.814054 1 0.261936
0.863813 1 0.364889
0.86566 1 0.542443
0.862699 1 0.710506
0.778958 1 0.604654
0.779995 1 0.604791
0.782025 1 0.605051
0.78761 1 0.605829
0.801129 1 0.608148
0.82536 1 0.614954
0.853391 1 0.633539
0.862135 1 0.680385
0.861341 1 0.757305
0.835767 1 0.781506
0.835904 1 0.781521
0.836164 1 0.781552
0.836942 1 0.781643
0.839078 1 0.781918
0.844205 1 0.782712
0.853529 1 0.784985
0.861112 1 0.790921
0.861006 1 0.806195
0.00511177 0.00675975 0.182864
0.00511177 0.00675975 0.182925
0.22211 0.00491341 0.178576
0.5178 0 0.165377
0.783703 0 0.162646
0.928923 0 0.197024
0.905425 0.583368 0.303944
0.876341 0.871061 0.49543
0.865507 0.964355 0.709529
0.00527962 0.00962844 0.179797
0.0167697 0.013489 0.17966
0.243076 0.00453193 0.175128
0.515358 0 0.162127
0.784405 0 0.158648
0.928893 0 0.190829
0.902922 0.615442 0.297505
0.876051 0.8748 0.494148
0.865476 0.964813 0.709346
0 0.228504 0.16289
0 0.230396 0.162753
0.196735 0.224201 0.158679
0.495888 0.195758 0.153994
0.778317 0.0812695 0.150195
0.924407 0.262623 0.198734
0.898833 0.661433 0.283894
0.875517 0.881743 0.491585
0.865415 0.965698 0.70898
0 0.544793 0.0707408
0 0.545769 0.0713207
0 0.546273 0.072282
0.444358 0.550942 0.0807813
0.756085 0.548821 0.0906844
0.901503 0.615015 0.138262
0.888975 0.758694 0.242252
0.87425 0.89929 0.484123
0.865248 0.968185 0.707912
0 0.839979 0
0 0.83975 0
0 0.839063 0
0.110384 0.838422 0
0.694423 0.83122 0
0.856489 0.84062 0.00106813
0.877958 0.878996 0.126818
0.872145 0.931594 0.464744
0.864836 0.97438 0.704814
0 0.984878 0.0159762
0 0.984207 0.0158846
0 0.982895 0.0157168
0.245197 0.979919 0.0150149
0.67686 0.962188 0.00213626
0.820554 0.956283 0.00187686
0.871885 0.959716 0.061738
0.869688 0.971176 0.440009
0.864027 0.98677 0.695979
0.575738 1 0.208042
0.588983 1 0.207965
0.612039 1 0.208087
0.662379 1 0.210132
0.739101 1 0.222049
0.814298 1 0.261723
0.863874 1 0.364843
0.865675 1 0.542321
0.862699 1 0.71046
0.779263 1 0.604623
0.780316 1 0.604746
0.78233 1 0.605005
0.787884 1 0.605783
0.801328 1 0.608118
0.825467 1 0.614908
0.853422 1 0.633509
0.862135 1 0.680385
0.861341 1 0.75729
0.835798 1 0.781506
0.835935 1 0.781521
0.83621 1 0.781552
0.836988 1 0.781643
0.839109 1 0.781918
0.844236 1 0.782712
0.853544 1 0.78497
0.861112 1 0.790921
0.861006 1 0.806195
0.00164797 0.00422675 0.43473
0.00164797 0.00422675 0.434928
0.0712139 0.00315862 0.433478
0.497185 0 0.421973
0.797665 0 0.417563
0.928512 0 0.441718
0.908721 0.535271 0.507576
0.875242 0.864607 0.590494
0.865309 0.963485 0.73283
0.00169375 0.00425727 0.432898
0.00167849 0.00425727 0.433097
0.124849 0.00288396 0.430884
0.508904 0 0.419501
0.796628 0 0.415473
0.928527 0 0.439338
0.905669 0.576043 0.504982
0.874907 0.868574 0.589548
0.865278 0.963958 0.732692
0 0.105104 0.4271
0 0.108614 0.427268
0.127932 0.102785 0.424872
0.51194 0.0210727 0.414755
0.791501 0 0.410788
0.926863 0.0603647 0.437919
0.900877 0.634424 0.499519
0.874296 0.875883 0.587762
0.865217 0.964858 0.732418
0 0.498421 0.39086
0 0.500023 0.391211
0 0.501167 0.391928
0.435019 0.50602 0.399496
0.749584 0.50341 0.407523
0.905608 0.579477 0.435721
0.889662 0.742 0.48011
0.872862 0.89395 0.582895
0.865049 0.967391 0.731579
0 0.836393 0.313329
0 0.836255 0.313954
0 0.835691 0.315099
0.085481 0.834318 0.320348
0.694331 0.826719 0.327367
0.857359 0.83653 0.362829
0.876936 0.873503 0.439353
0.870451 0.927932 0.571069
0.864607 0.973678 0.729213
0 0.986831 0.130678
0 0.986175 0.131106
0 0.984894 0.13196
0.24416 0.981659 0.134646
0.67747 0.963775 0.126223
0.821805 0.958083 0.207538
0.87158 0.95903 0.363607
0.868009 0.96875 0.543801
0.863752 0.986191 0.722667
0.587442 1 0.206332
0.59968 1 0.206348
0.621073 1 0.206638
0.668269 1 0.209003
0.74165 1 0.221225
0.81503 1 0.261067
0.864012 1 0.364675
0.86569 1 0.54197
0.862699 1 0.711452
0.780194 1 0.604501
0.781216 1 0.604623
0.7832 1 0.604883
0.788663 1 0.605661
0.801907 1 0.60798
0.825772 1 0.614786
0.853513 1 0.633402
0.862135 1 0.680354
0.861341 1 0.757244
0.83592 1 0.781491
0.836057 1 0.781506
0.836332 1 0.781537
0.837095 1 0.781628
0.839216 1 0.781903
0.844312 1 0.782696
0.853574 1 0.78497
0.861112 1 0.790906
0.861006 1 0.806195
0 0 0.70135
0 0 0.701396
0 0 0.701518
0.323751 0 0.694926
0.785122 0 0.682994
0.927214 0 0.691691
0.925353 0.223774 0.716899
0.875212 0.846296 0.728008
0.865095 0.961303 0.775128
0 0 0.700877
0 0 0.700954
0 0 0.70106
0.353567 0 0.693629
0.788479 0 0.682567
0.927214 0 0.691203
0.921721 0.340322 0.72018
0.874708 0.85127 0.727321
0.865049 0.961791 0.775036
0 0 0.699962
0 0 0.700023
0 0 0.700099
0.393744 0 0.691417
0.79147 0 0.681636
0.927214 0 0.690044
0.910979 0.50251 0.717861
0.873823 0.860166 0.726101
0.864988 0.962753 0.774853
0 0.286793 0.691463
0 0.290059 0.691432
0 0.294408 0.691341
0.381628 0.271992 0.68986
0.783001 0.201999 0.687678
0.921462 0.34406 0.7028
0.894987 0.681422 0.706859
0.871885 0.881422 0.723095
0.86479 0.965423 0.774304
0 0.799268 0.663706
0 0.799435 0.663798
0 0.799283 0.66392
0 0.797284 0.664317
0.678203 0.791333 0.663264
0.850584 0.806378 0.670344
0.874846 0.854292 0.682933
0.868727 0.920256 0.716884
0.864332 0.972045 0.772824
0 0.982788 0.645426
0 0.982162 0.645502
0 0.980896 0.64564
0.0697948 0.976608 0.644846
0.650004 0.956619 0.632593
0.809186 0.949081 0.639368
0.86659 0.951308 0.661509
0.865583 0.964096 0.705562
0.863416 0.985016 0.768948
0.566964 1 0.562066
0.580224 1 0.5617
0.603296 1 0.561181
0.653712 1 0.560739
0.730541 1 0.563577
0.805783 1 0.576623
0.856428 0.997894 0.611749
0.863462 0.99736 0.67982
0.862287 1 0.758877
0.782864 1 0.604105
0.783841 1 0.604242
0.785718 1 0.604501
0.790936 1 0.60528
0.803616 1 0.607614
0.826658 1 0.614435
0.853803 1 0.633097
0.862135 1 0.680293
0.861341 1 0.757092
0.836286 1 0.781445
0.836423 1 0.781476
0.836683 1 0.781491
0.83743 1 0.781582
0.839521 1 0.781857
0.844541 1 0.78265
0.853697 1 0.784924
0.861112 1 0.790875
0.861006 1 0.806195
0 0 0.84126
0 0 0.841276
0 0 0.841276
0 0 0.84123
0.698009 0 0.822339
0.927733 0 0.826139
0.927749 0 0.826764
0.88484 0.762478 0.828321
0.865187 0.955016 0.823072
0 0 0.841199
0 0 0.841215
0 0 0.84123
0 0 0.841138
0.704005 0 0.822171
0.927733 0 0.826078
0.927749 0 0.826703
0.883391 0.773648 0.827008
0.865141 0.955627 0.823011
0 0 0.841093
0 0 0.841093
0 0 0.841108
0 0 0.84094
0.715419 0 0.821881
0.927733 0 0.825956
0.927749 0 0.826474
0.880888 0.793286 0.824765
0.865064 0.956786 0.822873
0 0 0.840772
0 0 0.840772
0 0 0.840787
0.0427253 0 0.838956
0.737453 0 0.821317
0.927733 0 0.825589
0.926757 0.143359 0.83415
0.875807 0.83592 0.819944
0.864836 0.959991 0.822522
0 0.6159 0.824903
0 0.616968 0.824857
0 0.619028 0.824765
0 0.620996 0.82414
0.680842 0.616251 0.825818
0.891569 0.649653 0.831968
0.883543 0.772412 0.820874
0.869642 0.899062 0.813504
0.864271 0.967803 0.821591
0 0.97142 0.820981
0 0.970993 0.82092
0 0.969985 0.820768
0 0.966369 0.820218
0.590555 0.946242 0.805112
0.799084 0.936019 0.801083
0.862684 0.940703 0.802701
0.865125 0.957427 0.807263
0.863218 0.982452 0.819532
0.433555 1 0.8009
0.466621 1 0.799573
0.512474 1 0.797452
0.593545 1 0.793439
0.700359 1 0.789929
0.790631 0.996277 0.790127
0.846799 0.993957 0.793301
0.862455 0.994888 0.80061
0.861967 1 0.81561
0.772076 1 0.763821
0.773114 1 0.763851
0.775097 1 0.763912
0.780575 1 0.764111
0.793896 1 0.764721
0.817975 1 0.766567
0.846387 1 0.77171
0.861143 1 0.784253
0.861006 1 0.806821
0.837308 1 0.781323
0.83743 1 0.781338
0.83769 1 0.781369
0.838407 1 0.78146
0.840391 1 0.781735
0.845182 1 0.782528
0.854032 1 0.784802
0.861112 1 0.790768
0.861006 1 0.80618
0 0 0.879683
0 0 0.879683
0 0 0.879683
0 0 0.879683
0.113848 0 0.877501
0.914549 0 0.872877
0.927993 0 0.873533
0.927611 0.0186465 0.874968
0.866957 0.92784 0.861082
0 0 0.879683
0 0 0.879683
0 0 0.879683
0 0 0.879683
0.123003 0 0.877409
0.915312 0 0.872923
0.927993 0 0.873533
0.927611 0.018616 0.874968
0.86685 0.929046 0.86099
0 0 0.879683
0 0 0.879683
0 0 0.879683
0 0 0.879683
0.139437 0 0.877241
0.916793 0 0.872999
0.927993 0 0.873533
0.92755 0.0233463 0.875227
0.866682 0.931334 0.860792
0 0 0.879683
0 0 0.879683
0 0 0.879683
0 0 0.879683
0.179492 0 0.876829
0.920958 0 0.873228
0.927993 0 0.873533
0.927214 0.0584268 0.87686
0.866209 0.937469 0.860288
0 0 0.879683
0 0 0.879683
0 0 0.879683
0 0 0.879683
0.455406 0 0.871244
0.926131 0 0.873518
0.927993 0 0.873533
0.900435 0.641611 0.884749
0.865171 0.951492 0.859113
0 0.873411 0.875914
0 0.873686 0.875929
0 0.874235 0.875959
0 0.875715 0.87602
0.199252 0.870832 0.874723
0.810803 0.856901 0.86363
0.870893 0.881407 0.861677
0.866835 0.929671 0.858289
0.863539 0.974273 0.85713
0 1 0.875456
0.0153811 1 0.874922
0.0345006 1 0.874449
0.164431 1 0.87248
0.619699 1 0.855467
0.774884 0.991485 0.851926
0.84271 0.988907 0.852171
0.862379 0.990829 0.852735
0.861875 0.997589 0.854704
0.748516 1 0.847089
0.74992 1 0.847074
0.752651 1 0.847059
0.760342 1 0.847028
0.777752 1 0.847013
0.807599 1 0.84715
0.840162 1 0.847639
0.860487 1 0.848936
0.860716 1 0.851881
0.833158 1 0.837537
0.833295 1 0.837552
0.833539 1 0.837552
0.834287 1 0.837583
0.836347 1 0.837659
0.841306 1 0.837903
0.850462 1 0.838605
0.860349 1 0.840558
0.860761 1 0.845335
0 0.0683452 0.878874
0 0.0683452 0.878874
0 0.0683452 0.878874
0 0.0683757 0.878874
0 0.068452 0.878874
0.257389 0.047425 0.875395
0.927993 0 0.873533
0.927245 0.0516365 0.876951
0.8925 0.705715 0.886198
0 0.0682994 0.878874
0 0.0683146 0.878874
0 0.0683146 0.878874
0 0.0683452 0.878874
0 0.0684215 0.878874
0.259541 0.0473487 0.875364
0.927993 0 0.873533
0.927245 0.0517586 0.876966
0.8925 0.705684 0.886198
0 0.0682536 0.878874
0 0.0682536 0.878874
0 0.0682689 0.878874
0 0.0682841 0.878874
0 0.0683604 0.878874
0.263706 0.0472419 0.875303
0.927993 0 0.873533
0.927245 0.052018 0.876982
0.892515 0.705638 0.886213
0 0.0680705 0.878874
0 0.0680858 0.878874
0 0.0680858 0.878874
0 0.068101 0.878874
0 0.0681773 0.878874
0.27715 0.017319 0.875242
0.927993 0 0.873533
0.92723 0.0527352 0.877028
0.892531 0.705501 0.886213
0 0.0675364 0.878874
0 0.0675364 0.878874
0 0.0675517 0.878874
0 0.0675822 0.878874
0 0.0676432 0.878874
0.576089 0 0.868513
0.927993 0 0.873533
0.927214 0.0546426 0.87715
0.892592 0.705089 0.886244
0 0.0658885 0.878889
0 0.0658885 0.878889
0 0.0658885 0.878889
0 0.065919 0.878889
0 0.06598 0.878889
0.786465 0 0.867369
0.927993 0 0.873533
0.927138 0.117281 0.881621
0.869932 0.890379 0.874784
0 0.998718 0.895079
0 0.998749 0.895079
0 0.998825 0.895094
0 0.999008 0.895094
0 0.99913 0.895109
0.696574 0.964416 0.87422
0.846967 0.960235 0.873762
0.863783 0.968597 0.873686
0.862501 0.986603 0.873579
0.57789 1 0.877256
0.583963 1 0.876951
0.614221 1 0.875547
0.656458 1 0.873869
0.718807 1 0.872267
0.784482 1 0.871794
0.834012 1 0.872129
0.859724 1 0.872267
0.860838 1 0.872374
0.824628 1 0.870268
0.824796 1 0.870268
0.825147 1 0.870268
0.826154 1 0.870268
0.828901 1 0.870283
0.83534 1 0.870314
0.846494 1 0.870375
0.858106 1 0.870527
0.860594 1 0.870832
0 0.318837 0.878752
0 0.318837 0.878752
0 0.318837 0.878752
0 0.318853 0.878767
0 0.318868 0.878752
0 0.318914 0.878752
0.248844 0.248432 0.879194
0.922713 0.35108 0.893736
0.88687 0.747219 0.883009
0 0.318837 0.878752
0 0.318837 0.878752
0 0.318837 0.878752
0 0.318837 0.878752
0 0.318853 0.878752
0 0.318914 0.878767
0.248844 0.248432 0.879194
0.922698 0.3514 0.893736
0.886854 0.747265 0.883009
0 0.318822 0.878752
0 0.318822 0.878752
0 0.318822 0.878752
0 0.318822 0.878752
0 0.318837 0.878752
0 0.318883 0.878752
0.248829 0.248417 0.879194
0.922667 0.351995 0.893751
0.886839 0.747341 0.882994
0 0.318791 0.878752
0 0.318791 0.878752
0 0.318791 0.878752
0 0.318791 0.878752
0 0.318807 0.878767
0 0.318853 0.878752
0.248844 0.248386 0.879194
0.922576 0.353811 0.893782
0.886809 0.747585 0.882979
0 0.318654 0.878767
0 0.318654 0.878767
0 0.318654 0.878752
0 0.318669 0.878767
0 0.318669 0.878767
0 0.31873 0.878752
0.585657 0.220691 0.877089
0.922301 0.359106 0.893874
0.886717 0.748302 0.882918
0 0.318273 0.878767
0 0.318273 0.878767
0 0.318273 0.878767
0 0.318288 0.878767
0 0.318303 0.878767
0 0.318349 0.878767
0.836378 0.0377661 0.871382
0.921492 0.374228 0.894072
0.886595 0.749187 0.882856
0 0.317143 0.878767
0 0.317143 0.878767
0 0.317159 0.878767
0 0.317159 0.878767
0 0.317174 0.878767
0 0.31722 0.878767
0.927993 0 0.873533
0.919966 0.400122 0.89427
0.886336 0.751034 0.882719
0 1 0.896132
0 1 0.896132
0 1 0.896132
0 1 0.896132
0 1 0.896132
0 1 0.895659
0.80766 1 0.873259
0.860945 0.999832 0.873564
0.861357 1 0.873472
0.784833 1 0.872801
0.785443 1 0.872801
0.786618 1 0.872816
0.789944 1 0.872816
0.798321 1 0.872862
0.81529 1 0.872969
0.838193 1 0.873121
0.856077 1 0.873228
0.860838 1 0.873503
