BBLuts/BB_102_0150_LUT.cube
TITLE "Generated by Resolve"
LUT_3D_SIZE 9
0.033341 0.0362249 0.0197299
0.033341 0.0362249 0.0197299
0.265934 0.0336156 0.0166323
0.53846 0.0306249 0.0138552
0.803738 0.0243992 0.00959792
1 0.019501 0.00663767
0.968338 0.626825 0.140017
0.948806 0.923919 0.468254
0.939315 1 0.744625
0.0273899 0.104082 0.0191043
0.0262608 0.116686 0.0189822
0.275151 0.0884108 0.0165866
0.548089 0.0304723 0.0137331
0.805951 0.0243534 0.00956741
1 0.019501 0.00663767
0.9664 0.653071 0.126314
0.948486 0.92845 0.466255
0.939284 1 0.744396
0.0087129 0.305577 0.0170138
0.00830091 0.309926 0.016968
0.215961 0.308675 0.01561
0.540551 0.280293 0.0145418
0.80264 0.144717 0.0114595
0.988159 0.289921 0.0106355
0.96347 0.690318 0.0995346
0.947982 0.935439 0.46302
0.939223 1 0.743999
0 0.602655 0.0137789
0 0.603525 0.0137636
0 0.603983 0.0137484
0.468696 0.603433 0.0128328
0.777432 0.593881 0.0125124
0.965316 0.6318 0.011902
0.955245 0.776303 0.0118868
0.946639 0.953826 0.453361
0.939025 1 0.742809
0 0.868955 0.00909438
0 0.868879 0.00909438
0 0.868528 0.00909438
0 0.866178 0.00914015
0.707088 0.862715 0.0110475
0.920073 0.867872 0.0115206
0.945296 0.913146 0.0113375
0.943877 0.991547 0.456458
0.938552 1 0.739239
0 1 0.00631724
0 1 0.00633249
0 1 0.00634775
0 1 0.00640879
0.674296 1 0.00932326
0.868605 1 0.0104219
0.937453 1 0.0106813
0.940215 1 0.492424
0.937499 1 0.735103
0.574365 1 0.220218
0.590188 1 0.221408
0.613184 1 0.223362
0.667689 1 0.229114
0.760769 1 0.246052
0.861662 1 0.293492
0.931105 1 0.413397
0.937102 1 0.580407
0.935927 1 0.761837
0.829343 1 0.644785
0.830716 1 0.644938
0.832883 1 0.645167
0.839124 1 0.645884
0.855116 1 0.648051
0.88574 1 0.654597
0.922606 1 0.673381
0.935241 1 0.724483
0.934707 1 0.817166
0.903777 1 0.847654
0.903944 1 0.847684
0.904219 1 0.8477
0.905043 1 0.847807
0.907408 1 0.848096
0.913359 1 0.848981
0.924758 1 0.851621
0.934432 1 0.858885
0.934295 1 0.878019
0.0341802 0.037232 0.0670481
0.0341802 0.037232 0.0673075
0.267247 0.0347906 0.0649119
0.540139 0.0319677 0.0630045
0.804898 0.0260471 0.0612345
1 0.0220188 0.0899977
0.969253 0.622858 0.214328
0.948852 0.923003 0.496513
0.9393 1 0.750896
0.0308232 0.0754253 0.0580911
0.0816205 0.0897383 0.0558938
0.288151 0.0344244 0.0564431
0.544884 0.0316472 0.0514839
0.805295 0.0252384 0.0320745
1 0.0214237 0.0626383
0.967361 0.649836 0.201511
0.948531 0.927581 0.495262
0.939254 1 0.750668
0.00978103 0.294469 0.0171206
0.00943008 0.298146 0.0170901
0.238926 0.297383 0.01561
0.539757 0.268269 0.0145876
0.802579 0.103563 0.0110018
0.989502 0.268879 0.0104677
0.964569 0.688151 0.178439
0.948013 0.934615 0.493202
0.939193 1 0.750286
0 0.599115 0.0138247
0 0.600015 0.0138094
0 0.600381 0.0138094
0.479561 0.599603 0.0128786
0.777279 0.590021 0.0125124
0.965484 0.629343 0.011902
0.956695 0.776013 0.0588388
0.94667 0.953201 0.486641
0.93901 1 0.749157
0 0.867796 0.00910964
0 0.867689 0.00910964
0 0.867338 0.0091249
0 0.864942 0.00915541
0.709911 0.861555 0.0110628
0.920241 0.867033 0.0115206
0.945327 0.912688 0.0113375
0.943893 0.991363 0.464256
0.938521 1 0.745754
0 1 0.00631724
0 1 0.00633249
0 1 0.00634775
0 1 0.00640879
0.67602 1 0.00933852
0.86891 1 0.0104219
0.937453 1 0.0106813
0.94023 1 0.492287
0.937499 1 0.735683
0.576806 1 0.22002
0.592416 1 0.221225
0.615122 1 0.223163
0.669047 1 0.228901
0.76141 1 0.245884
0.861845 1 0.293355
0.931151 1 0.413382
0.937102 1 0.580346
0.935927 1 0.761807
0.829557 1 0.64477
0.83093 1 0.644923
0.833082 1 0.645151
0.839307 1 0.645869
0.855253 1 0.648035
0.885801 1 0.654566
0.922637 1 0.67335
0.935241 1 0.724468
0.934707 1 0.817151
0.903807 1 0.847654
0.90396 1 0.847684
0.90425 1 0.8477
0.905074 1 0.847791
0.907423 1 0.848096
0.913375 1 0.848981
0.924773 1 0.851621
0.934432 1 0.858885
0.934295 1 0.878019
0.0347601 0.0382239 0.213565
0.0347448 0.0382239 0.213809
0.241703 0.0363317 0.210697
0.551522 0.0334173 0.203281
0.806119 0.027985 0.203967
1 0.0237125 0.231785
0.97026 0.614664 0.328542
0.948928 0.921431 0.531441
0.939254 1 0.760388
0.0347601 0.0382086 0.20911
0.0347601 0.0382086 0.209537
0.273823 0.0360418 0.205692
0.550164 0.0334173 0.198932
0.808179 0.0278935 0.199115
1 0.0236667 0.223804
0.968429 0.642161 0.321096
0.948592 0.926085 0.530221
0.939223 1 0.760174
0.015259 0.264698 0.193378
0.0149996 0.267552 0.192996
0.230259 0.259846 0.187366
0.531136 0.237522 0.188952
0.806897 0.0278172 0.185977
0.996887 0.20087 0.212757
0.965713 0.681987 0.308583
0.948089 0.933242 0.528267
0.939147 1 0.759823
0 0.589532 0.0987564
0 0.590707 0.0998245
0 0.591287 0.101305
0.482444 0.590127 0.104082
0.77554 0.580941 0.10898
0.968551 0.623743 0.140932
0.959182 0.773999 0.266682
0.946731 0.952102 0.522622
0.938964 1 0.75877
0 0.8654 0.00915541
0 0.865309 0.00915541
0 0.864927 0.00917067
0 0.862516 0.00920119
0.712276 0.859159 0.0110933
0.920256 0.86508 0.0115358
0.94757 0.913954 0.103517
0.943923 0.990784 0.507424
0.938476 1 0.755611
0 1 0.00633249
0 1 0.00633249
0 1 0.00636301
0 1 0.00642405
0.678767 1 0.00935378
0.869398 1 0.0104219
0.937469 1 0.0106813
0.94023 1 0.492073
0.937453 1 0.746319
0.580728 1 0.219715
0.595987 1 0.22092
0.618235 1 0.222843
0.671214 1 0.228595
0.762417 1 0.245609
0.862135 1 0.293126
0.931212 1 0.413352
0.937102 1 0.58024
0.935927 1 0.761761
0.829892 1 0.644739
0.83125 1 0.644892
0.833402 1 0.645121
0.839597 1 0.645838
0.855482 1 0.64799
0.885924 1 0.654536
0.922667 1 0.67332
0.935241 1 0.724468
0.934707 1 0.817136
0.903838 1 0.847654
0.904005 1 0.847669
0.904295 1 0.8477
0.905104 1 0.847791
0.907469 1 0.848081
0.91339 1 0.848981
0.924773 1 0.851606
0.934432 1 0.858885
0.934295 1 0.878019
0.0330968 0.037171 0.46894
0.0330968 0.037171 0.469078
0.0330968 0.037171 0.469154
0.52987 0.0336004 0.462989
0.822782 0.0280461 0.461433
1 0.0241703 0.476524
0.972824 0.57406 0.520775
0.949081 0.91632 0.616205
0.939162 1 0.784558
0.0331121 0.0371862 0.466957
0.0331121 0.0371862 0.46714
0.132601 0.0364538 0.465812
0.54403 0.0334478 0.460685
0.820996 0.0280919 0.459205
1 0.0241703 0.474052
0.970153 0.614633 0.518349
0.94873 0.921218 0.615259
0.939132 1 0.784375
0.0263523 0.127581 0.462837
0.0257725 0.134646 0.462959
0.165881 0.128054 0.461555
0.549661 0.033402 0.456992
0.815534 0.0282139 0.455558
1 0.0241855 0.469337
0.967285 0.658595 0.514443
0.948196 0.92871 0.613748
0.939055 1 0.784085
0 0.547112 0.435645
0 0.548928 0.435935
0 0.550179 0.436591
0.475883 0.548653 0.437201
0.765011 0.538964 0.440101
0.971679 0.593454 0.455283
0.960479 0.758953 0.502541
0.946792 0.948455 0.609445
0.938872 1 0.783215
0 0.859724 0.333013
0 0.859693 0.333791
0 0.859419 0.334997
0 0.857221 0.338476
0.713024 0.854002 0.35259
0.922393 0.861723 0.387152
0.949706 0.911559 0.468818
0.943908 0.988769 0.598123
0.938369 1 0.780667
0 1 0.00634775
0 1 0.00636301
0 1 0.00637827
0 1 0.00643931
0.678737 1 0.00936904
0.871946 1 0.184131
0.941543 1 0.381857
0.940185 1 0.571206
0.937331 1 0.773297
0.592157 1 0.218769
0.606455 1 0.219959
0.62739 1 0.221897
0.677623 1 0.227665
0.765469 1 0.244739
0.86302 1 0.292424
0.931411 1 0.413245
0.937102 1 0.579919
0.935943 1 0.761593
0.8309 1 0.644633
0.832242 1 0.64477
0.834363 1 0.645014
0.840467 1 0.645716
0.856153 1 0.647898
0.886275 1 0.654429
0.922774 1 0.673228
0.935241 1 0.724437
0.934707 1 0.817075
0.90396 1 0.847639
0.904143 1 0.847654
0.904402 1 0.847684
0.905241 1 0.847791
0.907576 1 0.848081
0.913481 1 0.848966
0.924819 1 0.851606
0.934432 1 0.858885
0.934295 1 0.878019
0.0285039 0.03299 0.726497
0.0284886 0.03299 0.726574
0.0284886 0.03299 0.726696
0.351751 0.0315557 0.723018
0.809445 0.0261234 0.716365
1 0.0224155 0.718166
0.990875 0.275914 0.735012
0.949599 0.898222 0.765148
0.93901 1 0.832822
0.0285039 0.0330053 0.725902
0.0285039 0.0330053 0.725963
0.0285039 0.0330053 0.726101
0.384543 0.0314183 0.722072
0.814374 0.0260319 0.715679
1 0.0224308 0.71751
0.981994 0.416449 0.734035
0.949187 0.904173 0.764492
0.938964 1 0.8327
0.0285344 0.0330205 0.724895
0.0285344 0.0330205 0.724987
0.0285344 0.0330205 0.725124
0.427451 0.03122 0.720607
0.817395 0.0260014 0.714565
1 0.022446 0.716411
0.973449 0.547311 0.731868
0.948562 0.913085 0.7635
0.938903 1 0.832502
0.00537118 0.335607 0.717845
0.00505074 0.339208 0.717845
0.004654 0.343832 0.717815
0.41648 0.334188 0.715053
0.806485 0.199557 0.711635
0.987228 0.337224 0.71342
0.963531 0.70016 0.725414
0.946944 0.935927 0.760723
0.938704 1 0.831907
0 0.821591 0.684535
0 0.821881 0.684657
0 0.821958 0.684794
0 0.820462 0.685145
0.700481 0.817288 0.68661
0.916197 0.830716 0.691417
0.950362 0.892317 0.708324
0.943709 0.981659 0.753979
0.93817 1 0.830182
0 1 0.642008
0 1 0.642176
0 1 0.642451
0 1 0.643259
0.657404 1 0.647318
0.864256 1 0.657694
0.941344 1 0.683772
0.939727 1 0.740261
0.937072 1 0.825498
0.583413 1 0.566995
0.598138 1 0.567376
0.619623 1 0.567971
0.670954 1 0.569696
0.760082 1 0.574563
0.858335 1 0.588449
0.926711 1 0.626566
0.936706 1 0.708812
0.935668 1 0.813291
0.833921 1 0.644282
0.835203 1 0.644434
0.837232 1 0.644663
0.843091 1 0.64538
0.858167 1 0.647562
0.887343 1 0.654093
0.923125 1 0.672938
0.935241 1 0.724376
0.934707 1 0.816907
0.904356 1 0.847593
0.904524 1 0.847608
0.904799 1 0.847639
0.905592 1 0.84773
0.907912 1 0.84802
0.913725 1 0.84892
0.924956 1 0.85156
0.934432 1 0.858839
0.934295 1 0.878019
0.0245212 0.0293126 0.910872
0.0245212 0.0293126 0.910887
0.0245212 0.0293126 0.910903
0.0245212 0.0293126 0.910964
0.711513 0.0251926 0.900511
1 0.0203098 0.893309
1 0.0202945 0.894255
0.954482 0.814939 0.889555
0.939055 1 0.893828
0.0245365 0.0293126 0.910796
0.0245212 0.0293126 0.910811
0.0245212 0.0293126 0.910811
0.0245212 0.0293126 0.910872
0.718334 0.0251011 0.900267
1 0.0203098 0.893233
1 0.0203098 0.894163
0.953689 0.82652 0.888884
0.93901 1 0.893751
0.0245365 0.0293126 0.910658
0.0245365 0.0293126 0.910674
0.0245365 0.0293126 0.910689
0.0245365 0.0293126 0.910735
0.729137 0.0249332 0.899855
1 0.0203098 0.89308
1 0.0203098 0.894041
0.952499 0.843885 0.887846
0.938933 1 0.893614
0.0245365 0.0293126 0.910262
0.0245365 0.0293126 0.910277
0.0245365 0.0293126 0.910292
0.0245518 0.0293278 0.909957
0.752819 0.0245518 0.898833
1 0.020325 0.892653
1 0.020325 0.892027
0.94963 0.885206 0.885115
0.938689 1 0.893217
0 0.647837 0.894484
0 0.648905 0.894423
0 0.650614 0.894331
0 0.6533 0.893706
0.693675 0.647639 0.89012
0.961624 0.665064 0.886351
0.955871 0.795758 0.882109
0.944686 0.955642 0.879698
0.938064 1 0.892149
0 1 0.861769
0 1 0.861738
0 1 0.861692
0 1 0.861479
0.5888 1 0.862104
0.852399 1 0.863523
0.937713 1 0.86569
0.939437 1 0.872175
0.936828 1 0.889632
0.460838 1 0.844984
0.492744 1 0.845243
0.528389 1 0.845548
0.606409 1 0.846174
0.72491 1 0.84712
0.840635 1 0.848844
0.915557 1 0.853162
0.935927 1 0.863371
0.935256 1 0.88455
0.824155 1 0.813062
0.825452 1 0.813107
0.827543 1 0.813199
0.833555 1 0.813474
0.848997 1 0.814282
0.878859 1 0.816709
0.915587 1 0.823651
0.934554 1 0.841337
0.934325 1 0.873152
0.905516 1 0.84744
0.905669 1 0.847471
0.905928 1 0.847501
0.906691 1 0.847593
0.908904 1 0.847898
0.914488 1 0.848783
0.925368 1 0.851423
0.934432 1 0.858732
0.934295 1 0.878004
0.0232853 0.0281376 0.965576
0.0232853 0.0281376 0.965576
0.0232853 0.0281376 0.965576
0.0232853 0.0281376 0.965576
0.0232853 0.0281376 0.965576
0.986252 0.0196841 0.958312
1 0.0194095 0.958175
1 0.0194095 0.958175
0.94078 1 0.94342
0.0232853 0.0281376 0.965576
0.0232853 0.0281376 0.965576
0.0232853 0.0281376 0.965576
0.0232853 0.0281376 0.965576
0.0232853 0.0281376 0.965576
0.987503 0.0196689 0.958297
1 0.0194095 0.958175
1 0.0194095 0.958175
0.940688 1 0.943313
0.0232853 0.0281376 0.965576
0.0232853 0.0281376 0.965576
0.0232853 0.0281376 0.965576
0.0232853 0.0281376 0.965576
0.0232853 0.0281376 0.965576
0.989517 0.0196384 0.958282
1 0.0194095 0.958175
1 0.0194095 0.958175
0.940536 1 0.943145
0.0232853 0.0281376 0.965576
0.0232853 0.0281376 0.965576
0.0232853 0.0281376 0.965576
0.0232853 0.0281376 0.965576
0.0232853 0.0281376 0.965576
0.995392 0.0195315 0.958236
1 0.0194095 0.958175
1 0.0194095 0.958175
0.940108 1 0.942657
0.0232853 0.0281376 0.965576
0.0232853 0.0281376 0.965576
0.0232853 0.0281376 0.965576
0.0232853 0.0281376 0.965576
0.441459 0.0269627 0.96257
1 0.0194095 0.958175
1 0.0194095 0.958175
0.961471 0.701885 0.957061
0.93904 1 0.941451
0 0.915602 0.948486
0 0.915877 0.94847
0 0.91635 0.94844
0 0.917769 0.948318
0 0.912657 0.947082
0.862715 0.908553 0.946303
0.945678 0.934081 0.943923
0.941375 0.995026 0.940383
0.937163 1 0.939132
0 1 0.930327
0 1 0.930282
0 1 0.93019
0 1 0.929946
0.629648 1 0.931304
0.819684 1 0.931975
0.910292 1 0.932418
0.93576 1 0.933288
0.935088 1 0.936034
0.796094 1 0.92578
0.797848 1 0.925795
0.800595 1 0.925795
0.808484 1 0.925826
0.828321 1 0.925917
0.865187 1 0.926146
0.907271 1 0.926757
0.933913 1 0.928481
0.933883 1 0.932662
0.901061 1 0.91281
0.901228 1 0.912825
0.901488 1 0.912825
0.902266 1 0.912856
0.904524 1 0.912947
0.910216 1 0.913268
0.921309 1 0.914183
0.933959 1 0.916838
0.933959 1 0.923659
0.0187839 0.103258 0.965759
0.0187839 0.103258 0.965759
0.0187839 0.103258 0.965759
0.0187839 0.103273 0.965759
0.0187686 0.103365 0.965759
0.0187533 0.103593 0.965759
1 0.0194095 0.958175
1 0.0194095 0.958175
0.958465 0.746395 0.962219
0.0187839 0.103212 0.965759
0.0187839 0.103212 0.965759
0.0187839 0.103227 0.965759
0.0187839 0.103258 0.965759
0.0187839 0.103334 0.965759
0.0187686 0.103563 0.965759
1 0.0194095 0.958175
1 0.0194095 0.958175
0.95848 0.746365 0.962219
0.0187839 0.103136 0.965759
0.0187839 0.103136 0.965759
0.0187839 0.103166 0.965759
0.0187839 0.103182 0.965759
0.0187839 0.103258 0.965759
0.0187686 0.103502 0.965759
1 0.0194095 0.958175
1 0.0194095 0.958175
0.95848 0.746334 0.962234
0.0187991 0.102953 0.965759
0.0188144 0.102937 0.965759
0.0187991 0.102953 0.965759
0.0187991 0.102983 0.965759
0.0187991 0.103075 0.965759
0.0211948 0.0652934 0.965713
1 0.0194095 0.958175
1 0.0194095 0.958175
0.95848 0.746197 0.962234
0.0188449 0.102327 0.965759
0.0188449 0.102327 0.965759
0.0188449 0.102358 0.965759
0.0188449 0.102373 0.965759
0.0188296 0.102449 0.965759
0.482277 0.0268254 0.962402
1 0.0194095 0.958175
1 0.0194095 0.958175
0.958511 0.745769 0.962234
0.018967 0.100389 0.965759
0.018967 0.100389 0.965759
0.018967 0.100389 0.965759
0.018967 0.10042 0.965759
0.018967 0.100511 0.965759
0.822858 0.022446 0.959716
1 0.0194095 0.958175
0.998947 0.0956741 0.959625
0.943755 0.959045 0.96141
0 1 0.957046
0 1 0.957046
0 1 0.957046
0 1 0.957031
0 1 0.957031
0.717601 1 0.95967
0.914855 1 0.9608
0.93756 1 0.960845
0.935866 1 0.960662
0.646845 1 0.958526
0.654398 1 0.958556
0.665782 1 0.958602
0.69572 1 0.958709
0.756512 1 0.958877
0.834623 1 0.959014
0.898817 1 0.959091
0.932662 1 0.959228
0.933715 1 0.959472
0.890593 1 0.956802
0.890806 1 0.956802
0.891157 1 0.956802
0.89221 1 0.956817
0.895201 1 0.956817
0.902586 1 0.956847
0.916121 1 0.956909
0.930694 1 0.957092
0.933684 1 0.957626
0 0.4056 0.964584
0 0.4056 0.964584
0 0.4056 0.964584
0 0.405615 0.964584
0 0.405615 0.964584
0 0.405676 0.964584
0 0.405814 0.964584
0.981567 0.38883 0.961761
0.955459 0.791074 0.962142
0 0.4056 0.964584
0 0.4056 0.964584
0 0.4056 0.964584
0 0.4056 0.964584
0 0.405615 0.964584
0 0.405661 0.964584
0 0.405814 0.964584
0.981537 0.389197 0.961761
0.955459 0.791119 0.962142
0 0.40557 0.964584
0 0.40557 0.964584
0 0.40557 0.964584
0 0.4056 0.964584
0 0.4056 0.964584
0 0.405661 0.964584
0 0.405783 0.964584
0.981506 0.389776 0.961761
0.955444 0.79118 0.962142
0 0.405554 0.964584
0 0.405554 0.964584
0 0.405554 0.964584
0 0.405554 0.964584
0 0.40557 0.964584
0 0.405615 0.964584
0 0.405753 0.964584
0.981399 0.391546 0.961776
0.955428 0.791409 0.962142
0 0.405417 0.964584
0 0.405417 0.964584
0 0.405417 0.964584
0 0.405417 0.964584
0 0.405447 0.964584
0 0.405493 0.964584
0.461814 0.38114 0.963027
0.981048 0.396963 0.961776
0.955383 0.792065 0.962142
0 0.405051 0.964584
0 0.405051 0.964584
0 0.405051 0.964584
0 0.405066 0.964584
0 0.405066 0.964584
0 0.405112 0.964584
0.839094 0.136049 0.961212
0.980056 0.412512 0.961822
0.955322 0.793057 0.962127
0 0.403922 0.964599
0 0.403922 0.964599
0 0.403922 0.964599
0 0.403952 0.964599
0 0.403952 0.964599
0 0.403983 0.964599
1 0.0194095 0.958175
0.978134 0.442649 0.961883
0.9552 0.794903 0.962127
0 1 0.956497
0 1 0.956497
0 1 0.956497
0 1 0.956497
0 1 0.956497
0 1 0.956497
0.861082 1 0.960128
0.934676 1 0.960555
0.934432 1 0.960525
0.841382 1 0.959915
0.842145 1 0.95993
0.843351 1 0.95993
0.846876 1 0.959945
0.856229 1 0.960006
0.876402 1 0.960128
0.905226 1 0.960281
0.9281 1 0.960403
0.933669 1 0.960433
