BBLuts/BB_103_0150_LUT.cube
TITLE "Generated by Resolve"
LUT_3D_SIZE 5
0 0 0
0.0375525 0 0.00614939
0.717342 0 0.117601
1 0 0.54818
1 0.917449 1
0.00234989 0.013489 0
0.00172427 0.00985733 0
0.717144 0 0.117571
1 0 0.56379
1 0.941497 1
0.119707 0.686122 0
0.119417 0.684443 0
0.835126 0.68809 0.02121
1 0.7178 0.473579
1 1 1
0.207904 1 0
0.207904 1 0
0.207843 1 0
1 1 0.0923171
1 1 1
0.218524 1 0
0.218524 1 0
0.218524 1 0
0.218524 1 0
1 1 0.10782
0 0.00328069 0.0496529
0.0181735 0.00299077 0.0634012
0.710079 0 0.161257
1 0 0.609827
1 0.913298 1
0 0.0024567 0.037171
0 0.00254826 0.0386816
0.708385 0 0.150607
1 0 0.623407
1 0.937636 1
0.118608 0.67985 0
0.118318 0.678172 0
0.829755 0.681407 0.0214389
1 0.720058 0.565042
1 1 1
0.207874 1 0
0.207874 1 0
0.207813 1 0
1 1 0.0922866
1 1 1
0.218524 1 0
0.218524 1 0
0.218524 1 0
0.218524 1 0
1 1 0.10782
0 0.0383459 0.581262
0 0.0385138 0.583719
0.595254 0.0175631 0.694575
1 0.00866712 0.844419
1 0.878325 1
0 0.0381323 0.578058
0 0.0382544 0.579965
0.584924 0.0176699 0.689525
1 0.00851453 0.841703
1 0.904952 1
0 0.6878 0.519112
0 0.68571 0.518929
0.68397 0.688258 0.663462
1 0.689632 0.854154
1 1 1
0.142931 1 0.167178
0.143175 1 0.165911
0.14519 1 0.155505
1 1 0.326711
1 1 1
0.218524 1 0
0.218524 1 0
0.218524 1 0
0.218524 1 0
1 1 0.10782
0.013138 0.0572671 0.992996
0.164294 0.0529335 1
0.571725 0.0413214 1
0.994095 0.0294347 1
1 1 1
0 0.0594644 0.980224
0.127245 0.0539864 1
0.562982 0.0415503 1
0.993835 0.0294347 1
1 1 1
0 0.374258 0.940261
0 0.37055 0.942321
0.57528 0.331167 1
1 0.0301976 1
1 1 1
0 1 0.927337
0 1 0.927321
0 1 0.92723
1 1 1
1 1 1
0.0213169 1 0.830228
0.0213169 1 0.830182
0.0213931 1 0.829801
0.0221256 1 0.826154
1 1 1
0.932692 0.034165 1
0.935363 0.0340887 1
0.950835 0.0336461 1
1 0.0319829 1
1 0.0312505 1
0.931884 0.0341802 1
0.934554 0.0341039 1
0.950301 0.0336614 1
1 0.0319829 1
1 0.0312505 1
0.925399 0.0343633 1
0.928206 0.034287 1
0.946136 0.0337835 1
1 0.0320134 1
1 0.0312505 1
1 1 1
1 1 1
1 1 1
1 1 1
1 1 1
0 1 0.990341
0 1 0.990341
0 1 0.990341
0 1 0.990341
1 1 1
