BBLuts/BB_103_0530_LUT.cube
TITLE "Generated by Resolve"
LUT_3D_SIZE 5
0 0 0
0.128344 0 0
0.870115 0 0
1 0 0.427878
1 0.803571 1
0 0.0509804 0
0.002533 0.0370947 0
0.827893 0 0
1 0 0.37322
1 0.823819 1
0 0.751156 0
0 0.74963 0
0.695628 0.717494 0
1 0.695171 0.185183
1 0.938567 1
0 1 0
0 1 0
0 1 0
1 1 0
1 1 1
0 1 0
0 1 0
0 1 0
0 1 0
1 1 0
0 0 0.0360113
0.10605 0 0.0317082
0.86772 0 0.0138705
1 0 0.507027
1 0.799756 1
0 0.0108797 0
0 0 0
0.832624 0 0
1 0 0.461402
1 0.820264 1
0 0.745403 0
0 0.743862 0
0.692607 0.711589 0
1 0.688579 0.325246
1 0.936477 1
0 1 0
0 1 0
0 1 0
1 1 0
1 1 1
0 1 0
0 1 0
0 1 0
0 1 0
1 1 0
0 0 0.741848
0 0 0.740169
0.849378 0 0.727962
1 0 0.810849
1 0.76817 1
0 0 0.737682
0 0 0.737072
0.838315 0 0.723918
1 0 0.807401
1 0.791119 1
0 0.693294 0.641474
0 0.691417 0.641215
0.664714 0.656947 0.61973
1 0.634501 0.704173
1 0.919707 1
0 1 0.141924
0 1 0.139513
0 1 0.121386
1 1 0
1 1 1
0 1 0
0 1 0
0 1 0
0 1 0
1 1 0
0.334997 0 1
0.479438 0 1
0.894026 0 1
1 0 1
1 1 1
0.271351 0 1
0.442313 0 1
0.885191 0 1
1 0 1
1 1 1
0 0.363149 1
0 0.356222 1
0.746685 0.287572 1
1 0 1
1 1 1
0 1 1
0 1 1
0 1 1
1 1 1
1 1 1
0 1 1
0 1 1
0 1 1
0 1 1
1 1 0.939376
1 0 1
1 0 1
1 0 1
1 0 1
1 0 1
1 0 1
1 0 1
1 0 1
1 0 1
1 0 1
1 0 1
1 0 1
1 0 1
1 0 1
1 0 1
1 1 1
1 1 1
1 1 1
1 1 1
1 1 1
0 1 1
0 1 1
0 1 1
0 1 1
1 1 1
