BBLuts/BB_102_0190_LUT.cube
TITLE "Generated by Resolve"
LUT_3D_SIZE 33
0 0 0
0 0 0
0 0 0
0 0 0
0 0 0
0.0390936 0 0
0.091722 0 0
0.131426 0 0
0.172229 0 0
0.220935 0 0
0.276936 0 0
0.33843 0 0
0.405829 0 0
0.481758 0 0
0.56144 0 0
0.634638 0 0
0.709804 0 0
0.786496 0 0
0.857069 0 0
0.913466 0 0
0.927474 0 0
0.928283 0 0
0.917815 0.231876 0
0.90866 0.414618 0.00598154
0.901381 0.551232 0.0436103
0.895827 0.652583 0.0910353
0.890974 0.737591 0.149477
0.886992 0.806012 0.225101
0.88394 0.857893 0.320195
0.881346 0.898177 0.416617
0.879194 0.928817 0.502571
0.877394 0.952804 0.576562
0.875837 0.97145 0.644297
0 0 0
0 0 0
0 0 0
0 0 0
0 0 0
0.0488899 0 0
0.095079 0 0
0.134234 0 0
0.176806 0 0
0.226307 0 0
0.28246 0 0
0.342779 0 0
0.407156 0 0
0.483268 0 0
0.562707 0 0
0.63534 0 0
0.710414 0 0
0.786496 0 0
0.857008 0 0
0.9131 0 0
0.927443 0 0
0.928145 0 0
0.916243 0.260334 0
0.907103 0.427771 0
0.900832 0.558221 0.0405737
0.895537 0.656474 0.0894636
0.890806 0.739757 0.148928
0.886915 0.807111 0.224994
0.883894 0.858457 0.319921
0.881315 0.898482 0.416464
0.879179 0.928954 0.50251
0.877379 0.95288 0.576532
0.875837 0.971496 0.644266
0 0 0
0 0 0
0 0 0
0 0 0
0 0 0
0.0540475 0 0
0.0955215 0 0
0.136416 0 0
0.181125 0 0
0.23003 0 0
0.28481 0 0
0.343786 0 0
0.408942 0 0
0.485145 0 0
0.563989 0 0
0.636332 0 0
0.710735 0 0
0.786786 0 0
0.856901 0 0
0.912688 0 0
0.927413 0 0
0.926452 0.0430915 0
0.914656 0.288411 0
0.905821 0.440055 0
0.900313 0.564858 0.0378119
0.895262 0.659953 0.0880446
0.890669 0.741756 0.14844
0.886839 0.808148 0.224903
0.883848 0.858991 0.319677
0.8813 0.898772 0.416312
0.879179 0.929122 0.502434
0.877379 0.952987 0.576471
0.875837 0.971542 0.644251
0 0 0
0 0 0
0 0 0
0 0 0
0.00787366 0 0
0.0551461 0 0
0.0932326 0 0
0.13402 0 0
0.179553 0 0
0.230961 0 0
0.287007 0 0
0.345632 0 0
0.411139 0 0
0.487053 0 0
0.565301 0 0
0.637049 0 0
0.71136 0 0
0.78703 0 0
0.856779 0 0
0.912291 0 0
0.927367 0 0
0.923613 0.11577 0
0.913359 0.310765 0
0.904814 0.450477 0
0.899855 0.570535 0.035462
0.895033 0.663066 0.0867781
0.890532 0.743618 0.147967
0.886763 0.809125 0.224811
0.883803 0.859541 0.319417
0.88127 0.899046 0.416159
0.879164 0.929274 0.502358
0.877363 0.953048 0.57644
0.875837 0.971588 0.644221
0 0.0396735 0
0 0.0425727 0
0 0.0453956 0
0 0.0481575 0
0 0.0493019 0
0.0397955 0.0479438 0
0.0832837 0.0454414 0
0.126864 0.0399329 0
0.175357 0.0279545 0
0.230915 0 0
0.288075 0 0
0.347631 0 0
0.41326 0 0
0.488991 0 0
0.566964 0 0
0.638071 0 0
0.711971 0 0
0.787289 0 0
0.856641 0 0
0.911818 0 0
0.927337 0 0
0.921645 0.157839 0
0.912215 0.330159 0
0.904112 0.46157 0
0.899351 0.576516 0.0324102
0.894774 0.666285 0.0853437
0.890394 0.745388 0.147524
0.886702 0.810101 0.22472
0.883772 0.860075 0.319173
0.881254 0.899321 0.416037
0.879149 0.929412 0.502297
0.877363 0.95314 0.576394
0.875837 0.971633 0.644205
0 0.0726482 0
0 0.0750286 0
0 0.0775006 0
0 0.0794385 0
0 0.080415 0
0.0168917 0.0801099 0
0.0708934 0.0790723 0
0.118639 0.0766918 0
0.169451 0.071931 0
0.226032 0.0627146 0
0.285573 0.0451362 0
0.348775 0 0
0.415274 0 0
0.491096 0 0
0.568505 0 0
0.638956 0 0
0.712657 0 0
0.787564 0 0
0.856474 0 0
0.91133 0 0
0.927062 0 0
0.91989 0.192966 0
0.911192 0.347112 0
0.903487 0.471229 0
0.898878 0.58204 0.0295109
0.894514 0.669612 0.0837415
0.890242 0.747372 0.147036
0.886625 0.811017 0.224628
0.883726 0.860578 0.318929
0.881239 0.899611 0.415885
0.879133 0.92958 0.50222
0.877363 0.953231 0.576349
0.875822 0.971679 0.644175
0 0.108064 0
0 0.110109 0
0 0.112108 0
0 0.113344 0
0 0.114229 0
0 0.114504 0
0.0472267 0.114107 0
0.105974 0.113008 0
0.160662 0.110414 0
0.220127 0.105287 0
0.281422 0.0960098 0
0.345892 0.081178 0
0.415015 0.0538491 0
0.493324 0 0
0.57055 0 0
0.640314 0 0
0.713191 0 0
0.787594 0 0
0.856016 0 0
0.910735 0 0
0.925292 0.0473945 0
0.917998 0.228534 0
0.910079 0.365698 0
0.902754 0.482643 0
0.89836 0.588067 0.0263371
0.894209 0.673365 0.0819409
0.890074 0.749737 0.146426
0.886534 0.812329 0.224552
0.88368 0.861189 0.318654
0.881209 0.899931 0.415702
0.879133 0.929763 0.502144
0.877348 0.953307 0.576303
0.875822 0.971725 0.644144
0 0.149096 0
0 0.150912 0
0 0.152239 0
0 0.153292 0
0 0.153918 0
0 0.154467 0
0 0.154711 0
0.0799878 0.154253 0
0.146166 0.152773 0
0.209751 0.149584 0
0.274464 0.14316 0
0.342321 0.133898 0
0.413397 0.120165 0
0.491905 0.0974899 0
0.570413 0.0507515 0
0.641321 0 0
0.713985 0 0
0.788006 0 0
0.855726 0 0
0.908858 0.00759899 0
0.921782 0.13167 0
0.915709 0.269886 0
0.908614 0.389624 0
0.901747 0.497917 0
0.897536 0.596597 0.0200046
0.893812 0.678325 0.0795453
0.88983 0.752895 0.145632
0.886412 0.814099 0.224445
0.883604 0.862226 0.318212
0.881178 0.900404 0.415457
0.879103 0.930007 0.502022
0.877333 0.95346 0.576226
0.875822 0.971801 0.644114
0 0.197925 0
0 0.199329 0
0 0.20029 0
0 0.201038 0
0 0.201587 0
0 0.202182 0
0 0.202426 0
0.0341192 0.202548 0
0.118425 0.201434 0
0.191409 0.198825 0
0.262089 0.194491 0
0.335058 0.187945 0
0.410346 0.178775 0
0.491188 0.164889 0
0.568093 0.145678 0
0.638025 0.119188 0
0.711574 0.0803998 0
0.787701 0.00596628 0
0.854276 0.0120699 0
0.904036 0.107973 0
0.917617 0.211994 0
0.913069 0.315679 0
0.906874 0.4177 0
0.900511 0.516884 0
0.89633 0.607767 0.0104982
0.893248 0.685466 0.0759136
0.889525 0.757107 0.144564
0.886229 0.816526 0.224277
0.883497 0.86363 0.317586
0.881117 0.901198 0.415091
0.879088 0.930373 0.501854
0.877317 0.953674 0.57612
0.875807 0.971923 0.644038
0 0.253498 0
0 0.254139 0
0 0.254536 0
0 0.254856 0
0 0.255344 0
0 0.255406 0
0 0.25536 0
0 0.255024 0
0.0635538 0.254994 0
0.160739 0.253651 0
0.242023 0.251072 0
0.321828 0.246708 0
0.403311 0.240085 0
0.488624 0.230121 0
0.566186 0.218296 0
0.635462 0.204364 0
0.707408 0.189883 0
0.780438 0.17818 0
0.845899 0.183948 0
0.89662 0.221729 0
0.913344 0.286656 0
0.909972 0.367269 0
0.904677 0.452628 0
0.898985 0.540002 0
0.894667 0.621149 0
0.892454 0.694957 0.0709239
0.889067 0.763027 0.143099
0.886 0.819776 0.224079
0.88336 0.865538 0.316777
0.881041 0.902266 0.414557
0.879042 0.930999 0.501549
0.877302 0.953964 0.575967
0.875792 0.972076 0.643946
0 0.31313 0
0 0.313771 0
0 0.314183 0
0 0.314504 0
0 0.314748 0
0 0.3149 0
0 0.314992 0
0 0.315221 0
0 0.314839 0
0.0969863 0.315068 0
0.208957 0.314092 0
0.299672 0.311543 0
0.389517 0.306905 0
0.481743 0.299962 0
0.562707 0.292256 0
0.633036 0.284077 0
0.704036 0.276982 0
0.775326 0.273625 0
0.8392 0.282506 0
0.888762 0.311482 0
0.908782 0.360464 0
0.906538 0.422995 0
0.90193 0.494972 0
0.897108 0.568353 0
0.892576 0.636744 0
0.891447 0.707332 0.0650492
0.888487 0.770855 0.141146
0.885664 0.824247 0.22388
0.883162 0.868086 0.315663
0.880919 0.903746 0.41384
0.878965 0.931853 0.501152
0.877272 0.954467 0.575677
0.875776 0.97232 0.643839
0 0.383032 0
0 0.383322 0
0 0.383703 0
0 0.384329 0
0 0.384588 0
0 0.384787 0
0 0.38497 0
0 0.385046 0
0 0.38497 0
0 0.385779 0
0.140322 0.385946 0
0.262623 0.385168 0
0.365682 0.382879 0
0.46717 0.378805 0
0.55465 0.373266 0
0.627863 0.367956 0
0.699718 0.36495 0
0.769604 0.365515 0
0.831357 0.375311 0
0.879866 0.398489 0
0.903838 0.434012 0
0.902678 0.483467 0
0.898909 0.54107 0
0.894881 0.601465 0
0.890974 0.659037 0
0.890181 0.722713 0.0584115
0.887724 0.780926 0.138689
0.885237 0.830243 0.223697
0.882902 0.871672 0.315312
0.880781 0.905669 0.412909
0.878889 0.933013 0.500587
0.877211 0.955154 0.57528
0.875746 0.972702 0.64361
0 0.462135 0
0 0.462303 0
0 0.462638 0
0 0.462913 0
0 0.463142 0
0 0.463706 0
0 0.463905 0
0 0.464088 0
0 0.46424 0
0 0.464347 0
0.0279545 0.465583 0
0.191959 0.466972 0
0.326406 0.466392 0
0.441108 0.464347 0
0.538949 0.460899 0
0.61709 0.457404 0
0.692241 0.454994 0
0.762524 0.456046 0
0.822553 0.46424 0
0.869657 0.481971 0
0.898558 0.509865 0
0.898558 0.546426 0
0.895644 0.590082 0
0.892546 0.636027 0
0.889082 0.686107 0
0.888533 0.741848 0.0486
0.886778 0.793317 0.135744
0.884672 0.837949 0.223621
0.882551 0.876448 0.315923
0.880583 0.908385 0.411704
0.878767 0.934554 0.49984
0.87715 0.956085 0.574762
0.875715 0.973251 0.643275
0 0.548608 0
0 0.548669 0
0 0.548898 0
0 0.549111 0
0 0.549279 0
0 0.549462 0
0 0.54963 0
0 0.549828 0
0 0.550286 0
0 0.550362 0
0 0.550271 0
0.0727398 0.551614 0
0.258335 0.552651 0
0.400183 0.55172 0
0.512947 0.549813 0
0.599435 0.547082 0
0.679835 0.544976 0
0.752575 0.545022 0
0.812268 0.550378 0
0.858045 0.562737 0
0.89247 0.581796 0
0.894331 0.608392 0
0.892378 0.638483 0
0.889815 0.675349 0
0.88687 0.717281 0
0.886534 0.764065 0.0364538
0.885634 0.808377 0.132067
0.88397 0.847501 0.223743
0.882109 0.882551 0.316899
0.880308 0.911971 0.410224
0.878614 0.936721 0.498817
0.877058 0.957305 0.574075
0.875654 0.973999 0.642863
0 0.626825 0
0 0.626825 0
0 0.626902 0
0 0.627024 0
0 0.6271 0
0 0.627176 0
0 0.627253 0
0 0.627344 0
0 0.62739 0
0 0.627359 0
0 0.627482 0
0 0.6271 0
0.139208 0.62829 0
0.341344 0.628946 0
0.477287 0.628016 0
0.57499 0.626474 0
0.661418 0.624704 0
0.737926 0.624323 0
0.799344 0.627024 0
0.844831 0.634394 0
0.880552 0.647211 0
0.889799 0.665415 0
0.888823 0.689509 0
0.886748 0.718791 0
0.884382 0.75169 0
0.884123 0.788632 0.0206912
0.884306 0.825711 0.128832
0.883116 0.859342 0.224262
0.881559 0.890074 0.318303
0.879942 0.916945 0.410178
0.878401 0.939635 0.497459
0.876936 0.95906 0.573098
0.875593 0.974975 0.642283
0 0.698329 0
0 0.698329 0
0 0.698329 0
0 0.69839 0
0 0.698421 0
0 0.698466 0
0 0.698466 0
0 0.698497 0
0 0.698466 0
0 0.69836 0
0 0.698116 0
0 0.697902 0
0 0.698436 0
0.237964 0.699336 0
0.428687 0.699672 0
0.543954 0.698344 0
0.636744 0.696651 0
0.717754 0.695537 0
0.781445 0.697017 0
0.829038 0.702007 0
0.864683 0.711116 0
0.88426 0.724651 0
0.885039 0.741939 0
0.883543 0.762966 0
0.881788 0.786954 0
0.881148 0.814176 0.00102235
0.882856 0.844877 0.12607
0.882124 0.873045 0.226215
0.880903 0.899184 0.320455
0.87953 0.922621 0.412207
0.878126 0.943374 0.496681
0.876768 0.961379 0.571801
0.875486 0.976349 0.641459
0 0.769268 0
0 0.769268 0
0 0.769268 0
0 0.769268 0
0 0.769253 0
0 0.769238 0
0 0.769207 0
0 0.769146 0
0 0.769024 0
0 0.76878 0
0 0.768399 0
0 0.767727 0
0 0.766934 0
0.122652 0.768338 0
0.361532 0.769253 0
0.507973 0.768627 0
0.607431 0.766705 0
0.692546 0.765042 0
0.759548 0.764721 0
0.809934 0.766918 0
0.847684 0.771817 0
0.874769 0.77995 0
0.881025 0.791196 0
0.880446 0.805035 0
0.87924 0.821378 0
0.877989 0.839841 0
0.881315 0.86569 0.125994
0.881025 0.888258 0.229999
0.880156 0.90959 0.324208
0.879026 0.929671 0.41503
0.877775 0.947967 0.496803
0.876554 0.96434 0.570443
0.875364 0.978195 0.640314
0 0.830045 0
0 0.830045 0
0 0.830045 0
0 0.830045 0
0 0.830045 0
0 0.829999 0
0 0.829908 0
0 0.82977 0
0 0.829511 0
0 0.829114 0
0 0.828565 0
0 0.827665 0
0 0.826413 0
0.0231022 0.826841 0
0.28893 0.828199 0
0.472435 0.827741 0
0.581659 0.825772 0
0.668971 0.823636 0
0.737652 0.822187 0
0.790784 0.822095 0
0.830747 0.823941 0
0.8598 0.827939 0
0.876493 0.834165 0
0.877607 0.842817 0
0.876814 0.85362 0
0.876692 0.867506 0
0.879835 0.887068 0.132631
0.879896 0.904418 0.236667
0.879301 0.921462 0.329809
0.878416 0.937926 0.419425
0.877363 0.953658 0.499275
0.87628 0.967971 0.569116
0.875196 0.98056 0.638911
0 0.877134 0
0 0.877134 0
0 0.877134 0
0 0.877134 0
0 0.877134 0
0 0.877134 0
0 0.877134 0
0 0.876966 0
0 0.876646 0
0 0.876097 0
0 0.875334 0
0 0.874311 0
0 0.872892 0
0 0.873121 0
0.233524 0.873854 0
0.44918 0.874037 0
0.564157 0.872129 0
0.651362 0.869673 0
0.71957 0.867735 0
0.77322 0.86659 0
0.815167 0.866606 0
0.845869 0.868269 0
0.869322 0.87155 0
0.874708 0.8766 0
0.874571 0.883421 0
0.8766 0.895018 0.0298466
0.878523 0.908186 0.148363
0.878752 0.920974 0.246967
0.878416 0.933974 0.337987
0.877745 0.947204 0.425483
0.876875 0.96025 0.50312
0.875944 0.972412 0.571603
0.874983 0.98349 0.637247
0 0.914504 0
0 0.914504 0
0 0.914504 0
0 0.914504 0
0 0.914504 0
0 0.914504 0
0 0.914504 0
0 0.914504 0
0 0.914336 0
0 0.913741 0
0 0.912764 0
0 0.911574 0
0 0.910124 0
0 0.910369 0
0.237583 0.911284 0
0.443046 0.911299 0
0.555932 0.909575 0
0.639963 0.907179 0
0.70605 0.90457 0
0.758907 0.902907 0
0.801038 0.901991 0
0.833051 0.902052 0
0.857984 0.903288 0
0.871504 0.90573 0
0.872557 0.909865 0
0.875929 0.919264 0.064744
0.877348 0.928206 0.170184
0.877668 0.937301 0.262867
0.877501 0.946975 0.349233
0.877012 0.957275 0.433814
0.876341 0.967575 0.508232
0.875563 0.9776 0.575692
0.874708 0.987091 0.638941
0 0.941939 0
0 0.941939 0
0 0.941939 0
0 0.941939 0
0 0.941939 0
0 0.941939 0
0 0.941939 0
0 0.941939 0
0 0.941939 0
0 0.941909 0
0 0.940871 0
0 0.939483 0
0 0.937881 0
0 0.936996 0
0.288502 0.939986 0
0.456931 0.939574 0
0.558877 0.937774 0
0.636439 0.935561 0
0.698421 0.933349 0
0.749142 0.931395 0
0.790066 0.930037 0
0.822217 0.92932 0
0.848066 0.929305 0
0.867765 0.930297 0
0.870939 0.932494 0
0.875242 0.940734 0.103563
0.876326 0.946777 0.199725
0.876646 0.95314 0.284489
0.8766 0.960113 0.36556
0.876265 0.967575 0.444739
0.875761 0.975464 0.515267
0.87512 0.983429 0.581125
0.874388 0.991257 0.642298
0 0.962798 0
0 0.962798 0
0 0.962798 0
0 0.962798 0
0 0.962798 0
0 0.962798 0
0 0.962798 0
0 0.962798 0
0 0.962798 0
0 0.962798 0
0 0.962798 0
0 0.96144 0
0 0.959869 0
0.0737621 0.961059 0
0.354711 0.962951 0
0.48603 0.962097 0
0.570474 0.960327 0
0.639139 0.958236 0
0.695628 0.956146 0
0.743175 0.954284 0
0.781994 0.952728 0
0.813291 0.951675 0
0.839094 0.95108 0
0.859571 0.951293 0
0.872251 0.956298 0.0653239
0.874754 0.960052 0.158175
0.875456 0.963714 0.237201
0.875731 0.967834 0.312352
0.875746 0.972549 0.387228
0.875532 0.977844 0.459663
0.875151 0.983627 0.524758
0.874632 0.989746 0.588373
0.874037 0.995895 0.646998
0 0.978668 0
0 0.978668 0
0 0.978668 0
0 0.978668 0
0 0.978668 0
0 0.978668 0
0 0.978668 0
0 0.978668 0
0 0.978668 0
0 0.978668 0
0 0.978668 0
0 0.978668 0
0 0.977111 0
0.2748 0.981094 0
0.426001 0.981018 0
0.520272 0.979889 0
0.589471 0.97818 0
0.64799 0.976287 0
0.697993 0.97438 0
0.740978 0.972549 0
0.776944 0.971084 0
0.806958 0.969879 0
0.832044 0.969055 0
0.855619 0.972412 0.0531319
0.871595 0.97464 0.13933
0.87422 0.97644 0.212802
0.874708 0.978485 0.280949
0.874937 0.981018 0.346319
0.874952 0.9841 0.413886
0.874815 0.987762 0.478508
0.87454 0.991867 0.537758
0.874144 0.996246 0.597574
0.87364 1 0.653178
0.237049 0.99556 0
0.237049 0.99556 0
0.237049 0.99556 0
0.237049 0.99556 0
0.237034 0.99556 0
0.237034 0.99556 0
0.237034 0.99556 0
0.237034 0.99556 0
0.237018 0.99556 0
0.237003 0.99556 0
0.237003 0.99556 0
0.236957 0.99556 0
0.236927 0.99556 0
0.381109 0.995911 0
0.490043 0.995163 0
0.556985 0.99382 0
0.613275 0.992264 0
0.661646 0.990585 0
0.704921 0.988876 0
0.742794 0.987243 0
0.777203 0.988052 0.0159915
0.806561 0.988724 0.0646677
0.831296 0.9888 0.105638
0.851682 0.989151 0.155261
0.868391 0.989685 0.211246
0.873396 0.990356 0.269383
0.874052 0.991379 0.32755
0.87422 0.992782 0.386923
0.874235 0.994659 0.444968
0.874144 0.996963 0.501259
0.873945 0.99968 0.554391
0.87364 1 0.609812
0.873243 1 0.660868
0.48426 1 0.131914
0.48426 1 0.131914
0.48426 1 0.131914
0.48426 1 0.131914
0.48426 1 0.131914
0.48426 1 0.131914
0.48426 1 0.131914
0.48426 1 0.131914
0.48426 1 0.131914
0.48426 1 0.131914
0.48426 1 0.131914
0.48426 1 0.131914
0.484245 1 0.131914
0.48423 1 0.131914
0.541176 1 0.135744
0.598154 1 0.140948
0.643519 1 0.146731
0.683619 1 0.153475
0.720424 1 0.162142
0.752758 1 0.172717
0.781674 1 0.185962
0.80708 1 0.202335
0.829236 1 0.222827
0.848051 1 0.24712
0.86389 1 0.283665
0.872297 1 0.328099
0.873472 1 0.377981
0.873594 1 0.429587
0.87361 1 0.479652
0.873549 1 0.526299
0.873396 1 0.57528
0.873152 1 0.624811
0.872847 1 0.670893
0.594049 1 0.26685
0.594049 1 0.26685
0.594049 1 0.26685
0.594049 1 0.26685
0.594049 1 0.26685
0.594049 1 0.26685
0.594049 1 0.26685
0.594049 1 0.26685
0.594049 1 0.26685
0.594049 1 0.26685
0.594049 1 0.26685
0.594049 1 0.26685
0.594034 1 0.26685
0.594034 1 0.26685
0.594156 1 0.266865
0.630198 1 0.269642
0.669978 1 0.273594
0.703731 1 0.27808
0.733837 1 0.283391
0.760845 1 0.290303
0.785702 1 0.298894
0.808316 1 0.309194
0.828199 1 0.32221
0.845502 1 0.338979
0.860349 1 0.359548
0.871244 1 0.391882
0.872984 1 0.431022
0.87306 1 0.473014
0.873075 1 0.514275
0.873014 1 0.556146
0.872892 1 0.599786
0.872694 1 0.642771
0.87245 1 0.682887
0.666804 1 0.377752
0.666804 1 0.377752
0.666804 1 0.377752
0.666804 1 0.377752
0.666804 1 0.377752
0.666804 1 0.377752
0.666804 1 0.377752
0.666804 1 0.377752
0.666789 1 0.377752
0.666789 1 0.377752
0.666789 1 0.377752
0.666789 1 0.377752
0.666789 1 0.377752
0.666789 1 0.377752
0.666773 1 0.377752
0.66688 1 0.377752
0.693187 1 0.380148
0.723003 1 0.383658
0.747616 1 0.38761
0.769802 1 0.392294
0.791211 1 0.398291
0.810712 1 0.405707
0.82826 1 0.414969
0.843946 1 0.42652
0.857603 1 0.441093
0.868986 1 0.458488
0.872297 1 0.485008
0.872587 1 0.515816
0.872602 1 0.550759
0.872541 1 0.588785
0.872435 1 0.626688
0.872282 1 0.663127
0.872099 1 0.696941
0.720058 1 0.473747
0.720058 1 0.473747
0.720058 1 0.473747
0.720058 1 0.473747
0.720058 1 0.473747
0.720058 1 0.473747
0.720058 1 0.473747
0.720058 1 0.473747
0.720058 1 0.473747
