BBLuts/BB_102_0170_LUT.cube
TITLE "Generated by Resolve"
LUT_3D_SIZE 33
0.00502022 0.00601205 0.00225834
0.00502022 0.00601205 0.00225834
0.00502022 0.00601205 0.00225834
0.00502022 0.00601205 0.00225834
0.00502022 0.00601205 0.00225834
0.0528725 0.0049897 0.00117494
0.109438 0.00387579 0.00015259
0.150896 0.00308232 0
0.192767 0.00228885 0
0.242557 0.00135805 0
0.300328 0.000289921 0
0.363806 0 0
0.435035 0 0
0.515282 0 0
0.592569 0 0
0.667567 0 0
0.745312 0 0
0.823972 0 0
0.895979 0 0
0.952712 0 0
0.963195 0 0
0.963195 0 0
0.956985 0.172091 0.0210117
0.945434 0.380316 0.0533455
0.936477 0.527932 0.0883955
0.929778 0.637491 0.131334
0.924208 0.727459 0.187549
0.919326 0.805188 0.270405
0.915389 0.865156 0.367514
0.912093 0.911849 0.462257
0.909468 0.947265 0.54139
0.907301 0.974304 0.617304
0.905455 0.995895 0.685069
0.00502022 0.00601205 0.00225834
0.00502022 0.00601205 0.00225834
0.00502022 0.00601205 0.00225834
0.00502022 0.00601205 0.00225834
0.00502022 0.00601205 0.00225834
0.0641947 0.00477607 0.000946059
0.113405 0.0037995 9.15541e-05
0.154177 0.00302129 0
0.197971 0.00218204 0
0.248615 0.00125124 0
0.306432 0.000183108 0
0.3691 0 0
0.4383 0 0
0.51725 0 0
0.593927 0 0
0.668544 0 0
0.745922 0 0
0.824247 0 0
0.895888 0 0
0.952346 0 0
0.963195 0 0
0.963195 0 0
0.954421 0.210742 0.0107729
0.944259 0.396902 0.0489815
0.93579 0.537469 0.0858625
0.929397 0.64268 0.129854
0.923934 0.731106 0.185824
0.919158 0.807401 0.269429
0.915297 0.866423 0.366934
0.912047 0.912596 0.461952
0.909438 0.947677 0.541238
0.907286 0.974563 0.617212
0.90544 0.996048 0.685008
0.00502022 0.00601205 0.00225834
0.00502022 0.00601205 0.00225834
0.00502022 0.00601205 0.00225834
0.00502022 0.00601205 0.00225834
0.00502022 0.00601205 0.00225834
0.0709392 0.00463874 0.000823987
0.114778 0.00378424 6.10361e-05
0.157305 0.00296025 0
0.203403 0.00209049 0
0.254246 0.00114443 0
0.31107 0.000106813 0
0.371939 0 0
0.441032 0 0
0.519341 0 0
0.595331 0 0
0.669505 0 0
0.746517 0 0
0.824521 0 0
0.895766 0 0
0.951949 0 0
0.963195 0 0
0.963195 0 0
0.951522 0.241733 0
0.94313 0.412253 0.0441749
0.935134 0.546578 0.0832685
0.92903 0.647761 0.128344
0.923674 0.734676 0.184146
0.919005 0.809567 0.268421
0.915206 0.867658 0.366384
0.911986 0.913344 0.461646
0.909407 0.948104 0.54107
0.907256 0.974807 0.617105
0.905425 0.996201 0.684932
0.00502022 0.00601205 0.00225834
0.00502022 0.00601205 0.00225834
0.00502022 0.00601205 0.00225834
0.00450141 0.0115969 0.00221256
0.0266423 0.0162356 0.00163272
0.0761273 0.00453193 0.000732433
0.115419 0.00376898 4.57771e-05
0.15758 0.00294499 0
0.204318 0.00207523 0
0.256519 0.00109865 0
0.314076 4.57771e-05 0
0.374517 0 0
0.443671 0 0
0.521447 0 0
0.59675 0 0
0.670497 0 0
0.747112 0 0
0.824765 0 0
0.895628 0 0
0.951522 0 0
0.963195 0 0
0.963195 0 0
0.949859 0.269688 0
0.942031 0.426825 0.0388037
0.934493 0.555276 0.0806134
0.928664 0.65275 0.126833
0.923415 0.738155 0.183368
0.918837 0.811704 0.26743
0.915114 0.868894 0.365805
0.91194 0.914092 0.461357
0.909377 0.948516 0.540902
0.90724 0.975082 0.616983
0.905409 0.996353 0.684886
0 0.0591287 0.00183108
0 0.0621805 0.00180056
0 0.0651408 0.00178531
0 0.0680095 0.00175479
0 0.0691234 0.00175479
0.0631571 0.0677653 0.000579843
0.106508 0.0650034 3.0518e-05
0.151232 0.0589456 0
0.200961 0.0455482 0
0.257542 0.00108339 0
0.315816 1.5259e-05 0
0.376822 0 0
0.44622 0 0
0.523583 0 0
0.598199 0 0
0.671489 0 0
0.747707 0 0
0.824994 0 0
0.895491 0 0
0.951095 0 0
0.963195 0 0
0.961547 0.042649 0
0.948348 0.294591 0
0.940932 0.440696 0.0326085
0.933867 0.563607 0.0778668
0.928313 0.657649 0.125322
0.923171 0.741573 0.182589
0.918685 0.813794 0.266468
0.915022 0.8701 0.36524
0.911879 0.914824 0.461051
0.909346 0.948928 0.540734
0.907225 0.975326 0.616892
0.905409 0.996521 0.68481
0 0.0931716 0.0015259
0 0.0956588 0.00151064
0 0.0981003 0.00148013
0 0.100038 0.00146487
0 0.100969 0.00146487
0.0411231 0.100557 0.000564584
0.0962997 0.0993668 0
0.144091 0.0966964 0
0.19556 0.0913405 0
0.252888 0.0811322 0
0.313726 0.0614023 0
0.378851 0 0
0.448814 0 0
0.525841 0 0
0.599741 0 0
0.672557 0 0
0.748318 0 0
0.825223 0 0
0.895323 0 0
0.950622 0 0
0.963195 0 0
0.957351 0.136263 0
0.946899 0.318029 0
0.939757 0.454459 0.0247196
0.933242 0.571969 0.0749065
0.927947 0.662669 0.12372
0.922911 0.745068 0.181781
0.918532 0.815946 0.265431
0.914931 0.871351 0.364645
0.911833 0.915572 0.460761
0.909316 0.949355 0.540566
0.90721 0.975601 0.61677
0.905394 0.996689 0.684749
0 0.129686 0.00117494
0 0.131792 0.00115969
0 0.133883 0.00114443
0 0.135058 0.00112917
0 0.135805 0.00112917
0 0.13608 0.00111391
0.0774548 0.135378 0
0.133013 0.134035 0
0.187945 0.131121 0
0.247852 0.125597 0
0.309987 0.115496 0
0.375723 0.0992447 0
0.449073 0.0682841 0
0.528725 0 0
0.601755 0 0
0.67393 0 0
0.749111 0 0
0.825528 0 0
0.895079 0 0
0.949981 0 0
0.963195 0 0
0.954147 0.196094 0
0.94519 0.345357 0
0.937972 0.471092 0.00854505
0.932464 0.582238 0.0709697
0.927474 0.668986 0.12166
0.922591 0.749477 0.180774
0.918318 0.818662 0.264134
0.914809 0.872953 0.363897
0.911757 0.916533 0.460349
0.90927 0.949905 0.540368
0.907179 0.975952 0.616617
0.905379 0.996872 0.684657
0 0.17171 0.00077821
0 0.173571 0.000762951
0 0.17496 0.000747692
0 0.175875 0.000732433
0 0.176532 0.000732433
0 0.176898 0.000732433
0.020676 0.176745 4.57771e-05
0.113069 0.176181 0
0.175311 0.17464 0
0.238636 0.170901 0
0.303731 0.164019 0
0.372869 0.154116 0
0.448112 0.139269 0
0.52668 0.113985 0
0.601495 0.0602274 0
0.675792 0 0
0.750195 0 0
0.825925 0 0
0.894743 0 0
0.949096 0 0
0.959609 0.0895705 0
0.950881 0.252583 0
0.94313 0.377691 0
0.935622 0.491859 0
0.931472 0.595102 0.0654307
0.926863 0.67715 0.118914
0.922179 0.755123 0.179477
0.918059 0.822156 0.262409
0.914656 0.875013 0.362921
0.911665 0.9178 0.459831
0.909224 0.950622 0.540078
0.907149 0.976394 0.616434
0.905364 0.997162 0.68455
0 0.221454 0.000320439
0 0.222889 0.00030518
0 0.223682 0.00030518
0 0.224491 0.000289921
0 0.225055 0.000289921
0 0.225437 0.000289921
0 0.225681 0.000274662
0.0687266 0.225467 0
0.152163 0.223835 0
0.22237 0.220874 0
0.292683 0.216236 0
0.366629 0.209384 0
0.446128 0.199405 0
0.526101 0.184527 0
0.598718 0.16376 0
0.671489 0.134035 0
0.747723 0.0875715 0
0.826444 0 0
0.89424 0 0
0.943832 0.0972457 0
0.953613 0.205402 0
0.947372 0.310506 0
0.940703 0.415152 0
0.933883 0.517601 0
0.93019 0.610971 0.0574197
0.926085 0.687541 0.115221
0.921645 0.76231 0.177813
0.917723 0.826627 0.260166
0.914458 0.877699 0.361608
0.911543 0.919432 0.459144
0.909148 0.951568 0.539696
0.907103 0.976989 0.616175
0.905333 0.997513 0.684382
0 0.277867 0
0 0.278309 0
0 0.278737 0
0 0.279103 0
0 0.279316 0
0 0.279377 0
0 0.279271 0
0 0.278874 0
0.10837 0.278157 0
0.196384 0.276524 0
0.274784 0.273548 0
0.355093 0.268803 0
0.440253 0.26157 0
0.524468 0.250965 0
0.597498 0.238483 0
0.669032 0.223438 0
0.74287 0.206561 0
0.817655 0.191302 0
0.884215 0.193591 0
0.934981 0.228565 0
0.948562 0.291142 0
0.943542 0.371252 0
0.937865 0.45832 0
0.931884 0.547112 0
0.928695 0.628168 0.0450599
0.925078 0.700679 0.110307
0.920974 0.771359 0.175738
0.917296 0.832273 0.257237
0.914214 0.881117 0.359899
0.911391 0.921523 0.458244
0.909056 0.952789 0.539193
0.907057 0.977752 0.615839
0.905303 0.997971 0.684184
0 0.338643 0
0 0.339086 0
0 0.339529 0
0 0.339849 0
0 0.340093 0
0 0.34023 0
0 0.340291 0
0 0.340185 0
0 0.339712 0
0.151278 0.339345 0
0.246174 0.337758 0
0.335317 0.334722 0
0.427848 0.329595 0
0.519249 0.32224 0
0.594995 0.313726 0
0.666865 0.30486 0
0.739376 0.296742 0
0.812131 0.291691 0
0.876616 0.298543 0
0.92639 0.325719 0
0.94342 0.373159 0
0.939406 0.435004 0
0.934524 0.508049 0
0.92961 0.580514 0
0.926482 0.648539 0.021149
0.923812 0.717098 0.103639
0.92015 0.782559 0.173159
0.916762 0.839307 0.253422
0.913893 0.885481 0.357687
0.911192 0.924208 0.457053
0.908949 0.95436 0.538552
0.906981 0.978744 0.615396
0.905257 0.998581 0.683925
0 0.41004 0
0 0.410452 0
0 0.410834 0
0 0.411154 0
0 0.411383 0
0 0.411566 0
0 0.411719 0
0 0.41178 0
0 0.411627 0
0.0177768 0.411383 0
0.196521 0.411353 0
0.302785 0.409857 0
0.405753 0.407065 0
0.506905 0.402609 0
0.587854 0.396902 0
0.662531 0.391211 0
0.73521 0.387289 0
0.806134 0.387167 0
0.868208 0.396262 0
0.91664 0.418204 0
0.93814 0.454002 0
0.934829 0.503548 0
0.93106 0.559258 0
0.927092 0.617334 0
0.923232 0.672923 0
0.922255 0.73698 0.0948043
0.919142 0.796155 0.170092
0.916136 0.847898 0.252766
0.913481 0.890959 0.354803
0.910948 0.927611 0.455497
0.908797 0.95639 0.537682
0.906889 0.980056 0.614816
0.905196 0.999359 0.683574
0 0.494347 0
0 0.494728 0
0 0.495064 0
0 0.495338 0
0 0.495567 0
0 0.495766 0
0 0.495933 0
0 0.496086 0
0 0.496223 0
0 0.49633 0
0.0766461 0.496986 0
0.247211 0.49749 0
0.369787 0.496498 0
0.483986 0.493858 0
0.57319 0.489952 0
0.652506 0.485817 0
0.728252 0.483055 0
0.79881 0.483803 0
0.858763 0.491676 0
0.905608 0.508949 0
0.932692 0.535225 0
0.930327 0.570108 0
0.927459 0.611887 0
0.924529 0.654505 0
0.92105 0.703807 0
0.920363 0.760128 0.083299
0.917937 0.812238 0.166613
0.915389 0.858167 0.252323
0.912978 0.897734 0.351064
0.910643 0.931853 0.453468
0.908614 0.958984 0.536553
0.906767 0.981704 0.614054
0.905135 1 0.683101
0 0.580743 0
0 0.581018 0
0 0.581247 0
0 0.58143 0
0 0.581598 0
0 0.58175 0
0 0.581918 0
0 0.582071 0
0 0.582177 0
0 0.582208 0
0 0.582071 0
0.139803 0.582696 0
0.315404 0.582742 0
0.449638 0.581506 0
0.551232 0.579171 0
0.636301 0.576257 0
0.716945 0.573877 0
0.789563 0.573861 0
0.848386 0.57908 0
0.89369 0.59086 0
0.927642 0.609262 0
0.926101 0.631785 0
0.924056 0.661295 0
0.921508 0.697383 0
0.918517 0.739254 0
0.918166 0.786236 0.0684367
0.916564 0.830671 0.163027
0.914504 0.870298 0.252201
0.912367 0.905913 0.346868
0.910262 0.937026 0.450828
0.90837 0.962249 0.535088
0.906615 0.983795 0.613046
0.905043 1 0.68249
0 0.656199 0
0 0.656336 0
0 0.656458 0
0 0.65655 0
0 0.656626 0
0 0.656703 0
0 0.656764 0
0 0.656809 0
0 0.656825 0
0 0.656779 0
0 0.656596 0
0 0.656123 0
0.230091 0.656764 0
0.400717 0.656443 0
0.523247 0.655207 0
0.614023 0.653223 0
0.700298 0.651194 0
0.77641 0.650553 0
0.836194 0.653468 0
0.880705 0.661112 0
0.916045 0.673655 0
0.92192 0.691661 0
0.920226 0.715419 0
0.918135 0.744472 0
0.91577 0.777142 0
0.915618 0.814404 0.0493629
0.915038 0.851011 0.15996
0.913481 0.884428 0.252628
0.911635 0.915938 0.348318
0.909804 0.943236 0.44741
0.90808 0.966293 0.53315
0.906432 0.98645 0.611719
0.904921 1 0.681682
0 0.73022 0
0 0.730297 0
0 0.730327 0
0 0.730373 0
0 0.730388 0
0 0.730404 0
0 0.730419 0
0 0.730388 0
0 0.730327 0
0 0.730175 0
0 0.729885 0
0 0.729335 0
0.0249943 0.728832 0
0.331807 0.729717 0
0.483238 0.729061 0
0.58558 0.727504 0
0.677272 0.725551 0
0.757244 0.724392 0
0.819333 0.725872 0
0.864881 0.731075 0
0.899855 0.740322 0
0.917479 0.753689 0
0.916228 0.770901 0
0.914717 0.791745 0
0.912963 0.815625 0
0.912703 0.843168 0.0246128
0.913436 0.872633 0.158419
0.912322 0.900359 0.254154
0.910826 0.927031 0.350668
0.90927 0.950454 0.443976
0.907729 0.971237 0.530663
0.906188 0.989715 0.609979
0.904784 1 0.680629
0 0.803433 0
0 0.803418 0
0 0.803418 0
0 0.803388 0
0 0.803357 0
0 0.803311 0
0 0.80325 0
0 0.803159 0
0 0.802976 0
0 0.802716 0
0 0.802274 0
0 0.801556 0
0 0.800443 0
0.235111 0.801282 0
0.433188 0.801129 0
0.553506 0.799786 0
0.650172 0.797742 0
0.733181 0.795972 0
0.798016 0.795773 0
0.846174 0.798016 0
0.882658 0.803082 0
0.909041 0.811353 0
0.912459 0.822446 0
0.911437 0.836225 0
0.910246 0.852338 0
0.908904 0.87039 0
0.911772 0.895537 0.159396
0.911055 0.917983 0.257557
0.909941 0.939254 0.354391
0.90866 0.958785 0.446983
0.907301 0.977127 0.527398
0.905913 0.993667 0.607721
0.904601 1 0.679255
0 0.866072 0
0 0.865995 0
0 0.865919 0
0 0.865827 0
0 0.865736 0
0 0.865644 0
0 0.865507 0
0 0.865309 0
0 0.865019 0
0 0.864622 0
0 0.863981 0
0 0.863066 0
0 0.861753 0
0.121859 0.861631 0
0.386313 0.862058 0
0.526802 0.860746 0
0.626978 0.858488 0
0.710735 0.856199 0
0.776806 0.854795 0
0.827451 0.85481 0
0.866011 0.856687 0
0.893904 0.860792 0
0.909163 0.867048 0
0.908522 0.875502 0
0.907729 0.886229 0
0.907454 0.899733 0.00308232
0.910094 0.919127 0.164782
0.909773 0.935836 0.263935
0.90901 0.952163 0.360204
0.907973 0.968277 0.451209
0.906798 0.983932 0.527306
0.905577 0.998337 0.604776
0.904372 1 0.67744
0 0.914809 0
0 0.914687 0
0 0.914565 0
0 0.914443 0
0 0.914305 0
0 0.914153 0
0 0.91397 0
0 0.913695 0
0 0.913314 0
0 0.912779 0
0 0.912016 0
0 0.910994 0
0 0.90959 0
0.0564126 0.908949 0
0.364599 0.909758 0
0.513481 0.908507 0
0.612757 0.906203 0
0.694591 0.903731 0
0.75903 0.901793 0
0.810803 0.900343 0
0.850736 0.90045 0
0.88014 0.902525 0
0.902968 0.905882 0
0.905882 0.910948 0
0.905364 0.917739 0
0.907118 0.928832 0.0472419
0.908583 0.94139 0.176791
0.908553 0.953277 0.274556
0.908034 0.965759 0.368826
0.907195 0.978698 0.457115
0.906233 0.991577 0.531258
0.905196 1 0.602182
0.904112 1 0.675059
0 0.952804 0
0 0.952636 0
0 0.952483 0
0 0.9523 0
0 0.952132 0
0 0.951965 0
0 0.951705 0
0 0.951385 0
0 0.950927 0
0 0.950317 0
0 0.949523 0
0 0.948455 0
0 0.947036 0
0.12723 0.947143 0
0.376608 0.947555 0
0.514412 0.946273 0
0.607996 0.94403 0
0.685008 0.941604 0
0.746365 0.939483 0
0.796933 0.93785 0
0.836912 0.936996 0
0.867536 0.937163 0
0.891691 0.938399 0
0.903624 0.940887 0
0.903334 0.944595 0
0.906325 0.953536 0.0895399
0.907301 0.961791 0.197147
0.907378 0.970428 0.290379
0.907027 0.979797 0.381094
0.906386 0.989715 0.465248
0.905608 0.999832 0.53669
0.904738 1 0.606394
0.903807 1 0.671916
0 0.980926 0
0 0.980728 0
0 0.980545 0
0 0.980346 0
0 0.980148 0
0 0.97995 0
0 0.97969 0
0 0.979324 0
0 0.978866 0
0 0.978256 0
0 0.977432 0
0 0.976364 0
0 0.97496 0
0.250614 0.976593 0
0.422202 0.976303 0
0.531777 0.974868 0
0.614145 0.972763 0
0.683345 0.970459 0
0.739879 0.968353 0
0.787884 0.966522 0
0.826291 0.965209 0
0.857023 0.964553 0
0.881971 0.964614 0
0.900999 0.965621 0
0.90161 0.967529 0
0.905501 0.975479 0.135515
0.906142 0.980957 0.226246
0.906249 0.986954 0.312154
0.906035 0.993622 0.397696
0.905562 1 0.47628
0.904967 1 0.544091
0.90425 1 0.611978
0.903441 1 0.6748
0 1 0
0 1 0
0 1 0
0 1 0
0 1 0
0 1 0
0 1 0
0 1 0
0 1 0
0 0.999649 0
0 0.998856 0
0 0.997833 0
0.22446 0.999741 0
0.373037 0.999786 0
0.482826 0.998993 0
0.5608 0.997482 0
0.628977 0.995575 0
0.688014 0.993561 0
0.738628 0.991592 0
0.782788 0.989776 0
0.818631 0.988342 0
0.848371 0.987335 0
0.873228 0.986786 0
0.89276 0.986893 0
0.903532 0.991684 0.0931716
0.904707 0.994919 0.185809
0.905135 0.99826 0.264332
0.905241 1 0.340978
0.905104 1 0.418982
0.904768 1 0.490959
0.904311 1 0.554025
0.903716 1 0.619364
0.903044 1 0.67953
0 1 0
0 1 0
0 1 0
0 1 0
0 1 0
0 1 0
0 1 0
0 1 0
0 1 0
0.118853 1 0
0.230869 1 0
0.322286 1 0
0.407294 1 0
0.480842 1 0
0.54078 1 0
0.59736 1 0
0.650492 1 0
0.698482 1 0
0.742443 1 0
0.781659 1 0
0.814206 1 0
0.842329 1 0
0.866194 1 0
0.888838 1 0.0817273
0.903365 1 0.168063
0.903975 1 0.240131
0.90428 1 0.309056
0.904356 1 0.377722
0.90425 1 0.445304
0.904005 1 0.50782
0.903639 1 0.567193
0.903166 1 0.628977
0.902617 1 0.685725
0.253178 1 0
0.270802 1 0
0.287221 1 0
0.302419 1 0
0.316609 1 0
0.330663 1 0
0.347799 1 0
0.369162 1 0
0.394965 1 0
0.423697 1 0
0.455283 1 0
0.48957 1 0
0.522744 1 0
0.558938 1 0
0.597513 1 0
0.63711 1 0
0.67602 1 0
0.714229 1 0
0.750744 1 0
0.784146 1 0
0.815305 1 0.0446174
0.842237 1 0.0903029
0.865248 1 0.129732
0.884459 1 0.181399
0.900404 1 0.238575
0.903319 1 0.297795
0.903502 1 0.357885
0.903548 1 0.41912
0.903456 1 0.476402
0.903288 1 0.529107
0.902998 1 0.584314
0.902617 1 0.641276
0.902174 1 0.69366
0.506233 1 0.150072
0.510491 1 0.150317
0.514656 1 0.150561
0.518883 1 0.150805
0.523033 1 0.151049
0.527276 1 0.151308
0.532616 1 0.151644
0.539422 1 0.152087
0.548058 1 0.152651
0.558862 1 0.153414
0.572213 1 0.154391
0.588357 1 0.155673
0.607446 1 0.157366
0.629419 1 0.159579
0.653834 1 0.162448
0.680308 1 0.166217
0.708751 1 0.17113
0.738155 1 0.177478
0.767407 1 0.185672
0.794308 1 0.196185
0.819455 1 0.209552
0.842695 1 0.226337
0.863203 1 0.247013
0.880812 1 0.272129
0.895796 1 0.31107
0.902708 1 0.358511
0.902815 1 0.410712
0.902831 1 0.461448
0.90277 1 0.509133
0.902632 1 0.55555
0.902403 1 0.605875
0.902113 1 0.65658
0.901747 1 0.703639
0.617334 1 0.28806
0.619516 1 0.288197
0.621683 1 0.28835
0.623804 1 0.288472
0.625895 1 0.288624
0.628061 1 0.288762
0.630762 1 0.28896
0.634287 1 0.289219
0.638788 1 0.289555
0.644495 1 0.289998
0.651667 1 0.290562
0.660594 1 0.291341
0.671611 1 0.292332
0.684916 1 0.293675
0.700618 1 0.295399
0.7187 1 0.297704
0.73872 1 0.300679
0.760006 1 0.304524
0.781857 1 0.30956
0.803159 1 0.316136
0.824262 1 0.324666
0.844266 1 0.335637
0.862287 1 0.349676
0.87834 1 0.36759
0.892287 1 0.389899
0.902159 1 0.423453
0.902205 1 0.462913
0.90222 1 0.503655
0.902159 1 0.54345
0.902052 1 0.586511
0.901854 1 0.631144
0.901625 1 0.674876
0.901335 1 0.715755
0.691737 1 0.404379
0.692927 1 0.404471
0.694102 1 0.404578
0.695277 1 0.404654
0.696437 1 0.404746
0.697627 1 0.404852
0.699153 1 0.404974
0.701137 1 0.405127
0.703731 1 0.405341
0.707057 1 0.405646
0.711315 1 0.406012
0.716701 1 0.4065
0.72343 1 0.407172
0.731701 1 0.408042
0.741665 1 0.409171
0.753323 1 0.410651
0.766857 1 0.412619
0.781262 1 0.415183
0.796948 1 0.418509
0.813596 1 0.422858
0.83061 1 0.428489
0.847211 1 0.435706
0.862654 1 0.444892
0.876936 1 0.456458
0.889601 1 0.470848
0.900236 1 0.488502
0.901686 1 0.513466
0.901686 1 0.545098
0.901625 1 0.581201
0.901518 1 0.620157
0.901366 1 0.658747
0.901167 1 0.695644
0.900954 1 0.7299
0.74609 1 0.499779
0.746746 1 0.49984
0.747402 1 0.499886
0.748058 1 0.499931
0.748699 1 0.499977
0.749371 1 0.500023
0.750225 1 0.500114
0.751339 1 0.500191
0.752804 1 0.500313
