BBLuts/BB_102_0260_LUT.cube
TITLE "Generated by Resolve"
LUT_3D_SIZE 5
0 0 0
0.231205 0 0
0.882872 0 0
1 0.601053 0.0733959
1 1 0.72311
0 0.243137 0
0.184146 0.242069 0
0.882307 0.122484 0
1 0.653498 0.0128328
1 1 0.722835
0.0191653 0.853483 0
0.0190433 0.852033 0
0.830579 0.83151 0
1 0.887098 0
1 1 0.718807
0.7131 1 0.204929
0.709926 1 0.201266
0.901747 1 0.215091
1 1 0.374685
1 1 0.750973
1 1 0.841718
1 1 0.841718
1 1 0.841718
1 1 0.844541
1 1 0.871504
0 0 0.202533
0.189609 0 0.204334
0.882078 0 0.22179
1 0.586664 0.273457
1 1 0.723125
0 0.190509 0.183383
0.176852 0.185657 0.176837
0.874128 0.0267491 0.194995
1 0.640955 0.249561
1 1 0.72285
0.0186923 0.848142 0
0.0185397 0.846418 0
0.834745 0.826368 0
1 0.883711 0.0273136
1 1 0.718822
0.720821 1 0.202914
0.717739 1 0.199268
0.903655 1 0.21326
1 1 0.373358
1 1 0.750881
1 1 0.841718
1 1 0.841718
1 1 0.841718
1 1 0.844511
1 1 0.871504
0 0 0.756741
0 0 0.757122
0.87187 0 0.760876
1 0.31284 0.759945
1 1 0.820523
0 0 0.755123
0 0 0.754437
0.879591 0 0.757061
1 0.480629 0.74963
1 1 0.819394
0.0169528 0.781018 0.71223
0.0168307 0.779706 0.711086
0.789914 0.762448 0.703471
1 0.850278 0.719127
1 1 0.817243
0.710292 1 0.59617
0.707454 1 0.594598
0.888884 1 0.596765
1 1 0.641642
1 1 0.798733
1 1 0.841657
1 1 0.841657
1 1 0.841657
1 1 0.844434
1 1 0.871473
0 0 0.980804
0 0 0.980804
0 0 0.980804
1 0 0.990723
1 0.98024 0.942184
0 0 0.980804
0 0 0.980804
0 0 0.980804
1 0 0.990723
1 0.983505 0.941527
0 0 0.980804
0 0 0.980804
0 0 0.980804
1 0 0.990723
1 1 0.939971
0.0669718 1 0.946075
0.0632181 1 0.945968
0.0637064 1 0.945815
1 1 0.932158
1 1 0.934493
1 1 0.916762
1 1 0.916335
1 1 0.916152
1 1 0.916686
1 1 0.923858
0 0.333761 0.972396
0 0.333761 0.972396
0 0.333761 0.972396
0 0.333852 0.972396
1 0.711727 0.962066
0 0.333761 0.972396
0 0.333761 0.972396
0 0.333761 0.972396
0 0.333852 0.972396
1 0.711727 0.962066
0 0.333761 0.972396
0 0.333761 0.972396
0 0.333761 0.972396
0 0.333852 0.972396
1 0.711727 0.962066
0 0.33225 0.972412
0 0.332265 0.972412
0 0.332265 0.972412
0.0362402 0.324529 0.971435
1 0.71632 0.961975
1 1 0.956939
1 1 0.956939
1 1 0.956939
1 1 0.956924
1 1 0.956619
