BBLuts/BB_104_0240_LUT.cube
TITLE "Generated by Resolve"
LUT_3D_SIZE 33
0 0 0
0 0 0
0 0 0
0 0 0
0 0 0
0.00224308 0 0
0.0530251 0 0
0.0890211 0 0
0.126635 0 0
0.180117 0 0
0.242893 0 0
0.311467 0 0
0.388495 0 0
0.472633 0 0
0.548882 0 0.0502327
0.595468 0 0.197818
0.633234 0 0.366094
0.668284 0 0.507958
0.698451 0 0.583917
0.72195 0 0.62211
0.726329 0 0.629038
0.726329 0 0.629038
0.726329 0 0.629358
0.726329 0 0.629282
0.722988 0.438025 0.638804
0.718837 0.56907 0.635493
0.714717 0.615839 0.625086
0.711971 0.651225 0.601724
0.711345 0.677043 0.518975
0.713573 0.697902 0.00454719
0.713085 0.711864 0.00621042
0.70782 0.718563 0.609979
0.706081 0.725948 0.691035
0 0 0
0 0 0
0 0 0
0 0 0
0 0 0
0.0126345 0 0
0.0565042 0 0
0.0918746 0 0
0.132036 0 0
0.186694 0 0
0.249485 0 0
0.317189 0 0
0.391714 0 0
0.474815 0 0
0.550134 0 0.0520027
0.595972 0 0.200183
0.633509 0 0.36733
0.668406 0 0.50837
0.698405 0 0.583871
0.721798 0 0.621851
0.726329 0 0.629038
0.726329 0 0.629038
0.726329 0 0.629114
0.724758 0 0.628763
0.722622 0.453529 0.638605
0.718608 0.572915 0.635065
0.714565 0.617594 0.624277
0.711925 0.652201 0.600229
0.711421 0.677638 0.50901
0.713558 0.698192 0.00457771
0.713085 0.712032 0.00622568
0.707835 0.718685 0.608927
0.706081 0.726009 0.690867
0 0 0
0 0 0
0 0 0
0 0 0
0 0 0
0.0187839 0 0
0.0576944 0 0
0.0945602 0 0
0.137865 0 0
0.192828 0 0
0.254475 0 0
0.320241 0 0
0.39443 0 0
0.477119 0 0
0.551369 0 0.0538186
0.596445 0 0.202487
0.633783 0 0.368536
0.668528 0 0.508766
0.69836 0 0.583795
0.721645 0 0.621607
0.726329 0 0.629038
0.726329 0 0.629038
0.726329 0 0.628717
0.724788 0.0836042 0.631296
0.722271 0.468101 0.638392
0.718364 0.575906 0.634607
0.714412 0.619318 0.623453
0.711879 0.653147 0.598688
0.711482 0.678218 0.497597
0.713542 0.698497 0.00460822
0.713069 0.712184 0.00624094
0.707851 0.718791 0.607889
0.706096 0.72607 0.690684
0 0 0
0 0 0
0 0 0
0 0 0
0 0 0
0.0234531 0 0
0.0582589 0 0
0.0948043 0 0
0.138872 0 0
0.195315 0 0
0.257725 0 0
0.323018 0 0
0.397055 0 0
0.479393 0 0
0.552621 0 0.0556954
0.596948 0 0.204883
0.634058 0 0.369711
0.668635 0 0.509133
0.698314 0 0.583703
0.721462 0 0.621317
0.726329 0 0.629038
0.726329 0 0.629038
0.726329 0 0.628656
0.725841 0.173037 0.635035
0.721965 0.481193 0.638178
0.718135 0.578408 0.63415
0.71426 0.620981 0.622629
0.711833 0.654093 0.597101
0.711574 0.678828 0.484215
0.713527 0.698772 0.00463874
0.713069 0.712337 0.00627146
0.707866 0.718914 0.60679
0.706081 0.726131 0.690517
0 0 0
0 0.00164797 0
0 0.0047303 0
0 0.00770581 0
0 0.00886549 0
0.0126345 0.00798047 0
0.0504616 0.00581369 0
0.0887312 0.000503548 0
0.135119 0 0
0.196429 0 0
0.259602 0 0
0.325536 0 0
0.399588 0 0
0.481697 0 0
0.553887 0 0.0576333
0.597452 0 0.207248
0.634333 0 0.370916
0.668727 0 0.509468
0.698238 0 0.583597
0.721294 0 0.621027
0.726329 0 0.629038
0.726329 0 0.628977
0.726329 0 0.628595
0.726192 0.238544 0.63711
0.721675 0.4925 0.63798
0.717906 0.580713 0.633661
0.714122 0.622614 0.621775
0.711788 0.655009 0.595453
0.711681 0.679408 0.467872
0.713512 0.699062 0.00466926
0.713054 0.712489 0.00628672
0.707897 0.71902 0.605707
0.706081 0.726177 0.690333
0 0.0331884 0
0 0.0356603 0
0 0.0380865 0
0 0.0399939 0
0 0.0409247 0
0 0.0404822 0
0.0417029 0.0395361 0
0.0822614 0.0374151 0
0.128832 0.0327459 0
0.190402 0.0230716 0
0.256245 0.00347906 0
0.327779 0 0
0.402182 0 0
0.484092 0 0
0.55523 0 0.0597543
0.597986 0 0.209796
0.634623 0 0.372122
0.668833 0 0.509804
0.698177 0 0.58349
0.721096 0 0.620722
0.726329 0 0.629038
0.726329 0 0.628855
0.726329 0 0.628534
0.725948 0.285817 0.637919
0.721386 0.503029 0.637736
0.717678 0.583215 0.633143
0.713985 0.624262 0.62089
0.711742 0.655955 0.593683
0.711818 0.680049 0.447242
0.713512 0.699367 0.00471504
0.713054 0.712657 0.00630198
0.707912 0.719142 0.604517
0.706081 0.726253 0.690135
0 0.0687724 0
0 0.0707866 0
0 0.0728008 0
0 0.07393 0
0 0.0746319 0
0 0.0749065 0
0.0258183 0.0737774 0
0.0729992 0.0727092 0
0.121279 0.0702373 0
0.185412 0.0649729 0
0.252262 0.0546731 0
0.322744 0.037644 0
0.400153 0.00563058 0
0.487098 0 0
0.556939 0 0.0625467
0.598688 0 0.213062
0.634989 0 0.373724
0.668956 0 0.510231
0.698085 0 0.583337
0.720821 0 0.620295
0.726329 0 0.629038
0.726329 0 0.628794
0.726329 0 0.628428
0.725322 0.330846 0.637995
0.72105 0.515206 0.637415
0.717372 0.586618 0.632441
0.713802 0.626337 0.619684
0.711696 0.65716 0.591302
0.712016 0.680888 0.416785
0.713497 0.699733 0.00476081
0.713039 0.712871 0.00633249
0.707927 0.719295 0.602945
0.706081 0.726314 0.689891
0 0.108522 0
0 0.110262 0
0 0.111574 0
0 0.112428 0
0 0.113039 0
0 0.11339 0
0 0.112886 0
0.0564431 0.111818 0
0.109422 0.110521 0
0.176501 0.106889 0
0.246708 0.0995956 0
0.320836 0.0884565 0
0.399542 0.0717479 0
0.483268 0.0439002 0
0.556115 0 0.0520027
0.599619 0 0.217426
0.635493 0 0.375875
0.669123 0 0.510811
0.697948 0 0.583108
0.720455 0 0.619699
0.726329 0 0.628916
0.726329 0 0.628702
0.726329 0 0.628275
0.724437 0.377188 0.637705
0.720592 0.529305 0.636896
0.716991 0.590951 0.631464
0.713588 0.628992 0.618051
0.71165 0.658686 0.588006
0.712352 0.682048 0.362737
0.713481 0.700236 0.00482185
0.713039 0.713146 0.00636301
0.707973 0.719493 0.600855
0.706081 0.726421 0.68957
0 0.160723 0
0 0.162325 0
0 0.16321 0
0 0.164111 0
0 0.164736 0
0 0.165179 0
0 0.165438 0
0.0182803 0.163973 0
0.0887007 0.162112 0
0.159792 0.158862 0
0.236225 0.152972 0
0.315923 0.143465 0
0.399558 0.12932 0
0.485481 0.109697 0
0.555901 0.0825513 0.042237
0.59765 0.0401465 0.204364
0.635691 0 0.374594
0.669352 0 0.511559
0.697734 0 0.582773
0.719921 0 0.618692
0.726329 0 0.628779
0.726329 0 0.62855
0.724941 0.0972152 0.630991
0.723354 0.423484 0.6374
0.719997 0.545098 0.636072
0.716503 0.596384 0.630091
0.713329 0.632319 0.615763
0.711589 0.660655 0.583291
0.713085 0.683711 0.224674
0.713451 0.700862 0.00489815
0.713008 0.713497 0.00640879
0.708019 0.719768 0.59791
0.706081 0.726558 0.689143
0 0.222431 0
0 0.222904 0
0 0.223362 0
0 0.223728 0
0 0.223972 0
0 0.224048 0
0 0.223926 0
0 0.223499 0
0.0499275 0.221332 0
0.131182 0.219974 0
0.217594 0.216648 0
0.305028 0.210254 0
0.395926 0.200122 0
0.487221 0.185397 0
0.55848 0.16556 0.0395972
0.598962 0.134493 0.208255
0.634089 0.0795453 0.375891
0.668025 0 0.508568
0.697398 0 0.581781
0.719173 0 0.617273
0.726329 0 0.628611
0.726329 0 0.628305
0.725811 0.298283 0.637476
0.722179 0.471992 0.636866
0.719219 0.562081 0.634791
0.715892 0.603128 0.628092
0.713008 0.636484 0.612528
0.711543 0.663127 0.577142
0.714015 0.685725 0.00315862
0.71342 0.701686 0.0049897
0.712993 0.71397 0.00645457
0.708095 0.720119 0.593835
0.706081 0.726726 0.688579
0 0.286259 0
0 0.286702 0
0 0.28716 0
0 0.28748 0
0 0.287739 0
0 0.287892 0
0 0.287968 0
0 0.287831 0
0 0.287358 0
0.0821088 0.286213 0
0.185306 0.285389 0
0.28452 0.281849 0
0.385595 0.275151 0
0.485054 0.265858 0
0.560037 0.25417 0.0242618
0.600641 0.239582 0.207004
0.635798 0.213809 0.386831
0.668025 0.148241 0.517311
0.694865 0.00894179 0.580255
0.718059 0 0.615183
0.726329 0 0.628305
0.726146 0.214496 0.635706
0.723751 0.406912 0.637537
0.721035 0.515846 0.636072
0.718242 0.577447 0.632654
0.715145 0.611353 0.625132
0.712657 0.641581 0.607813
0.711528 0.666239 0.563714
0.713939 0.687495 0.00334173
0.713375 0.702739 0.00511177
0.712963 0.714565 0.00653086
0.708186 0.720592 0.587991
0.706081 0.72694 0.687831
0 0.360143 0
0 0.360586 0
0 0.360998 0
0 0.361303 0
0 0.361563 0
0 0.361746 0
0 0.361898 0
0 0.361959 0
0 0.361807 0
0 0.361028 0
0.124697 0.362142 0
0.247974 0.361578 0
0.363516 0.358175 0
0.47422 0.352926 0
0.557275 0.346075 0
0.600534 0.339101 0.172076
0.636011 0.329976 0.384894
0.668147 0.312749 0.523171
0.695109 0.282933 0.586923
0.716197 0.242664 0.620523
0.725963 0.28542 0.637339
0.723949 0.398932 0.637598
0.721752 0.489586 0.636606
0.719631 0.553536 0.63444
0.717037 0.590707 0.629313
0.71429 0.621057 0.620691
0.712276 0.647684 0.600656
0.711604 0.670069 0.534234
0.713863 0.689723 0.00358587
0.713314 0.704051 0.00527962
0.712932 0.715328 0.00662242
0.708354 0.721218 0.579614
0.706081 0.72723 0.686824
0 0.443305 0
0 0.443687 0
0 0.444038 0
0 0.444312 0
0 0.444526 0
0 0.444724 0
0 0.444907 0
0 0.445045 0
0 0.445212 0
0 0.445304 0
0 0.445243 0
0.178973 0.448737 0
0.324025 0.448112 0
0.449882 0.445014 0
0.547189 0.44094 0
0.596902 0.436728 0.0514687
0.633738 0.433875 0.353002
0.665385 0.429953 0.514153
0.691096 0.427329 0.58349
0.711116 0.430182 0.617578
0.722637 0.452781 0.63711
0.721386 0.503471 0.636362
0.719875 0.548196 0.634775
0.717891 0.581003 0.631373
0.715602 0.606607 0.624735
0.713375 0.632044 0.613764
0.71191 0.654841 0.589181
0.712077 0.674891 0.449989
0.713756 0.692439 0.00390631
0.713252 0.705699 0.00547799
0.712886 0.716304 0.00672923
0.708614 0.722072 0.563149
0.706065 0.72781 0.685466
0 0.528252 0
0 0.528481 0
0 0.528679 0
0 0.528832 0
0 0.528984 0
0 0.529122 0
0 0.529259 0
0 0.529381 0
0 0.529488 0
0 0.529503 0
0 0.529381 0
0.0210574 0.529671 0
0.255543 0.531914 0
0.412268 0.529992 0
0.528466 0.527443 0
0.590051 0.524788 0
0.629664 0.523949 0.216632
0.662089 0.523857 0.486122
0.686946 0.526497 0.576547
0.705882 0.533349 0.61033
0.719982 0.545647 0.634913
0.718959 0.567285 0.633387
0.717586 0.584497 0.630655
0.715892 0.603387 0.625818
0.714076 0.623896 0.616922
0.712535 0.644114 0.602258
0.711696 0.662989 0.568154
0.714168 0.681529 0.00270085
0.713619 0.695705 0.00428778
0.713161 0.707698 0.00570687
0.71284 0.717525 0.00686656
0.709148 0.723323 0.517205
0.706065 0.728283 0.683635
0 0.583307 0
0 0.583383 0
0 0.583444 0
0 0.58349 0
0 0.583535 0
0 0.583566 0
0 0.583597 0
0 0.583642 0
0 0.583642 0
0 0.583612 0
0 0.58352 0
0 0.583276 0
0.0895094 0.583642 0
0.350927 0.583505 0
0.497749 0.582422 0
0.579828 0.581308 0
0.622583 0.580682 0
0.656931 0.581186 0.356619
0.681666 0.582376 0.548653
0.69984 0.585748 0.596124
0.714076 0.591363 0.623697
0.716152 0.600473 0.626719
0.715084 0.612375 0.622538
0.713863 0.626368 0.615457
0.712734 0.641459 0.603006
0.71191 0.656916 0.580758
0.712077 0.672251 0.468071
0.713939 0.687312 0.00332647
0.713466 0.699519 0.0047303
0.713069 0.710109 0.0059968
0.712764 0.719051 0.00703441
0.710842 0.725765 0.310719
0.706065 0.728908 0.681163
0 0.621363 0
0 0.621408 0
0 0.621424 0
0 0.621439 0
0 0.621454 0
0 0.621454 0
0 0.621469 0
0 0.621454 0
0 0.621424 0
0 0.621347 0
0 0.621195 0
0 0.62092 0
0 0.620417 0
0.218189 0.621195 0
0.445884 0.619989 0
0.563226 0.618647 0
0.612421 0.61767 0
0.64947 0.6177 0
0.675303 0.618936 0.334768
0.692958 0.620813 0.555993
0.706676 0.62475 0.598337
0.713512 0.630686 0.612558
0.712932 0.638621 0.60592
0.712337 0.648035 0.594675
0.71191 0.658671 0.574258
0.712139 0.670283 0.476188
0.714107 0.682933 0.00285344
0.71368 0.693721 0.00404364
0.713283 0.703868 0.0052491
0.712947 0.712871 0.00633249
0.712673 0.720928 0.00724804
0.712505 0.728435 0.00801099
0.706081 0.729671 0.677775
0 0.65774 0
0 0.65774 0
0 0.657725 0
0 0.65771 0
0 0.65771 0
0 0.657679 0
0 0.657649 0
0 0.657603 0
0 0.657511 0
0 0.657389 0
0 0.657176 0
0 0.656825 0
0 0.656275 0
0 0.655528 0
0.353063 0.655482 0
0.533715 0.653544 0
0.600412 0.651896 0
0.639841 0.651194 0
0.667811 0.651545 0
0.687785 0.652918 0
0.700786 0.654154 0.44889
0.710384 0.656901 0.570504
0.711864 0.661707 0.561379
0.712001 0.667933 0.507607
0.713848 0.676295 0.124636
0.714061 0.684108 0.00297551
0.713741 0.692226 0.00387579
0.71342 0.700557 0.00485237
0.7131 0.708614 0.00581369
0.71281 0.716075 0.00669871
0.712566 0.723125 0.00747692
0.712428 0.729885 0.00814832
0.706096 0.730648 0.67303
0 0.687663 1.5259e-05
0 0.687633 0
0 0.687587 0
0 0.687556 0
0 0.68751 0
0 0.687465 0
0 0.687404 0
0 0.687312 0
0 0.687175 0
0 0.686976 0
0 0.686687 0
0 0.686259 0
0 0.685649 0
0 0.68484 0
0 0.683864 0
0.49369 0.681666 0.000183108
0.589319 0.679164 0
0.630869 0.677684 0
0.659892 0.677211 0
0.680949 0.67744 0
0.69662 0.678386 0.000686656
0.707897 0.680156 0.00201419
0.714107 0.682734 0.00282292
0.71397 0.686213 0.00320439
0.713802 0.690547 0.00367742
0.713588 0.695674 0.00427253
0.713375 0.701427 0.00495918
0.71313 0.707515 0.00569161
0.712886 0.713588 0.00640879
0.712657 0.719692 0.0071107
0.712444 0.725689 0.00775158
0.712322 0.731594 0.00831617
0.706142 0.731853 0.666209
0 0.709957 0.0143587
0 0.709895 0.0143282
0 0.709834 0.0142824
0 0.709789 0.0142519
0 0.709728 0.0142061
0 0.709651 0.0141604
0 0.70956 0.0141146
0 0.709438 0.0140383
0 0.70927 0.0139162
0 0.709026 0.0137636
0 0.70869 0.0135348
0 0.708217 0.0132296
0 0.707576 0.0128176
0 0.706752 0.0122835
0 0.705684 0.0115816
0.442283 0.702815 0.0105592
0.581247 0.699489 0.00296025
0.62414 0.697505 0.000320439
0.653346 0.696513 0.000534066
0.674952 0.696132 0.00169375
0.691173 0.696254 0.0028687
0.702998 0.696956 0.00378424
0.712169 0.698283 0.00451667
0.713405 0.700282 0.00482185
0.713298 0.702968 0.00514229
0.713176 0.706249 0.00553903
0.713024 0.710063 0.00598154
0.71284 0.714229 0.00648508
0.712673 0.718791 0.00700389
0.712474 0.723644 0.00753796
0.712306 0.728771 0.0080415
0.712215 0.733562 0.00848402
0.706233 0.733333 0.655955
0 0.726955 0.0252537
0 0.726879 0.0252232
0 0.726818 0.0251774
0 0.726741 0.0251164
0 0.726665 0.0250706
0 0.726589 0.0250248
0 0.726482 0.0249638
0 0.726329 0.0248722
0 0.726131 0.0247349
0 0.725856 0.0245823
0 0.725505 0.0243534
0 0.725032 0.0240482
0 0.724407 0.0236515
0 0.723583 0.0231327
0 0.722545 0.0224765
0.394293 0.719326 0.0194095
0.577142 0.715175 0.00852979
0.619638 0.712901 0.00448615
0.648371 0.71162 0.00366217
0.669825 0.710887 0.00408942
0.686168 0.710536 0.00480659
0.698466 0.710597 0.00543221
0.708125 0.711055 0.0059205
0.712932 0.711986 0.00622568
0.712871 0.713436 0.00639353
0.712795 0.715373 0.00662242
0.712688 0.717815 0.00689708
0.712566 0.720745 0.00721752
0.712413 0.724117 0.00758373
0.712276 0.727993 0.00796521
0.712154 0.731868 0.00833143
0.712093 0.73579 0.00868238
0.706447 0.735149 0.639307
0 0.739467 0.0326696
0 0.739376 0.0326085
0 0.7393 0.0325628
0 0.739208 0.032517
0 0.739132 0.0324712
0 0.73904 0.0324254
0 0.738918 0.0323491
0 0.738766 0.0322576
0 0.738567 0.0321508
0 0.738308 0.0319829
0 0.737957 0.0317845
0 0.737484 0.0315099
0 0.736873 0.0311589
0 0.736095 0.0307012
0 0.735103 0.0301061
0.404486 0.731106 0.0237125
0.578347 0.726604 0.0117037
0.618448 0.724315 0.00720226
0.64567 0.722942 0.00588998
0.666377 0.722042 0.00587472
0.682231 0.721477 0.00627146
0.694636 0.721187 0.00668345
0.704616 0.721172 0.00704967
0.712215 0.721508 0.00729381
0.712474 0.722225 0.00738537
0.712428 0.7234 0.00750744
0.712352 0.724987 0.00767529
0.712261 0.726955 0.00787366
0.712169 0.729503 0.0081178
0.712062 0.732174 0.00836194
0.711986 0.735088 0.00862135
0.711971 0.738247 0.00886549
0.706447 0.737011 0.634516
0 0.748669 0.0377508
0 0.748577 0.037705
0 0.748501 0.0376593
0 0.748409 0.0376135
0 0.748333 0.0375677
0 0.748241 0.0375219
0 0.748135 0.0374609
0 0.747982 0.0373846
0 0.747784 0.0372778
0 0.747524 0.0371405
0 0.747189 0.0369573
0 0.746746 0.0367285
0 0.746181 0.036408
0 0.745449 0.0360266
0 0.744533 0.035523
0.476371 0.739055 0.0229343
0.585077 0.735439 0.0128481
0.620233 0.73341 0.00883497
0.645029 0.732097 0.00740063
0.664363 0.731167 0.00717174
0.679316 0.730526 0.00735485
0.691402 0.730068 0.00764477
0.701366 0.729824 0.00788891
0.709178 0.729793 0.00808728
0.712108 0.730068 0.00816358
0.712077 0.730648 0.00822461
0.712032 0.731579 0.00830091
0.711971 0.732815 0.00842298
0.71191 0.734356 0.00856031
0.711849 0.736217 0.0087129
0.711818 0.738384 0.00888075
0.711849 0.740826 0.00906386
0.706371 0.738964 0.633921
0 0.755444 0.0411841
0 0.755367 0.0411536
0 0.755291 0.0411078
0 0.755215 0.0410773
0 0.755123 0.0410315
0 0.755047 0.0409857
0 0.75494 0.04094
0 0.754803 0.0408789
0 0.75462 0.0407874
0 0.754391 0.0406653
0 0.75407 0.0405127
0 0.753674 0.0403143
0 0.75314 0.0400549
0 0.752483 0.0397192
0.17937 0.750729 0.0391852
0.546624 0.744411 0.0191043
0.597223 0.741894 0.0125429
0.625025 0.740276 0.00956741
0.646601 0.739101 0.00833143
0.66389 0.738231 0.0080415
0.677592 0.737575 0.0081178
0.689097 0.737057 0.00831617
0.698711 0.73666 0.00849927
0.706477 0.736446 0.00863661
0.711757 0.7364 0.0087129
0.711757 0.736599 0.00872816
0.711727 0.737057 0.00877394
0.711696 0.737804 0.00883497
0.711666 0.738796 0.00891127
0.711635 0.740093 0.00900282
0.711635 0.741634 0.00910964
0.711711 0.743465 0.00923171
0.706188 0.740932 0.637568
0 0.760189 0.0434119
0 0.760128 0.0433814
0 0.760052 0.0433509
0 0.759976 0.0433204
0 0.759899 0.0432898
0 0.759838 0.0432593
0 0.759731 0.0432136
0 0.759609 0.0431525
0 0.759441 0.0430762
0 0.759228 0.0429847
0 0.758968 0.0428626
0 0.758618 0.0426947
0 0.75819 0.0424964
0.335851 0.754665 0.0350958
0.5355 0.750454 0.0212711
0.585641 0.748226 0.0150607
0.611612 0.746685 0.0115816
0.632547 0.74548 0.00970474
0.650187 0.744518 0.00883497
0.664897 0.743755 0.00859083
0.677089 0.74313 0.00862135
0.687739 0.742611 0.00875868
0.696773 0.742184 0.00891127
0.704234 0.741863 0.00901808
0.710414 0.74168 0.00909438
0.711452 0.74165 0.00910964
0.711452 0.741817 0.0091249
0.711452 0.742199 0.00914015
0.711437 0.742809 0.00918593
0.711437 0.743648 0.00923171
0.711482 0.744717 0.00929274
0.711604 0.746029 0.00936904
0.705913 0.742809 0.646983
0 0.763439 0.0448615
0 0.763378 0.044831
0 0.763317 0.0448157
0 0.763272 0.0447852
0 0.76321 0.0447547
0 0.763149 0.0447395
0 0.763088 0.0447089
0 0.762997 0.0446632
0 0.762875 0.0446174
0 0.762707 0.0445411
0.349844 0.759014 0.0354467
0.474189 0.756603 0.0272221
0.536828 0.754925 0.0218814
0.573663 0.753521 0.017731
0.592721 0.7523 0.0145418
0.610407 0.751247 0.0122072
0.626734 0.750317 0.0105745
0.641749 0.749462 0.00956741
0.655268 0.74873 0.00907912
0.667094 0.748104 0.00894179
0.677699 0.747555 0.00895705
0.687236 0.747036 0.00906386
0.695506 0.746609 0.00917067
0.702541 0.746258 0.00927749
0.708476 0.745998 0.00933852
0.711177 0.745846 0.00935378
0.711192 0.745815 0.00935378
0.711223 0.745953 0.00936904
0.711238 0.746273 0.0093843
0.711269 0.746792 0.00941482
0.71136 0.747494 0.00944533
0.711513 0.748409 0.00949111
0.705577 0.744564 0.661692
0.551232 0.756573 0.0206455
0.555215 0.756451 0.0202182
0.558892 0.756344 0.0198062
0.56231 0.756252 0.0194247
0.56553 0.756146 0.0190433
0.568658 0.756054 0.018677
0.572152 0.755947 0.0182193
0.575647 0.755795 0.0176699
0.579217 0.755627 0.0170138
0.583505 0.755428 0.0162356
0.589181 0.755199 0.0153506
0.595789 0.754955 0.0143587
0.603372 0.754681 0.0133364
0.611856 0.754421 0.012314
0.621134 0.754086 0.0113375
0.631083 0.753521 0.0104829
0.641306 0.752941 0.00981155
0.651484 0.752392 0.00939956
0.661234 0.751873 0.00918593
0.670497 0.751369 0.0091249
0.679393 0.750881 0.00917067
0.687648 0.750423 0.00924697
0.694972 0.750027 0.00933852
0.701427 0.74966 0.00943008
0.707027 0.749371 0.00949111
0.710964 0.749157 0.00952163
0.711009 0.74905 0.00952163
0.71104 0.749035 0.00952163
0.711086 0.749187 0.00952163
0.711162 0.749493 0.00953689
0.711269 0.74995 0.00955215
0.711467 0.750622 0.00958267
0.705226 0.746212 0.679438
0.616129 0.75433 0.011841
0.616831 0.754299 0.01178
0.617517 0.754284 0.0117037
0.618189 0.754269 0.0116274
0.61886 0.754253 0.0115663
0.619547 0.754238 0.0115053
0.620417 0.754208 0.0114137
0.62153 0.754177 0.0113069
0.62298 0.754147 0.0111696
0.624826 0.754101 0.0110018
0.627146 0.754055 0.0108186
0.63003 0.753994 0.0105745
0.633539 0.753918 0.0103304
0.637751 0.753857 0.0100557
0.642664 0.75378 0.00979629
0.648249 0.753704 0.00956741
0.654368 0.753643 0.0093843
0.660853 0.753613 0.00927749
0.66772 0.753582 0.00923171
0.67483 0.753567 0.00923171
0.681956 0.753399 0.00929274
0.688792 0.753017 0.00936904
0.695079 0.752651 0.00944533
0.700862 0.752316 0.00952163
0.705959 0.752026 0.00958267
0.710246 0.751797 0.00961318
0.710857 0.751644 0.00961318
0.710903 0.751568 0.00961318
0.710979 0.751614 0.00961318
0.711086 0.751781 0.00961318
0.711254 0.752102 0.00962844
0.706737 0.748775 0.591882
0.704952 0.747707 0.697902
0.645151 0.753796 0.00968948
0.645472 0.753796 0.00967422
0.645777 0.753796 0.00965896
0.646082 0.753796 0.0096437
0.646387 0.75378 0.0096437
0.646708 0.75378 0.00962844
0.64712 0.75378 0.00961318
0.647639 0.75378 0.00959792
0.648325 0.753765 0.00956741
