BBLuts/BB_103_0320_LUT.cube
TITLE "Generated by Resolve"
LUT_3D_SIZE 33
0 0 0
0 0 0
0 0 0
0 0 0
0 0 0
0.0238956 0 0
0.058793 0 0
0.0946975 0 0
0.138064 0 0
0.191043 0 0
0.25272 0 0
0.321523 0 0
0.399512 0 0
0.486336 0 0
0.574777 0 0
0.653635 0 0
0.729549 0 0
0.798886 0 0
0.858473 0 0
0.896422 0 0
0.906096 0 0
0.91606 0 0
0.921752 0.248188 0
0.912703 0.428931 0
0.906233 0.570367 0.0130312
0.899016 0.676539 0.0537881
0.892439 0.7626 0.108797
0.887678 0.827451 0.188754
0.883833 0.874067 0.293904
0.880385 0.908812 0.398474
0.877211 0.934783 0.496361
0.874418 0.954864 0.578897
0.872282 0.970794 0.650248
0 0 0
0 0 0
0 0 0
0 0 0
0 0 0
0.0252232 0 0
0.0605173 0 0
0.0981918 0 0
0.141939 0 0
0.194308 0 0
0.254612 0 0
0.323171 0 0
0.401266 0 0
0.488029 0 0
0.575906 0 0
0.654139 0 0
0.729809 0 0
0.798978 0 0
0.858274 0 0
0.896178 0 0
0.908354 0 0
0.919081 0.0228275 0
0.920439 0.275227 0
0.911467 0.441199 0
0.905562 0.57705 0.0109712
0.898634 0.680064 0.0525826
0.892256 0.764523 0.108324
0.887602 0.828382 0.188617
0.883803 0.874556 0.293614
0.880369 0.909072 0.398322
0.877195 0.934936 0.496269
0.874418 0.954955 0.578851
0.872267 0.970825 0.650233
0 0 0
0 0 0
0 0 0
0 0 0
0 0 0
0.0228275 0 0
0.0587015 0 0
0.0979782 0 0
0.143252 0 0
0.196307 0 0
0.256641 0 0
0.325154 0 0
0.403128 0 0
0.489647 0 0
0.577081 0 0
0.654871 0 0
0.73019 0 0
0.799039 0 0
0.858045 0 0
0.895918 0 0
0.91104 0 0
0.921874 0.0866865 0
0.919158 0.297505 0
0.91046 0.451865 0
0.904967 0.58294 0.00917067
0.898283 0.683284 0.0514839
0.892088 0.766308 0.107897
0.887526 0.829282 0.188479
0.883757 0.875044 0.293339
0.880354 0.909331 0.398138
0.87718 0.935058 0.496178
0.874418 0.955016 0.578805
0.872267 0.970871 0.650217
0 0 0
0 0 0
0 0 0
0 0 0
0 0 0
0.014847 0 0
0.0534218 0 0
0.0954604 0 0
0.14374 0 0
0.198413 0 0
0.259052 0 0
0.327459 0 0
0.405142 0 0
0.491371 0 0
0.578347 0 0
0.65568 0 0
0.730602 0 0
0.799115 0 0
0.857801 0 0
0.895628 0 0
0.912352 0 0
0.922881 0.130129 0
0.917983 0.317189 0
0.909712 0.46276 0
0.904341 0.588846 0.00706493
0.897948 0.686427 0.0503243
0.891936 0.767987 0.107485
0.887449 0.830167 0.188357
0.883726 0.875502 0.29305
0.880339 0.909575 0.398001
0.87718 0.935195 0.496101
0.874403 0.955093 0.578759
0.872267 0.970916 0.650187
0 0 0
0 0 0
0 0.000793469 0
0 0.00169375 0
0 0.00242618 0
0.00257877 0.000961318 0
0.0453498 0 0
0.0900587 0 0
0.141085 0 0
0.198901 0 0
0.261906 0 0
0.330556 0 0
0.407767 0 0
0.493584 0 0
0.579721 0 0
0.656336 0 0
0.730846 0 0
0.799069 0 0
0.857542 0 0
0.896132 0 0
0.91426 0 0
0.923095 0.164309 0
0.916945 0.334539 0
0.909087 0.472755 0
0.903716 0.594522 0.0049897
0.897581 0.689708 0.0490272
0.891752 0.769802 0.107042
0.887373 0.831006 0.188235
0.883696 0.875944 0.292805
0.880323 0.909819 0.397833
0.877165 0.935332 0.496025
0.874403 0.955184 0.578714
0.872267 0.970947 0.650156
0 0.0268711 0
0 0.028809 0
0 0.0300908 0
0 0.0307927 0
0 0.0315557 0
0 0.0318303 0
0.032578 0.0299687 0
0.0819715 0.0269017 0
0.135668 0.0211032 0
0.195956 0.0104829 0
0.26183 0 0
0.334096 0 0
0.412436 0 0
0.496544 0 0
0.581704 0 0
0.657496 0 0
0.731273 0 0
0.799023 0 0
0.857038 0 0
0.897993 0 0
0.91725 0.00703441 0
0.922805 0.198413 0
0.915801 0.352956 0
0.90837 0.483757 0
0.903029 0.600519 0.00282292
0.897169 0.693385 0.0475776
0.891569 0.771908 0.106523
0.887297 0.832105 0.188098
0.883665 0.876478 0.2925
0.880293 0.910094 0.39765
0.877165 0.935485 0.495918
0.874388 0.955261 0.578653
0.872267 0.971008 0.650126
0 0.0616312 0
0 0.0630808 0
0 0.0641184 0
0 0.0647135 0
0 0.0651713 0
0 0.0664378 0
0.00927749 0.0659495 0
0.0679179 0.0641794 0
0.126314 0.0605478 0
0.189776 0.0534218 0
0.259144 0.0421302 0
0.334691 0.0249638 0
0.415488 0 0
0.502266 0 0
0.585611 0 0
0.659281 0 0
0.732464 0 0
0.79939 0 0
0.857755 0 0
0.902144 0 0
0.920516 0.0773327 0
0.921828 0.23798 0
0.914351 0.37586 0
0.907378 0.497963 0
0.902022 0.608454 0
0.896651 0.69807 0.045716
0.89131 0.774685 0.105852
0.887175 0.8336 0.18793
0.883604 0.877302 0.292042
0.880278 0.910475 0.397406
0.87715 0.935699 0.495796
0.874388 0.955383 0.578576
0.872251 0.971054 0.650095
0 0.103273 0
0 0.104295 0
0 0.105074 0
0 0.105608 0
0 0.106111 0
0 0.106996 0
0 0.108476 0
0.0412451 0.107485 0
0.108675 0.104982 0
0.177661 0.0998093 0
0.252583 0.0915847 0
0.333288 0.0797742 0
0.41735 0.0630503 0
0.505821 0.0375982 0
0.588968 0.00366217 0
0.664805 0 0
0.737102 0 0
0.802274 0 0
0.862531 0 0
0.906523 0.0314183 0
0.921981 0.154192 0
0.919921 0.282704 0
0.912566 0.403754 0
0.90605 0.51603 0
0.900587 0.618585 0
0.895933 0.704494 0.043061
0.890974 0.778378 0.104967
0.887007 0.83563 0.187686
0.883513 0.878447 0.291417
0.880232 0.911086 0.397055
0.877134 0.935988 0.495613
0.874372 0.95555 0.578485
0.872251 0.971145 0.650034
0 0.152575 0
0 0.153277 0
0 0.15375 0
0 0.154086 0
0 0.15433 0
0 0.154406 0
0 0.155657 0
0 0.157122 0
0.0760204 0.156161 0
0.156222 0.153201 0
0.238987 0.147341 0
0.326772 0.138293 0
0.416693 0.126009 0
0.508385 0.110658 0
0.591485 0.0920882 0
0.668193 0.0703441 0
0.74197 0.0439765 0
0.809171 0.0316167 0
0.868299 0.0635386 0
0.908797 0.137438 0
0.920836 0.231556 0
0.916991 0.333623 0
0.910475 0.436881 0
0.904311 0.538201 0
0.898817 0.630869 0
0.894972 0.713161 0.0393988
0.890517 0.783413 0.103761
0.886793 0.838315 0.187381
0.883406 0.880018 0.290578
0.880171 0.911971 0.396521
0.877104 0.936461 0.495308
0.874357 0.955779 0.578332
0.872236 0.971283 0.649958
0 0.21004 0
0 0.210529 0
0 0.21088 0
0 0.211261 0
0 0.21146 0
0 0.211521 0
0 0.21146 0
0 0.213306 0
0.0104829 0.215793 0
0.117082 0.215915 0
0.214405 0.212634 0
0.31165 0.206195 0
0.4103 0.19704 0
0.507622 0.18616 0
0.592447 0.174624 0
0.669871 0.164553 0
0.743862 0.158724 0
0.811002 0.163577 0
0.868132 0.188846 0
0.906004 0.239155 0
0.917174 0.308537 0
0.913375 0.391073 0
0.908003 0.477577 0
0.902037 0.565393 0
0.896574 0.646647 0
0.893751 0.724407 0.0349432
0.889906 0.790127 0.10219
0.886503 0.841993 0.18703
0.883253 0.882078 0.289448
0.880095 0.913161 0.395804
0.877058 0.937163 0.49485
0.874342 0.956161 0.578073
0.872236 0.971481 0.649836
0 0.278569 0
0 0.27895 0
0 0.279316 0
0 0.279683 0
0 0.280049 0
0 0.280247 0
0 0.280324 0
0 0.280232 0
0 0.284611 0
0.049836 0.288151 0
0.169696 0.288716 0
0.283406 0.285573 0
0.394232 0.279896 0
0.499687 0.272969 0
0.5888 0.265858 0
0.667994 0.261189 0
0.741711 0.261707 0
0.807263 0.271077 0
0.862104 0.29427 0
0.899046 0.333593 0
0.912047 0.387915 0
0.90959 0.451148 0
0.904921 0.524407 0
0.899321 0.597955 0
0.894301 0.667506 0
0.892256 0.738384 0.0298924
0.889158 0.798764 0.100206
0.886122 0.846891 0.186725
0.883055 0.884916 0.288685
0.879988 0.914717 0.394858
0.876997 0.938094 0.49424
0.874311 0.956725 0.577707
0.872206 0.971786 0.649653
0 0.361318 0
0 0.361669 0
0 0.36202 0
0 0.362295 0
0 0.362646 0
0 0.36289 0
0 0.36321 0
0 0.363348 0
0 0.365026 0
0 0.37145 0
0.0928054 0.37641 0
0.23389 0.377417 0
0.364462 0.374762 0
0.480858 0.370733 0
0.577478 0.366171 0
0.66041 0.363775 0
0.735027 0.366094 0
0.799268 0.375784 0
0.852415 0.395666 0
0.890379 0.425132 0
0.906935 0.465919 0
0.905425 0.517205 0
0.901198 0.574456 0
0.896315 0.633127 0
0.891844 0.693126 0
0.890455 0.755367 0.0233463
0.888243 0.809354 0.0978866
0.885634 0.853193 0.186633
0.88278 0.888685 0.288792
0.87985 0.916854 0.393652
0.876921 0.93933 0.493416
0.87425 0.957473 0.577188
0.872175 0.972213 0.649363
0 0.454566 0
0 0.454856 0
0 0.455131 0
0 0.455375 0
0 0.455604 0
0 0.455817 0
0 0.456138 0
0 0.456382 0
0 0.456626 0
0 0.459876 0
0 0.467979 0
0.152132 0.473289 0
0.315999 0.473228 0
0.44979 0.470726 0
0.557671 0.467216 0
0.646448 0.465339 0
0.724681 0.467567 0
0.789715 0.475822 0
0.841932 0.491722 0
0.880903 0.515389 0
0.900969 0.54609 0
0.900145 0.583642 0
0.896895 0.62649 0
0.892836 0.672175 0
0.889082 0.722667 0
0.88835 0.775326 0.0151064
0.88716 0.822171 0.0950942
0.885039 0.861051 0.18677
0.882414 0.893538 0.289464
0.879652 0.919692 0.392142
0.876814 0.941039 0.492302
0.874189 0.958465 0.576532
0.872145 0.972808 0.648981
0 0.552911 0
0 0.553079 0
0 0.553262 0
0 0.553429 0
0 0.553567 0
0 0.553719 0
0 0.553872 0
0 0.554009 0
0 0.554177 0
0 0.554253 0
0 0.558389 0
0.0306706 0.56611 0
0.234806 0.569314 0
0.402564 0.568231 0
0.529274 0.56611 0
0.625742 0.564584 0
0.70956 0.566003 0
0.777005 0.571756 0
0.82919 0.582773 0
0.868513 0.599573 0
0.891875 0.62118 0
0.89456 0.646494 0
0.892302 0.678233 0
0.889006 0.714855 0
0.886198 0.754925 0
0.885985 0.797421 0.0053254
0.885954 0.837034 0.0923476
0.884321 0.870649 0.187259
0.881971 0.899565 0.290623
0.879393 0.923339 0.391287
0.876661 0.943328 0.490852
0.874113 0.959808 0.575616
0.872099 0.973602 0.648463
0 0.640787 0
0 0.640833 0
0 0.640925 0
0 0.641016 0
0 0.641077 0
0 0.641138 0
0 0.641184 0
0 0.641215 0
0 0.641154 0
0 0.641093 0
0 0.640757 0
0 0.646906 0
0.116472 0.652964 0
0.336065 0.653941 0
0.489754 0.652857 0
0.598657 0.651423 0
0.688853 0.651835 0
0.759915 0.655314 0
0.813535 0.662394 0
0.853239 0.673457 0
0.879591 0.688716 0
0.888365 0.708034 0
0.887251 0.731517 0
0.885328 0.758465 0
0.883375 0.78822 0
0.883268 0.82063 0
0.884688 0.85362 0.0901656
0.883497 0.881987 0.188693
0.881422 0.906844 0.292622
0.879057 0.927855 0.392279
0.876463 0.946273 0.489555
0.873991 0.961654 0.574395
0.872023 0.97467 0.647761
0 0.722286 0
0 0.722286 0
0 0.722316 0
0 0.722332 0
0 0.722347 0
0 0.722347 0
0 0.722332 0
0 0.722255 0
0 0.722087 0
0 0.721798 0
0 0.721263 0
0 0.722835 0
0.00030518 0.730648 0
0.247181 0.734325 0
0.440909 0.733486 0
0.566918 0.731426 0
0.663813 0.730495 0
0.738918 0.731975 0
0.794568 0.736126 0
0.835981 0.743084 0
0.865614 0.753079 0
0.881254 0.76611 0
0.883024 0.781857 0
0.882109 0.800198 0
0.880781 0.820859 0
0.880705 0.844373 0
0.883375 0.871595 0.0894636
0.882597 0.894743 0.191806
0.880796 0.915373 0.295995
0.87863 0.93341 0.394766
0.876204 0.949966 0.489082
0.873838 0.964019 0.572961
0.871931 0.97612 0.646754
0 0.797269 0
0 0.797269 0
0 0.797269 0
0 0.797253 0
0 0.797238 0
0 0.797177 0
0 0.797086 0
0 0.796902 0
0 0.796597 0
0 0.796139 0
0 0.795407 0
0 0.794308 0
0 0.800687 0
0.155062 0.806043 0
0.386069 0.805203 0
0.535805 0.80209 0
0.638773 0.799435 0
0.717266 0.798825 0
0.775387 0.800244 0
0.818875 0.803586 0
0.851102 0.808957 0
0.871962 0.816541 0
0.879255 0.826215 0
0.879164 0.837995 0
0.878645 0.851804 0
0.87892 0.868696 0
0.882109 0.89041 0.0926528
0.881621 0.908492 0.197299
0.880064 0.924895 0.301183
0.87808 0.940429 0.398596
0.875853 0.954437 0.49041
0.87364 0.966934 0.571496
0.871794 0.978012 0.645487
0 0.858 0
0 0.858 0
0 0.858 0
0 0.858 0
0 0.858 0
0 0.857939 0
0 0.857801 0
0 0.857527 0
0 0.857099 0
0 0.856458 0
0 0.855543 0
0 0.854246 0
0 0.857282 0
0.0844739 0.862776 0
0.339605 0.862089 0
0.512489 0.857954 0
0.618845 0.853834 0
0.69894 0.851682 0
0.758343 0.85124 0
0.803449 0.85214 0
0.837156 0.854475 0
0.861387 0.858366 0
0.874983 0.863874 0
0.87689 0.871077 0
0.877012 0.8804 0
0.878309 0.893324 0
0.880964 0.909178 0.102327
0.880629 0.922591 0.205997
0.87924 0.935653 0.308141
0.87747 0.947982 0.404227
0.87541 0.959716 0.494072
0.873381 0.970459 0.571786
0.871641 0.980362 0.643946
0 0.904646 0
0 0.904646 0
0 0.904646 0
0 0.904646 0
0 0.904646 0
0 0.904646 0
0 0.90457 0
0 0.904341 0
0 0.903838 0
0 0.903029 0
0 0.901961 0
0 0.900572 0
0 0.902022 0
0.0555123 0.906966 0
0.31873 0.905898 0
0.49926 0.900954 0
0.606088 0.895979 0
0.685344 0.892836 0
0.744396 0.89131 0
0.789548 0.890837 0
0.824521 0.891386 0
0.850828 0.893065 0
0.868711 0.895949 0
0.874617 0.900099 0
0.875669 0.906218 0
0.87834 0.916655 0.0191653
0.879911 0.92726 0.119142
0.879576 0.937179 0.219211
0.87837 0.9467 0.318013
0.876768 0.956313 0.411963
0.874891 0.965728 0.499352
0.873014 0.97464 0.575113
0.871443 0.98323 0.64361
0 0.940505 0
0 0.940505 0
0 0.940505 0
0 0.940505 0
0 0.940505 0
0 0.940505 0
0 0.940505 0
0 0.940429 0
0 0.940108 0
0 0.939269 0
0 0.938048 0
0 0.936584 0
0 0.937057 0
0.0602731 0.941985 0
0.333547 0.939727 0
0.500175 0.934234 0
0.601419 0.928954 0
0.677058 0.924956 0
0.734218 0.922805 0
0.778561 0.921599 0
0.81355 0.921141 0
0.840604 0.921416 0
0.861051 0.92256 0
0.872145 0.924651 0
0.874159 0.929137 0
0.877913 0.937499 0.0482795
0.878889 0.944564 0.143084
0.878508 0.951202 0.238254
0.877424 0.957992 0.331716
0.87599 0.965118 0.422293
0.874296 0.972274 0.506096
0.872587 0.979416 0.580041
0.871153 0.986633 0.64596
0 0.96672 0
0 0.96672 0
0 0.96672 0
0 0.96672 0
0 0.96672 0
0 0.96672 0
0 0.96672 0
0 0.96672 0
0 0.966705 0
0 0.966217 0
0 0.965057 0
0 0.963623 0
0 0.964569 0
0.106935 0.968688 0
0.376852 0.964508 0
0.514611 0.958785 0
0.605356 0.953613 0
0.674617 0.950042 0
0.728298 0.947692 0
0.770748 0.946105 0
0.804791 0.945129 0
0.83183 0.944686 0
0.853666 0.944839 0
0.868544 0.946059 0
0.87393 0.949798 0
0.877455 0.955856 0.0861067
0.877913 0.96025 0.175326
0.877424 0.964538 0.263813
0.876448 0.9691 0.350469
0.875166 0.973999 0.43595
0.873625 0.979202 0.514763
0.872099 0.98468 0.586526
0.870817 0.990478 0.649836
0 0.986648 0
0 0.986648 0
0 0.986648 0
0 0.986648 0
0 0.986648 0
0 0.986648 0
0 0.986648 0
0 0.986648 0
0 0.986648 0
0 0.986648 0
0 0.986038 0
0 0.984771 0
0 0.989319 0
0.239857 0.988571 0
0.432319 0.983063 0
0.538659 0.977523 0
0.616526 0.97293 0
0.67747 0.96965 0
0.726268 0.96733 0
0.765866 0.965682 0
0.798276 0.964492 0
0.824598 0.963684 0
0.846571 0.963577 0
0.864103 0.965331 0
0.874723 0.969345 0.0559701
0.876554 0.972 0.136736
0.876875 0.974243 0.216022
0.876326 0.976699 0.296651
0.875441 0.979522 0.375128
0.874266 0.982727 0.453864
0.872908 0.986282 0.526421
0.87155 0.99025 0.594888
0.870436 0.99469 0.655055
0 1 0
0 1 0
0 1 0
0 1 0
0 1 0
0 1 0
0 1 0
0 1 0
0 1 0
0 1 0
0 1 0
0 1 0
0.128801 1 0
0.367376 1 0
0.489219 0.996612 0
0.569238 0.991775 0
0.633204 0.987961 0
0.685069 0.985138 0
0.728222 0.983001 0
0.764263 0.981552 0
0.794736 0.980804 0
0.820249 0.980316 0
0.842359 0.980804 0
0.861616 0.983185 0.049897
0.873564 0.984558 0.121294
0.875654 0.985473 0.192386
0.875792 0.986313 0.263783
0.875196 0.987503 0.334142
0.874388 0.98909 0.405829
0.87332 0.990997 0.476234
0.872129 0.993255 0.541878
0.87097 0.995911 0.605509
0.870024 0.999115 0.661677
0.283589 1 0
0.283574 1 0
0.283574 1 0
0.283574 1 0
0.283574 1 0
0.283574 1 0
0.283558 1 0
0.283558 1 0
0.283543 1 0
0.283543 1 0
0.283528 1 0
0.283497 1 0
0.347906 1 0
0.456336 1 0
0.5402 1 0
0.603342 1 0
0.654643 1 0
0.697795 0.999039 0
0.735042 0.997238 0
0.76733 0.996368 0
0.796094 0.996796 0.0225376
0.820432 0.996933 0.057908
0.840986 0.996826 0.0932326
0.858045 0.996796 0.137926
0.870497 0.996735 0.192416
0.874372 0.996643 0.25275
0.874647 0.996612 0.315175
0.874067 0.996948 0.377646
0.873289 0.997574 0.441016
0.872343 0.998474 0.502831
0.871336 0.99971 0.56112
0.870375 1 0.618936
0.869612 1 0.669902
0.511391 1 0.116136
0.511391 1 0.116136
0.511391 1 0.116136
0.511391 1 0.116136
0.511391 1 0.116136
0.511376 1 0.116136
0.511376 1 0.116136
0.511376 1 0.116136
0.511376 1 0.116136
0.511376 1 0.116136
0.511376 1 0.116136
0.51136 1 0.116136
0.511345 1 0.116136
0.536843 1 0.116381
0.588525 1 0.117662
0.638697 1 0.120653
0.68011 1 0.125231
0.715648 1 0.131579
0.746929 1 0.140093
0.774182 1 0.151019
0.798581 1 0.164752
0.819928 1 0.18201
0.838422 1 0.203464
0.854124 1 0.23093
0.866529 1 0.269734
0.87277 1 0.317174
0.873487 1 0.369223
0.872908 1 0.424964
0.87219 1 0.480095
0.871366 1 0.531792
0.870527 1 0.584421
0.86978 1 0.635035
0.869169 1 0.680217
0.618585 1 0.248478
0.618585 1 0.248478
0.618585 1 0.248478
0.618585 1 0.248478
0.618585 1 0.248478
0.618585 1 0.248478
0.618585 1 0.248478
0.618585 1 0.248478
0.61857 1 0.248478
0.61857 1 0.248478
0.61857 1 0.248478
0.61857 1 0.248478
0.61857 1 0.248478
0.618555 1 0.248478
0.633951 1 0.249119
0.667323 1 0.251545
0.701518 1 0.255039
0.730831 1 0.259648
0.756481 1 0.265614
0.779355 1 0.273335
0.800595 1 0.28307
0.819516 1 0.295308
0.83624 1 0.309911
0.850721 1 0.327916
0.862943 1 0.35137
0.870939 1 0.385504
0.871977 1 0.427665
0.871763 1 0.473579
0.871107 1 0.51928
0.87042 1 0.564981
0.869764 1 0.610697
0.8692 1 0.653666
0.868742 1 0.692302
0.686702 1 0.365835
0.686702 1 0.365835
0.686702 1 0.365835
0.686702 1 0.365835
0.686702 1 0.365835
0.686702 1 0.365835
0.686702 1 0.365835
0.686702 1 0.365835
0.686702 1 0.365835
0.686702 1 0.365835
0.686702 1 0.365835
0.686702 1 0.365835
0.686702 1 0.365835
0.686687 1 0.365835
0.686687 1 0.365835
0.697002 1 0.366644
0.720394 1 0.369039
0.744747 1 0.372564
0.765866 1 0.376913
0.785321 1 0.382666
0.803616 1 0.389548
0.820081 1 0.398077
0.834913 1 0.408637
0.848096 1 0.421759
0.859586 1 0.438056
0.868132 1 0.458671
0.870542 1 0.487922
0.870634 1 0.521782
0.8701 1 0.559991
0.869551 1 0.599878
0.869078 1 0.638407
0.868666 1 0.674037
0.868345 1 0.706111
0.733623 1 0.471122
0.733623 1 0.471122
0.733623 1 0.471122
0.733623 1 0.471122
0.733623 1 0.471122
0.733623 1 0.471122
0.733623 1 0.471122
0.733623 1 0.471122
0.733623 1 0.471122
