BBLuts/BB_101_0160_LUT.cube
TITLE "Generated by Resolve"
LUT_3D_SIZE 5
0 0 0
0.215228 0 0
0.770352 0 0
0.987839 0.577432 0.10837
0.987839 0.94255 0.769207
0 0.237858 0
0.171405 0.241321 0
0.776135 0.120745 0
0.987839 0.624018 0.0517281
0.987839 0.942962 0.768978
0 0.780926 0
0 0.780697 0
0.719448 0.771084 0
0.987839 0.818738 0
0.987839 0.948425 0.76553
0.613947 0.986404 0.240665
0.613947 0.986404 0.240665
0.768582 0.981064 0.257053
0.979171 0.970687 0.415808
0.987839 0.976806 0.794308
0.956191 0.987839 0.880308
0.956191 0.987839 0.880308
0.956191 0.987839 0.880308
0.973098 0.987839 0.882856
0.987839 0.987839 0.908248
0 0 0.23064
0.177768 0 0.230594
0.76936 0 0.232486
0.987839 0.564935 0.308095
0.987839 0.942535 0.769223
0 0.192004 0.214527
0.170794 0.190036 0.210208
0.769223 0.0142367 0.214801
0.987839 0.615503 0.28893
0.987839 0.942946 0.768978
0 0.776776 0
0 0.776532 0
0.723522 0.76701 0
0.987839 0.817136 0.0503395
0.987839 0.948425 0.76553
0.621088 0.98616 0.24004
0.621088 0.98616 0.24004
0.770642 0.980926 0.256413
0.979232 0.970642 0.415564
0.987839 0.976806 0.794308
0.956222 0.987839 0.880308
0.956222 0.987839 0.880308
0.956222 0.987839 0.880308
0.973129 0.987839 0.882856
0.987839 0.987839 0.908248
0 0 0.770642
0 0 0.770718
0.758556 0 0.766827
0.987839 0.299443 0.779217
0.987839 0.940368 0.855528
0 0 0.769635
0 0 0.769696
0.76733 0 0.765393
0.987839 0.460334 0.776165
0.987839 0.94081 0.855406
0 0.722942 0.738277
0 0.722988 0.738293
0.691203 0.715877 0.739132
0.987839 0.790265 0.755261
0.987839 0.946593 0.853849
0.614649 0.984894 0.637644
0.614649 0.984894 0.637644
0.759213 0.979934 0.641215
0.973678 0.969497 0.684169
0.987839 0.976364 0.836881
0.956741 0.987839 0.880247
0.956741 0.987839 0.880247
0.956741 0.987839 0.880247
0.973297 0.987839 0.882795
0.987839 0.987839 0.908232
0 0 0.987839
0 0 0.987839
0 0 0.987839
0.987839 0 0.987839
0.987839 0.908186 0.97203
0 0 0.987839
0 0 0.987839
0 0 0.987839
0.987839 0 0.987839
0.987839 0.909422 0.971939
0 0 0.987839
0 0 0.987839
0 0 0.987839
0.987839 0 0.987839
0.987839 0.92285 0.970932
0 0.986023 0.966033
0 0.986023 0.966033
0 0.986023 0.966033
0.956237 0.960418 0.964065
0.987839 0.972015 0.966567
0.952865 0.987839 0.948669
0.952865 0.987839 0.948669
0.952865 0.987839 0.948669
0.96875 0.987839 0.949294
0.987839 0.987839 0.956451
0 0.323888 0.987839
0 0.323888 0.987839
0 0.323888 0.987839
0 0.323964 0.987839
0.987839 0.681483 0.987839
0 0.323888 0.987839
0 0.323888 0.987839
0 0.323888 0.987839
0 0.323964 0.987839
0.987839 0.681483 0.987839
0 0.323888 0.987839
0 0.323888 0.987839
0 0.323888 0.987839
0 0.323964 0.987839
0.987839 0.681483 0.987839
0 0.322637 0.987839
0 0.322637 0.987839
0 0.322637 0.987839
0 0.322698 0.987839
0.987839 0.685191 0.987839
0.890333 0.987839 0.987839
0.890333 0.987839 0.987839
0.890333 0.987839 0.987839
0.890333 0.987839 0.987839
0.987839 0.987839 0.987839
