BBLuts/BB_106_0380_LUT.cube
TITLE "Generated by Resolve"
LUT_3D_SIZE 33
0.0249027 0.0265354 0.0293431
0.0249027 0.0265354 0.0293431
0.0249027 0.0265354 0.0293431
0.0249027 0.0265354 0.0293431
0.0249027 0.0265354 0.0293431
0.0693828 0.0265507 0.029221
0.120027 0.0273594 0.0298772
0.157504 0.0278935 0.0302892
0.194858 0.0281987 0.0305028
0.240543 0.0281224 0.0303044
0.295583 0.0273289 0.0293889
0.358679 0.0256199 0.0275578
0.430396 0.0230716 0.0249027
0.510918 0.0202029 0.0218967
0.585702 0.0170291 0.0185245
0.651759 0.0145266 0.0158083
0.71545 0.0143893 0.0153964
0.774212 0.0170443 0.0177005
0.823713 0.0209964 0.0213321
0.862043 0.0244297 0.0244907
0.862547 0.0243381 0.0244144
0.862547 0.0243381 0.0244144
0.85362 0.285389 0.108766
0.842863 0.464866 0.153384
0.832929 0.58854 0.198169
0.823758 0.670146 0.25066
0.814878 0.740124 0.325048
0.807935 0.791287 0.430167
0.802701 0.826688 0.541924
0.798581 0.853132 0.637644
0.795071 0.871916 0.710033
0.79266 0.886824 0.771084
0.791012 0.898604 0.816022
0.0249027 0.0265354 0.0293431
0.0249027 0.0265354 0.0293431
0.0249027 0.0265354 0.0293431
0.0249027 0.0265354 0.0293431
0.0249027 0.0265354 0.0293431
0.0807507 0.0267185 0.0293584
0.124071 0.0274205 0.0299229
0.160479 0.027924 0.0303197
0.19971 0.0282139 0.0305028
0.246418 0.0280766 0.0302434
0.301717 0.0271916 0.0292363
0.364218 0.0254368 0.0273747
0.433997 0.0229496 0.0247654
0.512856 0.0201419 0.0218204
0.586892 0.016968 0.0184634
0.652583 0.0145113 0.0157931
0.715908 0.0144045 0.0153964
0.774395 0.0170596 0.0177157
0.823621 0.0209964 0.0213169
0.861753 0.0243992 0.0244755
0.862547 0.0243381 0.0244144
0.862547 0.0243381 0.0244144
0.852583 0.313176 0.0999619
0.841794 0.478889 0.148608
0.832334 0.59472 0.195529
0.823301 0.674006 0.249058
0.814618 0.742428 0.3234
0.807813 0.792508 0.429282
0.80264 0.827359 0.541466
0.79855 0.853513 0.637415
0.795056 0.872129 0.709926
0.79266 0.886946 0.771023
0.791012 0.89868 0.815991
0.0249027 0.0265354 0.0293431
0.0249027 0.0265354 0.0293431
0.0249027 0.0265354 0.0293431
0.0249027 0.0265354 0.0293431
0.0249027 0.0265354 0.0293431
0.08748 0.0268254 0.0294347
0.125811 0.027451 0.0299382
0.163333 0.0279545 0.0303349
0.204791 0.0282292 0.0305028
0.252079 0.0280156 0.0301671
0.306615 0.0270848 0.0291295
0.3673 0.02533 0.0272679
0.43679 0.0228428 0.0246586
0.514961 0.0200504 0.0217288
0.588098 0.016907 0.0184024
0.653391 0.0144961 0.0157778
0.71635 0.0144045 0.0154116
0.774548 0.0170748 0.017731
0.823499 0.0209812 0.0213169
0.861433 0.0243687 0.024445
0.862547 0.0243381 0.0244144
0.862547 0.0243381 0.0244144
0.851453 0.337743 0.0857862
0.840787 0.491829 0.143496
0.831739 0.600214 0.192828
0.822858 0.677775 0.247471
0.814374 0.744686 0.321736
0.807706 0.793713 0.428412
0.802579 0.828016 0.541009
0.79852 0.85388 0.637201
0.795041 0.872343 0.709804
0.792645 0.887068 0.770962
0.790997 0.898741 0.815961
0.0249027 0.0265354 0.0293431
0.0249027 0.0265354 0.0293431
0.0249027 0.0265354 0.0293431
0.024094 0.0336614 0.0292058
0.0466011 0.0393072 0.0293736
0.0924544 0.0269169 0.0295109
0.12668 0.0274662 0.0299535
0.16376 0.0279698 0.0303349
0.205737 0.0282292 0.0305028
0.254215 0.027985 0.0301518
0.309636 0.0270085 0.0290532
0.36997 0.0252384 0.0271611
0.439506 0.0227512 0.024567
0.517052 0.0199741 0.0216373
0.589319 0.016846 0.0183413
0.654231 0.0144656 0.0157473
0.716777 0.0144198 0.0154116
0.774685 0.0170748 0.017731
0.823377 0.0209659 0.0213016
0.861112 0.0243381 0.0244144
0.862547 0.0243381 0.0244144
0.857145 0.132738 0.0298924
0.850294 0.359686 0.0492866
0.839841 0.5037 0.138018
0.831174 0.605417 0.190082
0.822431 0.681468 0.245853
0.814145 0.746883 0.320104
0.807584 0.794888 0.427543
0.802518 0.828672 0.540566
0.798489 0.854231 0.636973
0.795026 0.872557 0.709697
0.79263 0.887205 0.770901
0.790997 0.898817 0.815915
0.0196994 0.0829938 0.0296178
0.0194247 0.0860761 0.0296635
0.0191653 0.0890822 0.0296941
0.0189059 0.0919661 0.0297246
0.0188144 0.09308 0.0297398
0.078645 0.0925917 0.0295415
0.116243 0.0908064 0.029633
0.1552 0.0862898 0.0297246
0.199649 0.0756542 0.0296941
0.255039 0.027985 0.0301366
0.311467 0.0269627 0.0289921
0.37232 0.0251621 0.0270848
0.44213 0.0226596 0.0244602
0.519188 0.0198825 0.021561
0.590585 0.0167849 0.018265
0.655055 0.0144503 0.0157321
0.71722 0.0144198 0.0154269
0.774807 0.0170901 0.0177462
0.823224 0.0209506 0.0212863
0.860761 0.0243076 0.0243839
0.862547 0.0243381 0.0244144
0.855848 0.195636 0.0366979
0.849058 0.380133 0.0496681
0.838941 0.514778 0.132082
0.83061 0.610651 0.187289
0.822003 0.6851 0.244266
0.813916 0.74905 0.318471
0.807477 0.796048 0.426673
0.802457 0.829328 0.540108
0.798459 0.854597 0.636759
0.79501 0.87277 0.70959
0.792615 0.887312 0.770825
0.790982 0.898894 0.815885
0.0167697 0.116014 0.029984
0.0165408 0.118456 0.0299992
0.0163272 0.120867 0.0300298
0.016144 0.122774 0.030045
0.0160678 0.12369 0.0300603
0.0579232 0.123598 0.0297246
0.10631 0.123018 0.0296483
0.147875 0.121233 0.0296483
0.193393 0.116976 0.0294652
0.246204 0.108095 0.028748
0.305104 0.0903334 0.0273899
0.374304 0.0251011 0.0270085
0.444678 0.0225681 0.0243687
0.521355 0.0198062 0.0214694
0.591913 0.0167239 0.018204
0.655924 0.014435 0.0157015
0.717662 0.014435 0.0154269
0.774945 0.0171054 0.0177615
0.823072 0.0209354 0.0212711
0.86041 0.0242771 0.0243534
0.862547 0.0243381 0.0244144
0.854978 0.238148 0.0412299
0.847791 0.398779 0.0497597
0.838102 0.525246 0.125505
0.830045 0.615915 0.184405
0.821576 0.68867 0.242679
0.813687 0.751171 0.316838
0.80737 0.797192 0.425803
0.802411 0.829984 0.539651
0.798428 0.854963 0.636545
0.794995 0.872969 0.709484
0.792615 0.887449 0.770764
0.790982 0.89897 0.815869
0.0136873 0.148913 0.0302129
0.013489 0.150973 0.0302281
0.0132906 0.153033 0.0302281
0.0131685 0.154208 0.0302434
0.0131075 0.154971 0.0302434
0.013077 0.1552 0.0302434
0.0894484 0.154818 0.0297093
0.137758 0.15407 0.0296788
0.186023 0.151827 0.0295109
0.240787 0.146807 0.0287938
0.300313 0.13695 0.0273136
0.365881 0.120531 0.0249943
0.439857 0.0895705 0.0221561
0.523949 0.0196994 0.0213626
0.593561 0.0166476 0.0181277
0.656962 0.0144198 0.0156863
0.718196 0.0144503 0.0154421
0.775082 0.0171054 0.0177615
0.822873 0.0209201 0.0212558
0.859953 0.0242466 0.0243229
0.862547 0.0243381 0.0244144
0.853849 0.279026 0.0449073
0.846235 0.419852 0.0496071
0.83714 0.537224 0.116258
0.829358 0.622202 0.180804
0.821073 0.692943 0.240742
0.813413 0.753704 0.314855
0.807233 0.798566 0.424735
0.802335 0.830762 0.539101
0.798383 0.85539 0.636286
0.794965 0.873213 0.709346
0.792599 0.887602 0.770703
0.790982 0.899046 0.815824
0.00981155 0.18677 0.0301823
0.00961318 0.188571 0.0301671
0.00946059 0.190021 0.0301518
0.00936904 0.190906 0.0301518
0.00929274 0.191531 0.0301366
0.00926223 0.191852 0.0301366
0.0385138 0.19173 0.0297856
0.119783 0.191501 0.0295872
0.174258 0.190494 0.0295567
0.231952 0.187167 0.0290379
0.293828 0.180163 0.0277104
0.362417 0.169558 0.0254673
0.437476 0.153735 0.0225834
0.517403 0.127459 0.0194247
0.591241 0.0669566 0.0159915
0.658381 0.0143893 0.0156558
0.718929 0.0144656 0.0154574
0.77528 0.0171206 0.0177768
0.822568 0.0208896 0.0212406
0.859327 0.0241855 0.0242618
0.856245 0.174319 0.0343175
0.852125 0.323781 0.0478828
0.844266 0.445869 0.0492866
0.835981 0.551965 0.10016
0.828473 0.630304 0.175845
0.820417 0.698497 0.238163
0.813062 0.756985 0.313313
0.80708 0.800366 0.423346
0.802258 0.831785 0.538369
0.798337 0.85597 0.63592
0.794934 0.873564 0.709163
0.792569 0.8878 0.770596
0.790967 0.899168 0.815763
0.00448615 0.231907 0.0294347
0.00430304 0.233417 0.0294041
0.00419623 0.234195 0.0293736
0.00408942 0.234974 0.0293584
0.00402838 0.235508 0.0293431
0.0039826 0.235874 0.0293431
0.00395209 0.236088 0.0293278
0.0795148 0.235935 0.0288853
0.152956 0.235065 0.0292058
0.216373 0.232593 0.0291295
0.282948 0.227878 0.0282139
0.35613 0.220279 0.0263828
0.435492 0.209277 0.0239719
0.517159 0.193637 0.0215457
0.588098 0.172076 0.0187533
0.651621 0.141451 0.0162509
0.714183 0.0899519 0.0148013
0.775525 0.0171359 0.017792
0.822156 0.0208591 0.0211948
0.852522 0.150134 0.0313573
0.854322 0.263386 0.043595
0.849515 0.372808 0.0495613
0.84184 0.477958 0.0488594
0.834577 0.56968 0.0480964
0.827314 0.64065 0.168887
0.819577 0.705669 0.23473
0.812619 0.761181 0.312093
0.806867 0.802686 0.421485
0.802136 0.833143 0.537377
0.798276 0.856733 0.635447
0.794903 0.874006 0.708919
0.792554 0.88806 0.770459
0.790951 0.899321 0.815702
0 0.284306 0.0274815
0 0.284718 0.0274662
0 0.285115 0.027451
0 0.285481 0.0274357
0 0.285679 0.0274205
0 0.285725 0.0274205
0 0.285618 0.0274205
0 0.285283 0.0274357
0.112032 0.285069 0.0277562
0.191196 0.284352 0.0285191
0.265095 0.281621 0.0283207
0.34432 0.276341 0.0271
0.429831 0.268269 0.0253452
0.516411 0.257298 0.0238651
0.588098 0.244785 0.0224918
0.650629 0.230747 0.0221256
0.710781 0.216861 0.0238193
0.766842 0.207813 0.0279088
0.813306 0.2215 0.0346227
0.848539 0.27013 0.0436255
0.851301 0.341024 0.0486763
0.845838 0.425269 0.049546
0.839033 0.513619 0.0484016
0.832715 0.591043 0.0478218
0.825849 0.653681 0.158968
0.81854 0.714656 0.230289
0.812055 0.766506 0.310597
0.806592 0.805646 0.419059
0.801999 0.834882 0.53608
0.798199 0.85771 0.634806
0.794858 0.874586 0.708598
0.792523 0.888411 0.770275
0.790936 0.899535 0.81561
0 0.341924 0.0244755
0 0.342367 0.024445
0 0.342794 0.0244144
0 0.34313 0.0243992
0 0.343374 0.0243992
0 0.343496 0.0243839
0 0.343557 0.0243839
0 0.343435 0.0243839
0 0.343008 0.0243992
0.147387 0.344244 0.0264286
0.236088 0.343618 0.0274662
0.323796 0.340536 0.0271458
0.417319 0.33489 0.0261845
0.511986 0.327581 0.0256962
0.586877 0.319615 0.0255436
0.649744 0.312612 0.0266575
0.708949 0.308507 0.0300755
0.763668 0.310323 0.0358282
0.808713 0.326604 0.0425422
0.842451 0.364065 0.0485695
0.846464 0.4168 0.0496376
0.841413 0.483467 0.0487831
0.836027 0.551736 0.0481727
0.830472 0.612543 0.0472114
0.824033 0.66981 0.144152
0.817273 0.725719 0.224689
0.811353 0.773144 0.308797
0.806271 0.8094 0.415869
0.801801 0.83714 0.53434
0.798093 0.858991 0.633967
0.794797 0.875364 0.708171
0.792493 0.888869 0.770031
0.790906 0.899809 0.815473
0 0.411673 0.0206149
0 0.412116 0.0205844
0 0.412512 0.0205692
0 0.412833 0.0205539
0 0.413077 0.0205386
0 0.413245 0.0205386
0 0.413367 0.0205234
0 0.413443 0.0205234
0 0.413306 0.0205386
0 0.412848 0.0205539
0.185626 0.416175 0.0251774
0.28954 0.415564 0.0263523
0.394415 0.412634 0.0261387
0.49958 0.408499 0.0263218
0.580896 0.403571 0.0268406
0.646113 0.400061 0.0286412
0.70515 0.400412 0.0325933
0.758144 0.406638 0.0383459
0.801053 0.423087 0.043946
0.833356 0.452644 0.0480201
0.840635 0.4934 0.0486458
0.836866 0.540902 0.048188
0.832624 0.591943 0.0477913
0.827695 0.638666 0.0462501
0.821851 0.689372 0.11931
0.815793 0.739025 0.217716
0.810513 0.781247 0.306752
0.805859 0.81413 0.411688
0.801572 0.840009 0.532021
0.797955 0.860624 0.632853
0.794705 0.876371 0.707591
0.792432 0.889479 0.769726
0.790875 0.90016 0.81532
0 0.496376 0.018204
0 0.496757 0.018204
0 0.497093 0.0181888
0 0.497353 0.0181888
0 0.497581 0.0181888
0 0.49778 0.0181888
0 0.497948 0.0181888
0 0.498085 0.0181888
0 0.498192 0.0181888
0 0.498283 0.0181888
0.0641642 0.499733 0.0201724
0.231937 0.503532 0.0254826
0.356863 0.502922 0.0261234
0.475456 0.500587 0.0263066
0.568078 0.49749 0.026688
0.636866 0.495247 0.0281376
0.697963 0.496117 0.0316777
0.750118 0.502113 0.0370031
0.791501 0.515099 0.0423133
0.823194 0.535943 0.04654
0.835142 0.562814 0.0481422
0.832288 0.595285 0.0477302
0.828717 0.629084 0.0466316
0.824369 0.668956 0.0449378
0.819532 0.712459 0.0429236
0.814145 0.754513 0.209369
0.809552 0.790845 0.304631
0.805325 0.819913 0.409628
0.801282 0.84361 0.528969
0.797803 0.862699 0.631373
0.794598 0.877668 0.706828
0.79237 0.890257 0.769299
0.790829 0.900633 0.815091
0 0.579965 0.019028
0 0.580194 0.019028
0 0.580423 0.0190433
0 0.580621 0.0190433
0 0.580789 0.0190433
0 0.580926 0.0190433
0 0.581048 0.0190585
0 0.581201 0.0190585
0 0.581308 0.0190585
0 0.581323 0.0190585
0 0.581216 0.0190585
0.122713 0.583993 0.0240635
0.299184 0.585321 0.0271458
0.437903 0.583474 0.0265202
0.546685 0.581201 0.0263981
0.622446 0.579355 0.027451
0.687968 0.579767 0.0310979
0.741497 0.583856 0.0364843
0.781903 0.592493 0.0415198
0.812604 0.604517 0.0453193
0.829572 0.62118 0.0469215
0.827222 0.642954 0.0460822
0.824201 0.670436 0.0448615
0.820584 0.702937 0.0433509
0.816785 0.738079 0.0419471
0.81239 0.771908 0.199939
0.808469 0.801831 0.302785
0.804654 0.826841 0.410315
0.800916 0.848325 0.524941
0.797589 0.865293 0.629435
0.794461 0.879316 0.705806
0.792279 0.891279 0.768719
0.790784 0.901259 0.814786
0 0.648402 0.0209201
0 0.648524 0.0209201
0 0.64863 0.0209354
0 0.648722 0.0209354
0 0.648798 0.0209354
0 0.648859 0.0209354
0 0.648905 0.0209354
0 0.648951 0.0209354
0 0.648966 0.0209354
0 0.64892 0.0209354
0 0.648753 0.0209354
0 0.648341 0.0209201
0.209033 0.650965 0.0270695
0.385061 0.649958 0.0268711
0.515007 0.648356 0.0265812
0.602518 0.646723 0.0270237
0.673503 0.646479 0.0300145
0.729717 0.648737 0.0349126
0.770504 0.654292 0.0394293
0.800137 0.663569 0.0426642
0.823514 0.676631 0.0445716
0.821668 0.693126 0.0438087
0.819333 0.714214 0.0428473
0.816724 0.738659 0.0419318
0.814084 0.764828 0.0413214
0.81059 0.790555 0.190341
0.807309 0.813977 0.301808
0.803876 0.834958 0.411719
0.800504 0.85359 0.520729
0.797345 0.868528 0.626841
0.794308 0.881407 0.704463
0.792172 0.892561 0.767971
0.790707 0.902037 0.814404
0 0.715496 0.0252384
0 0.715557 0.0252384
0 0.715587 0.0252384
0 0.715618 0.0252537
0 0.715633 0.0252537
0 0.715648 0.0252537
0 0.715648 0.0252537
0 0.715618 0.0252537
0 0.715557 0.0252384
0 0.71545 0.0252232
0 0.71519 0.0252079
0 0.714717 0.0251469
0 0.713832 0.0250401
0.314321 0.716182 0.0309911
0.473976 0.714321 0.0296483
0.577905 0.712306 0.0287327
0.654337 0.711192 0.0300145
0.713832 0.712169 0.0336004
0.756085 0.715633 0.0372931
0.786313 0.721828 0.0399939
0.809155 0.730846 0.0417029
0.816342 0.742336 0.041825
0.814908 0.756405 0.041474
0.813306 0.772992 0.0412146
0.811612 0.791241 0.0411078
0.808865 0.809461 0.183062
0.806073 0.827283 0.302342
0.803006 0.844129 0.414374
0.799908 0.859525 0.523568
0.79704 0.87248 0.623438
0.794095 0.884001 0.702678
0.792035 0.894179 0.766964
0.790616 0.903059 0.81387
0 0.779202 0.0358282
0 0.779187 0.0358282
0 0.779171 0.0358282
0 0.779141 0.0358129
0 0.77911 0.0358129
0 0.779065 0.0357977
0 0.779004 0.0357824
0 0.778912 0.0357671
0 0.778775 0.0357366
0 0.778546 0.0356909
0 0.77818 0.0356146
0 0.777554 0.0354925
0 0.776593 0.0352789
0.220005 0.778134 0.0400244
0.424216 0.775616 0.0371405
0.552834 0.772671 0.0343023
0.633585 0.770169 0.0330205
0.695933 0.769451 0.0344701
0.740154 0.770581 0.0369116
0.772152 0.77348 0.0389868
0.79556 0.778286 0.0404212
0.812161 0.785122 0.0411078
0.811399 0.793591 0.0411078
0.810483 0.803906 0.0411536
0.809491 0.815656 0.0412757
0.807233 0.828183 0.181109
0.804776 0.841306 0.305592
0.802029 0.854383 0.419028
0.799252 0.866117 0.527825
0.796643 0.877119 0.621729
0.793851 0.887144 0.700343
0.791867 0.896178 0.765637
0.790509 0.904341 0.813169
0 0.830564 0.0485084
0 0.830488 0.0484779
0 0.830411 0.0484627
0 0.83035 0.0484474
0 0.830259 0.0484321
0 0.830182 0.0484016
0 0.830076 0.0483711
0 0.829908 0.0483253
0 0.829679 0.0482643
0 0.829343 0.0481727
0 0.82884 0.0480354
0 0.828061 0.0478218
0 0.826993 0.0475471
0.121538 0.826993 0.0496834
0.384604 0.824231 0.0462501
0.530632 0.820142 0.0412451
0.617304 0.816327 0.037644
0.680552 0.814237 0.0371099
0.725795 0.813733 0.0382391
0.75938 0.814374 0.0395819
0.784009 0.816266 0.0406195
0.802106 0.819593 0.0412757
0.808774 0.824231 0.041413
0.80827 0.830411 0.0415198
0.807645 0.838102 0.0416724
0.8056 0.846357 0.188205
0.803449 0.85565 0.313359
0.800992 0.864576 0.426703
0.798489 0.873411 0.533913
0.796094 0.882338 0.625635
0.793576 0.890852 0.697261
0.791669 0.898589 0.763867
0.790372 0.905928 0.812222
0 0.868711 0.0589914
0 0.868605 0.0589609
0 0.868498 0.0589303
0 0.868391 0.0588998
0 0.868284 0.0588693
0 0.868162 0.0588388
0 0.868009 0.0588083
0 0.867796 0.058732
0 0.867506 0.0586557
0 0.867094 0.0585489
0 0.866499 0.058381
0 0.865675 0.0581521
0 0.864576 0.057847
0.0885939 0.863645 0.0582437
0.373129 0.860182 0.0533761
0.521737 0.855268 0.0468299
0.608423 0.850782 0.041825
0.670054 0.847623 0.0399786
0.714488 0.84625 0.0400702
0.748486 0.845762 0.0407416
0.773846 0.846174 0.0413519
0.79263 0.847562 0.0417792
0.806683 0.850278 0.0419318
0.806394 0.853819 0.0420081
0.806027 0.858503 0.0421149
0.803998 0.863294 0.20795
0.802106 0.868788 0.327764
0.799908 0.874723 0.4383
0.79765 0.881254 0.542489
0.795148 0.888136 0.631052
0.793149 0.894942 0.699641
0.79144 0.901457 0.761501
0.790204 0.907866 0.810987
0 0.897276 0.066743
0 0.897139 0.0667124
0 0.897002 0.0666819
0 0.89688 0.0666514
0 0.896742 0.0666056
0 0.89659 0.0665751
0 0.896406 0.0665141
0 0.896162 0.066453
0 0.895827 0.0663615
0 0.895369 0.0662547
0 0.894759 0.0660868
0 0.89395 0.0658732
0 0.892851 0.0655833
0.171893 0.891646 0.065095
0.394202 0.88658 0.0572366
0.52845 0.881361 0.0500649
0.606958 0.876753 0.0446174
0.664286 0.873625 0.0421149
0.706538 0.871794 0.0415656
0.739651 0.870695 0.0417487
0.764965 0.870237 0.0420844
0.784543 0.87042 0.0423438
0.800031 0.87129 0.0424811
0.804868 0.872877 0.0424201
0.804654 0.875395 0.0424811
0.802426 0.877668 0.240833
0.800717 0.88098 0.35053
0.798733 0.884825 0.454871
0.796719 0.889326 0.554131
0.794446 0.894286 0.638498
0.792645 0.899397 0.704143
0.791135 0.904723 0.761761
0.790005 0.910155 0.809339
0 0.917586 0.0718242
0 0.917449 0.0717937
0 0.917296 0.0717479
0 0.917144 0.0717174
0 0.916991 0.0716869
0 0.916854 0.0716411
0 0.916655 0.0715953
0 0.916411 0.0715343
0 0.916075 0.0714733
0 0.915618 0.0713512
0 0.915022 0.0712139
0 0.914229 0.0710155
0 0.913176 0.0707713
0.294179 0.909773 0.0653391
0.44712 0.904646 0.0575113
0.549722 0.899687 0.0507057
0.613718 0.895476 0.0457771
0.664012 0.892546 0.0433356
0.702724 0.890608 0.0425269
0.733944 0.889265 0.0424659
0.758175 0.888441 0.0426032
0.777783 0.888014 0.0427405
0.793408 0.88809 0.0428168
0.803571 0.888701 0.04271
0.802228 0.88925 0.166659
0.800793 0.890486 0.284428
0.799237 0.89221 0.382635
0.797498 0.894408 0.477928
0.795743 0.897215 0.569757
0.793683 0.900465 0.648539
0.792081 0.904173 0.710201
0.790738 0.908309 0.765438
0.789776 0.912734 0.808606
0 0.932799 0.0752575
0 0.932662 0.075227
0 0.932509 0.0751965
0 0.932357 0.0751659
0 0.932219 0.0751354
0 0.932067 0.0751049
0 0.931884 0.0750744
0 0.93164 0.0750134
0 0.931319 0.0749523
0 0.930892 0.0748455
0 0.930327 0.0747234
0.124453 0.928908 0.0729076
0.294499 0.925765 0.0677195
0.414405 0.921553 0.0610819
0.509651 0.917357 0.0550393
0.575341 0.913283 0.0496376
0.626444 0.909895 0.0458686
0.667994 0.907393 0.0438849
0.702327 0.905562 0.0430915
0.730709 0.904173 0.0428931
0.753292 0.903197 0.0429236
0.772198 0.90251 0.0429847
0.787701 0.902129 0.0430152
0.799649 0.901839 0.0907149
0.80032 0.901274 0.246204
0.7991 0.901442 0.337438
0.797696 0.901991 0.423926
0.796201 0.902998 0.508659
0.794385 0.90454 0.590051
0.792874 0.906584 0.660853
0.791455 0.909102 0.718288
0.790311 0.912123 0.770291
0.789471 0.915541 0.811261
0 0.943648 0.0774853
0 0.943511 0.0774701
0 0.943358 0.0774395
0 0.943236 0.077409
0 0.943099 0.0773785
0 0.942962 0.077348
0.055314 0.941909 0.0754864
0.13959 0.941527 0.0748302
0.204211 0.940581 0.0732586
0.266178 0.939055 0.0707103
0.329351 0.937011 0.0673381
0.393286 0.9346 0.0634928
0.458412 0.931975 0.059556
0.516365 0.929061 0.0553445
0.564416 0.925994 0.0512093
0.605966 0.92311 0.0477302
0.643458 0.920653 0.0453346
0.676265 0.918685 0.043946
0.705333 0.917082 0.0433051
0.730098 0.915801 0.0431067
0.750591 0.914794 0.0430915
0.768338 0.91397 0.0431067
0.782254 0.91281 0.129442
0.793194 0.911772 0.238895
0.798489 0.910964 0.31928
0.79736 0.91043 0.396902
0.796139 0.910277 0.471962
0.794583 0.910567 0.546715
0.793301 0.911299 0.615183
0.792004 0.912413 0.674937
0.790814 0.913954 0.728786
0.789853 0.916014 0.776577
0.789166 0.918486 0.81474
0.380774 0.944732 0.0650034
0.391485 0.944305 0.064332
0.40174 0.943893 0.0636759
0.411612 0.943496 0.0630655
0.421164 0.94313 0.062501
0.430381 0.942763 0.0619516
0.441032 0.942321 0.0612955
0.454063 0.941756 0.060441
0.469749 0.941024 0.0593423
0.488365 0.940078 0.057969
0.50988 0.938918 0.0563058
0.534096 0.937514 0.0543374
0.558282 0.935897 0.0521401
0.583124 0.934096 0.0498512
0.609705 0.932235 0.0476844
0.635889 0.930098 0.102296
0.661677 0.928313 0.125582
0.686687 0.926696 0.146944
0.709819 0.925261 0.169024
0.730159 0.923995 0.192889
0.748028 0.92285 0.219303
0.763882 0.921782 0.249226
0.777264 0.920806 0.283467
0.788128 0.919799 0.334524
0.796597 0.91873 0.395331
0.795636 0.917876 0.459358
0.794293 0.917296 0.525261
0.793256 0.917082 0.587533
0.792187 0.917205 0.6448
0.791135 0.917662 0.69366
0.790158 0.918471 0.741894
0.789395 0.919753 0.784543
0.78883 0.921462 0.819181
0.55346 0.94139 0.321187
0.5561 0.941253 0.321126
0.558709 0.941115 0.321065
0.561288 0.940993 0.321019
0.563897 0.940871 0.320974
0.566491 0.940749 0.320943
0.569787 0.940505 0.321263
0.573831 0.9402 0.321218
0.579019 0.939818 0.321202
0.585595 0.93933 0.321248
0.593774 0.93872 0.321355
0.603769 0.937987 0.321614
0.615656 0.937133 0.322164
0.629297 0.936172 0.323171
0.644648 0.935134 0.324804
0.661601 0.934005 0.327398
0.679591 0.93286 0.331228
0.697841 0.931716 0.336751
0.715465 0.930617 0.344335
0.731777 0.929564 0.354528
0.747204 0.928542 0.367834
0.761242 0.927535 0.384909
0.773388 0.926574 0.406439
0.783795 0.925658 0.433143
0.792203 0.924697 0.474144
0.793667 0.923705 0.525658
0.792844 0.922957 0.578592
0.791974 0.922408 0.629328
0.791104 0.922118 0.674159
0.790249 0.922148 0.716411
0.789517 0.922499 0.75761
0.788937 0.923262 0.794324
0.78851 0.924392 0.824826
0.626291 0.936751 0.459831
0.627558 0.936706 0.459861
0.628794 0.936675 0.459922
0.63003 0.936629 0.459968
0.631251 0.936599 0.460014
0.632441 0.936568 0.46009
0.63389 0.936522 0.460151
0.635798 0.936477 0.460258
0.638285 0.9364 0.46038
0.641505 0.936309 0.460594
0.645624 0.936202 0.460868
0.650828 0.93608 0.461295
0.657298 0.935943 0.461875
0.665141 0.93579 0.46273
0.674449 0.935637 0.463981
0.6851 0.935485 0.465766
0.696864 0.935363 0.468299
0.70956 0.934722 0.47219
0.722255 0.933928 0.477012
0.735225 0.933089 0.483497
0.747997 0.932235 0.492073
0.75996 0.931365 0.503349
0.770703 0.930541 0.518044
0.78027 0.929732 0.536507
0.788388 0.928969 0.558358
0.792126 0.9281 0.591257
0.79147 0.927306 0.630381
0.790784 0.926619 0.668681
0.790082 0.926162 0.704997
0.789441 0.925948 0.741634
0.788907 0.92604 0.775448
0.788495 0.926436 0.805783
0.78819 0.927108 0.831861
0.672267 0.934157 0.578714
0.672923 0.934157 0.578759
0.673564 0.934142 0.578836
0.674205 0.934127 0.578897
0.674846 0.934127 0.578943
0.675456 0.934112 0.579004
0.676234 0.934112 0.57908
0.677241 0.934096 0.579187
0.678553 0.934081 0.579309
0.680278 0.934051 0.579492
0.682506 0.93402 0.579736
0.685359 0.933989 0.580072
0.68896 0.933959 0.58053
0.693431 0.933913 0.581155
0.698863 0.933867 0.582025
0.705257 0.933837 0.583185
0.712581 0.933791 0.584787
0.720943 0.933761 0.586969
0.73019 0.93373 0.589868
0.740047 0.933684 0.593744
0.750103 0.933654 0.598871
0.759808 0.933593 0.605524
0.769207 0.933318 0.614389
0.777722 0.932601 0.625284
0.785107 0.931945 0.638941
0.790616 0.931243 0.655467
0.790204 0.930541 0.677592
0.7897 0.929885 0.706127
0.789181 0.929381 0.73695
0.788739 0.929076 0.766842
0.788388 0.929 0.794247
0.788113 0.929152 0.818463
0.7879 0.929473 0.840314
0.702998 0.932525 0.668818
0.703334 0.932525 0.668864
0.70367 0.932525 0.668894
0.70399 0.932525 0.668925
0.704311 0.932525 0.668971
0.704631 0.932525 0.669001
0.705028 0.932509 0.669047
0.705562 0.932509 0.669093
0.706249 0.932509 0.669184
