BBLuts/BB_102_0490_LUT.cube
TITLE "Generated by Resolve"
LUT_3D_SIZE 5
0.00822461 0.00933852 0.00393683
0.189548 0.00769055 0.00161746
0.70518 0.00808728 0.000564584
0.874174 0.493034 0.0912642
0.843153 0.926726 0.635111
0 0.2168 0.00289921
0.150469 0.217609 0.000549325
0.704677 0.0987106 0.000320439
0.868025 0.570886 0.0615549
0.843061 0.928191 0.634485
0 0.758923 0.000747692
0 0.758495 0.000762951
0.611658 0.748287 0
0.849378 0.798795 0
0.842359 0.937987 0.629831
0.475517 0.977493 0.148196
0.517647 0.976577 0.150256
0.665248 0.971771 0.166262
0.834913 0.964904 0.290517
0.83978 0.971557 0.651987
0.808042 0.983032 0.735927
0.808484 0.983032 0.735988
0.811627 0.983063 0.73637
0.828794 0.98323 0.739788
0.838254 0.98323 0.765545
0.0103609 0.0119478 0.144228
0.171695 0.0104982 0.141939
0.707393 0.0110628 0.141848
0.8766 0.475273 0.228656
0.843107 0.926314 0.650568
0 0.185962 0.129854
0.161746 0.180774 0.124071
0.708156 0.0109102 0.128771
0.870329 0.560494 0.213001
0.843 0.927794 0.650004
0 0.755352 0.000762951
0 0.754864 0.000762951
0.616602 0.744732 0
0.851331 0.79913 0.0636301
0.842298 0.937682 0.645869
0.48275 0.977295 0.147799
0.522591 0.976379 0.149859
0.666896 0.971633 0.165927
0.835019 0.964858 0.290471
0.83978 0.971542 0.651911
0.808103 0.983032 0.735927
0.808545 0.983032 0.735988
0.811688 0.983063 0.736355
0.828824 0.98323 0.739788
0.838254 0.98323 0.765545
0.00927749 0.0122377 0.619989
0.00927749 0.0122377 0.620172
0.712337 0.0120089 0.612604
0.895827 0.20061 0.629511
0.842924 0.923354 0.721431
0.00929274 0.012253 0.618402
0.00927749 0.012253 0.618616
0.720348 0.0120546 0.610895
0.880934 0.408362 0.62475
0.842802 0.924941 0.721111
0 0.711192 0.580133
0 0.711559 0.580392
0.604913 0.702602 0.578531
0.854261 0.77734 0.599619
0.842084 0.935058 0.718853
0.485863 0.977569 0.457877
0.524086 0.976669 0.458747
0.664683 0.971893 0.465492
0.830594 0.964309 0.519341
0.839551 0.970916 0.702342
0.808621 0.983032 0.735866
0.809049 0.983047 0.735927
0.812131 0.983078 0.736294
0.828992 0.98323 0.739727
0.838254 0.98323 0.765545
0.00721752 0.0108034 0.855375
0.00721752 0.0108034 0.855375
0.00721752 0.0108034 0.855375
0.907332 0.011902 0.852201
0.844816 0.887373 0.829664
0.00721752 0.0108034 0.855375
0.00721752 0.0108034 0.855375
0.00721752 0.0108034 0.855375
0.907332 0.011902 0.852201
0.844572 0.890806 0.829389
0.00721752 0.0108034 0.855375
0.00721752 0.0108034 0.855375
0.330556 0.00955215 0.852445
0.907332 0.011902 0.852201
0.843076 0.911437 0.827726
0 0.97821 0.822705
0 0.976379 0.822568
0.534386 0.965377 0.818586
0.814572 0.95491 0.818936
0.839078 0.966461 0.822431
0.805417 0.982773 0.799466
0.805829 0.982773 0.799466
0.808835 0.982803 0.799985
0.825452 0.982971 0.80116
0.837964 0.983063 0.810376
0 0.296941 0.853666
0 0.296941 0.853666
0 0.296956 0.853666
0 0.297124 0.853666
0.859998 0.676982 0.848463
0 0.296925 0.853666
0 0.296925 0.853666
0 0.296941 0.853666
0 0.297108 0.853666
0.859998 0.677104 0.848463
0 0.296818 0.853666
0 0.296818 0.853666
0 0.296834 0.853666
0.343923 0.275441 0.850645
0.859937 0.677989 0.848447
0 0.295644 0.853666
0 0.295644 0.853666
0 0.295659 0.853666
0.907332 0.011902 0.852201
0.859724 0.680812 0.848432
0.745922 0.981994 0.845762
0.747875 0.98201 0.845777
0.760678 0.982132 0.845823
0.809583 0.98262 0.846036
0.837705 0.982895 0.846159
