BBLuts/BB_103_0950_LUT.cube
TITLE "Generated by Resolve"
LUT_3D_SIZE 33
0.0699626 0.0676738 0.0522469
0.0699626 0.0676738 0.0522469
0.0699626 0.0676738 0.0522469
0.0699626 0.0676738 0.0522469
0.0699626 0.0676738 0.0522469
0.134722 0.067628 0.0518654
0.2065 0.0681926 0.0519875
0.258625 0.0688487 0.0523079
0.309194 0.0696422 0.0527657
0.368673 0.0707408 0.0534371
0.437644 0.0721599 0.0543679
0.510628 0.0738842 0.0555428
0.577264 0.0759289 0.0569314
0.634531 0.0783703 0.0585794
0.700481 0.0812695 0.0605783
0.771115 0.0845045 0.0628367
0.843366 0.0879072 0.0652323
0.914763 0.0913863 0.067689
0.977279 0.0944839 0.0699168
1 0.0968948 0.0716411
1 0.09691 0.0716564
1 0.09691 0.0716564
1 0.408835 0.133425
0.986679 0.590799 0.180056
0.977295 0.685374 0.234836
0.968887 0.771511 0.302083
0.961089 0.849699 0.395361
0.954467 0.911162 0.517601
0.94934 0.95671 0.616205
0.945281 0.991745 0.695018
0.942031 1 0.773556
0.93933 1 0.846479
0.937194 1 0.904753
0.0699626 0.0676738 0.0522469
0.0699626 0.0676738 0.0522469
0.0699626 0.0676738 0.0522469
0.0699626 0.0676738 0.0522469
0.0699626 0.0676738 0.0522469
0.150896 0.0677043 0.0518502
0.212161 0.0682536 0.052018
0.262699 0.0689097 0.0523537
0.315633 0.0697642 0.052842
0.376181 0.0708934 0.0535439
0.445212 0.0723278 0.05449
0.516243 0.0740368 0.0556497
0.579904 0.0760357 0.0570077
0.636057 0.0784314 0.0586252
0.701793 0.0813306 0.0606241
0.77203 0.0845502 0.0628672
0.8439 0.0879377 0.0652476
0.914992 0.0913863 0.0677043
0.977157 0.0944839 0.0699016
1 0.0968795 0.0716411
1 0.09691 0.0716564
1 0.09691 0.0716564
0.998062 0.44097 0.120104
0.985763 0.599557 0.174136
0.97673 0.691447 0.231617
0.968505 0.775677 0.300343
0.960861 0.852369 0.3935
0.954345 0.912657 0.516716
0.949264 0.957549 0.6159
0.945235 0.992233 0.69482
0.942 1 0.773434
0.939315 1 0.846403
0.937179 1 0.904723
0.0699626 0.0676738 0.0522469
0.0699626 0.0676738 0.0522469
0.0699626 0.0676738 0.0522469
0.0699626 0.0676738 0.0522469
0.0699626 0.0676738 0.0522469
0.160464 0.0677653 0.0518502
0.214618 0.0682841 0.0520333
0.266636 0.0689708 0.0523842
0.322332 0.0698711 0.052903
0.383383 0.0710307 0.0536355
0.451301 0.0724651 0.0545815
0.519326 0.0741283 0.0557107
0.581827 0.076112 0.0570535
0.637736 0.0785077 0.0586862
0.703136 0.0813916 0.0606699
0.772915 0.084596 0.0628977
0.844419 0.0879683 0.0652628
0.915175 0.0914015 0.0677043
0.97702 0.0944686 0.0699016
1 0.0968643 0.0716259
1 0.09691 0.0716564
1 0.09691 0.0716564
0.996033 0.469871 0.101472
0.984894 0.608392 0.167834
0.976181 0.697368 0.228367
0.968124 0.779767 0.298604
0.960632 0.854978 0.391623
0.954208 0.914137 0.515846
0.949187 0.958404 0.615579
0.94519 0.992706 0.694621
0.941985 1 0.773297
0.9393 1 0.846326
0.937179 1 0.904677
0.0699626 0.0676738 0.0522469
0.0699626 0.0676738 0.0522469
0.0699626 0.0676738 0.0522469
0.068864 0.0784772 0.0522316
0.101625 0.0857099 0.0518654
0.167544 0.0678264 0.0518654
0.215839 0.0682994 0.0520333
0.267216 0.0689708 0.0523842
0.323583 0.0699016 0.0529183
0.386084 0.0710765 0.053666
0.45507 0.0725414 0.0546273
0.521965 0.0742046 0.0557565
0.583612 0.0761883 0.0571145
0.639414 0.078584 0.058732
0.704479 0.0814527 0.0607004
0.773816 0.0846418 0.0629282
0.844923 0.0879835 0.0652781
0.915358 0.0914168 0.0677195
0.976852 0.0944686 0.0699016
1 0.0968338 0.0716106
1 0.09691 0.0716564
1 0.230716 0.0647898
0.99411 0.494591 0.0583963
0.984054 0.616968 0.161105
0.975631 0.703151 0.225071
0.967773 0.783795 0.296849
0.960403 0.857527 0.389761
0.954086 0.915602 0.514977
0.949111 0.959243 0.615274
0.945159 0.993179 0.694408
0.941955 1 0.773175
0.939284 1 0.84625
0.937163 1 0.904631
0.06215 0.146807 0.0523995
0.061738 0.151125 0.0524147
0.061326 0.155306 0.0524453
0.0609445 0.159319 0.0524605
0.0607919 0.160891 0.0524758
0.14725 0.159319 0.0513466
0.20058 0.156573 0.0511482
0.254856 0.150286 0.0512245
0.314839 0.136034 0.0516365
0.387121 0.071107 0.0536812
0.457328 0.0725872 0.0546578
0.524269 0.0742657 0.0558022
0.585275 0.0762646 0.0571603
0.641123 0.0786603 0.0587778
0.705852 0.0815137 0.0607462
0.774731 0.0846723 0.0629587
0.845441 0.088014 0.0653086
0.915511 0.0914168 0.0677195
0.976669 0.0944533 0.0698863
1 0.0968185 0.0715801
1 0.09691 0.0716564
1 0.305425 0.0623789
0.992554 0.515557 0.0580301
0.983261 0.625208 0.153826
0.975113 0.708766 0.221729
0.967407 0.787732 0.295125
0.960189 0.860044 0.3879
0.953964 0.917037 0.514107
0.94905 0.960082 0.614969
0.945113 0.993652 0.694224
0.941939 1 0.773037
0.939269 1 0.846159
0.937163 1 0.904585
0.0577249 0.192874 0.0526741
0.0574044 0.196292 0.0527047
0.057084 0.199649 0.0527352
0.0568246 0.202319 0.0527504
0.0567025 0.203586 0.0527657
0.11751 0.202777 0.0516823
0.186481 0.201511 0.0511025
0.244526 0.198932 0.0509651
0.30605 0.193484 0.0510872
0.374319 0.182589 0.051545
0.447776 0.160739 0.052491
0.526207 0.0743267 0.0558328
0.586862 0.0763256 0.0572061
0.642863 0.0787366 0.0588388
0.707256 0.08159 0.0607919
0.775662 0.0847181 0.0629892
0.84596 0.0880446 0.0653239
0.915663 0.0914321 0.0677195
0.976471 0.0944533 0.0698863
1 0.096788 0.0715801
1 0.09691 0.0716564
1 0.354788 0.0611124
0.99115 0.534005 0.0576944
0.982483 0.633204 0.145785
0.974609 0.71429 0.218296
0.967056 0.791638 0.2934
0.959976 0.862531 0.386053
0.953841 0.918441 0.513237
0.948974 0.960906 0.614649
0.945068 0.994125 0.694026
0.941909 1 0.772915
0.939254 1 0.846082
0.937148 1 0.904555
0.0533455 0.238712 0.0530556
0.0530709 0.241581 0.0530861
0.0528115 0.244419 0.0531014
0.0526589 0.246067 0.0531167
0.0525521 0.24712 0.0531319
0.0525216 0.247456 0.0531319
0.162631 0.245716 0.0513008
0.230411 0.244343 0.0509041
0.295903 0.241489 0.0508583
0.366629 0.235828 0.0511025
0.440421 0.224796 0.051667
0.514717 0.206165 0.0526131
0.581582 0.168811 0.0543221
0.644968 0.0788281 0.0588998
0.708995 0.0816663 0.060853
0.776806 0.0847791 0.0630198
0.846586 0.0880751 0.0653391
0.915846 0.0914321 0.0677348
0.976211 0.0944381 0.0698711
1 0.0967727 0.0715496
1 0.09691 0.0716564
1 0.402029 0.0600595
0.989578 0.553841 0.0573281
0.981567 0.642588 0.134508
0.973999 0.720897 0.214008
0.966628 0.796338 0.291264
0.959716 0.865492 0.383764
0.953704 0.920134 0.512169
0.948882 0.961898 0.614282
0.945022 0.99469 0.693782
0.941878 1 0.772763
0.939239 1 0.845991
0.937148 1 0.904479
0.0483711 0.29099 0.0535439
0.048127 0.293477 0.0535744
0.0479438 0.29546 0.0535897
0.0478218 0.296666 0.0536049
0.0477455 0.297536 0.0536049
0.0476997 0.297963 0.0536202
0.090425 0.297078 0.0525368
0.205722 0.295567 0.0510719
0.280095 0.29398 0.050782
0.354757 0.290303 0.0508278
0.431266 0.282948 0.051194
0.509361 0.27216 0.0518654
0.577478 0.25536 0.0528878
0.636027 0.225055 0.0544594
0.705409 0.149889 0.0579843
0.778363 0.0848554 0.0630655
0.847456 0.0881056 0.0653697
0.916091 0.0914473 0.0677348
0.975845 0.0944076 0.0698558
1 0.0967269 0.071519
1 0.280324 0.0631266
0.996948 0.453742 0.0590829
0.987701 0.576699 0.0569009
0.980392 0.654521 0.115084
0.973205 0.729427 0.208118
0.966079 0.802472 0.288426
0.959381 0.869352 0.38204
0.953506 0.922362 0.51075
0.948775 0.963226 0.613794
0.944961 0.995438 0.693462
0.941848 1 0.772549
0.939208 1 0.845869
0.937133 1 0.904418
0.0425269 0.352102 0.0542
0.0423285 0.354116 0.0542153
0.042237 0.355154 0.0542306
0.0421302 0.356207 0.0542458
0.0420539 0.356924 0.0542458
0.0420233 0.357397 0.0542611
0.0419776 0.357702 0.0542611
0.150484 0.35552 0.0518502
0.252079 0.35314 0.0509346
0.334829 0.349905 0.0507362
0.417105 0.345083 0.0508888
0.501244 0.337957 0.0513771
0.573877 0.327321 0.0521553
0.632975 0.310826 0.0532235
0.698085 0.287098 0.0547799
0.766827 0.251057 0.057023
0.840024 0.186297 0.0607767
0.916411 0.0914626 0.0677501
0.975296 0.0943923 0.0698405
1 0.251804 0.0638895
1 0.383978 0.060441
0.993103 0.508186 0.0581521
0.98558 0.598993 0.0563973
0.978759 0.669245 0.0549935
0.972198 0.740368 0.199893
0.965362 0.810407 0.284642
0.958938 0.874296 0.380728
0.953262 0.925231 0.508843
0.948623 0.964965 0.613138
0.944869 0.996429 0.693019
0.941802 1 0.772274
0.939193 1 0.845701
0.937118 1 0.904341
0.0358434 0.4215 0.0550088
0.0357824 0.422034 0.0550088
0.0357366 0.422568 0.055024
0.0356909 0.423041 0.055024
0.0356603 0.423285 0.0550393
0.0356603 0.423362 0.0550393
0.0356756 0.423224 0.055024
0.0357214 0.422766 0.055024
0.198322 0.418647 0.0515755
0.303624 0.416266 0.0508736
0.395285 0.413062 0.050782
0.4878 0.408164 0.0510719
0.567742 0.400702 0.0516518
0.630014 0.389517 0.0524758
0.695277 0.376455 0.0536202
0.76173 0.360525 0.0550698
0.829892 0.342626 0.0568399
0.897353 0.328161 0.0587778
0.954131 0.33962 0.0600595
0.994751 0.392187 0.06009
0.99556 0.47396 0.0587472
0.989181 0.55874 0.0572366
0.983093 0.624338 0.055848
0.976974 0.687984 0.0546731
0.970932 0.754208 0.188144
0.964446 0.820722 0.279683
0.958373 0.880598 0.379095
0.952956 0.928923 0.506355
0.948425 0.967193 0.612284
0.944762 0.997711 0.692454
0.941726 1 0.771908
0.939147 1 0.845472
0.937087 1 0.904204
0.0286564 0.49485 0.0559548
0.0286107 0.495354 0.0559548
0.0285496 0.495857 0.0559701
0.0285191 0.496239 0.0559701
0.0284886 0.496513 0.0559701
0.0284733 0.496651 0.0559701
0.0284733 0.496712 0.0559701
0.0284733 0.49659 0.0559701
0.0285344 0.496101 0.0559701
0.249271 0.491264 0.0514382
0.361166 0.489158 0.0508888
0.465232 0.486152 0.0509194
0.555917 0.481193 0.0513161
0.624659 0.473854 0.051957
0.691997 0.465415 0.052842
0.758144 0.45684 0.0539559
0.82443 0.449577 0.0552529
0.889326 0.447227 0.0566567
0.944213 0.461524 0.0577096
0.984787 0.499718 0.0580911
0.989807 0.551034 0.0573739
0.985214 0.602625 0.0563211
0.980194 0.654246 0.0552529
0.974823 0.710842 0.0543069
0.969345 0.771481 0.170581
0.963333 0.833204 0.27335
0.957656 0.888518 0.377127
0.95256 0.933608 0.503014
0.94818 0.970092 0.611139
0.944625 0.999374 0.691691
0.941649 1 0.771405
0.939101 1 0.845167
0.937057 1 0.904036
0.0204166 0.566232 0.0570535
0.0203708 0.566629 0.0570535
0.020325 0.566995 0.0570687
0.0202945 0.567285 0.0570687
0.020264 0.567498 0.0570687
0.0202335 0.567666 0.057084
0.0202335 0.567788 0.057084
0.0202182 0.567849 0.057084
0.0202335 0.567712 0.057084
0.0202792 0.5673 0.0570687
0.302129 0.562249 0.0513619
0.426398 0.560632 0.0509346
0.535714 0.558419 0.0510872
0.614221 0.555077 0.0515145
0.685222 0.550927 0.0522011
0.753445 0.547234 0.0531014
0.819318 0.545586 0.054139
0.882078 0.548104 0.0552377
0.93489 0.559808 0.0560922
0.974853 0.582849 0.0565347
0.984527 0.609552 0.0561685
0.981048 0.645457 0.0554208
0.976898 0.688853 0.0546578
0.972259 0.738216 0.0539101
0.967422 0.79266 0.141115
0.961975 0.848371 0.265339
0.956786 0.898268 0.374868
0.952056 0.939529 0.498573
0.94786 0.973785 0.609628
0.944442 1 0.690684
0.941527 1 0.770748
0.939025 1 0.84477
0.937011 1 0.903807
0.0109102 0.628351 0.0583352
0.0108644 0.628626 0.0583352
0.0108186 0.62887 0.0583352
0.0107881 0.629068 0.0583505
0.0107576 0.629236 0.0583505
0.0107424 0.629374 0.0583505
0.0107118 0.629496 0.0583505
0.0107118 0.629602 0.0583658
0.0106966 0.629679 0.0583658
0.0106813 0.629755 0.0583658
0.148379 0.626429 0.0537728
0.361028 0.624765 0.0512551
0.501076 0.623941 0.0509346
0.596323 0.622431 0.0511025
0.672404 0.620447 0.0515602
0.744686 0.618692 0.0522621
0.812894 0.618189 0.0531319
0.874754 0.620432 0.0540169
0.925643 0.627863 0.0547341
0.964584 0.642161 0.0551766
0.979324 0.663432 0.0550851
0.976577 0.692241 0.0545968
0.97319 0.728145 0.0540475
0.969268 0.770336 0.0534981
0.964904 0.817945 0.0529793
0.960388 0.866316 0.255528
0.955749 0.909926 0.372488
0.951415 0.946838 0.496391
0.947463 0.978424 0.607645
0.944213 1 0.689357
0.94139 1 0.769863
0.938933 1 0.844251
0.936965 1 0.903502
0 0.695918 0.0600137
0 0.696147 0.060029
0 0.69633 0.060029
0 0.696513 0.060029
0 0.696651 0.0600443
0 0.696773 0.0600443
0 0.69688 0.0600443
0 0.697017 0.0600443
0 0.697108 0.0600443
0 0.697124 0.0600443
0 0.697017 0.0600443
0.227588 0.691752 0.0529488
0.439414 0.690242 0.0511482
0.570642 0.689021 0.0509346
0.652583 0.687388 0.0510872
0.73022 0.685725 0.0515755
0.802777 0.684794 0.0522774
0.865934 0.686152 0.0530251
0.91545 0.691936 0.0536507
0.953063 0.70312 0.054078
0.973968 0.719875 0.0541695
0.971832 0.742733 0.0538491
0.969116 0.771908 0.0534829
0.965866 0.807157 0.0530861
0.96228 0.846738 0.0527199
0.958572 0.886809 0.24419
0.954528 0.923461 0.370382
0.950622 0.955657 0.497124
0.946975 0.984115 0.604974
0.943923 1 0.687617
0.941207 1 0.768704
0.938827 1 0.843534
0.936889 1 0.90312
0 0.766323 0.0619974
0 0.766445 0.0620127
0 0.766567 0.0620127
0 0.766659 0.0620127
0 0.766735 0.0620127
0 0.766796 0.0620127
0 0.766857 0.0620127
0 0.766888 0.0620127
0 0.766918 0.0620127
0 0.766873 0.0620127
0 0.76669 0.0620127
0 0.766262 0.0619974
0.334966 0.758862 0.0521553
0.527245 0.757397 0.0510719
0.625879 0.755932 0.0508888
0.709331 0.754314 0.0511177
0.787091 0.752987 0.0516213
0.853086 0.753338 0.0522469
0.90309 0.757214 0.052781
0.939971 0.765576 0.0531624
0.968505 0.778576 0.0534066
0.966857 0.796414 0.0532082
0.964721 0.819898 0.0529641
0.962219 0.84741 0.0527047
0.959472 0.877638 0.0524605
0.956588 0.909239 0.232456
0.95317 0.938613 0.369253
0.94966 0.966079 0.498604
0.946395 0.990921 0.602045
0.943572 1 0.685313
0.940978 1 0.767163
0.938689 1 0.842588
0.936812 1 0.902586
0 0.837476 0.0638285
0 0.837537 0.0638285
0 0.837583 0.0638285
0 0.837613 0.0638285
0 0.837629 0.0638285
0 0.837644 0.0638285
0 0.837644 0.0638285
0 0.837613 0.0638285
0 0.837552 0.0638285
0 0.83743 0.0638285
0 0.837156 0.0638132
0 0.836652 0.063798
0 0.835721 0.0637827
0.453941 0.826703 0.0516823
0.592477 0.825162 0.0510109
0.682719 0.823545 0.0509041
0.765225 0.821973 0.0511788
0.834882 0.821546 0.0516365
0.886763 0.823743 0.052079
0.92459 0.829389 0.05243
0.952911 0.838712 0.0526741
0.961837 0.851591 0.0526741
0.960357 0.867826 0.0525368
0.958602 0.887251 0.0523842
0.956634 0.909072 0.0522316
0.954528 0.932464 0.223316
0.951644 0.955444 0.369818
0.948562 0.977951 0.501396
0.945678 0.998734 0.604044
0.94313 1 0.682277
0.940688 1 0.765118
0.938506 1 0.841337
0.93669 1 0.901884
0 0.905852 0.0654154
0 0.905852 0.0654154
0 0.905821 0.0654154
0 0.905791 0.0654154
0 0.90576 0.0654154
0 0.905715 0.0654002
0 0.905653 0.0654002
0 0.905547 0.0654002
0 0.905409 0.0654002
0 0.90515 0.0654002
0 0.904738 0.0653849
0 0.904082 0.0653697
0 0.903014 0.0653544
0.337499 0.893431 0.0531167
0.553658 0.891264 0.0514229
0.653407 0.889296 0.0509346
0.740444 0.887282 0.0509651
0.812879 0.885924 0.0512398
0.867216 0.886183 0.0515755
0.907485 0.888701 0.0518959
0.937072 0.893797 0.0521248
0.957305 0.901717 0.0522774
0.956374 0.91191 0.0522164
0.955245 0.924483 0.0521248
0.953948 0.93901 0.0520333
0.952422 0.955962 0.22063
0.949996 0.973419 0.373571
0.947356 0.990906 0.506233
0.944854 1 0.606897
0.942596 1 0.680766
0.940352 1 0.762448
0.938293 1 0.839689
0.936553 1 0.900938
0 0.962478 0.0666819
0 0.962402 0.0666819
0 0.962325 0.0666819
0 0.962234 0.0666819
0 0.962158 0.0666819
0 0.962051 0.0666819
0 0.961929 0.0666819
0 0.961746 0.0666667
0 0.961486 0.0666667
0 0.961105 0.0666514
0 0.960555 0.0666514
0 0.959701 0.0666209
0 0.958495 0.0666056
0.206241 0.949386 0.055787
0.512551 0.945724 0.051957
0.630137 0.943328 0.051133
0.720012 0.940841 0.0509194
0.79295 0.938781 0.0510414
0.848478 0.937728 0.0512856
0.890959 0.937972 0.051545
0.922316 0.939925 0.0517739
0.944869 0.943877 0.0519265
0.952987 0.949706 0.0519722
0.9523 0.957504 0.0519265
0.951431 0.967239 0.0518807
0.950301 0.979217 0.229175
0.948302 0.991638 0.382666
0.946075 1 0.514138
0.943938 1 0.61091
0.941939 1 0.684215
0.939956 1 0.758923
0.938018 1 0.837491
0.93637 1 0.899702
0 1 0.067628
0 1 0.067628
0 1 0.067628
0 1 0.067628
0 1 0.067628
0 1 0.067628
0 1 0.0676127
0 1 0.0676127
0 1 0.0675975
0 1 0.0675975
0 1 0.0675822
0 1 0.0675517
0 1 0.0675364
0.153216 0.991852 0.0575418
0.496025 0.987228 0.0523537
0.619516 0.984634 0.0513313
0.708019 0.981994 0.0509804
0.778866 0.97966 0.0509804
0.833265 0.978042 0.051133
0.876356 0.977218 0.0513313
0.908858 0.977554 0.0515297
0.932891 0.979263 0.0516823
0.950072 0.982422 0.0518044
0.949676 0.986984 0.0517891
0.949126 0.993011 0.0517586
0.948257 1 0.253559
0.946624 1 0.39971
0.944747 1 0.52604
0.942931 1 0.616678
0.941176 1 0.689036
0.939422 1 0.761639
0.937713 1 0.834577
0.936156 1 0.898039
0 1 0.0683604
0 1 0.0683452
0 1 0.0683452
0 1 0.0683452
0 1 0.0683452
0 1 0.0683452
0 1 0.0683299
0 1 0.0683299
0 1 0.0683146
0 1 0.0683146
0 1 0.0682994
0 1 0.0682689
0 1 0.0682383
0.255116 1 0.0555734
0.512779 1 0.0524147
0.623026 1 0.0514229
0.704768 1 0.0510414
0.77055 1 0.0509804
0.822461 1 0.0510719
0.864469 1 0.0512093
0.897002 1 0.0513771
0.922194 1 0.0515145
0.941619 1 0.0516518
0.947478 1 0.0516823
0.947188 1 0.051667
0.946349 1 0.294118
0.944961 1 0.426581
0.943374 1 0.542657
0.941863 1 0.62536
0.940368 1 0.69575
0.938827 1 0.766735
0.937316 1 0.834897
0.935912 1 0.895857
0 1 0.0688792
0 1 0.0688792
0 1 0.068864
0 1 0.068864
0 1 0.068864
0 1 0.0688487
0 1 0.0688487
0 1 0.0688487
0 1 0.0688334
0 1 0.0688182
0 1 0.0688029
0 1 0.0687877
0 1 0.0687572
0.399039 1 0.053666
0.557488 1 0.0521706
0.640955 1 0.0514076
0.711269 1 0.0510872
0.769467 1 0.0509957
0.817166 1 0.0510414
0.856748 1 0.0511482
0.887953 1 0.0512856
0.913252 1 0.0514076
0.933333 1 0.0515297
0.945632 1 0.051606
0.945464 1 0.201129
0.944488 1 0.347219
0.943297 1 0.464744
0.942 1 0.564691
0.940764 1 0.637476
0.939498 1 0.704982
0.93817 1 0.773678
0.936843 1 0.839429
0.935622 1 0.894881
0 1 0.0692607
0 1 0.0692607
0 1 0.0692607
0 1 0.0692607
0 1 0.0692454
0 1 0.0692454
0 1 0.0692454
0 1 0.0692302
0 1 0.0692302
0 1 0.0692149
0 1 0.0691997
0.186007 1 0.0575723
0.396963 1 0.0538643
0.52755 1 0.0525673
0.60444 1 0.0517739
0.668284 1 0.0513161
0.725063 1 0.0510872
0.7738 1 0.0510109
0.816312 1 0.0510414
0.852369 1 0.0511177
0.881468 1 0.0512245
0.905898 1 0.0513313
0.925902 1 0.0514382
0.941588 1 0.106996
0.943542 1 0.300404
0.942687 1 0.410803
0.94168 1 0.510948
0.940658 1 0.592264
0.939681 1 0.653819
0.938613 1 0.717403
0.937469 1 0.783017
0.936309 1 0.845457
0.935241 1 0.89839
0 1 0.0695506
0 1 0.0695506
0 1 0.0695354
0 1 0.0695354
0 1 0.0695354
0 1 0.0695354
0.0878767 1 0.0607767
0.203906 1 0.0572976
0.286351 1 0.0556039
0.36173 1 0.0544442
0.436713 1 0.0535592
0.506432 1 0.0528725
0.563592 1 0.0522927
0.609445 1 0.0518044
0.65597 1 0.0514382
0.701518 1 0.0512093
0.744381 1 0.0510719
0.783841 1 0.0510414
0.819944 1 0.0510567
0.851484 1 0.0511177
0.877882 1 0.051194
0.900847 1 0.0512856
0.920089 1 0.153994
0.935027 1 0.291112
0.941741 1 0.38909
0.940978 1 0.481483
0.940185 1 0.55906
0.939406 1 0.619776
0.938613 1 0.675059
0.937713 1 0.733791
0.936721 1 0.79527
0.935744 1 0.853315
0.934844 1 0.903014
0.493095 1 0.0531014
0.503899 1 0.0529946
0.513909 1 0.0528878
0.523232 1 0.0527962
0.531929 1 0.0527047
0.540139 1 0.0526284
0.549538 1 0.0525368
0.560006 1 0.0524147
0.571145 1 0.0522621
0.585779 1 0.0521096
0.603494 1 0.0519265
0.624491 1 0.0517281
0.648753 1 0.051545
0.675975 1 0.0513619
0.705455 1 0.0512245
0.736171 1 0.117174
0.766888 1 0.147158
0.797879 1 0.174716
0.827131 1 0.202945
0.853315 1 0.233234
0.87657 1 0.266499
0.897337 1 0.303593
0.9149 1 0.345541
0.929305 1 0.407065
0.940017 1 0.479667
0.939422 1 0.546975
0.938811 1 0.605234
0.938216 1 0.651789
0.93756 1 0.701549
0.936812 1 0.754833
0.935988 1 0.810819
0.93518 1 0.863386
0.934417 1 0.908949
0.645228 1 0.381613
0.648264 1 0.381826
0.65124 1 0.38201
0.654154 1 0.382223
0.657023 1 0.382406
0.659831 1 0.38262
0.663203 1 0.382864
0.667613 1 0.3832
0.673289 1 0.383642
0.680522 1 0.384268
0.689586 1 0.385107
0.700771 1 0.386221
0.714229 1 0.387778
0.729915 1 0.389914
0.747875 1 0.392782
0.768139 1 0.396689
0.790417 1 0.401938
0.813245 1 0.408972
0.835676 1 0.41828
0.856703 1 0.430503
0.876768 1 0.446387
0.895109 1 0.466972
0.911025 1 0.491981
0.924712 1 0.520272
0.935912 1 0.561059
0.938048 1 0.605554
0.937621 1 0.644587
0.937133 1 0.687556
0.936568 1 0.732906
0.935943 1 0.780865
0.935271 1 0.829816
0.9346 1 0.876249
0.933974 1 0.916579
0.727672 1 0.544533
0.729137 1 0.544625
0.730587 1 0.544747
0.732021 1 0.544854
0.733425 1 0.544961
0.734829 1 0.545083
0.736522 1 0.54522
0.738766 1 0.545419
0.74168 1 0.545647
0.745464 1 0.545998
0.750347 1 0.546441
0.756542 1 0.547066
0.764309 1 0.547875
0.773816 1 0.548974
0.785489 1 0.550454
0.798718 1 0.552438
0.813535 1 0.555093
0.829419 1 0.558633
0.845716 1 0.563302
0.862501 1 0.569421
0.879118 1 0.577325
0.894743 1 0.587427
0.908797 1 0.599863
0.92134 1 0.612589
0.932006 1 0.628626
0.936873 1 0.654917
0.936538 1 0.688518
0.93611 1 0.726513
0.935637 1 0.767758
0.935103 1 0.810529
0.934569 1 0.851926
0.934035 1 0.891188
0.933532 1 0.926146
0.784024 1 0.643626
0.784833 1 0.643687
0.785626 1 0.643748
0.786404 1 0.643809
0.787198 1 0.64387
0.787976 1 0.643931
0.788922 1 0.644007
0.790173 1 0.644114
0.791806 1 0.644236
0.793957 1 0.644419
0.796735 1 0.644648
0.80029 1 0.644968
0.804822 1 0.645411
0.810452 1 0.645991
0.817304 1 0.646769
0.825452 1 0.647791
0.834821 1 0.64918
0.845579 1 0.651026
0.857542 1 0.653498
0.870344 1 0.656779
0.883421 1 0.661112
0.896071 1 0.666789
0.90808 1 0.674235
0.919173 1 0.683848
0.928817 1 0.696162
0.93576 1 0.711727
0.935515 1 0.736843
0.93518 1 0.769055
0.934768 1 0.804944
0.934356 1 0.841199
0.933913 1 0.876173
0.933516 1 0.908019
0.933104 1 0.937743
0.823651 1 0.726207
0.824063 1 0.726253
0.824491 1 0.726299
0.824903 1 0.726345
0.825315 1 0.72639
0.825727 1 0.726436
0.82623 1 0.726482
0.826902 1 0.726558
0.827771 1 0.72665
