BBLuts/BB_103_0910_LUT.cube
TITLE "Generated by Resolve"
LUT_3D_SIZE 33
0.0221714 0.0127108 0.0162051
0.0221714 0.0127108 0.0162051
0.0221714 0.0127108 0.0162051
0.0221714 0.0127108 0.0162051
0.0221714 0.0127108 0.0162051
0.0726787 0.0131075 0.0165255
0.132326 0.0136721 0.0169833
0.175814 0.0141146 0.0173495
0.218875 0.0145724 0.017731
0.268238 0.0151064 0.0181735
0.323888 0.0157473 0.0187076
0.38294 0.0164645 0.0192874
0.446159 0.0172427 0.0199588
0.520348 0.0181888 0.0207523
0.606394 0.0193027 0.0216831
0.699107 0.0205234 0.0226902
0.795727 0.0218051 0.0237736
0.892821 0.0231174 0.0248722
0.981994 0.0243229 0.0258793
1 0.0252689 0.0266728
1 0.0254826 0.0268406
1 0.0254826 0.0268559
1 0.207446 0.0588693
1 0.40293 0.082826
1 0.533227 0.113375
0.99971 0.649348 0.151598
0.986862 0.757458 0.200626
0.976333 0.849897 0.271824
0.968277 0.921523 0.350042
0.962142 0.976883 0.430838
0.957565 1 0.512963
0.954177 1 0.594339
0.951446 1 0.665675
0.0221714 0.0127108 0.0162051
0.0221714 0.0127108 0.0162051
0.0221714 0.0127108 0.0162051
0.0221714 0.0127108 0.0162051
0.0221714 0.0127108 0.0162051
0.0843366 0.0132143 0.0166018
0.136568 0.0137179 0.0170138
0.179171 0.0141451 0.01738
0.224033 0.0146181 0.0177768
0.274098 0.0151827 0.0182345
0.329656 0.0158236 0.0187686
0.387549 0.0165103 0.0193484
0.449119 0.0172885 0.0199893
0.522377 0.0182193 0.0207675
0.608103 0.0193179 0.0216983
0.700343 0.0205386 0.0227054
0.79649 0.0218204 0.0237888
0.893187 0.0231174 0.0248722
0.981903 0.0243229 0.0258793
1 0.0252689 0.0266728
1 0.0254673 0.0268406
1 0.0254826 0.0268559
1 0.244236 0.0395514
1 0.417594 0.0753338
1 0.542382 0.109377
0.998474 0.65565 0.149279
0.986328 0.761837 0.198444
0.976013 0.852552 0.270619
0.968093 0.923033 0.349401
0.962036 0.977783 0.430457
0.957504 1 0.512734
0.954131 1 0.594186
0.951431 1 0.665583
0.0221714 0.0127108 0.0162051
0.0221714 0.0127108 0.0162051
0.0221714 0.0127108 0.0162051
0.0221714 0.0127108 0.0162051
0.0221714 0.0127108 0.0162051
0.0914473 0.0132753 0.0166629
0.138155 0.0137331 0.0170291
0.182376 0.0141756 0.0173953
0.22945 0.0146792 0.0178225
0.279637 0.0152438 0.0182803
0.334157 0.0158846 0.0188144
0.390158 0.016556 0.0193637
0.451545 0.017319 0.0200198
0.524544 0.0182498 0.0207828
0.609873 0.0193484 0.0217136
0.701564 0.0205539 0.0227207
0.797253 0.0218357 0.0237888
0.893538 0.0231174 0.0248722
0.981796 0.0243229 0.0258793
1 0.0252689 0.0266728
1 0.0254673 0.0268406
1 0.0254826 0.0268559
1 0.274342 0.00570687
1 0.431586 0.066743
1 0.551431 0.105241
0.997742 0.661921 0.146914
0.985809 0.766186 0.196292
0.975708 0.855192 0.269398
0.96791 0.924559 0.348775
0.961929 0.978683 0.430076
0.957443 1 0.512489
0.954101 1 0.594049
0.9514 1 0.665492
0.0221714 0.0127108 0.0162051
0.0221714 0.0127108 0.0162051
0.0221714 0.0127108 0.0162051
0.0217288 0.019028 0.0158694
0.0446479 0.0250095 0.0156558
0.0972763 0.0135653 0.0166934
0.138933 0.0137331 0.0170443
0.182712 0.0141909 0.0174105
0.230426 0.0146944 0.0178225
0.28188 0.015259 0.0183108
0.337026 0.0159152 0.0188449
0.392447 0.0165713 0.0193942
0.45388 0.0173495 0.0200351
0.526711 0.018265 0.0208133
0.611673 0.0193637 0.0217288
0.702831 0.0205692 0.0227359
0.798016 0.0218357 0.0237888
0.893874 0.0231327 0.0248875
0.981643 0.0243229 0.0258793
1 0.0252537 0.0266575
1 0.0254673 0.0268406
1 0.0254826 0.0268559
1 0.300069 0.00282292
1 0.44477 0.0583505
1 0.560174 0.101015
0.997024 0.668055 0.144564
0.985306 0.770428 0.195041
0.975387 0.857786 0.268223
0.967727 0.92604 0.348135
0.961807 0.979568 0.429694
0.957382 1 0.512261
0.954055 1 0.593896
0.951385 1 0.665415
0.0173648 0.0722057 0.0124208
0.0170748 0.0754864 0.012192
0.0168002 0.078706 0.0119631
0.0165103 0.0819257 0.0117189
0.016846 0.083299 0.0116274
0.0829786 0.0828412 0.0120241
0.128557 0.0807355 0.0124971
0.174716 0.0752575 0.0132601
0.225483 0.0622416 0.0146334
0.28275 0.0165713 0.0182345
0.338689 0.0159304 0.0188449
0.394491 0.0166018 0.0194095
0.456138 0.01738 0.0200656
0.528923 0.0182956 0.0208286
0.613504 0.0193942 0.0217594
0.704112 0.0205844 0.0227512
0.798779 0.0218509 0.0238041
0.894163 0.0231327 0.0248875
0.981476 0.0243229 0.0258793
1 0.0252537 0.0266575
1 0.0254673 0.0268406
1 0.0819104 0.0223545
1 0.32459 0.000549325
1 0.457343 0.0487831
1 0.568689 0.0966506
0.996307 0.674083 0.142184
0.984817 0.774594 0.19379
0.975082 0.860349 0.267063
0.967544 0.927504 0.347494
0.9617 0.980453 0.429297
0.957321 1 0.512032
0.954025 1 0.593744
0.951354 1 0.665324
0.0139467 0.11014 0.0096437
0.0137026 0.11281 0.00944533
0.0134432 0.115496 0.00924697
0.0132448 0.117617 0.00907912
0.0131533 0.118639 0.00900282
0.0601358 0.118944 0.00920119
0.117174 0.118441 0.00958267
0.16643 0.116335 0.0101015
0.218631 0.111452 0.0108949
0.275029 0.101106 0.0121767
0.333684 0.0821088 0.0141756
0.396063 0.0196841 0.0192416
0.458412 0.0173953 0.0200809
0.531258 0.0183261 0.0208591
0.615473 0.0194247 0.0217746
0.70547 0.0205997 0.0227665
0.799558 0.0218509 0.0238193
0.894469 0.0231327 0.0248875
0.981308 0.0243076 0.025864
1 0.0252384 0.0266575
1 0.0254673 0.0268406
1 0.172702 0.0144656
1 0.348547 0
1 0.469856 0.0366064
1 0.57734 0.0919203
0.99559 0.680262 0.139696
0.984314 0.778851 0.192523
0.974762 0.862959 0.265843
0.967361 0.929046 0.346838
0.961593 0.981369 0.428916
0.957259 1 0.511788
0.953979 1 0.593576
0.951339 1 0.665232
0.0102388 0.149523 0.00662242
0.0100252 0.151751 0.00643931
0.00981155 0.153994 0.0062562
0.00967422 0.155276 0.00616464
0.00959792 0.1561 0.00610361
0.0104829 0.15639 0.00607309
0.0967575 0.156634 0.00646983
0.154269 0.155917 0.00689708
0.209903 0.153628 0.00749218
0.268498 0.14876 0.00834669
0.32784 0.139239 0.00962844
0.388205 0.122896 0.0115053
0.454231 0.0933852 0.0145113
0.533867 0.0229953 0.0205997
0.618006 0.0194553 0.0218051
0.70721 0.0206302 0.0227817
0.80058 0.0218814 0.0238346
0.894865 0.0231327 0.0248875
0.981048 0.0243076 0.025864
1 0.0252384 0.0266423
1 0.0254673 0.0268406
1 0.231022 0.00920119
1 0.37467 0
1 0.4851 0.0110323
1 0.588098 0.0853742
0.994675 0.687999 0.136507
0.983673 0.784192 0.190921
0.974365 0.86627 0.264302
0.967132 0.930968 0.345998
0.961456 0.982513 0.428397
0.957168 1 0.511482
0.953933 1 0.593378
0.951308 1 0.66511
0.00590524 0.194064 0.0030518
0.00570687 0.196017 0.00289921
0.00555428 0.197513 0.00277714
0.00546273 0.198489 0.00268559
0.00540169 0.199191 0.00263981
0.00535592 0.199573 0.00260929
0.0393072 0.199786 0.00270085
0.132586 0.199908 0.00317388
0.196078 0.198962 0.00367742
0.258122 0.19588 0.00440986
0.320058 0.189715 0.00541695
0.383001 0.180606 0.00672923
0.449699 0.166583 0.00852979
0.526268 0.141985 0.0113222
0.614725 0.0912032 0.0164187
0.709194 0.0251926 0.0225071
0.801968 0.0218967 0.0238499
0.895399 0.0231479 0.0249027
0.980667 0.0243076 0.025864
1 0.0252232 0.026627
1 0.127504 0.0184482
1 0.286992 0.00404364
1 0.404746 0
1 0.504128 0
1 0.60177 0.0765393
0.9935 0.697978 0.13228
0.982864 0.791058 0.188861
0.973861 0.870512 0.262272
0.966827 0.933455 0.3449
0.961273 0.984039 0.427726
0.957061 1 0.51107
0.953872 1 0.593118
0.951263 1 0.664958
0.00077821 0.245411 0
0.00062562 0.246845 0
0.000549325 0.247684 0
0.000457771 0.248508 0
0.000396735 0.249073 0
0.000366217 0.24947 0
0.00111391 0.249714 0
0.0873579 0.249973 0
0.17145 0.248905 0
0.240955 0.246586 0
0.307805 0.242725 0.000839246
0.375021 0.236835 0.00189212
0.444984 0.22797 0.00328069
0.522774 0.214405 0.00517281
0.608377 0.194629 0.00772107
0.698573 0.166262 0.0110933
0.794171 0.12311 0.0157931
0.895659 0.0281529 0.0245518
0.980102 0.0242924 0.025864
1 0.133455 0.0177005
1 0.242237 0.00816358
1 0.342977 0
1 0.437415 0
1 0.527489 0
1 0.618891 0.0650339
0.992004 0.710628 0.12665
0.981826 0.799741 0.186236
0.973205 0.875914 0.259663
0.96643 0.93669 0.34345
0.961028 0.985977 0.426856
0.956924 1 0.510536
0.95378 1 0.592767
0.951217 1 0.664744
0 0.301534 0
0 0.301991 0
0 0.302434 0
0 0.302785 0
0 0.303014 0
0 0.30309 0
0 0.302998 0
0 0.302617 0
0.125887 0.302296 0
0.214191 0.301152 0
0.289128 0.298848 0
0.362417 0.294987 0
0.437049 0.288914 0
0.518685 0.279881 0
0.60502 0.269108 0.0011902
0.693004 0.25597 0.00321965
0.784375 0.24062 0.00550851
0.876646 0.225162 0.00787366
0.958587 0.228367 0.00846876
1 0.264942 0.00584421
1 0.325444 0.000457771
1 0.399268 0
1 0.475288 0
1 0.55584 0
1 0.640162 0.0474098
0.990112 0.726589 0.119112
0.980529 0.810651 0.182925
0.972381 0.882734 0.25626
0.965942 0.940795 0.341573
0.960723 0.988479 0.425727
0.956756 1 0.509819
0.953674 1 0.592309
0.951141 1 0.664469
0 0.360082 0
0 0.360494 0
0 0.360922 0
0 0.361227 0
0 0.361456 0
0 0.361608 0
0 0.361654 0
0 0.361547 0
0 0.361089 0
0.166903 0.360922 0
0.260304 0.359808 0
0.342855 0.357488 0
0.423514 0.353384 0
0.510979 0.347433 0
0.600473 0.340566 0
0.688579 0.333471 0
0.77789 0.326986 0
0.866926 0.323354 0
0.946059 0.330709 0
1 0.356954 0
1 0.400992 0
1 0.454719 0
1 0.518486 0
1 0.589548 0
0.996826 0.666072 0.0130007
0.987762 0.74641 0.108751
0.978943 0.824079 0.17882
0.971359 0.891173 0.251896
0.965301 0.945998 0.339162
0.960342 0.991669 0.424247
0.956527 1 0.508904
0.95346 1 0.591669
0.951049 1 0.664118
0 0.424994 0
0 0.425376 0
0 0.425727 0
0 0.426001 0
0 0.426215 0
0 0.426383 0
0 0.42652 0
0 0.426566 0
0 0.426413 0
0.0400244 0.426139 0
0.209857 0.426154 0
0.310979 0.425147 0
0.401831 0.423102 0
0.496208 0.419837 0
0.590661 0.415671 0
0.681849 0.411719 0
0.771145 0.409293 0
0.857801 0.410117 0
0.933471 0.418738 0
0.99263 0.438849 0
1 0.470756 0
1 0.513771 0
1 0.567239 0
1 0.628916 0
0.993149 0.697215 0
0.984909 0.770275 0.0951858
0.977005 0.840299 0.173877
0.970138 0.901411 0.250095
0.964508 0.952499 0.336156
0.959854 0.995682 0.422339
0.956222 1 0.507698
0.953277 1 0.590875
0.950942 1 0.663645
0 0.49955 0
0 0.499886 0
0 0.500206 0
0 0.500465 0
0 0.500664 0
0 0.500847 0
0 0.500999 0
0 0.501137 0
0 0.501244 0
0 0.501305 0
0.096437 0.501549 0
0.256046 0.501823 0
0.367712 0.501122 0
0.471015 0.499184 0
0.572137 0.496406 0
0.668742 0.493675 0
0.761517 0.492149 0
0.847654 0.493675 0
0.920729 0.50132 0
0.977966 0.51754 0
1 0.542885 0
1 0.577615 0
1 0.621866 0
0.995804 0.674388 0
0.988815 0.734188 0
0.981582 0.798199 0.0793011
0.974716 0.85951 0.168124
0.968673 0.913649 0.248371
0.963546 0.96051 0.332326
0.959228 1 0.419867
0.955856 1 0.506142
0.953033 1 0.589853
0.95079 1 0.663035
0 0.584573 0
0 0.584863 0
0 0.585122 0
0 0.585321 0
0 0.585504 0
0 0.585672 0
0 0.58584 0
0 0.585992 0
0 0.586114 0
0 0.58616 0
0 0.586023 0
0.153323 0.586175 0
0.315648 0.585946 0
0.434333 0.584634 0
0.543923 0.582528 0
0.64741 0.580102 0
0.745983 0.578317 0
0.834531 0.578988 0
0.906188 0.58497 0
0.961456 0.597879 0
1 0.618021 0
0.999603 0.645777 0
0.994934 0.681834 0
0.989807 0.72575 0
0.983856 0.776501 0
0.977813 0.829694 0.0589151
0.972091 0.881468 0.161837
0.966964 0.928054 0.246723
0.962356 0.970199 0.327932
0.95848 1 0.416724
0.955383 1 0.504112
0.952728 1 0.58851
0.950607 1 0.662226
0 0.674388 0
0 0.674556 0
0 0.674723 0
0 0.674846 0
0 0.674937 0
0 0.675029 0
0 0.67512 0
0 0.675196 0
0 0.675212 0
0 0.675151 0
0 0.674937 0
0 0.674388 0
0.228962 0.674296 0
0.384634 0.673396 0
0.506111 0.671733 0
0.617212 0.669566 0
0.722606 0.667475 0
0.815366 0.667124 0
0.888151 0.671046 0
0.942412 0.68072 0
0.984115 0.696345 0
0.990433 0.718242 0
0.987305 0.747112 0
0.983169 0.782376 0
0.9785 0.82208 0
0.973678 0.864103 0.0322881
0.969177 0.905852 0.155581
0.96495 0.9449 0.24535
0.960998 0.981674 0.327749
0.95758 1 0.412909
0.954787 1 0.501457
0.952346 1 0.586755
0.950362 1 0.661173
0 0.765255 0
0 0.765347 0
0 0.765393 0
0 0.765454 0
0 0.765469 0
0 0.765499 0
0 0.765515 0
0 0.765484 0
0 0.765423 0
0 0.765255 0
0 0.764904 0
0 0.764263 0
0.0442969 0.763256 0
0.314412 0.762814 0
0.45919 0.761456 0
0.579324 0.759503 0
0.691432 0.757305 0
0.788891 0.756176 0
0.864439 0.758221 0
0.919982 0.764797 0
0.961578 0.776287 0
0.981308 0.792615 0
0.979492 0.813611 0
0.976486 0.839063 0
0.973053 0.868162 0
0.969406 0.899443 0
0.966094 0.931624 0.150439
0.962707 0.963775 0.244816
0.959426 0.994797 0.32842
0.956542 1 0.408972
0.954086 1 0.498116
0.951873 1 0.584482
0.950072 1 0.6598
0 0.855497 0
0 0.855482 0
0 0.855467 0
0 0.855436 0
0 0.855406 0
0 0.85536 0
0 0.855283 0
0 0.855177 0
0 0.854978 0
0 0.854673 0
0 0.854154 0
0 0.853315 0
0 0.851987 0
0.222675 0.851087 0
0.403357 0.849729 0
0.536324 0.8477 0
0.655009 0.845182 0
0.756405 0.843168 0
0.83537 0.843107 0
0.894072 0.846067 0
0.937606 0.852461 0
0.968002 0.862654 0
0.971954 0.876219 0
0.970108 0.893034 0
0.967773 0.912642 0
0.965164 0.934554 0
0.962814 0.959075 0.147143
0.96025 0.984436 0.245899
0.957702 1 0.330159
0.955352 1 0.410544
0.953216 1 0.493996
0.951293 1 0.581521
0.949691 1 0.658
0 0.932738 0
0 0.932662 0
0 0.93257 0
0 0.932479 0
0 0.932372 0
0 0.93225 0
0 0.932097 0
0 0.931868 0
0 0.931533 0
0 0.931044 0
0 0.930312 0
0 0.929229 0
0 0.927703 0
0.118578 0.926116 0
0.353292 0.924651 0
0.499809 0.922347 0
0.623453 0.919387 0
0.726177 0.916594 0
0.806775 0.914961 0
0.86807 0.915129 0
0.914702 0.917571 0
0.947631 0.922667 0
0.965103 0.930343 0
0.964446 0.940627 0
0.962905 0.953582 0
0.961074 0.968933 0
0.959518 0.986862 0.15021
0.957717 1 0.249744
0.955871 1 0.333562
0.954025 1 0.413535
0.952178 1 0.493004
0.950607 1 0.577859
0.949233 1 0.655665
0 0.992584 0
0 0.992447 0
0 0.992294 0
0 0.992157 0
0 0.991989 0
0 0.991806 0
0 0.991577 0
0 0.991257 0
0 0.990829 0
0 0.990188 0
0 0.989288 0
0 0.988083 0
0 0.986435 0
0.0534524 0.984497 0
0.32784 0.982986 0
0.479896 0.980499 0
0.603449 0.977356 0
0.704082 0.974212 0
0.78323 0.971832 0
0.845533 0.97055 0
0.893935 0.970764 0
0.928832 0.972869 0
0.95552 0.976959 0
0.959258 0.983047 0
0.958404 0.99118 0
0.957321 1 0.0126192
0.95639 1 0.161578
0.955261 1 0.25771
0.953948 1 0.339315
0.952483 1 0.418067
0.951095 1 0.496483
0.949813 1 0.574594
0.948684 1 0.652659
0 1 0
0 1 0
0 1 0
0 1 0
0 1 0
0 1 0
0 1 0
0 1 0
0 1 0
0 1 0
0 1 0
0 1 0
0 1 0
0.111696 1 0
0.337499 1 0
0.479515 1 0
0.595926 1 0
0.690715 1 0
0.766064 1 0
0.826993 1 0
0.875517 1 0
0.911879 1 0
0.940551 1 0
0.954635 1 0
0.954543 1 0
0.95407 1 0.0621653
0.953582 1 0.180957
0.95288 1 0.270512
0.951934 1 0.348058
0.950957 1 0.424842
0.94995 1 0.501717
0.948989 1 0.578347
0.948043 1 0.649073
0 1 0
0 1 0
0 1 0
0 1 0
0 1 0
0 1 0
0 1 0
0 1 0
0 1 0
0 1 0
0 1 0
0 1 0
0 1 0
0.217227 1 0
0.37966 1 0
0.500359 1 0
0.602441 1 0
0.68748 1 0
0.756848 1 0
0.814679 1 0
0.860899 1 0
0.897902 1 0
0.927565 1 0
0.949966 1 0
0.951232 1 0
0.951171 1 0.111421
0.950957 1 0.208301
0.950561 1 0.287755
0.950042 1 0.360922
0.949416 1 0.434607
0.94876 1 0.509163
0.948089 1 0.58381
0.947372 1 0.651545
0 1 0
0 1 0
0 1 0
0 1 0
0 1 0
0 1 0
0 1 0
0 1 0
0 1 0
0 1 0
0 1 0
0 1 0
0.189853 1 0
0.333104 1 0
0.441413 1 0
0.535744 1 0
0.619928 1 0
0.692409 1 0
0.75436 1 0
0.807462 1 0
0.850629 1 0
0.886473 1 0
0.91606 1 0
0.939284 1 0
0.948333 1 0.0594186
0.948745 1 0.165042
0.948714 1 0.243107
0.948547 1 0.311269
0.948302 1 0.378698
0.947982 1 0.448127
0.947585 1 0.519341
0.947158 1 0.591165
0.946654 1 0.656077
0 1 0
0 1 0
0 1 0
0 1 0
0 1 0
0 1 0
0 1 0
0 1 0
0 1 0
0.10341 1 0
0.206516 1 0
0.28513 1 0
0.364446 1 0
0.439017 1 0
0.511376 1 0
0.580468 1 0
0.645777 1 0
0.704524 1 0
0.758144 1 0
0.805264 1 0
0.84445 1 0
0.87834 1 0
0.906798 1 0
0.930083 1 0.0445869
0.946014 1 0.144198
0.946715 1 0.218128
0.946807 1 0.282109
0.946807 1 0.341146
0.946746 1 0.402182
0.946609 1 0.466285
0.946426 1 0.53315
0.946212 1 0.600946
0.945922 1 0.662196
0.228824 1 0
0.244053 1 0
0.258183 1 0
0.270726 1 0
0.282689 1 0
0.294514 1 0
0.308858 1 0
0.326574 1 0
0.348104 1 0
0.379339 1 0
0.412238 1 0
0.448798 1 0
0.489479 1 0
0.5337 1 0
0.58088 1 0
0.628916 1 0
0.676555 1 0
0.723049 1 0
0.767514 1 0
0.807584 1 0
0.842298 1 0
0.873671 1 0.0547189
0.900481 1 0.0995346
0.922805 1 0.156771
0.941299 1 0.215045
0.94493 1 0.270695
0.945205 1 0.323278
0.945312 1 0.37641
0.945373 1 0.431525
0.945388 1 0.489708
0.945373 1 0.551324
0.945327 1 0.613703
0.945205 1 0.670192
0.462501 1 0.119478
0.468116 1 0.119722
0.473671 1 0.119982
0.479072 1 0.120226
0.484352 1 0.120485
0.489708 1 0.120745
0.496406 1 0.121096
0.504936 1 0.121538
0.515679 1 0.122133
0.529076 1 0.122911
0.545449 1 0.123934
0.565072 1 0.125261
0.588266 1 0.127016
0.614816 1 0.12929
0.644465 1 0.132311
0.676356 1 0.136217
0.710857 1 0.141329
0.746441 1 0.147906
0.781552 1 0.156344
0.814054 1 0.166979
0.844144 1 0.182498
0.872145 1 0.200351
0.896498 1 0.221195
0.917403 1 0.245945
0.935149 1 0.281193
0.943435 1 0.322606
0.943908 1 0.367788
0.944091 1 0.415686
0.944259 1 0.465995
0.944366 1 0.518593
0.944472 1 0.57438
0.944533 1 0.62974
0.944533 1 0.680415
0.599313 1 0.25745
0.601999 1 0.257572
0.604669 1 0.257694
0.607279 1 0.257816
0.609873 1 0.257954
0.612543 1 0.258076
0.615885 1 0.258259
0.620203 1 0.258473
0.625727 1 0.258778
0.632685 1 0.259159
0.641398 1 0.259663
0.65214 1 0.260334
0.665385 1 0.261204
0.681346 1 0.262348
0.700236 1 0.263874
0.721889 1 0.266011
0.74612 1 0.268788
0.771893 1 0.272435
0.798047 1 0.277165
0.823758 1 0.283268
0.849058 1 0.291051
0.873289 1 0.300893
0.894804 1 0.313344
0.913924 1 0.328893
0.930556 1 0.348287
0.942321 1 0.378607
0.942931 1 0.416419
0.94316 1 0.45861
0.943374 1 0.504234
0.943557 1 0.552316
0.943725 1 0.601465
0.943847 1 0.649012
0.943908 1 0.692927
0.68983 1 0.358877
0.691264 1 0.358953
0.692714 1 0.359045
0.694133 1 0.359136
0.695552 1 0.359213
0.697017 1 0.359304
0.698863 1 0.359426
0.701289 1 0.359564
0.704417 1 0.359762
0.708431 1 0.360037
0.713542 1 0.360372
0.719982 1 0.360815
0.728008 1 0.361425
0.737865 1 0.362219
0.749798 1 0.363256
0.763729 1 0.36463
0.779675 1 0.366461
0.797086 1 0.368856
0.816037 1 0.372
0.836057 1 0.37612
0.856916 1 0.381521
0.876661 1 0.38851
0.895109 1 0.397467
0.912154 1 0.408881
0.927291 1 0.423239
0.939986 1 0.441306
0.942168 1 0.469749
0.942458 1 0.50544
0.942702 1 0.5458
0.942916 1 0.5888
0.943114 1 0.631006
0.943267 1 0.670924
0.943389 1 0.707622
0.755474 1 0.451987
0.756268 1 0.452049
0.757076 1 0.452125
0.757855 1 0.452186
0.758648 1 0.452232
0.759472 1 0.452293
0.76051 1 0.452384
0.761868 1 0.452476
0.763638 1 0.452628
