BBLuts/BB_106_0320_LUT.cube
TITLE "Generated by Resolve"
LUT_3D_SIZE 9
0.0402533 0.0402533 0.0402533
0.0402533 0.0402533 0.0402533
0.180865 0.039765 0.039765
0.391485 0.0322576 0.0322576
0.716716 0.0196841 0.0191806
0.898878 0.0243229 0.0221561
0.897276 0.530755 0.154269
0.868971 0.836194 0.424887
0.859266 0.928374 0.723125
0.0373541 0.0831006 0.0398871
0.0368963 0.0908827 0.0398566
0.188617 0.0753796 0.039704
0.402319 0.0317388 0.0317235
0.720928 0.0194858 0.0190585
0.898878 0.0243229 0.0221561
0.893416 0.561227 0.145769
0.868696 0.839551 0.42327
0.858976 0.928832 0.722789
0.0279698 0.201236 0.0375982
0.0278019 0.204105 0.0374762
0.152346 0.203021 0.0386511
0.412177 0.1776 0.0345159
0.729274 0.078233 0.0220035
0.906126 0.221729 0.0413672
0.890227 0.600504 0.132113
0.868513 0.844327 0.420966
0.858961 0.929381 0.722576
0.000885023 0.428626 0.0247044
0.000793469 0.42977 0.0246738
0.0012665 0.430106 0.0246891
0.338552 0.436118 0.0341497
0.730358 0.4262 0.0370642
0.896681 0.500572 0.045655
0.881361 0.68896 0.0415045
0.86772 0.857557 0.413794
0.858839 0.93106 0.721843
0 0.76582 0.0298619
0 0.765682 0.0298619
0 0.765316 0.0298009
0 0.762081 0.0296635
0.654368 0.757763 0.0360418
0.854765 0.771176 0.0395972
0.872038 0.818906 0.0396124
0.865736 0.885817 0.412528
0.858976 0.935622 0.71989
0 0.940185 0.0517128
0 0.938949 0.0516518
0 0.937789 0.0515145
0 0.934173 0.0510719
0.622751 0.919356 0.0420691
0.808438 0.91078 0.0399481
0.866789 0.913039 0.128664
0.862638 0.925582 0.449378
0.858061 0.946822 0.714382
0.5467 0.980026 0.244511
0.562112 0.979263 0.244556
0.582712 0.977966 0.244862
0.629023 0.975189 0.245426
0.710948 0.970153 0.252552
0.798947 0.96492 0.281376
0.858534 0.960601 0.367544
0.858793 0.958312 0.558587
0.856733 0.961852 0.732769
0.77319 0.970352 0.632532
0.785199 0.966079 0.639246
0.786786 0.966049 0.63949
0.790982 0.966155 0.639872
0.791821 0.970474 0.634943
0.815961 0.970565 0.64036
0.847105 0.970413 0.656886
0.856046 0.970199 0.700191
0.856275 0.96997 0.77348
0.833265 0.970184 0.795727
0.83476 0.96965 0.796765
0.844724 0.965881 0.804028
0.845258 0.965881 0.804089
0.835859 0.970123 0.796109
0.839963 0.970214 0.79649
0.848692 0.97026 0.798138
0.855848 0.970214 0.803052
0.856092 0.970184 0.817075
0.0399329 0.0399786 0.0776837
0.0399176 0.0399481 0.0788281
0.180117 0.0398566 0.080766
0.390997 0.0323644 0.0742657
0.716136 0.0200198 0.0627604
0.900175 0.0251469 0.0914015
0.931548 0.514687 0.215366
0.868925 0.83505 0.453407
0.858991 0.928374 0.726818
0.0385595 0.065095 0.0713817
0.0706951 0.0737316 0.0711223
0.194461 0.039704 0.0738231
0.396338 0.032105 0.0649577
0.718227 0.0197604 0.0405432
0.89926 0.024979 0.0723888
0.92784 0.545998 0.205646
0.868513 0.838483 0.45182
0.858961 0.92874 0.72668
0.0287022 0.194003 0.0378882
0.0290684 0.196201 0.0378576
0.168795 0.194827 0.0390021
0.410224 0.169696 0.0343328
0.725643 0.0191196 0.0188449
0.905913 0.207813 0.0401923
0.894026 0.596582 0.181964
0.871275 0.842237 0.451255
0.85893 0.92929 0.726467
0.00128176 0.424201 0.0248264
0.0011902 0.425299 0.0247959
0.00216678 0.425238 0.0248569
0.350744 0.430579 0.0342718
0.731228 0.42153 0.0372015
0.897032 0.4972 0.0456855
0.884367 0.687526 0.125277
0.870375 0.855604 0.444541
0.858824 0.930953 0.72578
0 0.764523 0.0297398
0 0.764385 0.0297246
0 0.763561 0.0297856
0 0.760159 0.0296788
0.657465 0.756405 0.0360571
0.855406 0.770184 0.0396582
0.872068 0.818494 0.0396124
0.866804 0.885023 0.424735
0.858839 0.935576 0.723857
0 0.93991 0.0516976
0 0.938704 0.0516213
0 0.937545 0.0514839
0 0.933928 0.0510414
0.624674 0.919066 0.0420233
0.808759 0.910628 0.0399481
0.866789 0.912947 0.128206
0.86273 0.925521 0.449241
0.858045 0.946777 0.717113
0.548989 0.979934 0.244282
0.564202 0.979171 0.244343
0.584527 0.977844 0.244648
0.630213 0.975097 0.245274
0.711559 0.970077 0.252461
0.800092 0.964523 0.281621
0.858564 0.960586 0.367529
0.858839 0.958282 0.558541
0.856809 0.961822 0.732799
0.773083 0.970443 0.632364
0.785367 0.966079 0.639246
0.786908 0.966064 0.639445
0.791104 0.966155 0.639857
0.791928 0.970474 0.634928
0.820706 0.96878 0.643153
0.849424 0.969543 0.658259
0.856046 0.970199 0.700191
0.855848 0.970138 0.773159
0.83328 0.970184 0.795727
0.843565 0.966262 0.803265
0.844755 0.965881 0.804044
0.845273 0.965881 0.804089
0.835859 0.970123 0.796109
0.841749 0.969543 0.797803
0.850355 0.969619 0.799359
0.855848 0.970214 0.803052
0.855863 0.97026 0.816892
0.0399176 0.040177 0.173983
0.0399023 0.0401312 0.175982
0.163424 0.0399176 0.182727
0.40148 0.0317845 0.172091
0.723461 0.0196689 0.162921
0.903258 0.0257267 0.185214
0.936721 0.503502 0.297765
0.869169 0.833234 0.492485
0.858976 0.928222 0.732326
0.0399329 0.0401923 0.170886
0.0399176 0.040116 0.173297
0.184497 0.039765 0.178393
0.400076 0.0318608 0.168917
0.721111 0.0201724 0.156924
0.902922 0.0257267 0.179171
0.937423 0.534676 0.292165
0.868559 0.836789 0.490974
0.858946 0.928588 0.732204
0.0306401 0.174929 0.160708
0.0304723 0.176745 0.160403
0.162631 0.170504 0.163729
0.396536 0.150179 0.164111
0.723415 0.0197299 0.149706
0.906706 0.170474 0.182391
0.935225 0.576181 0.281895
0.874632 0.839384 0.492607
0.858915 0.929137 0.732006
0.00341802 0.413169 0.0861677
0.00331121 0.414435 0.0869306
0.00622568 0.413596 0.0887465
0.352865 0.419287 0.101091
0.746792 0.404639 0.112459
0.900801 0.487846 0.141588
0.894377 0.68069 0.237201
0.873793 0.852872 0.486732
0.858824 0.930816 0.731365
0 0.762188 0.0294804
0 0.761944 0.0294804
0 0.761242 0.0295109
0 0.757397 0.0294957
0.662257 0.753262 0.0362402
0.858747 0.767285 0.0400244
0.879698 0.815473 0.141527
0.868238 0.883284 0.467857
0.858579 0.935546 0.729397
0 0.939116 0.0516518
0 0.938323 0.0515755
0 0.937148 0.0514382
0.0899367 0.936461 0.0539712
0.627832 0.918532 0.0420081
0.809125 0.91046 0.0399481
0.866865 0.912795 0.127504
0.864637 0.924758 0.449958
0.857832 0.946746 0.723201
0.551354 0.980209 0.24361
0.567254 0.979095 0.243992
0.587289 0.97763 0.244358
0.632532 0.974746 0.245212
0.713344 0.969635 0.252613
0.80087 0.964279 0.281682
0.858656 0.96054 0.367514
0.858991 0.958221 0.558526
0.856764 0.961837 0.732738
0.773144 0.970504 0.632227
0.781369 0.967712 0.636683
0.787091 0.966079 0.639399
0.791409 0.966125 0.639887
0.79353 0.969909 0.635767
0.829038 0.965621 0.648066
0.851835 0.968627 0.659693
0.856062 0.970199 0.700191
0.855848 0.970138 0.773159
0.833295 0.970184 0.795712
0.843595 0.966262 0.803265
0.8448 0.965866 0.804044
0.846204 0.96553 0.804761
0.839521 0.968719 0.798795
0.850797 0.966064 0.804471
0.853132 0.968551 0.801419
0.855848 0.970214 0.803052
0.855863 0.97026 0.816892
0.0377966 0.0381933 0.368978
0.0377966 0.0381781 0.369635
0.037583 0.0377203 0.385611
0.37702 0.0304875 0.382361
0.739956 0.018143 0.370504
0.905669 0.0248875 0.382528
0.944259 0.465171 0.490196
0.879103 0.824521 0.590387
0.858961 0.927764 0.747463
0.0378271 0.0382239 0.366949
0.0378271 0.0382239 0.367132
0.0925154 0.038056 0.378256
0.392065 0.0298314 0.379339
0.737835 0.0181888 0.367849
0.908461 0.0244907 0.382879
0.942229 0.502464 0.485649
0.876539 0.828916 0.587991
0.85893 0.92813 0.747341
0.0345922 0.08925 0.363104
0.034287 0.0938582 0.363241
0.114763 0.0893873 0.370321
0.39823 0.0295872 0.376013
0.736522 0.0176242 0.369772
0.909453 0.0243839 0.37911
0.942901 0.548272 0.48101
0.890471 0.828824 0.595361
0.859022 0.928649 0.747265
0.0091249 0.371496 0.332677
0.00895705 0.373205 0.332906
0.00914015 0.374182 0.333791
0.3552 0.374716 0.357946
0.735302 0.363668 0.372122
0.943771 0.436774 0.400793
0.935653 0.650584 0.459907
0.886854 0.843793 0.58938
0.859327 0.93019 0.747005
0 0.754406 0.255711
0 0.75433 0.256352
0 0.754009 0.257206
0 0.749096 0.262181
0.65893 0.745541 0.277852
0.858701 0.75967 0.307408
0.892576 0.804395 0.39707
0.878355 0.876188 0.573602
0.858915 0.935027 0.745235
0 0.938003 0.051545
0 0.93727 0.0514534
0 0.93608 0.0513161
0.111437 0.936004 0.0543679
0.628672 0.91754 0.0419623
0.829511 0.902296 0.154238
0.885313 0.903807 0.317082
0.86482 0.922484 0.536828
0.857893 0.946441 0.739895
0.561685 0.979858 0.242527
0.57586 0.978759 0.242908
0.595605 0.977035 0.243458
0.638056 0.974319 0.24448
0.716091 0.96936 0.25214
0.803113 0.963607 0.281788
0.861326 0.959548 0.36849
0.861234 0.957336 0.559411
0.856748 0.961807 0.732631
0.773861 0.97052 0.632136
0.776272 0.96997 0.633112
0.787732 0.966094 0.639277
0.792035 0.966125 0.63978
0.795544 0.969329 0.636591
0.832837 0.964279 0.65008
0.858961 0.965957 0.66389
0.856367 0.970077 0.700374
0.855848 0.970138 0.773129
0.833387 0.970184 0.795712
0.833555 0.970169 0.795758
0.844419 0.966049 0.803693
0.845685 0.965759 0.804303
0.846983 0.965881 0.804257
0.858106 0.963272 0.809842
0.859968 0.965942 0.806424
0.856077 0.970123 0.80322
0.855863 0.97026 0.816892
0.0334173 0.0338903 0.674647
0.0334173 0.0338903 0.674723
0.0333104 0.0337377 0.679606
0.224369 0.0315404 0.709087
0.719097 0.016907 0.670756
0.903304 0.024567 0.673259
0.945068 0.299367 0.744183
0.930159 0.791928 0.766354
0.866011 0.923751 0.78529
0.033402 0.033875 0.674754
0.0334173 0.0338903 0.674144
0.0333562 0.0337835 0.677562
0.249424 0.0308537 0.707774
0.725795 0.0166934 0.673701
0.905241 0.0242161 0.676127
0.945739 0.363989 0.743938
0.92987 0.796017 0.765667
0.865263 0.924422 0.784665
0.0332799 0.0336767 0.680247
0.0334325 0.0339055 0.673259
0.0334325 0.0339055 0.673381
0.282429 0.0298619 0.70341
0.737621 0.0151064 0.693645
0.907942 0.023743 0.679988
0.945815 0.43917 0.742473
0.934997 0.799832 0.768734
0.885878 0.917159 0.799847
0.0241245 0.207752 0.673899
0.0223697 0.211261 0.667506
0.0221408 0.214389 0.667475
0.286473 0.208545 0.683177
0.741039 0.0880751 0.691508
0.920485 0.241032 0.691844
0.938018 0.589975 0.730266
0.931853 0.816495 0.76437
0.891295 0.916823 0.80354
0 0.707469 0.647059
0 0.712718 0.636332
0 0.71284 0.636347
0 0.710307 0.638346
0.659739 0.699184 0.665278
0.899931 0.709087 0.688823
0.930449 0.77026 0.707576
0.912902 0.85626 0.745815
0.886107 0.923644 0.798733
0.00854505 0.929122 0.622446
0 0.934112 0.613382
0 0.933303 0.612985
0 0.929763 0.613428
0.603006 0.908843 0.610132
0.816068 0.893248 0.624964
0.885206 0.894499 0.65539
0.888182 0.909102 0.717998
0.87541 0.938628 0.788006
0.564797 0.971832 0.512154
0.568185 0.974807 0.506386
0.586511 0.973617 0.506035
0.629587 0.970794 0.505791
0.708507 0.965484 0.509911
0.796277 0.959533 0.528496
0.86096 0.953643 0.58146
0.863508 0.954101 0.673487
0.86183 0.959518 0.769772
0.780819 0.968688 0.634653
0.77763 0.970291 0.632303
0.781796 0.969223 0.634134
0.792737 0.966628 0.638727
0.795666 0.969894 0.635447
0.828077 0.96643 0.646464
0.872587 0.960891 0.671763
0.884642 0.959335 0.718593
0.858946 0.968948 0.775219
0.833783 0.970138 0.795789
0.834119 0.970047 0.795972
0.83772 0.968734 0.79852
0.844724 0.966232 0.803388
0.837949 0.969451 0.797375
0.855344 0.964401 0.80763
0.869932 0.962158 0.813703
0.879088 0.961318 0.820249
0.856565 0.970001 0.817426
0.032929 0.0336919 0.83772
0.0329747 0.0337987 0.834607
0.0330053 0.0338293 0.833585
0.03299 0.033814 0.834318
0.603113 0.020325 0.817975
0.902586 0.0276951 0.822873
0.910231 0.0261997 0.841123
0.934646 0.73373 0.875471
0.915663 0.900649 0.867796
0.0327764 0.0334173 0.846159
0.03299 0.033814 0.834134
0.0330053 0.0338293 0.833509
0.0328985 0.0336461 0.839323
0.613062 0.0196689 0.825208
0.904097 0.0273899 0.826261
0.911833 0.0258793 0.844739
0.934585 0.74139 0.874968
0.916426 0.900786 0.868345
0.0324865 0.0328679 0.86273
0.03299 0.0338293 0.833677
0.0330053 0.0338293 0.833417
0.0330053 0.0338293 0.833448
0.623301 0.019791 0.819089
0.905058 0.0272068 0.828367
0.913481 0.0255589 0.848447
0.940764 0.749844 0.879362
0.927901 0.897078 0.877287
0.0324865 0.0328679 0.86244
0.03299 0.033814 0.833387
0.0330053 0.0338293 0.833127
0.0330053 0.0338293 0.832975
0.655299 0.0186465 0.829801
0.909575 0.0263066 0.838407
0.914946 0.0252232 0.850019
0.93962 0.776776 0.876554
0.929183 0.898558 0.87808
0.0224002 0.477546 0.857786
0.00546273 0.488167 0.824979
0.00352483 0.491432 0.821439
0.00323491 0.495659 0.820951
0.659449 0.483452 0.867491
0.942657 0.520348 0.880262
0.933059 0.681376 0.868772
0.931411 0.829862 0.866361
0.928527 0.904295 0.876921
0.0315709 0.907973 0.850095
0 0.921386 0.819715
0 0.922698 0.814817
0 0.91928 0.814328
0.511284 0.902586 0.80531
0.803296 0.880278 0.814099
0.924956 0.868513 0.850187
0.931823 0.88632 0.861311
0.90605 0.925002 0.857893
0.472465 0.963485 0.82504
0.464424 0.974227 0.799954
0.49044 0.974624 0.793866
0.563745 0.969741 0.790799
0.672679 0.962432 0.787381
0.793667 0.949508 0.800855
0.872541 0.941482 0.813519
0.894942 0.940093 0.826871
0.891203 0.947555 0.843137
0.783734 0.964279 0.765454
0.776425 0.967514 0.759548
0.771908 0.969833 0.755352
0.776089 0.969848 0.75552
0.787518 0.969894 0.756115
0.813764 0.968948 0.760037
0.863981 0.961563 0.780026
0.887739 0.957946 0.802899
0.865782 0.96643 0.815137
0.845685 0.965866 0.803922
0.839368 0.968338 0.799176
0.83476 0.970169 0.795666
0.836744 0.969604 0.796826
0.838468 0.969512 0.797147
0.844099 0.968948 0.798825
0.874464 0.96054 0.816739
0.893736 0.955688 0.831037
0.87158 0.964233 0.828733
0.0328222 0.0336004 0.88307
0.0329137 0.0337835 0.877531
0.03299 0.0339361 0.873213
0.03299 0.0339361 0.873182
0.03299 0.0339361 0.873213
0.892378 0.028748 0.867079
0.904036 0.0286412 0.873747
0.91635 0.0261387 0.903792
0.920913 0.879561 0.910399
0.0326848 0.033341 0.891081
0.0329747 0.0338903 0.874205
0.03299 0.0339361 0.873213
0.03299 0.0339361 0.873182
0.0329747 0.0339055 0.873915
0.893614 0.028809 0.867277
0.904143 0.0286259 0.873976
0.912642 0.0268864 0.894728
0.916259 0.882109 0.906477
0.032639 0.0332494 0.893797
0.0329747 0.0338903 0.874586
0.03299 0.0339361 0.873213
0.03299 0.0339208 0.873228
0.0328832 0.0337072 0.879957
0.898665 0.0282444 0.875486
0.904936 0.0284581 0.875944
0.915602 0.0262913 0.901976
0.926741 0.879301 0.915114
0.0324712 0.0329137 0.904112
0.03299 0.0339208 0.873472
0.03299 0.0339361 0.873198
0.03299 0.0339361 0.873182
0.03299 0.0339361 0.873182
0.90164 0.0290379 0.869902
0.912383 0.0269474 0.894102
0.916228 0.026154 0.903487
0.928252 0.8822 0.916136
0.0324407 0.0328374 0.906401
0.032929 0.033814 0.876722
0.03299 0.0339361 0.873182
0.03299 0.0339361 0.873182
0.201221 0.0338445 0.87248
0.907347 0.0279698 0.881819
0.910338 0.0273594 0.889128
0.942611 0.603387 0.93962
0.928161 0.891386 0.915419
0.024918 0.800137 0.912734
0 0.814572 0.875532
0 0.815488 0.874388
0 0.816999 0.874403
0 0.812436 0.873198
0.847272 0.780133 0.912215
0.925322 0.804013 0.914611
0.924407 0.860731 0.911315
0.92781 0.909453 0.913771
0.0354162 0.970214 0.912016
0 0.985733 0.877974
0 0.987686 0.872999
0 0.984649 0.872663
0.574182 0.963607 0.857389
0.756619 0.952239 0.852781
0.85713 0.940887 0.868833
0.934295 0.920882 0.914458
0.927718 0.930968 0.911681
0.782574 0.955932 0.876799
0.754589 0.967544 0.852934
0.75024 0.970001 0.847852
0.755795 0.970016 0.847791
0.770642 0.970047 0.847745
0.799695 0.970169 0.847745
0.85922 0.960922 0.867292
0.913725 0.948135 0.89456
0.895796 0.955047 0.883986
0.842756 0.96614 0.844694
0.838102 0.967987 0.840986
0.832242 0.970321 0.836301
0.832731 0.970321 0.836332
0.834241 0.970321 0.836393
0.838376 0.970321 0.836652
0.852796 0.968032 0.842054
0.887175 0.958328 0.863661
0.870298 0.964828 0.856489
0.0303502 0.108812 0.899031
0.0288548 0.110369 0.877913
0.0285344 0.110735 0.873259
0.0285191 0.110735 0.873243
0.0285344 0.110765 0.873243
0.0285191 0.110842 0.873274
0.902876 0.0288853 0.870909
0.937819 0.251194 0.929351
0.938201 0.671839 0.938109
0.0300603 0.109117 0.894835
0.028809 0.110414 0.877256
0.0285344 0.110704 0.873259
0.0285344 0.110719 0.873243
0.0285191 0.11075 0.873243
0.0285496 0.110796 0.873686
0.902937 0.0288701 0.871061
0.940063 0.250904 0.932342
0.930968 0.674418 0.9308
0.0308232 0.108309 0.905516
0.0286259 0.110582 0.874647
0.0285344 0.110689 0.873259
0.0285344 0.110704 0.873243
0.0285344 0.110719 0.873243
0.0285801 0.11075 0.874067
0.902937 0.0288701 0.871061
0.936431 0.25243 0.927077
0.937224 0.672145 0.937133
0.030808 0.108248 0.905501
0.0286259 0.110521 0.874647
0.0285344 0.110628 0.873259
0.0285344 0.110643 0.873243
0.0285344 0.110658 0.873304
0.0290379 0.110216 0.880385
0.904936 0.0284581 0.875944
0.936034 0.254047 0.926436
0.937713 0.671855 0.937621
0.0310369 0.107805 0.908644
0.0287938 0.110155 0.876814
0.0285496 0.11043 0.873243
0.0285344 0.11043 0.873243
0.0285344 0.11046 0.873243
0.0285344 0.110536 0.873259
0.904494 0.0285496 0.874861
0.935012 0.257084 0.924758
0.937911 0.671458 0.937835
0.0310521 0.107149 0.908675
0.0289006 0.109422 0.877897
0.0285801 0.109758 0.873243
0.0285801 0.109773 0.873228
0.0285801 0.109789 0.873228
0.674632 0.0201877 0.860334
0.907851 0.0278782 0.883024
0.934768 0.261585 0.924392
0.929213 0.83592 0.930419
0.0356298 0.938827 0.930739
0.000534066 0.954543 0.895613
0 0.956878 0.890379
0 0.957046 0.890364
0 0.957534 0.890394
0.641871 0.923735 0.874846
0.903288 0.892271 0.924453
0.926024 0.899886 0.928115
0.927077 0.920516 0.929137
0.667109 0.953399 0.914153
0.633814 0.96939 0.879438
0.636286 0.971588 0.87396
0.659144 0.971008 0.873304
0.707713 0.97023 0.872404
0.7729 0.970077 0.872007
0.833936 0.967971 0.877028
0.896498 0.955261 0.904692
0.894102 0.956191 0.90277
0.857679 0.957351 0.897719
0.830518 0.967971 0.875517
0.824582 0.970367 0.870512
0.825193 0.970382 0.870497
0.827131 0.970397 0.870481
0.832364 0.970413 0.870512
0.848783 0.968093 0.875456
0.902403 0.95201 0.909148
0.894087 0.955734 0.901518
0.0250553 0.307851 0.900328
0.0186465 0.311727 0.878569
0.0172427 0.312581 0.873823
0.0172427 0.312596 0.873793
0.0172274 0.312596 0.873793
0.0172885 0.312612 0.87396
0.0201877 0.310948 0.883848
0.953445 0.363806 0.952682
0.935119 0.71313 0.935347
0.0236667 0.30869 0.895644
0.0185245 0.311803 0.878141
0.0172427 0.312581 0.873808
0.0172274 0.312581 0.873793
0.0172274 0.312596 0.873793
0.0172885 0.312596 0.873991
0.0202029 0.310948 0.883879
0.948974 0.365576 0.94641
0.926787 0.716197 0.927245
0.0282902 0.305882 0.911315
0.0186465 0.311711 0.878599
0.0172427 0.312566 0.873823
0.0172274 0.312581 0.873793
0.0172274 0.312581 0.873793
0.0172732 0.312596 0.87396
0.0201724 0.310948 0.883787
0.95024 0.365393 0.948196
0.934371 0.713481 0.93463
0.0270237 0.306615 0.907042
0.0176852 0.312276 0.875288
0.0172427 0.312551 0.873808
0.0172274 0.312551 0.873793
0.0172427 0.312566 0.873793
0.0172274 0.312596 0.873793
0.019913 0.311086 0.882887
0.94995 0.366339 0.947799
0.935088 0.713375 0.935317
0.0282902 0.305776 0.911345
0.0183413 0.311803 0.877501
0.017258 0.312459 0.873823
0.0172427 0.312459 0.873823
0.0172427 0.312474 0.873823
0.0172885 0.31249 0.873976
0.0212711 0.310185 0.88748
0.94995 0.369039 0.947814
0.935058 0.713848 0.935286
0.0283055 0.305501 0.911315
0.018677 0.31133 0.878599
0.0172732 0.312184 0.873823
0.017258 0.3122 0.873793
0.017258 0.3122 0.873793
0.017258 0.312245 0.873793
0.0182498 0.309621 0.876692
0.949386 0.377722 0.947097
0.934997 0.714702 0.935225
0.0287175 0.304417 0.912673
0.0187381 0.31046 0.878599
0.0173342 0.311315 0.873823
0.0173342 0.31133 0.873808
0.017319 0.31133 0.873808
0.017319 0.311376 0.873808
0.900969 0.0292821 0.866255
0.942046 0.400153 0.936934
0.934249 0.716365 0.934508
0.0373846 0.969451 0.933089
0 0.985718 0.896757
0 0.988067 0.891524
0 0.988083 0.891493
0 0.988083 0.891493
0 0.988083 0.891493
0.78999 0.961624 0.873014
0.93344 0.929519 0.934401
0.936782 0.931594 0.937118
0.812879 0.959381 0.894575
0.793194 0.967315 0.877913
0.78677 0.970123 0.871992
0.788998 0.970153 0.871977
0.795453 0.970184 0.871977
0.810559 0.970275 0.871977
0.833295 0.970397 0.871992
0.855146 0.969253 0.874556
0.900313 0.953796 0.907759
