BBLuts/BB_103_0200_LUT.cube
TITLE "Generated by Resolve"
LUT_3D_SIZE 9
0 0 0.00141909
0 0 0.00141909
0.166247 0 0
0.426841 0 0
0.799741 0 0
1 0 0
1 0.454765 0.0526741
1 0.829831 0.277867
1 0.957061 0.549386
0 0.0218662 0.000137331
0 0.0303502 4.57771e-05
0.173663 0.00531014 0
0.437888 0 0
0.802548 0 0
1 0 0
1 0.493004 0.0462654
1 0.83473 0.276463
1 0.957641 0.549203
0 0.160052 0
0 0.163226 0
0.127291 0.160388 0
0.443091 0.123217 0
0.809186 0 0
1 0.117205 0
1 0.545113 0.0330053
1 0.842069 0.274052
1 0.958572 0.548898
0 0.418784 0
0 0.419974 0
0 0.420645 0
0.367529 0.422889 0
0.814817 0.400534 0
1 0.460334 0
1 0.654551 0
1 0.861387 0.266957
1 0.961242 0.548074
0 0.775296 0.00428778
0 0.775204 0.00427253
0 0.774762 0.00424201
0 0.77174 0.0039826
0.733593 0.759258 0
0.998734 0.762997 0
1 0.813245 0
1 0.900694 0.271122
1 0.968261 0.545373
0 0.9729 0.0246891
0 0.972213 0.0247196
0 0.97084 0.0245823
0 0.966583 0.0240787
0.706416 0.940963 0.00521859
0.945342 0.92462 0
1 0.924315 0
1 0.952621 0.305241
1 0.9832 0.54258
0.573968 1 0.134936
0.597421 1 0.134371
0.629114 1 0.133532
0.703471 1 0.132631
0.822614 1 0.13727
0.942184 0.997162 0.163104
1 0.993637 0.241352
1 0.995743 0.401633
1 1 0.565591
0.908324 1 0.467323
0.909941 1 0.467399
0.912551 1 0.467536
0.919829 1 0.468009
0.938323 1 0.469581
0.974716 1 0.474571
1 1 0.490425
1 1 0.534646
1 1 0.610025
0.998962 1 0.634424
0.999146 1 0.63444
0.999481 1 0.634455
1 1 0.634516
1 1 0.634668
1 1 0.635187
1 1 0.636896
1 1 0.641962
1 1 0.656443
0 0 0.0261845
0 0 0.0263218
0.167727 0 0.0195621
0.428717 0 0.00410468
0.801068 0 0
1 0 0
1 0.450233 0.0956283
1 0.829206 0.304921
1 0.957 0.554589
0 0.00128176 0.0175937
0.026215 0.0117647 0.0185855
0.184771 0 0.0142061
0.434165 0 0
0.801556 0 0
1 0 0
1 0.489784 0.0894026
1 0.834165 0.303761
1 0.95758 0.554421
0 0.152087 0
0 0.154818 0
0.145815 0.151476 0
0.441413 0.114183 0
0.805905 0 0
1 0.0993515 0
1 0.543496 0.0775311
1 0.841581 0.301472
1 0.958511 0.554147
0 0.414267 0
0 0.415396 0
0 0.415854 0
0.381079 0.417487 0
0.814435 0.39617 0
1 0.456626 0
1 0.654536 0.0127108
1 0.861097 0.295125
1 0.961196 0.553292
0 0.773816 0.00416571
0 0.773693 0.00415045
0 0.77322 0.00411994
0 0.770428 0.00392157
0.736873 0.757794 0
0.998764 0.762066 0
1 0.812726 0
1 0.900587 0.277455
1 0.968246 0.550835
0 0.972671 0.0247044
0 0.971939 0.0247044
0 0.970535 0.0245365
0 0.966278 0.0240482
0.708751 0.940627 0.00509651
0.945708 0.924453 0
1 0.924208 0
1 0.952544 0.305074
1 0.983185 0.543069
0.577691 1 0.134585
0.600641 1 0.134051
0.631861 1 0.133242
0.705303 1 0.132403
0.823362 1 0.137133
0.942382 0.997131 0.163012
1 0.993606 0.241321
1 0.995727 0.401572
1 1 0.56556
0.908568 1 0.467277
0.910201 1 0.467369
0.912795 1 0.467506
0.920043 1 0.467979
0.938491 1 0.469551
0.974792 1 0.474556
1 1 0.490394
1 1 0.534646
1 1 0.610025
0.998993 1 0.634424
0.999176 1 0.63444
0.999496 1 0.634455
1 1 0.634501
1 1 0.634668
1 1 0.635187
1 1 0.636896
1 1 0.641962
1 1 0.656443
0 0 0.106249
0 0 0.106401
0.148333 0 0.0999466
0.443061 0 0.0789654
0.804181 0 0.0547646
1 0 0.0653391
1 0.439124 0.167559
1 0.828031 0.343648
1 0.956878 0.562493
0 0 0.103777
0 0 0.10396
0.174304 0 0.0962539
0.441337 0 0.0765393
0.806729 0 0.0519112
1 0 0.0607614
1 0.481041 0.164004
1 0.833005 0.342458
1 0.957458 0.562341
0.0274662 0.118227 0.0835126
0.0279088 0.120073 0.0838026
0.140795 0.126604 0.0874037
0.430198 0.0952468 0.0751049
0.804959 0 0.0445869
1 0.0480354 0.0682841
1 0.537453 0.15761
1 0.840635 0.340703
1 0.958404 0.562081
0 0.405203 0.0394598
0 0.406546 0.0400549
0 0.407095 0.0407721
0.386419 0.408011 0.0395666
0.813581 0.387747 0.0314183
1 0.45008 0.0528878
1 0.655497 0.133059
1 0.860502 0.335378
1 0.961105 0.561318
0 0.770977 0.00393683
0 0.770871 0.00393683
0 0.770413 0.00392157
0 0.767285 0.00366217
0.740139 0.754986 0
0.998718 0.759762 0
1 0.814847 0.0422827
1 0.900511 0.320348
1 0.9682 0.558938
0 0.972274 0.0247196
0 0.971466 0.0246586
0 0.970062 0.0244907
0 0.965805 0.0239872
0.712276 0.940078 0.00491341
0.946273 0.924193 0
1 0.924041 0
1 0.952453 0.304799
1 0.9832 0.551965
0.58349 1 0.134081
0.605539 1 0.133562
0.636118 1 0.13283
0.708125 1 0.132082
0.824475 1 0.136934
0.942733 0.99707 0.16286
1 0.993576 0.241306
1 0.995712 0.401465
1 1 0.565515
0.908965 1 0.467247
0.910582 1 0.467323
0.913161 1 0.46746
0.920394 1 0.467948
0.93875 1 0.46952
0.974929 1 0.474525
1 1 0.490379
1 1 0.534646
1 1 0.61001
0.999023 1 0.634424
0.999237 1 0.634424
0.999557 1 0.634455
1 1 0.634501
1 1 0.634653
1 1 0.635172
1 1 0.636881
1 1 0.641962
1 1 0.656443
0 0 0.276829
0 0 0.276936
0 0 0.276997
0.417868 0 0.253727
0.827634 0 0.226551
1 0 0.236561
1 0.394644 0.321584
1 0.823529 0.429633
1 0.956512 0.582025
0 0 0.275395
0 0 0.275532
0.0654459 0 0.272648
0.435492 0 0.250767
0.82533 0 0.224643
1 0 0.234272
1 0.443259 0.32079
1 0.828672 0.42887
1 0.957107 0.581903
0 0.0399329 0.271534
0 0.0447395 0.271763
0.0904555 0.0379492 0.268223
0.442176 0 0.246967
0.818448 0 0.221836
1 0 0.230121
1 0.508934 0.318944
1 0.836591 0.427634
1 0.958053 0.581704
0 0.365652 0.249866
0 0.367605 0.250111
0 0.368902 0.250797
0.384741 0.369909 0.249805
0.804929 0.349447 0.241306
1 0.414511 0.257527
1 0.641199 0.308659
1 0.857389 0.424399
1 0.9608 0.581109
0 0.770169 0.192798
0 0.770169 0.193332
0 0.769848 0.194141
0 0.767086 0.196246
0.745815 0.754437 0.193973
1 0.760876 0.213901
1 0.816632 0.278111
1 0.899168 0.415305
1 0.968002 0.579324
0 0.970977 0.0245975
0 0.970123 0.0244907
0 0.968704 0.0243229
0 0.964446 0.0238193
0.712169 0.938918 0.00488289
0.950698 0.928557 0.0942855
1 0.932235 0.21619
1 0.952514 0.390097
1 0.9832 0.574136
0.600229 1 0.132601
0.619699 1 0.132052
0.648722 1 0.131594
0.716716 1 0.13106
0.828305 1 0.136233
0.943771 0.996902 0.162371
1 0.993469 0.241199
1 0.995651 0.401129
1 1 0.565362
0.91017 1 0.467094
0.911772 1 0.467185
0.914305 1 0.467323
0.921416 1 0.467796
0.939559 1 0.469383
0.975326 1 0.474403
1 1 0.490288
1 1 0.53463
1 1 0.609964
0.999176 1 0.634409
0.999374 1 0.634424
0.999695 1 0.634424
1 1 0.634485
1 1 0.634638
1 1 0.635157
1 1 0.636866
1 1 0.641947
1 1 0.656443
0 0 0.525567
0 0 0.525628
0 0 0.525734
0.239078 0 0.51516
0.814069 0 0.477882
1 0 0.476173
1 0.123735 0.51191
1 0.80621 0.56112
1 0.955139 0.619577
0 0 0.525109
0 0 0.525154
0 0 0.525231
0.269184 0 0.512871
0.820294 0 0.477104
1 0 0.475593
1 0.248829 0.520928
1 0.812512 0.560632
1 0.955764 0.619501
0 0 0.524315
0 0 0.524392
0 0 0.524514
0.309834 0 0.509438
0.82385 0 0.475914
1 0 0.474708
1 0.372412 0.525048
1 0.822034 0.55996
1 0.956771 0.619394
0 0.187686 0.521065
0 0.1906 0.521111
0 0.194263 0.521263
0.317037 0.183993 0.513573
0.832029 0.0536965 0.484565
1 0.17673 0.497963
1 0.572061 0.525704
1 0.846174 0.55848
1 0.95967 0.61915
0 0.731807 0.507118
0 0.732189 0.50724
0 0.732296 0.507347
0 0.730358 0.507469
0.734142 0.718059 0.497185
1 0.730709 0.497841
1 0.798733 0.512749
1 0.893553 0.554437
1 0.967208 0.618158
0 0.983413 0.494301
0 0.982605 0.494377
0 0.981247 0.494469
0 0.97731 0.494911
0.689723 0.948241 0.475303
0.946227 0.930449 0.474769
1 0.931212 0.495827
1 0.951675 0.545525
1 0.982986 0.615198
0.5906 1 0.406836
0.611856 1 0.406043
0.641245 1 0.404837
0.710994 1 0.402655
0.824887 1 0.402197
0.941558 1 0.412726
1 0.994904 0.446677
1 0.99588 0.520531
1 1 0.606607
0.913771 1 0.466651
0.915129 1 0.466789
0.917556 1 0.466926
0.924376 1 0.467414
0.941955 1 0.469001
0.976562 1 0.474067
1 1 0.489998
1 1 0.534585
1 1 0.609827
0.999634 1 0.634363
0.999832 1 0.634363
1 1 0.634394
1 1 0.63444
1 1 0.634592
1 1 0.635126
1 1 0.636835
1 1 0.641932
1 1 0.656443
0 0 0.67013
0 0 0.670146
0 0 0.670161
0 0 0.670207
0.689876 0 0.628824
1 0 0.615732
1 0 0.616464
1 0.71696 0.657221
1 0.948745 0.665675
0 0 0.670085
0 0 0.670085
0 0 0.6701
0 0 0.67013
0.699168 0 0.628168
1 0 0.615671
1 0 0.616403
1 0.73022 0.656718
1 0.949493 0.665629
0 0 0.669978
0 0 0.669993
0 0 0.670008
0 0 0.670024
0.713741 0 0.627008
1 0 0.615549
1 0 0.616297
1 0.749416 0.656046
1 0.950698 0.665568
0 0 0.669688
0 0 0.669688
0 0 0.669703
0 0 0.669459
0.745556 0 0.624826
1 0 0.615213
1 0 0.61474
1 0.794949 0.654185
1 0.954681 0.665248
0 0.5084 0.669276
0 0.509941 0.669367
0 0.51252 0.669398
0 0.51635 0.66891
0.726986 0.503288 0.65684
1 0.530343 0.655085
1 0.694636 0.651804
1 0.869154 0.651667
1 0.9635 0.664912
0 0.972732 0.677226
0 0.972229 0.67715
0 0.971222 0.676982
0 0.967422 0.676432
0.59765 0.942535 0.658244
0.935363 0.918471 0.644266
1 0.92166 0.643229
1 0.945434 0.649332
1 0.981247 0.663752
0.410834 1 0.658976
0.45391 1 0.656825
0.511528 1 0.653971
0.627207 1 0.647944
0.784649 1 0.640177
0.924605 1 0.636835
1 0.995377 0.637537
1 0.99617 0.644648
1 1 0.66096
0.904768 1 0.6103
0.90634 1 0.6103
0.908843 1 0.610285
0.915862 1 0.610315
0.933745 1 0.610513
0.969253 1 0.61146
1 1 0.615732
1 1 0.62858
1 1 0.652705
1 1 0.634211
1 1 0.634226
1 1 0.634241
1 1 0.634287
1 1 0.634455
1 1 0.634989
1 1 0.636713
1 1 0.641855
1 1 0.656428
0 0 0.711711
0 0 0.711711
0 0 0.711711
0 0 0.711711
0 0 0.711711
1 0 0.66627
1 0 0.66601
1 0 0.66601
1 0.919264 0.702083
0 0 0.711711
0 0 0.711711
0 0 0.711711
0 0 0.711711
0 0 0.711711
1 0 0.666224
1 0 0.66601
1 0 0.66601
1 0.920638 0.702129
0 0 0.711711
0 0 0.711711
0 0 0.711711
0 0 0.711711
0 0 0.711711
1 0 0.666133
1 0 0.66601
1 0 0.66601
1 0.922652 0.70193
0 0 0.711711
0 0 0.711711
0 0 0.711711
0 0 0.711711
0 0 0.711711
1 0 0.666102
1 0 0.66601
1 0 0.66601
1 0.92929 0.702235
0 0 0.711711
0 0 0.711711
0 0 0.711711
0 0 0.711711
0.326528 0 0.697505
1 0 0.66601
1 0 0.66601
1 0.582925 0.709926
1 0.944472 0.701976
0 0.857298 0.73138
0 0.857603 0.731456
0 0.858183 0.731502
0 0.859922 0.731594
0 0.853788 0.729976
0.946624 0.823819 0.703761
1 0.84828 0.700069
1 0.911162 0.699489
1 0.972015 0.701198
0 1 0.736522
0 1 0.736416
0 1 0.736263
0 1 0.735943
0.660899 1 0.710628
0.901793 0.997177 0.700557
1 0.990616 0.697826
1 0.992416 0.697688
1 1 0.700175
0.874403 1 0.697353
0.876341 1 0.697322
0.879683 1 0.6972
0.889067 1 0.696941
0.912367 1 0.696361
0.95523 1 0.69543
1 1 0.694606
1 1 0.695018
1 1 0.698161
0.997345 1 0.68426
0.997528 1 0.684276
0.997833 1 0.68426
0.998749 1 0.684276
1 1 0.684276
1 1 0.684337
1 1 0.684688
1 1 0.686305
1 1 0.691371
0 0.0241398 0.712489
0 0.0241398 0.712489
0 0.0241398 0.712489
0 0.024155 0.712489
0 0.0242313 0.712489
0 0.0243992 0.712474
1 0 0.66601
1 0 0.66601
1 0.638483 0.714168
0 0.0241093 0.712489
0 0.0241093 0.712489
0 0.0241245 0.712489
0 0.0241398 0.712489
0 0.0242161 0.712489
0 0.0243687 0.712489
1 0 0.66601
1 0 0.66601
1 0.638453 0.714183
0 0.0240635 0.712505
0 0.0240635 0.712505
0 0.0240787 0.712505
0 0.024094 0.712505
0 0.0241398 0.712489
0 0.0243229 0.712489
1 0 0.66601
1 0 0.66601
1 0.638407 0.714183
0 0.0239261 0.712505
0 0.0239109 0.71252
0 0.0239261 0.712505
0 0.0239567 0.712505
0 0.0240177 0.712505
0 0 0.712474
1 0 0.66601
1 0 0.66601
1 0.63827 0.714214
0 0.0235142 0.712489
0 0.0235142 0.712489
0 0.0235294 0.712489
0 0.0235447 0.712505
0 0.0235904 0.712505
0.366766 0 0.695048
1 0 0.66601
1 0 0.66601
1 0.637842 0.714275
0 0.0221866 0.712459
0 0.0221866 0.712459
0 0.0221866 0.712459
0 0.0222019 0.712459
0 0.0222629 0.712459
0.837873 0 0.668681
1 0 0.66601
1 0 0.674556
1 0.874495 0.714382
0 1 0.754604
0 1 0.75462
0 1 0.75462
0 1 0.754635
0 1 0.754681
0.776013 0.967727 0.724834
1 0.954604 0.717998
1 0.96405 0.717617
1 0.988235 0.718563
0.68513 1 0.730098
0.695476 1 0.72958
0.711238 1 0.729122
0.750484 1 0.727199
0.827298 1 0.724056
0.920378 1 0.721263
0.995834 1 0.719356
1 1 0.718608
1 1 0.7187
0.986191 1 0.717861
0.98645 1 0.717845
0.986862 1 0.717845
0.988083 1 0.717815
0.991547 1 0.717739
1 1 0.71754
1 1 0.717189
1 1 0.716884
1 1 0.717113
0 0.251637 0.717205
0 0.251637 0.717205
0 0.251637 0.717205
0 0.251652 0.717205
0 0.251652 0.717205
0 0.251713 0.717205
0 0.251835 0.717205
1 0.233265 0.700618
1 0.691493 0.713588
0 0.251637 0.717205
0 0.251637 0.717205
0 0.251637 0.717205
0 0.251637 0.717205
0 0.251652 0.717205
0 0.251698 0.717205
0 0.251835 0.717205
1 0.233539 0.700618
1 0.691554 0.713588
0 0.251621 0.717205
0 0.251621 0.717205
0 0.251621 0.717205
0 0.251637 0.717205
0 0.251637 0.717205
0 0.251698 0.717205
0 0.251804 0.717205
1 0.233967 0.700603
1 0.691615 0.713603
0 0.251591 0.717205
0 0.251591 0.717205
0 0.251591 0.717205
0 0.251591 0.717205
0 0.251621 0.717205
0 0.251652 0.717205
0 0.251774 0.717205
1 0.235447 0.700786
1 0.691875 0.713619
0 0.251484 0.717205
0 0.251484 0.717205
0 0.251484 0.717205
0 0.251484 0.717205
0 0.251499 0.717205
0 0.251545 0.717205
0.375723 0.231083 0.711727
1 0.240436 0.701137
1 0.692622 0.71368
0 0.251148 0.717189
0 0.251148 0.717189
0 0.251148 0.717189
0 0.251164 0.717189
0 0.251164 0.717189
0 0.251209 0.717189
0.87393 0.0111696 0.678172
1 0.254688 0.70219
1 0.693812 0.713664
0 0.250141 0.717174
0 0.250141 0.717174
0 0.250141 0.717174
0 0.250156 0.717174
0 0.250156 0.717174
0 0.250187 0.717174
1 0 0.66601
1 0.282567 0.703838
1 0.696025 0.713649
0 1 0.756802
0 1 0.756802
0 1 0.756802
0 1 0.756802
0 1 0.756802
0 1 0.756802
0.951049 1 0.721401
1 1 0.71928
1 1 0.719341
0.928237 1 0.722042
0.929137 1 0.722026
0.930587 1 0.721981
0.93463 1 0.721904
0.945556 1 0.72166
0.969741 1 0.72108
1 1 0.720378
1 1 0.719783
1 1 0.719875
