BBLuts/BB_102_0300_LUT.cube
TITLE "Generated by Resolve"
LUT_3D_SIZE 9
0 0 0
0.0028687 0 0
0.287602 0 0
0.64686 0 0
0.9411 0 0
1 0 0
1 0.630014 0.0116274
1 0.859342 0.475532
0.995773 0.942565 0.76669
0 0.0712596 0
0 0.0864118 0
0.274907 0.0566567 0
0.655238 0 0
0.943328 0 0
1 0 0
1 0.646479 0
1 0.861112 0.473945
0.995758 0.942718 0.766583
0 0.307805 0
0 0.313054 0
0.171557 0.312505 0
0.500679 0.306462 0
0.910399 0.121935 0
0.918151 0.371633 0
1 0.6701 0
1 0.86392 0.471351
0.995727 0.942962 0.7664
0 0.620111 0
0 0.620737 0
0 0.621424 0
0.485725 0.608988 0
0.844877 0.584665 0
1 0.605768 0
1 0.736416 0
1 0.874128 0.468208
0.995575 0.944015 0.765499
0 0.852232 0
0 0.852216 0
0 0.852018 0
0 0.850278 0
0.750225 0.818769 0
0.998596 0.80795 0
1 0.845151 0
1 0.899992 0.475868
0.995117 0.947799 0.762295
0 0.990478 0
0 0.990478 0
0 0.990478 0
0 0.987243 0
0.697032 0.956924 0
0.935119 0.936095 0
1 0.932357 0
1 0.938384 0.510826
0.993698 0.958007 0.762875
0.609781 1 0.177737
0.609781 1 0.177737
0.609781 1 0.177737
0.609751 1 0.177752
0.771069 0.99852 0.194522
0.910689 0.984131 0.256687
0.990677 0.973541 0.41503
0.996063 0.970428 0.601328
0.991211 0.972717 0.788785
0.875105 0.991135 0.677836
0.875105 0.991135 0.677836
0.875105 0.991135 0.677836
0.875105 0.991135 0.677836
0.875105 0.991135 0.677852
0.923308 0.988403 0.681971
0.973541 0.985153 0.698863
0.990585 0.9832 0.749401
0.988388 0.981704 0.843626
0.953338 0.983307 0.877775
0.953338 0.983307 0.877775
0.953338 0.983307 0.877775
0.953338 0.983307 0.877775
0.953338 0.983307 0.877775
0.953323 0.983307 0.877775
0.971374 0.982132 0.879393
0.98735 0.980987 0.885786
0.986893 0.980667 0.904616
0 0 0.0885634
0 0 0.0894179
0.282063 0 0.0912947
0.646632 0 0.0823835
0.942061 0 0.0701305
1 0 0.0640116
1 0.631785 0.049424
1 0.859327 0.475563
0.995773 0.942565 0.766705
0 0.0271763 0.0663005
0.0301061 0.0495766 0.0626078
0.304601 0 0.0792401
0.649897 0 0.0639658
0.944228 0 0.0102693
1 0 0.005066
1 0.645121 0.0247349
1 0.861082 0.473976
0.995758 0.942718 0.766583
0 0.292622 0
0 0.296971 0
0.199908 0.296742 0
0.48394 0.297276 0
0.917113 0.0747692 0
0.94966 0.341726 0
1 0.668589 0
1 0.86392 0.471351
0.995727 0.942946 0.7664
0 0.617319 0
0 0.617823 0
0 0.618341 0
0.499046 0.605097 0
0.844297 0.581964 0
1 0.603555 0
1 0.735698 0
1 0.874128 0.468208
0.995575 0.944015 0.765499
0 0.850919 0
0 0.850904 0
0 0.85069 0
0 0.848981 0
0.752499 0.817624 0
0.998718 0.807218 0
1 0.844907 0
1 0.899992 0.475868
0.995117 0.947799 0.762295
0 0.990173 0
0 0.99025 0
0 0.99025 0
0 0.987015 0
0.699046 0.956619 0
0.935317 0.935958 0
1 0.932296 0
1 0.938384 0.510826
0.993698 0.958007 0.762875
0.612863 1 0.17731
0.612863 1 0.17731
0.612848 1 0.17731
0.612833 1 0.17731
0.77203 0.998428 0.19408
0.910872 0.984085 0.256367
0.990707 0.973526 0.415015
0.996063 0.970428 0.601328
0.991211 0.972717 0.788785
0.875334 0.991119 0.677806
0.875334 0.991119 0.677806
0.875334 0.991119 0.677806
0.875334 0.991119 0.677806
0.875319 0.991119 0.677806
0.9234 0.988403 0.681971
0.973571 0.985153 0.698848
0.990585 0.9832 0.749401
0.988388 0.981704 0.843626
0.953353 0.983307 0.877791
0.953353 0.983307 0.877791
0.953353 0.983307 0.877791
0.953353 0.983307 0.877791
0.953353 0.983307 0.877791
0.953353 0.983307 0.877791
0.971389 0.982132 0.879393
0.98735 0.980987 0.885786
0.986893 0.980667 0.904616
0 0 0.335012
0 0 0.335515
0.229587 0 0.336385
0.650889 0 0.31928
0.935882 0 0.31429
1 0 0.336751
0.911574 0.669001 0.184222
1 0.858335 0.508354
0.995773 0.942565 0.766705
0 0 0.330739
0 0 0.331304
0.264591 0 0.330755
0.649927 0 0.313649
0.937301 0 0.30724
1 0 0.323919
0.917144 0.684306 0.183185
1 0.859968 0.507088
0.995758 0.942718 0.766583
0 0.244511 0.261021
0 0.248447 0.2607
0.175265 0.242237 0.25742
0.592935 0.200031 0.252171
0.930846 0 0.28365
1 0.196979 0.250401
0.95906 0.691569 0.200031
1 0.862928 0.505241
0.995727 0.942946 0.7664
0 0.606073 0.0835584
0 0.60705 0.0840162
0 0.60763 0.0862593
0.493477 0.594247 0.0817273
0.836866 0.569711 0.0698863
0.994263 0.616602 0.029099
1 0.727733 0.192981
1 0.873304 0.496712
0.995575 0.944015 0.765499
0 0.848493 0
0 0.848493 0
0 0.848264 0
0 0.846525 0
0.754879 0.814862 0
0.998779 0.805127 0
1 0.842634 0
1 0.89984 0.477516
0.995117 0.947799 0.762295
0 0.989792 0
0 0.989792 0
0 0.989792 0
0 0.986664 0
0.702358 0.956176 0
0.935882 0.935699 0
1 0.932143 0
1 0.938338 0.510704
0.993698 0.958007 0.762875
0.617197 1 0.176501
0.617197 1 0.176501
0.617197 1 0.176501
0.617197 1 0.176501
0.773342 0.998291 0.193469
0.911284 0.984024 0.25597
0.990753 0.973495 0.41471
0.996063 0.970428 0.601267
0.991211 0.972717 0.788785
0.875654 0.991104 0.677745
0.875654 0.991104 0.677745
0.875654 0.991104 0.677745
0.875654 0.991104 0.677745
0.875654 0.991104 0.677745
0.923506 0.988403 0.68191
0.973602 0.985153 0.698817
0.990585 0.9832 0.749386
0.988388 0.981704 0.843626
0.953368 0.983307 0.877791
0.953368 0.983307 0.877791
0.953368 0.983307 0.877791
0.953368 0.983307 0.877791
0.953368 0.983307 0.877791
0.953368 0.983307 0.877791
0.971405 0.982132 0.879393
0.98735 0.980987 0.885786
0.986893 0.980667 0.904616
0 0 0.693889
0 0 0.693965
0 0 0.694148
0.595895 0 0.683345
0.946197 0 0.669764
1 0 0.67013
1 0.582406 0.590539
1 0.853132 0.632258
0.99556 0.942229 0.77821
0 0 0.692699
0 0 0.69279
0.0138857 0 0.694652
0.613794 0 0.680919
0.944595 0 0.668376
1 0 0.668009
1 0.604623 0.582803
1 0.854566 0.632029
0.995529 0.942382 0.778103
0 0.0470893 0.672618
0 0.0508583 0.671946
0.0062562 0.0535134 0.673701
0.621714 0 0.677699
0.939208 0 0.665644
1 0 0.661814
1 0.632074 0.57586
1 0.857237 0.631724
0.995514 0.942611 0.777951
0 0.549935 0.567361
0 0.550896 0.5673
0 0.552712 0.567529
0.460105 0.5402 0.562325
0.817563 0.512337 0.55198
1 0.557565 0.543053
0.976562 0.73048 0.4925
1 0.867964 0.627634
0.995193 0.943542 0.776989
0 0.831098 0.425574
0 0.831098 0.425574
0 0.831235 0.426886
0 0.829526 0.431785
0.737697 0.798642 0.425055
0.984543 0.789593 0.444541
1 0.830014 0.51014
1 0.89572 0.613214
0.994888 0.947463 0.774304
0 0.98703 0.00822461
0 0.98703 0.00822461
0 0.98703 0.00822461
0 0.984024 0.0106966
0.695064 0.953475 0.00169375
0.927871 0.930663 0.183444
1 0.924224 0.400488
1 0.93669 0.579522
0.993637 0.957916 0.765881
0.629908 1 0.172976
0.629908 1 0.172976
0.629908 1 0.172976
0.629908 1 0.172976
0.777127 0.997909 0.191638
0.912367 0.983856 0.254597
0.991012 0.973388 0.414237
0.996078 0.970367 0.6009
0.991211 0.972717 0.788708
0.876783 0.991043 0.677577
0.876783 0.991043 0.677577
0.876783 0.991043 0.677577
0.876783 0.991043 0.677577
0.876783 0.991043 0.677577
0.923949 0.988373 0.681758
0.97377 0.985138 0.698695
0.990585 0.9832 0.749264
0.988388 0.981704 0.84358
0.953475 0.983307 0.877775
0.953475 0.983307 0.877775
0.953475 0.983307 0.877775
0.953475 0.983307 0.877775
0.953475 0.983307 0.877775
0.953475 0.983307 0.877775
0.971435 0.982132 0.879377
0.98735 0.980987 0.885771
0.986893 0.980667 0.904616
0 0 0.962081
0 0 0.962081
0 0 0.962158
0.119066 0 0.964935
0.908339 0 0.934127
1 0 0.924605
1 0.329931 0.860365
1 0.835737 0.809644
0.99379 0.939193 0.855848
0 0 0.96199
0 0 0.96199
0 0 0.962051
0.12903 0 0.964355
0.912154 0 0.933532
1 0 0.924239
1 0.43566 0.843824
1 0.838026 0.809171
0.993805 0.93933 0.855817
0 0 0.960998
0 0 0.960998
0 0 0.961059
0.270451 0 0.960647
0.917769 0 0.932403
1 0 0.923171
1 0.529381 0.828779
1 0.841657 0.808286
0.993835 0.939559 0.855756
0 0.248142 0.901411
0 0.248142 0.901411
0 0.253758 0.900618
0.231815 0.241382 0.902403
0.886763 0.0840772 0.896788
1 0.183505 0.866636
1 0.645685 0.806897
0.99884 0.857832 0.794247
0.993759 0.940673 0.855329
0 0.7879 0.794171
0 0.7879 0.794171
0 0.787945 0.794186
0 0.787762 0.794598
0.707897 0.758694 0.777722
0.973632 0.753902 0.766674
1 0.807294 0.768856
0.967819 0.899672 0.76701
0.993057 0.944717 0.85333
0 0.972992 0.732754
0 0.972992 0.732754
0 0.973068 0.732692
0 0.970626 0.733577
0.635248 0.942214 0.721767
0.905257 0.919203 0.717342
0.998627 0.915648 0.733791
0.996948 0.931075 0.777127
0.991852 0.955489 0.847623
0.600656 1 0.646723
0.600656 1 0.646723
0.600656 1 0.646723
0.600656 1 0.646723
0.751553 0.991516 0.643839
0.895766 0.977783 0.648814
0.97911 0.968856 0.676951
0.993011 0.967453 0.742855
0.990127 0.971511 0.832715
0.880354 0.99086 0.676692
0.880354 0.99086 0.676692
0.880354 0.99086 0.676692
0.880354 0.99086 0.676692
0.880354 0.99086 0.676692
0.925292 0.988296 0.6813
0.974197 0.985122 0.698283
0.9906 0.983215 0.749081
0.988388 0.981704 0.843397
0.953918 0.983291 0.877699
0.953918 0.983291 0.877699
0.953918 0.983291 0.877699
0.953918 0.983291 0.877699
0.953918 0.983291 0.877699
0.953902 0.983291 0.877699
0.971603 0.982116 0.879316
0.98735 0.980987 0.88574
0.986893 0.980667 0.904585
0 0 1
0 0 1
0 0 1
0 0 1
0.708598 0 1
1 0 1
1 0 1
1 0.767834 0.945876
0.992889 0.932982 0.927016
0 0 1
0 0 1
0 0 1
0 0 1
0.707958 0 1
1 0 1
1 0 1
1 0.773007 0.944976
0.992859 0.933181 0.92694
0 0 1
0 0 1
0 0 1
0 0 1
0.717494 0 1
1 0 1
1 0 1
1 0.780804 0.943358
0.992767 0.933516 0.926757
0 0 1
0 0 1
0 0 1
0 0 1
0.77084 0 1
1 0 1
1 0 1
1 0.806332 0.938247
0.992081 0.935073 0.925643
0 0.589929 1
0 0.589929 1
0 0.589929 1
0 0.592874 1
0.657252 0.567926 1
1 0.560006 0.97641
1 0.700954 0.951614
1 0.860197 0.926863
0.984344 0.942672 0.916548
0 0.956146 0.941573
0 0.956146 0.941573
0 0.956146 0.941573
0 0.956146 0.941573
0.414527 0.937407 0.935943
0.884932 0.9028 0.91519
0.991577 0.901289 0.910277
0.994644 0.921691 0.911894
0.986801 0.953231 0.918837
0.433494 1 0.912184
0.433494 1 0.912184
0.434806 1 0.912123
0.434806 1 0.912123
0.665156 0.99115 0.90251
0.868101 0.973037 0.894087
0.962982 0.963897 0.892699
0.989578 0.963043 0.899245
0.988525 0.969223 0.91516
0.863432 0.988708 0.863874
0.863432 0.988708 0.863874
0.863432 0.988708 0.863874
0.863432 0.988708 0.863874
0.863432 0.988708 0.863874
0.90898 0.986023 0.86302
0.961517 0.983017 0.86566
0.987305 0.981292 0.878141
0.986923 0.980682 0.902907
0.955337 0.983215 0.87747
0.955337 0.983215 0.87747
0.955337 0.983215 0.87747
0.955337 0.983215 0.87747
0.955337 0.983215 0.87747
0.955337 0.983215 0.87747
0.972137 0.982101 0.879103
0.98735 0.980987 0.885634
0.986893 0.980667 0.90454
0 0 1
0 0 1
0 0 1
0 0 1
0 0 1
1 0 1
1 0 1
1 0 1
0.994614 0.908476 0.979889
0 0 1
0 0 1
0 0 1
0 0 1
0 0 1
1 0 1
1 0 1
1 0 1
0.994644 0.908858 0.979889
0 0 1
0 0 1
0 0 1
0 0 1
0 0 1
1 0 1
1 0 1
1 0 1
0.994568 0.909575 0.979751
0 0 1
0 0 1
0 0 1
0 0 1
0 0 1
1 0 1
1 0 1
1 0 1
0.994217 0.912383 0.979141
0 0 1
0 0 1
0 0 1
0 0 1
0 0 1
1 0 1
1 0 1
1 0.496269 1
0.993149 0.921645 0.977203
0 0.808652 1
0 0.808652 1
0 0.808652 1
0 0.808652 1
0 0.811414 1
0.884459 0.770687 1
1 0.804578 0.996948
0.997879 0.88304 0.982193
0.990478 0.941634 0.97261
0 1 0.998276
0 1 0.998276
0 1 0.998276
0 1 0.998276
0 1 0.998276
0.816495 0.970214 0.974273
0.954696 0.957351 0.967681
0.988663 0.957244 0.965957
0.984573 0.966659 0.963775
0.828763 0.988815 0.965698
0.828763 0.988815 0.965698
0.828763 0.988815 0.965698
0.828763 0.988815 0.965698
0.828763 0.988815 0.965698
0.879728 0.985992 0.963012
0.949737 0.982025 0.959564
0.984451 0.980026 0.958984
0.985656 0.979843 0.962097
0.948089 0.982284 0.94873
0.948089 0.982284 0.94873
0.948089 0.982284 0.94873
0.948089 0.982284 0.94873
0.948089 0.982284 0.94873
0.948089 0.982284 0.94873
0.964965 0.981247 0.948302
0.983764 0.980209 0.949432
0.985824 0.97995 0.954498
0 0.0835126 1
0 0.0835126 1
0 0.0835126 1
0 0.0835126 1
0 0.0835126 1
0 0.0836194 1
1 0 1
1 0 1
1 0.677302 1
0 0.0835126 1
0 0.0835126 1
0 0.0835126 1
0 0.0835126 1
0 0.0835126 1
0 0.0836194 1
1 0 1
1 0 1
1 0.677302 1
0 0.0835126 1
0 0.0835126 1
0 0.0835126 1
0 0.0835126 1
0 0.0835126 1
0 0.0836194 1
1 0 1
1 0 1
1 0.677272 1
0 0.0835126 1
0 0.0835126 1
0 0.0835126 1
0 0.0835126 1
0 0.0835126 1
0 0.0836194 1
1 0 1
1 0 1
1 0.67718 1
0 0.0833753 1
0 0.0833753 1
0 0.0833753 1
0 0.0833753 1
0 0.0833753 1
0 0.0834669 1
1 0 1
1 0 1
1 0.676951 1
0 0.081178 1
0 0.081178 1
0 0.081178 1
0 0.081178 1
0 0.081178 1
0 0.0812848 1
1 0 1
1 0.0124208 1
1 0.802304 1
0 0.951247 1
0 0.951247 1
0 0.951247 1
0 0.951247 1
0 0.951247 1
0 0.952758 1
0.95816 0.894865 1
0.992721 0.920363 0.995148
0.988891 0.950439 0.991333
0.524163 1 1
0.524163 1 1
0.524163 1 1
0.524163 1 1
0.524163 1 1
0.524163 1 1
0.929839 0.982513 0.989715
0.981994 0.978363 0.98703
0.985321 0.978424 0.986816
0.935241 0.982361 0.987518
0.935241 0.982361 0.987518
0.935241 0.982361 0.987518
0.935241 0.982361 0.987518
0.935241 0.982361 0.987518
0.935241 0.982361 0.987518
0.954177 0.981216 0.986419
0.979324 0.979889 0.98526
0.98497 0.979324 0.985061
0 0.402075 1
0 0.402075 1
0 0.402075 1
0 0.402075 1
0 0.402075 1
0 0.402075 1
0 0.402182 1
1 0.0987259 1
1 0.705898 1
0 0.402075 1
0 0.402075 1
0 0.402075 1
0 0.402075 1
0 0.402075 1
0 0.402075 1
0 0.402182 1
1 0.0987259 1
1 0.705898 1
0 0.402075 1
0 0.402075 1
0 0.402075 1
0 0.402075 1
0 0.402075 1
0 0.402075 1
0 0.402182 1
1 0.0987259 1
1 0.705898 1
0 0.402075 1
0 0.402075 1
0 0.402075 1
0 0.402075 1
0 0.402075 1
0 0.402075 1
0 0.402182 1
1 0.0987259 1
1 0.705898 1
0 0.402075 1
0 0.402075 1
0 0.402075 1
0 0.402075 1
0 0.402075 1
0 0.402075 1
0 0.402182 1
1 0.0987259 1
1 0.705898 1
0 0.401968 1
0 0.401968 1
0 0.401968 1
0 0.401968 1
0 0.401968 1
0 0.401968 1
0 0.402045 1
1 0.100114 1
1 0.707118 1
0 0.400427 1
0 0.400427 1
0 0.400427 1
0 0.400427 1
0 0.400427 1
0 0.400427 1
0 0.400504 1
1 0.270481 1
1 0.70927 1
0 1 1
0 1 1
0 1 1
0 1 1
0 1 1
0 1 1
0 1 1
0.980438 0.964782 0.989837
0.986572 0.968948 0.989029
0.880232 0.985428 0.993072
0.880232 0.985428 0.993072
0.880232 0.985428 0.993072
0.880232 0.985428 0.993072
0.880232 0.985428 0.993072
0.880232 0.985428 0.993072
0.880232 0.985428 0.993072
0.973678 0.980133 0.98819
0.985199 0.979629 0.987671
