BBLuts/BB_103_0770_LUT.cube
TITLE "Generated by Resolve"
LUT_3D_SIZE 9
0.00477607 0 0.0194705
0.00477607 0 0.0194705
0.139254 0.00572213 0.0323491
0.368795 0.00448615 0.0180056
0.915251 0 0
1 0 0
1 0.581506 0.243671
1 0.994873 0.651484
1 1 0.946975
0 0.0529488 0.00843824
0 0.063447 0.00743114
0.132509 0.0530251 0.0215
0.380209 0.0041352 0.0168002
0.919936 0 0
1 0 0
1 0.624018 0.226398
1 1 0.648524
1 1 0.946853
0 0.214298 0
0 0.217838 0
0.0709087 0.228748 0.00595102
0.343542 0.209201 0.00308232
0.898726 0.0943008 0
1 0.228916 0.0302739
1 0.681437 0.190509
1 1 0.643824
1 1 0.946624
0 0.503578 0
0 0.504952 0
0 0.505699 0
0.241978 0.53434 0.00306706
0.851255 0.52639 0.0187076
1 0.595926 0.0460365
1 0.813397 0.044419
1 1 0.629999
1 1 0.945953
0 0.912413 0
0 0.912322 0
0 0.911818 0
0 0.908537 0
0.689815 0.931411 0.0315709
1 0.938491 0.0433814
1 0.996246 0.0468452
1 1 0.636469
1 1 0.943862
0 1 0.0581216
0 1 0.057847
0 1 0.0574197
0 1 0.0560769
0.635019 1 0.062089
1 1 0.0554513
1 1 0.0549935
1 1 0.698985
1 1 0.941741
0.40763 1 0.369177
0.442267 1 0.369085
0.492561 1 0.369162
0.610376 1 0.37084
0.800992 1 0.384314
0.993408 1 0.4365
1 1 0.580087
1 1 0.825147
1 1 0.960632
0.917708 1 0.879759
0.920256 1 0.87985
0.924361 1 0.879988
0.936095 1 0.880415
0.966781 1 0.881758
1 1 0.886122
1 1 0.899474
1 1 0.935805
1 1 0.996139
1 1 1
1 1 1
1 1 1
1 1 1
1 1 1
1 1 1
1 1 1
1 1 1
1 1 1
0.00173953 0 0.114839
0.00172427 0 0.115267
0.136248 0.00285344 0.128878
0.365362 0.000686656 0.127031
0.910094 0 0.114412
1 0 0.17116
1 0.573602 0.334203
1 0.993194 0.701396
1 1 0.951186
0 0.0255283 0.0923934
0.0132143 0.0419165 0.0918898
0.150896 0.00364691 0.115633
0.371786 0.000976577 0.107012
0.914199 0 0.0559396
1 0 0.128115
1 0.617304 0.31899
1 0.998749 0.69894
1 1 0.951049
0 0.205341 0
0 0.208316 0
0.0865339 0.220279 0.00762951
0.34313 0.199161 0.00271611
0.90013 0.0598306 0
1 0.209293 0.0275731
1 0.676112 0.290761
1 1 0.694911
1 1 0.950851
0 0.498299 0
0 0.499596 0
0 0.500145 0
0.254215 0.528481 0.00334173
0.851179 0.521279 0.0187228
1 0.591959 0.0459449
1 0.809339 0.1299
1 1 0.682719
1 1 0.95021
0 0.910765 0
0 0.910628 0
0 0.910109 0
0 0.906813 0
0.695323 0.929793 0.0314183
1 0.937392 0.0433509
1 0.995682 0.0468299
1 1 0.648264
1 1 0.948257
0 1 0.0580301
0 1 0.0577554
0 1 0.0573281
0 1 0.0559854
0.638682 1 0.0619211
1 1 0.055436
1 1 0.0549783
1 1 0.698695
1 1 0.942153
0.412787 1 0.368704
0.447196 1 0.368658
0.496818 1 0.36875
0.61326 1 0.370489
0.802243 1 0.384085
0.993744 1 0.436316
1 1 0.580056
1 1 0.825101
1 1 0.960616
0.91809 1 0.879744
0.920653 1 0.87982
0.924743 1 0.879957
0.936431 1 0.880385
0.967056 1 0.881727
1 1 0.886107
1 1 0.899458
1 1 0.935805
1 1 0.996139
1 1 1
1 1 1
1 1 1
1 1 1
1 1 1
1 1 1
1 1 1
1 1 1
1 1 1
0 0 0.313466
0 0 0.313756
0.115084 0 0.324147
0.373129 0 0.31841
0.905455 0 0.313176
1 0 0.355657
1 0.557733 0.471351
1 0.9906 0.759335
1 1 0.957473
0 0 0.308019
0 0 0.308537
0.136187 0 0.319341
0.37171 0 0.313085
0.909972 0 0.307149
1 0 0.345846
1 0.60354 0.462257
1 0.996246 0.757702
1 1 0.957351
0 0.173388 0.2663
0 0.175662 0.265675
0.0765393 0.181567 0.272694
0.324498 0.165774 0.278325
0.90779 0 0.290761
1 0.143465 0.322545
1 0.664958 0.446555
1 1 0.755047
1 1 0.957168
0 0.478492 0.117998
0 0.480003 0.119509
0 0.480705 0.12163
0.252552 0.509773 0.165026
0.841001 0.503639 0.18323
1 0.576379 0.244007
1 0.800687 0.394003
1 1 0.747189
1 1 0.956603
0 0.907332 0
0 0.907195 0
0 0.906645 0
0 0.903319 0
0.700298 0.926497 0.0310674
1 0.934844 0.0432441
1 0.991226 0.195377
1 1 0.724422
1 1 0.954833
0 1 0.0578775
0 1 0.0576181
0 1 0.0571756
0 1 0.055848
0.644556 1 0.061677
1 1 0.0554208
1 1 0.0549783
1 1 0.698253
1 1 0.94934
0.421286 1 0.367987
0.45507 1 0.367956
0.503624 1 0.368093
0.617899 1 0.36994
0.804257 1 0.383688
0.994308 1 0.436027
1 1 0.580011
1 1 0.825025
1 1 0.960586
0.918715 1 0.879698
0.921279 1 0.879789
0.925322 1 0.879927
0.936965 1 0.880354
0.967468 1 0.881697
1 1 0.886076
1 1 0.899443
1 1 0.935805
1 1 0.996124
1 1 1
1 1 1
1 1 1
1 1 1
1 1 1
1 1 1
1 1 1
1 1 1
1 1 1
0 0 0.63856
0 0 0.638773
0 0 0.639002
0.34313 0 0.64799
0.934691 0 0.641718
1 0 0.671931
1 0.502281 0.744595
1 0.982528 0.84622
1 1 0.973083
0 0 0.635477
0 0 0.635767
0.0459602 0 0.641932
0.359625 0 0.644297
0.931014 0 0.638254
1 0 0.668025
1 0.556924 0.740627
1 0.988891 0.845624
1 1 0.972992
0 0.0595254 0.613794
0 0.0651408 0.613336
0.0460822 0.068452 0.62179
0.366308 0 0.638605
0.919631 0 0.63267
1 0 0.660639
1 0.628565 0.734539
1 0.997925 0.844663
1 1 0.972854
0 0.421103 0.548806
0 0.423194 0.549142
0 0.424659 0.550042
0.243381 0.45301 0.585489
0.81445 0.448234 0.59881
1 0.526772 0.635523
1 0.776486 0.712901
1 1 0.841886
1 1 0.972427
0 0.888823 0.435706
0 0.888792 0.436667
0 0.88838 0.438102
0 0.885267 0.442069
0.686366 0.908263 0.490578
1 0.918059 0.536294
1 0.979126 0.651087
1 1 0.834394
1 1 0.97113
0 1 0.0575418
0 1 0.0572671
0 1 0.0568246
0 1 0.0556497
0.64448 1 0.0618143
1 1 0.303288
1 1 0.536126
1 1 0.815549
1 1 0.967117
0.446708 1 0.365805
0.478004 1 0.365866
0.523644 1 0.36611
0.631571 1 0.368322
0.8103 1 0.382544
0.996002 1 0.435187
1 1 0.579858
1 1 0.824796
1 1 0.960479
0.920623 1 0.879606
0.92314 1 0.879683
0.927153 1 0.87982
0.938628 1 0.880247
0.96875 1 0.881605
1 1 0.885985
1 1 0.899367
1 1 0.93579
1 1 0.996094
1 1 1
1 1 1
1 1 1
1 1 1
1 1 1
1 1 1
1 1 1
1 1 1
1 1 1
0 0 0.92845
0 0 0.928496
0 0 0.928588
0.185077 0 0.942
0.905638 0 0.941802
1 0 0.94229
1 0.213977 0.937026
1 0.959838 0.955169
1 1 1
0 0 0.928008
0 0 0.928054
0 0 0.928161
0.210285 0 0.942168
0.91606 0 0.941299
1 0 0.941863
1 0.341772 0.935683
1 0.967071 0.954864
1 1 1
0 0 0.927291
0 0 0.927352
0 0 0.927459
0.245533 0 0.942077
0.922438 0 0.940475
1 0 0.94107
1 0.472282 0.933059
1 0.977844 0.954421
1 1 1
0 0.223774 0.893538
0 0.226856 0.89337
0 0.230808 0.893156
0.201007 0.243763 0.9131
0.890837 0.131762 0.91928
1 0.267292 0.921492
1 0.691951 0.928023
1 1 0.953231
1 1 1
0 0.833875 0.866651
0 0.834302 0.866758
0 0.834424 0.86688
0 0.832242 0.867018
0.655116 0.856199 0.899794
1 0.874479 0.903471
1 0.952163 0.915892
1 1 0.950393
1 1 1
0 1 0.859907
0 1 0.859953
0 1 0.860014
0 1 0.860212
0.570382 1 0.882017
0.984436 1 0.884932
1 1 0.902861
1 1 0.943664
1 1 0.999725
0.414755 1 0.823972
0.447272 1 0.823957
0.494072 1 0.82388
0.604547 1 0.823713
0.786816 1 0.825025
0.975326 1 0.833112
1 1 0.86215
1 1 0.923888
1 1 0.993271
0.926329 1 0.879271
0.92874 1 0.879362
0.93257 1 0.879499
0.943572 1 0.879942
0.972549 1 0.8813
1 1 0.88571
1 1 0.899138
1 1 0.935744
1 1 0.995987
1 1 1
1 1 1
1 1 1
1 1 1
1 1 1
1 1 1
1 1 1
1 1 1
1 1 1
0 0 1
0 0 1
0 0 1
0 0 1
0.694957 0 1
1 0 1
1 0 1
1 0.856657 1
1 1 1
0 0 1
0 0 1
0 0 1
0 0 1
0.710536 0 1
1 0 1
1 0 1
1 0.871748 1
1 1 1
0 0 1
0 0 1
0 0 1
0 0 1
0.735073 0 1
1 0 1
1 0 1
1 0.893706 1
1 1 1
0 0 1
0 0 1
0 0 1
0 0 1
0.788342 0 1
1 0 1
1 0 1
1 0.945251 1
1 1 1
0 0.576638 0.999908
0 0.578347 0.999893
0 0.581125 0.999832
0 0.585428 0.999481
0.657649 0.609567 1
1 0.644572 1
1 0.830289 1
1 1 1
1 1 1
0 1 1
0 1 1
0 1 1
0 1 1
0.419898 1 1
0.961486 1 1
1 1 1
1 1 1
1 1 1
0.213046 1 1
0.252079 1 1
0.308858 1 1
0.462531 1 1
0.713146 1 1
0.938201 1 1
1 1 1
1 1 1
1 1 1
0.90631 1 0.995972
0.908782 1 0.995972
0.912734 1 0.995987
0.924056 1 0.996033
0.953811 1 0.996231
1 1 0.997116
1 1 1
1 1 1
1 1 1
1 1 1
1 1 1
1 1 1
1 1 1
1 1 1
1 1 1
1 1 1
1 1 1
1 1 1
0 0 1
0 0 1
0 0 1
0 0 1
0 0 1
1 0 1
1 0 1
1 0 1
1 1 1
0 0 1
0 0 1
0 0 1
0 0 1
0 0 1
1 0 1
1 0 1
1 0 1
1 1 1
0 0 1
0 0 1
0 0 1
0 0 1
0 0 1
1 0 1
1 0 1
1 0 1
1 1 1
0 0 1
0 0 1
0 0 1
0 0 1
0 0 1
1 0 1
1 0 1
1 0 1
1 1 1
0 0 1
0 0 1
0 0 1
0 0 1
0.260746 0 1
1 0 1
1 0 1
1 0.701762 1
1 1 1
0 0.975525 1
0 0.975906 1
0 0.976547 1
0 0.978485 1
0 0.971801 1
0.98555 0.976043 1
1 1 1
1 1 1
1 1 1
0 1 1
0 1 1
0 1 1
0 1 1
0.514183 1 1
0.899641 1 1
1 1 1
1 1 1
1 1 1
0.854276 1 1
0.857603 1 1
0.862867 1 1
0.877867 1 1
0.91545 1 1
0.985489 1 1
1 1 1
1 1 1
1 1 1
1 1 1
1 1 1
1 1 1
1 1 1
1 1 1
1 1 1
1 1 1
1 1 1
1 1 1
0 0.0420691 1
0 0.0420691 1
0 0.0420691 1
0 0.0420996 1
0 0.0421607 1
0 0.0423438 1
1 0 1
1 0 1
1 0.765209 1
0 0.0420386 1
0 0.0420386 1
0 0.0420539 1
0 0.0420691 1
0 0.0421607 1
0 0.0423285 1
1 0 1
1 0 1
1 0.765179 1
0 0.0419928 1
0 0.0419928 1
0 0.0420081 1
0 0.0420233 1
0 0.0420691 1
0 0.0422827 1
1 0 1
1 0 1
1 0.765118 1
0 0.0418402 1
0 0.041825 1
0 0.0418402 1
0 0.0418555 1
0 0.0419318 1
0 0.0109865 1
1 0 1
1 0 1
1 0.764935 1
0 0.0413214 1
0 0.0413214 1
0 0.0413367 1
0 0.0413672 1
0 0.041413 1
0.295064 0 1
1 0 1
1 0 1
1 0.764355 1
0 0.0397498 1
0 0.0397498 1
0 0.0397498 1
0 0.039765 1
0 0.0398413 1
0.938704 0 1
1 0 1
1 0.061387 1
1 1 1
0 1 1
0 1 1
0 1 1
0 1 1
0 1 1
0.698085 1 1
1 1 1
1 1 1
1 1 1
0.552529 1 1
0.568627 1 1
0.592752 1 1
0.654841 1 1
0.777737 1 1
0.927657 1 1
1 1 1
1 1 1
1 1 1
1 1 1
1 1 1
1 1 1
1 1 1
1 1 1
1 1 1
1 1 1
1 1 1
1 1 1
0 0.293523 1
0 0.293523 1
0 0.293523 1
0 0.293538 1
0 0.293538 1
0 0.293599 1
0 0.293721 1
1 0.32575 1
1 0.826383 1
0 0.293523 1
0 0.293523 1
0 0.293523 1
0 0.293523 1
0 0.293538 1
0 0.293584 1
0 0.293721 1
1 0.326085 1
1 0.826459 1
0 0.293492 1
0 0.293492 1
0 0.293492 1
0 0.293523 1
0 0.293523 1
0 0.293584 1
0 0.293706 1
1 0.326619 1
1 0.826535 1
0 0.293477 1
0 0.293477 1
0 0.293477 1
0 0.293477 1
0 0.293492 1
0 0.293538 1
0 0.29366 1
1 0.328237 1
1 0.826841 1
0 0.293355 1
0 0.293355 1
0 0.293355 1
0 0.293355 1
0 0.29337 1
0 0.293416 1
0.242969 0.298238 1
1 0.333227 1
1 0.827726 1
0 0.293019 1
0 0.293019 1
0 0.293019 1
0 0.293034 1
0 0.293034 1
0 0.29308 1
0.961852 0.0880293 1
1 0.347982 1
1 0.829053 1
0 0.291966 1
0 0.291966 1
0 0.291966 1
0 0.291981 1
0 0.291981 1
0 0.292027 1
1 0 1
1 0.376852 1
1 0.83151 1
0 1 1
0 1 1
0 1 1
0 1 1
0 1 1
0 1 1
0.978469 1 1
1 1 1
1 1 1
0.940505 1 1
0.941939 1 1
0.944213 1 1
0.951522 1 1
0.969116 1 1
1 1 1
1 1 1
1 1 1
1 1 1
