BBLuts/BB_104_0140_LUT.cube
TITLE "Generated by Resolve"
LUT_3D_SIZE 33
0 0 0
0 0 0
0 0 0
0 0 0
0 0 0
0.0374456 0 0
0.0848249 0 0
0.121828 0 0
0.162402 0 0
0.215427 0 0
0.282521 0 0
0.358907 0 0
0.442176 0 0
0.533639 0 0
0.609003 0 0
0.670848 0 0
0.725475 0 0
0.776608 0 0
0.824399 0 0
0.862135 0 0
0.869154 0 0
0.869154 0 0
0.901228 0.177401 0.0690013
0.910719 0.417868 0.120928
0.909407 0.567681 0.156802
0.901915 0.649439 0.19295
0.895384 0.711025 0.252644
0.891569 0.754604 0.359564
0.888991 0.784619 0.482246
0.886732 0.80705 0.584787
0.884962 0.82501 0.653788
0.88397 0.838621 0.711177
0.883726 0.850065 0.753399
0 0 0
0 0 0
0 0 0
0 0 0
0 0 0
0.0467536 0 0
0.0882582 0 0
0.12488 0 0
0.167666 0 0
0.222263 0 0
0.289815 0 0
0.36527 0 0
0.44596 0 0
0.535775 0 0
0.610224 0 0
0.671595 0 0
0.725872 0 0
0.776791 0 0
0.824338 0 0
0.861891 0 0
0.869154 0 0
0.869154 0 0
0.904967 0.221912 0.0626535
0.910567 0.436423 0.115709
0.908904 0.575967 0.153017
0.901457 0.653407 0.190311
0.895232 0.713344 0.25008
0.891569 0.755871 0.358206
0.889006 0.785306 0.481575
0.886748 0.807462 0.584527
0.884962 0.825238 0.653666
0.88397 0.838758 0.711116
0.883726 0.850141 0.753353
0 0 0
0 0 0
0 0 0
0 0 0
0 0 0
0.0523384 0 0
0.0894484 0 0
0.12781 0 0
0.173236 0 0
0.228672 0 0
0.295369 0 0
0.368673 0 0
0.449134 0 0
0.538033 0 0
0.611475 0 0
0.672312 0 0
0.726268 0 0
0.776974 0 0
0.824277 0 0
0.861631 0 0
0.869154 0 0
0.869154 0 0
0.906432 0.257603 0.0402075
0.910399 0.454063 0.109972
0.90837 0.583551 0.149126
0.90103 0.657267 0.187686
0.895094 0.715618 0.247639
0.891569 0.757092 0.356847
0.889021 0.785992 0.480934
0.886763 0.807874 0.584268
0.884962 0.825467 0.653529
0.88397 0.838895 0.71104
0.883726 0.850233 0.753323
0 0 0
0 0 0
0 0 0
0 0.00294499 0
0.0166629 0.00717174 0
0.0566415 0 0
0.0899977 0 0
0.128069 0 0
0.174197 0 0
0.231266 0 0
0.29897 0 0
0.371756 0 0
0.452232 0 0
0.540307 0 0
0.612726 0 0
0.67306 0 0
0.726665 0 0
0.777142 0 0
0.824186 0 0
0.861341 0 0
0.869154 0 0
0.869154 0 0
0.907561 0.289891 0.0423133
0.910246 0.470817 0.103609
0.90782 0.589807 0.145129
0.900633 0.661006 0.185138
0.894957 0.7178 0.246372
0.891569 0.758297 0.355505
0.889036 0.786664 0.480262
0.886763 0.808286 0.584009
0.884978 0.825711 0.653391
0.88397 0.839048 0.710964
0.883726 0.850309 0.753292
0 0.0414588 0
0 0.0439002 0
0 0.0462654 0
0 0.0485542 0
0 0.0494392 0
0.0500038 0.0490272 0
0.0862287 0.0469215 0
0.125856 0.0415351 0
0.173678 0.0290684 0
0.232425 0 0
0.30106 0 0
0.374548 0 0
0.455222 0 0
0.542596 0 0
0.614008 0 0
0.673808 0 0
0.727062 0 0
0.777279 0 0
0.824079 0 0
0.861067 0 0
0.869154 0 0
0.879026 0.0326085 0
0.908202 0.318944 0.0434882
0.910094 0.486061 0.0962844
0.907271 0.595361 0.141039
0.900252 0.664652 0.182605
0.894835 0.719921 0.245121
0.891569 0.759487 0.354192
0.889052 0.78732 0.479591
0.886778 0.808698 0.583749
0.884978 0.825925 0.653254
0.88397 0.839185 0.710903
0.883726 0.850401 0.753246
0 0.0686656 0
0 0.0706493 0
0 0.0726177 0
0 0.0741894 0
0 0.0749218 0
0.0340581 0.075227 0
0.0798352 0.0746777 0
0.122164 0.072221 0
0.172198 0.0663767 0
0.234058 0.0547494 0
0.303944 0.0334783 0
0.37702 0 0
0.458274 0 0
0.545007 0 0
0.615366 0 0
0.674601 0 0
0.727459 0 0
0.777432 0 0
0.823972 0 0
0.860746 0 0
0.869154 0 0
0.895384 0.136492 0.019791
0.908537 0.346426 0.0440986
0.909804 0.500237 0.0865949
0.906676 0.601083 0.136645
0.89987 0.668345 0.17998
0.894713 0.722072 0.243854
0.891569 0.760693 0.352789
0.889052 0.788006 0.478904
0.886778 0.80911 0.58349
0.884978 0.826169 0.653117
0.88397 0.839323 0.710826
0.883726 0.850492 0.753216
0 0.0983139 0
0 0.100053 0
0 0.101793 0
0 0.10277 0
0 0.103395 0
0 0.103609 0
0.065919 0.104448 0
0.114641 0.103578 0
0.168002 0.100145 0
0.233234 0.0926986 0
0.306157 0.07953 0
0.384405 0.0600595 0
0.466224 0.027451 0
0.548074 0 0
0.617136 0 0
0.675639 0 0
0.727993 0 0
0.77763 0 0
0.823819 0 0
0.860319 0 0
0.869154 0 0
0.903044 0.205173 0.0339361
0.908705 0.378454 0.044419
0.909087 0.516518 0.0653849
0.905898 0.608454 0.130846
0.899413 0.672938 0.176684
0.894575 0.724758 0.242283
0.891569 0.762234 0.351034
0.889067 0.788891 0.478019
0.886793 0.809644 0.583124
0.884978 0.826459 0.652949
0.883986 0.839521 0.710719
0.883726 0.850599 0.753155
0 0.133898 0
0 0.135515 0
0 0.136736 0
0 0.137545 0
0 0.138125 0
0 0.138445 0
0.0200809 0.139239 0
0.0986648 0.140719 0
0.158465 0.139406 0
0.227466 0.134234 0
0.304921 0.124285 0
0.388998 0.110567 0
0.47657 0.0922103 0
0.560952 0.0634623 0
0.623957 0.00972 0
0.677012 0 0
0.72871 0 0
0.77789 0 0
0.82359 0 0
0.859724 0 0
0.887541 0.084062 0.00531014
0.906935 0.270085 0.0411383
0.908721 0.414908 0.0444495
0.908141 0.535912 0.0433661
0.904891 0.617716 0.12285
0.898833 0.678782 0.172381
0.894423 0.728191 0.240314
0.891585 0.764202 0.348714
0.889097 0.790021 0.476844
0.886809 0.810346 0.58265
0.884993 0.826856 0.652705
0.883986 0.839765 0.710597
0.883726 0.850752 0.753094
0 0.178958 0
0 0.180316 0
0 0.181064 0
0 0.181842 0
0 0.182376 0
0 0.182742 0
0 0.182971 0
0.0604715 0.186297 0
0.137652 0.186954 0
0.212985 0.183749 0
0.297353 0.176715 0
0.388983 0.166415 0
0.483833 0.153246 0
0.571481 0.134951 0
0.636576 0.112764 0
0.693507 0.085893 0
0.741238 0.0463722 0
0.778225 0 0
0.823255 0 0
0.878202 0.0897536 0.00521859
0.903914 0.215946 0.0355688
0.908461 0.337606 0.043946
0.908705 0.457618 0.0444038
0.907378 0.55906 0.0419471
0.903578 0.629129 0.111604
0.898161 0.686091 0.166812
0.89424 0.732509 0.237842
0.8916 0.766705 0.345693
0.889128 0.791485 0.475288
0.886824 0.811261 0.58201
0.884993 0.827375 0.652399
0.883986 0.840085 0.71043
0.883726 0.850935 0.753002
0 0.235218 0
0 0.235691 0
0 0.236133 0
0 0.2365 0
0 0.236728 0
0 0.236789 0
0 0.236667 0
0 0.236271 0
0.0959945 0.242786 0
0.186481 0.243503 0
0.280293 0.239704 0
0.381643 0.232532 0
0.485451 0.222995 0
0.579019 0.209857 0
0.64564 0.197269 0
0.704829 0.186618 0
0.757397 0.17847 6.10361e-05
0.807172 0.174426 0.0099031
0.8542 0.189288 0.0215763
0.893797 0.239551 0.0360418
0.908141 0.314931 0.0433509
0.908736 0.407675 0.0444495
0.90869 0.504433 0.0443732
0.906111 0.584604 0.0396124
0.901946 0.642939 0.0949111
0.897398 0.695094 0.15964
0.894057 0.737881 0.234821
0.891646 0.769863 0.341756
0.889174 0.793378 0.473243
0.886854 0.812436 0.58117
0.885008 0.828046 0.651987
0.883986 0.840497 0.710201
0.883726 0.851179 0.752895
0 0.300572 0
0 0.301045 0
0 0.301549 0
0 0.3019 0
0 0.302159 0
0 0.302327 0
0 0.302388 0
0 0.302266 0
0 0.301747 0
0.139727 0.313924 0
0.249363 0.314397 0
0.362722 0.310323 0
0.477791 0.30399 0
0.580819 0.295308 0
0.650721 0.287907 0
0.711116 0.284642 0
0.76405 0.286137 0.00973526
0.813886 0.292683 0.0215457
0.859022 0.31136 0.0318914
0.894804 0.35201 0.0408942
0.908721 0.409812 0.0444495
0.908751 0.480201 0.0445106
0.907698 0.550484 0.0425422
0.904204 0.608057 0.0361028
0.899962 0.659175 0.0639811
0.896544 0.70602 0.150393
0.893874 0.744411 0.231189
0.891707 0.7738 0.336645
0.88922 0.795773 0.470558
0.886885 0.813931 0.580026
0.885008 0.828916 0.651438
0.883986 0.841031 0.709911
0.883726 0.851514 0.752743
0 0.382391 0
0 0.382879 0
0 0.383322 0
0 0.383688 0
0 0.383963 0
0 0.384176 0
0 0.384344 0
0 0.384405 0
0 0.384237 0
0.0149386 0.388815 0
0.195178 0.40087 0
0.328222 0.400214 0
0.457877 0.396872 0
0.574151 0.391592 0
0.649668 0.387015 0
0.712276 0.386908 0
0.765301 0.392538 0.00985733
0.814221 0.40383 0.0218357
0.857923 0.423972 0.0321813
0.892332 0.457359 0.040528
0.908721 0.500084 0.0444343
0.907835 0.546441 0.0427863
0.90547 0.593118 0.0384375
0.901701 0.635111 0.0314641
0.897917 0.677913 0.0244755
0.89572 0.718776 0.138827
0.893721 0.752224 0.226978
0.891691 0.778454 0.335805
0.889296 0.798795 0.467033
0.886931 0.815839 0.57847
0.885039 0.83003 0.650721
0.883986 0.841749 0.709529
0.883726 0.851926 0.752544
0 0.479713 0
0 0.480156 0
0 0.480552 0
0 0.480873 0
0 0.481117 0
0 0.481346 0
0 0.481559 0
0 0.481727 0
0 0.481895 0
0 0.482002 0
0.0767224 0.493614 0
0.26714 0.500725 0
0.42208 0.498711 0
0.556634 0.495277 0
0.642527 0.492622 0
0.710109 0.494392 0
0.765606 0.500984 0.0106966
0.81413 0.511498 0.0224613
0.855909 0.52668 0.0317693
0.888197 0.548241 0.0383612
0.906661 0.574639 0.0406348
0.904845 0.600519 0.0372778
0.902113 0.630823 0.0322271
0.899001 0.664439 0.0264897
0.896422 0.699382 0.0217288
0.895079 0.733074 0.124819
0.893614 0.761303 0.222385
0.891691 0.784009 0.335271
0.889387 0.802518 0.462394
0.886976 0.818524 0.576425
0.885054 0.831449 0.64979
0.884001 0.842649 0.70901
0.883726 0.852476 0.75227
0 0.573526 0
0 0.573785 0
0 0.574029 0
0 0.574212 0
0 0.57438 0
0 0.574533 0
0 0.574701 0
0 0.574853 0
0 0.57496 0
0 0.57499 0
0 0.574853 0
0.148791 0.586191 0
0.363348 0.587381 0
0.526436 0.585824 0
0.628473 0.584039 0
0.702434 0.584909 0
0.761547 0.588632 0.00857557
0.81062 0.594003 0.0191806
0.850507 0.60174 0.0265812
0.880476 0.613474 0.0310369
0.902296 0.62884 0.032578
0.900572 0.647028 0.0293736
0.898589 0.669459 0.0257115
0.896696 0.695033 0.0222324
0.895232 0.722286 0.0195163
0.894682 0.748592 0.107744
0.893568 0.771542 0.217807
0.891676 0.790509 0.33518
0.889479 0.80705 0.457191
0.886885 0.821515 0.573556
0.885084 0.833249 0.648554
0.884001 0.843778 0.708339
0.883726 0.853178 0.751919
0 0.642451 0
0 0.642573 0
0 0.64268 0
0 0.642771 0
0 0.642847 0
0 0.642908 0
0 0.642969 0
0 0.643015 0
0 0.64303 0
0 0.642985 0
0 0.642802 0
0 0.642374 0
0.270954 0.654108 0
0.48307 0.652445 0
0.609262 0.649882 0
0.690349 0.649241 0
0.753521 0.651362 0.00621042
0.803494 0.655024 0.014374
0.842618 0.660105 0.0196689
0.871138 0.667781 0.0226902
0.8934 0.678233 0.0239719
0.896956 0.691112 0.0227207
0.895964 0.707073 0.0208896
0.895109 0.725536 0.0192874
0.894621 0.745113 0.0184024
0.894514 0.764843 0.0865492
0.893568 0.782635 0.214023
0.891676 0.798077 0.335897
0.889448 0.812253 0.459129
0.887205 0.825208 0.570367
0.885115 0.835477 0.646922
0.884016 0.845228 0.707454
0.883726 0.854063 0.751461
0 0.708751 0
0 0.708812 0
0 0.708843 0
0 0.708888 0
0 0.708888 0
0 0.708904 0
0 0.708919 0
0 0.708888 0
0 0.708843 0
0 0.708721 0
0 0.708461 0
0 0.707988 0
0.0784772 0.712657 0.00662242
0.421363 0.715633 0.0139315
0.587182 0.711192 0.00810254
0.675807 0.707912 0.00497444
0.743481 0.707774 0.00788891
0.794629 0.709422 0.0129397
0.833829 0.711971 0.0162203
0.862226 0.71632 0.0180972
0.883879 0.722744 0.018967
0.894926 0.731167 0.018967
0.894682 0.741451 0.0185092
0.89453 0.753536 0.0182193
0.894469 0.766995 0.0181125
0.894499 0.78114 0.0587778
0.893584 0.794308 0.212268
0.89163 0.806592 0.338079
0.889372 0.818524 0.462165
0.887282 0.829206 0.566873
0.885176 0.838209 0.644816
0.884031 0.846998 0.706279
0.883726 0.855177 0.750851
0.0263066 0.769146 0.0263066
0.0263066 0.769146 0.0263066
0.0262913 0.769131 0.0262913
0.026276 0.769116 0.026276
0.026276 0.769085 0.026276
0.0262608 0.769055 0.0262608
0.0262303 0.769009 0.0262303
0.0261997 0.768933 0.0261997
0.0261234 0.768795 0.0261234
0.0260166 0.768597 0.0260166
0.0258335 0.768231 0.0258335
0.0255436 0.767666 0.0255436
0.0251011 0.766796 0.0251011
0.331395 0.772457 0.0372015
0.553857 0.764828 0.0252537
0.659312 0.758267 0.0157931
0.732448 0.755398 0.013489
0.784878 0.754986 0.015259
0.824247 0.755474 0.0168002
0.853697 0.756954 0.0174868
0.875837 0.759945 0.0179141
0.891951 0.764614 0.0180972
0.894469 0.770779 0.0181125
0.894484 0.778347 0.018143
0.894514 0.787106 0.0181888
0.89453 0.796841 0.0182345
0.893553 0.806577 0.213672
0.891524 0.815824 0.342763
0.889128 0.825208 0.466682
0.887205 0.833631 0.570062
0.885237 0.841443 0.642023
0.884047 0.849149 0.704723
0.883726 0.85655 0.750057
0.0490272 0.816052 0.0490272
0.0489967 0.816007 0.0489967
0.0489815 0.815946 0.0489815
0.0489509 0.815885 0.0489509
0.0489204 0.815824 0.0489204
0.0488899 0.815747 0.0488899
0.0488441 0.815656 0.0488441
0.0487831 0.815518 0.0487831
0.0486915 0.815305 0.0486915
0.0485695 0.815015 0.0485695
0.0483711 0.814572 0.0483711
0.0480812 0.813901 0.0480812
0.0476539 0.81297 0.0476539
0.227558 0.816663 0.0562142
0.521096 0.806348 0.0394141
0.64445 0.796887 0.0247349
0.722408 0.791623 0.0182498
0.775677 0.789731 0.0177615
0.814725 0.788968 0.018265
0.845518 0.788785 0.0182498
0.868513 0.789654 0.0182803
0.885222 0.791745 0.018265
0.89453 0.795041 0.0182345
0.894545 0.799603 0.0182345
0.89453 0.805356 0.0182345
0.894499 0.812207 0.0320592
0.8934 0.819257 0.220554
0.891142 0.825742 0.351049
0.889281 0.832334 0.474449
0.887098 0.838651 0.574487
0.885237 0.845136 0.641993
0.884077 0.851698 0.702708
0.883741 0.858228 0.749004
0.0615702 0.849775 0.0615702
0.0615396 0.849699 0.0615396
0.0615244 0.849607 0.0615244
0.0614939 0.849531 0.0614939
0.0614633 0.849439 0.0614633
0.0614328 0.849332 0.0614328
0.061387 0.84921 0.061387
0.0613413 0.849027 0.0613413
0.061265 0.848768 0.061265
0.0611582 0.848417 0.0611582
0.0610056 0.847898 0.0610056
0.0607767 0.847211 0.0607767
0.0604868 0.846265 0.0604868
0.17911 0.848066 0.0657054
0.508003 0.836133 0.0460365
0.637446 0.825193 0.0288243
0.716106 0.818753 0.0203403
0.768704 0.815793 0.0186923
0.806806 0.81445 0.0187381
0.837812 0.813504 0.0184939
0.861448 0.813321 0.0183566
0.87892 0.814069 0.0182345
0.892531 0.815747 0.0181277
0.894438 0.818753 0.0180667
0.894392 0.822416 0.0179751
0.894301 0.826932 0.0846265
0.892973 0.831144 0.235615
0.891218 0.835233 0.365988
0.889082 0.839475 0.48484
0.886946 0.844129 0.580591
0.885161 0.849165 0.645472
0.884092 0.854612 0.700908
0.883741 0.860227 0.747616
0.0681163 0.874479 0.0681163
0.0680858 0.874388 0.0680858
0.0680705 0.874281 0.0680705
0.06804 0.874174 0.06804
0.0680095 0.874067 0.0680095
0.0679942 0.87396 0.0679942
0.0679484 0.873793 0.0679484
0.0679026 0.873594 0.0679026
0.0678264 0.873304 0.0678264
0.0677348 0.872923 0.0677348
0.0676127 0.872419 0.0676127
0.0674449 0.871733 0.0674449
0.067216 0.870832 0.067216
0.254215 0.870741 0.0689097
0.523903 0.856947 0.0458076
0.641291 0.846021 0.0285344
0.714702 0.839612 0.0200504
0.76434 0.836759 0.0180209
0.800626 0.835233 0.0179141
0.830839 0.833982 0.0176699
0.854475 0.833265 0.0175631
0.872602 0.833188 0.0174868
0.886931 0.833738 0.0174563
0.894102 0.835019 0.0174411
0.894102 0.837049 0.0174411
0.894011 0.839643 0.131167
0.892927 0.842008 0.262882
0.890852 0.844068 0.386892
0.888808 0.846754 0.498848
0.886748 0.849851 0.587945
0.885039 0.853513 0.650172
0.884062 0.857771 0.703883
0.883741 0.862562 0.745785
0.0716869 0.891844 0.0716869
0.0716564 0.891722 0.0716564
0.0716411 0.8916 0.0716411
0.0716259 0.891493 0.0716259
0.0715953 0.891371 0.0715953
0.0715801 0.891249 0.0715801
0.0715496 0.891096 0.0715496
0.071519 0.890867 0.071519
0.071458 0.890593 0.071458
0.071397 0.890227 0.071397
0.0713054 0.889723 0.0713054
0.0711833 0.889067 0.0711833
0.0710307 0.888228 0.0710307
0.392294 0.881361 0.0601816
0.568734 0.869444 0.0404669
0.658274 0.860105 0.0260319
0.720439 0.854841 0.019379
0.764569 0.852293 0.0177005
0.797986 0.850797 0.0176242
0.826459 0.849531 0.0175631
0.849393 0.848554 0.0174411
0.867597 0.848066 0.0174563
0.882399 0.84802 0.0175021
0.893736 0.848508 0.0175784
0.894194 0.849561 0.0175937
0.893904 0.850919 0.185214
0.892317 0.851575 0.301717
0.890333 0.852399 0.414664
0.888426 0.853788 0.517388
0.886473 0.855558 0.596719
0.884901 0.857984 0.656443
0.884016 0.86125 0.707774
0.883741 0.865156 0.747509
0.0736095 0.904585 0.0736095
0.0735943 0.904463 0.0735943
0.073579 0.904356 0.073579
0.0735637 0.904234 0.0735637
0.0735485 0.904112 0.0735485
0.0735332 0.904005 0.0735332
0.0735027 0.903853 0.0735027
0.0734874 0.903639 0.0734874
0.0734417 0.903365 0.0734417
0.0733959 0.903014 0.0733959
0.0733349 0.902556 0.0733349
0.0732433 0.901946 0.0732433
0.366079 0.895811 0.0632639
0.525429 0.88571 0.0462959
0.618494 0.876814 0.0320287
0.682918 0.870359 0.0226139
0.731502 0.866651 0.0184787
0.768383 0.864668 0.0174716
0.798276 0.86334 0.0175174
0.824475 0.862165 0.0175784
0.84596 0.861189 0.0175326
0.863615 0.860563 0.0176547
0.878553 0.86038 0.0180972
0.890105 0.860349 0.0180972
0.894301 0.860548 0.136172
0.893141 0.860212 0.248447
0.891447 0.859846 0.35288
0.889693 0.859831 0.450935
0.887892 0.860197 0.540841
0.886122 0.86099 0.608911
0.884718 0.862531 0.664637
0.883955 0.864912 0.712825
0.883726 0.867964 0.750317
0.0746777 0.913863 0.0746777
0.0746624 0.913756 0.0746624
0.0746471 0.913649 0.0746471
0.0746471 0.913542 0.0746471
0.0746319 0.913436 0.0746319
0.0746166 0.913329 0.0746166
0.0746014 0.913176 0.0746014
0.0745861 0.912993 0.0745861
0.0745556 0.912734 0.0745556
0.256168 0.911284 0.0724346
0.375418 0.905531 0.0625315
0.476493 0.89926 0.0519112
0.558312 0.893095 0.0417639
0.618097 0.8869 0.0318914
0.668238 0.881743 0.0242161
0.710933 0.878126 0.0196536
0.746242 0.875883 0.0177768
0.775509 0.874479 0.0174258
0.801419 0.873365 0.0176089
0.824781 0.872328 0.0177768
0.844495 0.87155 0.0180972
0.861112 0.870771 0.0180972
0.875212 0.870192 0.0180972
0.886549 0.869749 0.123644
0.893446 0.868772 0.225864
0.892012 0.867613 0.320684
0.89041 0.866667 0.411017
0.888869 0.866148 0.495445
0.887236 0.865919 0.568841
0.885679 0.866102 0.624659
0.88452 0.866972 0.675135
0.883894 0.86862 0.719203
0.883726 0.870878 0.753948
0.401358 0.911955 0.0598154
0.4206 0.910735 0.0577401
0.438575 0.90959 0.0558022
0.455619 0.908522 0.0540017
0.471656 0.90753 0.0523232
0.486748 0.906554 0.0507057
0.504036 0.905348 0.0487068
0.524483 0.903822 0.0461738
0.548058 0.9019 0.0430304
0.574411 0.899596 0.0392767
0.599176 0.896925 0.0350042
0.625803 0.894011 0.0304265
0.654368 0.891051 0.0259709
0.683436 0.888334 0.0222171
0.711864 0.886076 0.019501
0.738476 0.884367 0.0180209
0.762783 0.883146 0.0175326
0.785611 0.88217 0.0176089
0.807294 0.881468 0.0182193
0.827207 0.880461 0.018204
0.844434 0.87953 0.0832837
0.859556 0.878599 0.133577
0.872389 0.877607 0.179004
0.882597 0.876402 0.243198
0.890532 0.874937 0.318791
0.890669 0.873533 0.396796
0.889311 0.872404 0.472404
0.887892 0.871489 0.541192
0.886458 0.870878 0.597009
0.885191 0.87071 0.643885
0.884291 0.871122 0.688197
0.883833 0.87219 0.727123
0.883726 0.873762 0.758556
0.636088 0.898375 0.217487
0.639963 0.897963 0.217136
0.643702 0.897581 0.216815
0.647349 0.897215 0.216526
0.650874 0.896864 0.216266
0.654429 0.896513 0.216037
0.658854 0.896086 0.215778
0.664424 0.895567 0.215503
0.671366 0.894926 0.215213
0.679881 0.894163 0.21503
0.690089 0.893309 0.215015
0.702022 0.892378 0.215351
0.715557 0.891402 0.216266
0.730632 0.8907 0.218448
0.746258 0.889769 0.221271
0.762509 0.888899 0.225498
0.7794 0.888045 0.231434
0.796521 0.88716 0.239399
0.813321 0.886198 0.249836
0.829557 0.885115 0.263233
0.844068 0.884047 0.28069
0.857343 0.882948 0.302892
0.868879 0.881849 0.330434
0.878584 0.880751 0.363867
0.886397 0.879469 0.413901
0.889296 0.878172 0.473304
0.88809 0.876921 0.532158
0.886839 0.875807 0.585077
0.885649 0.875013 0.626062
0.884703 0.874662 0.666026
0.884062 0.874815 0.703716
0.883772 0.875486 0.73666
0.883711 0.876554 0.764279
0.719463 0.891569 0.388342
0.720958 0.891508 0.388403
0.722408 0.891463 0.38851
0.723827 0.891417 0.388586
0.725216 0.891386 0.388678
0.72665 0.89134 0.388769
0.728435 0.891295 0.388907
0.730739 0.891234 0.38909
0.733669 0.891157 0.389364
0.737346 0.891081 0.389746
0.741909 0.89099 0.390265
0.747509 0.890898 0.391012
0.754299 0.890806 0.39205
0.762387 0.89073 0.39353
0.771771 0.890562 0.395544
0.782406 0.890043 0.398291
0.794064 0.889433 0.401938
0.806455 0.888747 0.406744
0.819364 0.887984 0.413001
0.832029 0.887083 0.421057
0.844282 0.886213 0.431601
0.855817 0.885298 0.445106
0.866102 0.884398 0.462654
0.875135 0.883482 0.484382
0.882811 0.882536 0.509346
0.887785 0.881407 0.546059
0.886793 0.880232 0.586404
0.885786 0.879164 0.620829
0.884901 0.878386 0.656184
0.88426 0.878019 0.689891
0.883879 0.878065 0.720699
0.883741 0.878492 0.747662
0.883726 0.879164 0.77113
0.763806 0.888212 0.526696
0.764523 0.888212 0.526787
0.765225 0.888197 0.526894
0.765927 0.888197 0.526986
0.766613 0.888197 0.527062
0.76733 0.888197 0.527169
0.768231 0.888197 0.527291
0.769421 0.888182 0.527459
0.770947 0.888182 0.527657
0.772915 0.888182 0.527962
0.775433 0.888167 0.528359
0.778622 0.888167 0.528847
0.782574 0.888167 0.529549
0.787411 0.888151 0.530465
0.79324 0.888151 0.531655
0.800076 0.888136 0.533227
0.807843 0.888106 0.535302
0.816358 0.888029 0.537987
0.826123 0.887892 0.541405
0.835904 0.887785 0.545983
0.845823 0.887404 0.551904
0.855421 0.886656 0.559442
0.864286 0.885893 0.568948
0.872404 0.8851 0.580697
0.879484 0.884321 0.592889
0.885328 0.883543 0.607187
0.885542 0.882658 0.630213
0.884871 0.881804 0.657588
0.884321 0.881193 0.686
0.883955 0.880888 0.713512
0.883772 0.880873 0.738033
0.883726 0.881102 0.759762
0.883726 0.881483 0.779049
0.793591 0.885924 0.618051
0.793973 0.885924 0.618097
0.794369 0.885924 0.618143
0.794751 0.885924 0.618189
0.795117 0.885924 0.618219
0.795514 0.885924 0.61828
0.796017 0.885924 0.618341
0.796674 0.885924 0.618418
0.797528 0.885908 0.61854
